P2
900 450
255
255 255 255 255 255 255 255 255 255 255 255 255 255 255 255 255 255 255 255 255 255 255 255 255 255 255 255 255 255 255 255 255 255 255 255 255 255 255 255 255 255 255 255 255 255 255 255 255 255 255 255 255 255 255 255 255 255 255 255 255 255 255 255 255 255 255 255 255 255 255 255 255 255 255 255 255 255 255 255 255 255 255 255 255 255 255 255 255 255 255 255 255 255 255 255 255 255 255 255 255 255 255 255 255 255 255 255 255 255 255 255 255 255 255 255 255 255 255 255 255 255 255 255 255 255 255 255 255 255 255 255 255 255 255 255 255 255 255 255 255 255 255 255 255 255 255 255 255 255 255 255 255 255 255 255 255 255 255 255 255 255 255 255 255 255 255 255 255 255 255 255 255 255 255 255 255 255 255 255 255 255 255 255 255 255 255 255 255 255 255 255 255 255 255 255 255 255 255 255 255 255 255 255 255 255 255 255 255 255 255 255 255 255 255 255 255 255 255 255 255 255 255 255 255 255 255 255 255 255 255 255 255 255 255 255 255 255 255 255 255 255 255 255 255 255 255 255 255 255 255 255 255 255 255 255 255 255 255 255 255 255 255 255 255 255 255 255 255 255 255 255 255 255 255 255 255 255 255 255 255 255 255 255 255 255 255 255 255 255 255 255 255 255 255 255 255 255 255 255 255 255 255 255 255 255 255 255 255 255 255 255 255 255 255 255 255 255 255 255 255 255 255 255 255 255 255 255 255 255 255 255 255 255 255 255 255 255 255 255 255 255 255 255 255 255 255 255 255 255 255 255 255 255 255 255 255 255 255 255 255 255 255 255 255 255 255 255 255 255 255 255 255 255 255 255 255 255 255 255 255 255 255 255 255 255 255 255 255 255 255 255 255 255 255 255 255 255 255 255 255 255 255 255 255 255 255 255 255 255 255 255 255 255 255 255 255 255 255 255 255 255 255 255 255 255 255 255 255 255 255 255 255 255 255 255 255 255 255 255 255 255 255 255 255 255 255 255 255 255 255 255 255 255 255 255 255 255 255 255 255 255 255 255 255 255 255 255 255 255 255 255 255 255 255 255 255 255 255 255 255 255 255 255 255 255 255 255 255 255 255 255 255 255 255 255 255 255 255 255 255 255 255 255 255 255 255 255 255 255 255 255 255 255 255 255 255 255 255 255 255 255 255 255 255 255 255 255 255 255 255 255 255 255 255 255 255 255 255 255 255 255 255 255 255 255 255 255 255 255 255 255 255 255 255 255 255 255 255 255 255 255 255 255 255 255 255 255 255 255 255 255 255 255 255 255 255 255 255 255 255 255 255 255 255 255 255 255 255 255 255 255 255 255 255 255 255 255 255 255 255 255 255 255 255 255 255 255 255 255 255 255 255 255 255 255 255 255 255 255 255 255 255 255 255 255 255 255 255 255 255 255 255 255 255 255 255 255 255 255 255 255 255 255 255 255 255 255 255 255 255 255 255 255 255 255 255 255 255 255 255 255 255 255 255 255 255 255 255 255 255 255 255 255 255 255 255 255 255 255 255 255 255 255 255 255 255 255 255 255 255 255 255 255 255 255 255 255 255 255 255 255 255 255 255 255 255 255 255 255 255 255 255 255 255 255 255 255 255 255 255 255 255 255 255 255 255 255 255 255 255 255 255 255 255 255 255 255 255 255 255 255 255 255 255 255 255 255 255 255 255 255 255 255 255 255 255 255 255 255 255 255 255 255 255 255 255 255 255 255 255 255 255 255 255 255 255 255 255 255 255 255 255 255 255 255 255 255 255 255 255 255 255 255 255 255 255 255 255 255 255 255 255 255 255 255 255 255 255 255 255 255 255 255 255 255 255 255 255 255 255 255 255 255 255 255 255 255 255 255 255 255 255 255 255 255 255 255 255 255 255 255 255 255 255 255 255 255 255 255 255 255 255 255 255 255 255 255 255 255 255 255 255 255 255 255 255 255 255 255 255 255 255 255 255 255 255 255 255 255 255 255 255 255 255 255 255 255 255 255 255 255 255 255 255 255 255 255 255 255 255
255 0 0 0 0 0 0 0 0 0 0 0 0 0 0 0 0 0 0 0 0 0 0 0 0 0 0 0 0 0 0 0 0 0 0 0 0 0 0 0 0 0 0 0 0 0 0 0 0 0 0 0 0 0 0 0 0 0 0 0 0 0 0 0 0 0 0 0 0 0 0 0 0 0 0 0 0 0 0 0 0 0 0 0 0 0 0 0 0 0 0 0 0 0 0 0 0 0 0 0 0 0 0 0 0 0 0 0 0 0 0 0 0 0 0 0 0 0 0 0 0 0 0 0 0 0 0 0 0 0 0 0 0 0 0 0 0 0 0 0 0 0 0 0 0 0 0 0 0 0 0 0 0 0 0 0 0 0 0 0 0 0 0 0 0 0 0 0 0 0 0 0 0 0 0 0 0 0 0 0 0 0 0 0 0 0 0 0 0 0 0 0 0 0 0 0 0 0 0 0 0 0 0 0 0 0 0 0 0 0 0 0 0 0 0 0 0 0 0 0 0 0 0 0 0 0 0 0 0 0 0 0 0 0 0 0 0 0 0 0 0 0 0 0 0 0 0 0 0 0 0 0 0 0 0 0 0 0 0 0 0 0 0 0 0 0 0 0 0 0 0 0 0 0 0 0 0 0 0 0 0 0 0 0 0 0 0 0 0 0 0 0 0 0 0 0 0 0 0 0 0 0 0 0 0 0 0 0 0 0 0 0 0 0 0 0 0 0 0 0 0 0 0 0 0 0 0 0 0 0 0 0 0 0 0 0 0 0 0 0 0 0 0 0 0 0 0 0 0 0 0 0 0 0 0 0 0 0 0 0 0 0 0 0 0 0 0 0 0 0 0 0 0 0 0 0 0 0 0 0 0 0 0 0 0 0 0 0 0 0 0 0 0 0 0 0 0 0 0 0 0 0 0 0 0 0 0 0 0 0 0 0 0 0 0 0 0 0 0 0 0 0 0 0 0 0 0 0 0 0 0 0 0 0 0 0 0 0 0 0 0 0 0 0 0 0 0 0 0 0 0 0 0 0 0 0 0 0 0 0 0 0 0 0 0 0 0 0 0 0 0 0 0 0 0 0 0 0 0 0 0 0 0 0 0 0 0 0 0 0 0 0 0 0 0 0 0 0 0 0 0 0 0 0 0 0 0 0 0 0 0 0 0 0 0 0 0 0 0 0 0 0 0 0 0 0 0 0 0 0 0 0 0 0 0 0 0 0 0 0 0 0 0 0 0 0 0 0 0 0 0 0 0 0 0 0 0 0 0 0 0 0 0 0 0 0 0 0 0 0 0 0 0 0 0 0 0 0 0 0 0 0 0 0 0 0 0 0 0 0 0 0 0 0 0 0 0 0 0 0 0 0 0 0 0 0 0 0 0 0 0 0 0 0 0 0 0 0 0 0 0 0 0 0 0 0 0 0 0 0 0 0 0 0 0 0 0 0 0 0 0 0 0 0 0 0 0 0 0 0 0 0 0 0 0 0 0 0 0 0 0 0 0 0 0 0 0 0 0 0 0 0 0 0 0 0 0 0 0 0 0 0 0 0 0 0 0 0 0 0 0 0 0 0 0 0 0 0 0 0 0 0 0 0 0 0 0 0 0 0 0 0 0 0 0 0 0 0 0 0 0 0 0 0 0 0 0 0 0 0 0 0 0 0 0 0 0 0 0 0 0 0 0 0 0 0 0 0 0 0 0 0 0 0 0 0 0 0 0 0 0 0 0 0 0 0 0 0 0 0 0 0 0 0 0 0 0 0 0 0 0 0 0 0 0 0 0 0 0 0 0 0 0 0 0 0 0 0 0 0 0 0 0 0 0 0 0 0 0 0 0 0 0 0 0 0 0 0 0 0 0 0 0 0 0 0 0 0 0 0 0 0 0 0 0 0 0 0 0 0 0 0 0 0 0 0 0 0 0 0 0 0 0 0 0 0 0 0 0 0 0 0 0 0 0 0 0 0 0 0 0 0 0 0 0 0 0 0 0 0 0 0 0 0 0 0 0 0 0 0 0 0 0 0 0 0 0 0 0 255
255 0 0 0 0 0 0 0 0 0 0 0 0 0 0 0 0 0 0 0 0 0 0 0 0 0 0 0 0 0 0 0 0 0 0 0 0 0 0 0 0 0 0 0 0 0 0 0 0 0 0 0 0 0 0 0 0 0 0 0 0 0 0 0 0 0 0 0 0 0 0 0 0 0 0 0 0 0 0 0 0 0 0 0 0 0 0 0 0 0 0 0 0 0 0 0 0 0 0 0 0 0 0 0 0 0 0 0 0 0 0 0 0 0 0 0 0 0 0 0 0 0 0 0 0 0 0 0 0 0 0 0 0 0 0 0 0 0 0 0 0 0 0 0 0 0 0 0 0 0 0 0 0 0 0 0 0 0 0 0 0 0 0 0 0 0 0 0 0 0 0 0 0 0 0 0 0 0 0 0 0 0 0 0 0 0 0 0 0 0 0 0 0 0 0 0 0 0 0 0 0 0 0 0 0 0 0 0 0 0 0 0 0 0 0 0 0 0 0 0 0 0 0 0 0 0 0 0 0 0 0 0 0 0 0 0 0 0 0 0 0 0 0 0 0 0 0 0 0 0 0 0 0 0 0 0 0 0 0 0 0 0 0 0 0 0 0 0 0 0 0 0 0 0 0 0 0 0 0 0 0 0 0 0 0 0 0 0 0 0 0 0 0 0 0 0 0 0 0 0 0 0 0 0 0 0 0 0 0 0 0 0 0 0 0 0 0 0 0 0 0 0 0 0 0 0 0 0 0 0 0 0 0 0 0 0 0 0 0 0 0 0 0 0 0 0 0 0 0 0 0 0 0 0 0 0 0 0 0 0 0 0 0 0 0 0 0 0 0 0 0 0 0 0 0 0 0 0 0 0 0 0 0 0 0 0 0 0 0 0 0 0 0 0 0 0 0 0 0 0 0 0 0 0 0 0 0 0 0 0 0 0 0 0 0 0 0 0 0 0 0 0 0 0 0 0 0 0 0 0 0 0 0 0 0 0 0 0 0 0 0 0 0 0 0 0 0 0 0 0 0 0 0 0 0 0 0 0 0 0 0 0 0 0 0 0 0 0 0 0 0 0 0 0 0 0 0 0 0 0 0 0 0 0 0 0 0 0 0 0 0 0 0 0 0 0 0 0 0 0 0 0 0 0 0 0 0 0 0 0 0 0 0 0 0 0 0 0 0 0 0 0 0 0 0 0 0 0 0 0 0 0 0 0 0 0 0 0 0 0 0 0 0 0 0 0 0 0 0 0 0 0 0 0 0 0 0 0 0 0 0 0 0 0 0 0 0 0 0 0 0 0 0 0 0 0 0 0 0 0 0 0 0 0 0 0 0 0 0 0 0 0 0 0 0 0 0 0 0 0 0 0 0 0 0 0 0 0 0 0 0 0 0 0 0 0 0 0 0 0 0 0 0 0 0 0 0 0 0 0 0 0 0 0 0 0 0 0 0 0 0 0 0 0 0 0 0 0 0 0 0 0 0 0 0 0 0 0 0 0 0 0 0 0 0 0 0 0 0 0 0 0 0 0 0 0 0 0 0 0 0 0 0 0 0 0 0 0 0 0 0 0 0 0 0 0 0 0 0 0 0 0 0 0 0 0 0 0 0 0 0 0 0 0 0 0 0 0 0 0 0 0 0 0 0 0 0 0 0 0 0 0 0 0 0 0 0 0 0 0 0 0 0 0 0 0 0 0 0 0 0 0 0 0 0 0 0 0 0 0 0 0 0 0 0 0 0 0 0 0 0 0 0 0 0 0 0 0 0 0 0 0 0 0 0 0 0 0 0 0 0 0 0 0 0 0 0 0 0 0 0 0 0 0 0 0 0 0 0 0 0 0 0 0 0 0 0 0 0 0 0 0 0 0 0 0 0 0 0 0 0 0 0 0 0 0 0 0 0 0 0 0 0 0 0 0 0 0 0 0 0 0 0 0 0 0 0 0 0 0 0 0 0 0 0 0 0 0 0 0 0 0 0 0 0 0 0 0 0 0 0 0 0 0 0 0 0 0 0 0 0 0 0 0 0 0 0 0 0 255
255 0 0 0 0 0 0 0 0 0 0 0 0 0 0 0 0 0 0 0 0 0 0 0 0 0 0 0 0 0 0 0 0 0 0 0 0 0 0 0 0 0 0 0 0 0 0 0 0 0 0 0 0 0 0 0 0 0 0 0 0 0 0 0 0 0 0 0 0 0 0 0 0 0 0 0 0 0 0 0 0 0 0 0 0 0 0 0 0 0 0 0 0 0 0 0 0 0 0 0 0 0 0 0 0 0 0 0 0 0 0 0 0 0 0 0 0 0 0 0 0 0 0 0 0 0 0 0 0 0 0 0 0 0 0 0 0 0 0 0 0 0 0 0 0 0 0 0 0 0 0 0 0 0 0 0 0 0 0 0 0 0 0 0 0 0 0 0 0 0 0 0 0 0 0 0 0 0 0 0 0 0 0 0 0 0 0 0 0 0 0 0 0 0 0 0 0 0 0 0 0 0 0 0 0 0 0 0 0 0 0 0 0 0 0 0 0 0 0 0 0 0 0 0 0 0 0 0 0 0 0 0 0 0 0 0 0 0 0 0 0 0 0 0 0 0 0 0 0 0 0 0 0 0 0 0 0 0 0 0 0 0 0 0 0 0 0 0 0 0 0 0 0 0 0 0 0 0 0 0 0 0 0 0 0 0 0 0 0 0 0 0 0 0 0 0 0 0 0 0 0 0 0 0 0 0 0 0 0 0 0 0 0 0 0 0 0 0 0 0 0 0 0 0 0 0 0 0 0 0 0 0 0 0 0 0 0 0 0 0 0 0 0 0 0 0 0 0 0 0 0 0 0 0 0 0 0 0 0 0 0 0 0 0 0 0 0 0 0 0 0 0 0 0 0 0 0 0 0 0 0 0 0 0 0 0 0 0 0 0 0 0 0 0 0 0 0 0 0 0 0 0 0 0 0 0 0 0 0 0 0 0 0 0 0 0 0 0 0 0 0 0 0 0 0 0 0 0 0 0 0 0 0 0 0 0 0 0 0 0 0 0 0 0 0 0 0 0 0 0 0 0 0 0 0 0 0 0 0 0 0 0 0 0 0 0 0 0 0 0 0 0 0 0 0 0 0 0 0 0 0 0 0 0 0 0 0 0 0 0 0 0 0 0 0 0 0 0 0 0 0 0 0 0 0 0 0 0 0 0 0 0 0 0 0 0 0 0 0 0 0 0 0 0 0 0 0 0 0 0 0 0 0 0 0 0 0 0 0 0 0 0 0 0 0 0 0 0 0 0 0 0 0 0 0 0 0 0 0 0 0 0 0 0 0 0 0 0 0 0 0 0 0 0 0 0 0 0 0 0 0 0 0 0 0 0 0 0 0 0 0 0 0 0 0 0 0 0 0 0 0 0 0 0 0 0 0 0 0 0 0 0 0 0 0 0 0 0 0 0 0 0 0 0 0 0 0 0 0 0 0 0 0 0 0 0 0 0 0 0 0 0 0 0 0 0 0 0 0 0 0 0 0 0 0 0 0 0 0 0 0 0 0 0 0 0 0 0 0 0 0 0 0 0 0 0 0 0 0 0 0 0 0 0 0 0 0 0 0 0 0 0 0 0 0 0 0 0 0 0 0 0 0 0 0 0 0 0 0 0 0 0 0 0 0 0 0 0 0 0 0 0 0 0 0 0 0 0 0 0 0 0 0 0 0 0 0 0 0 0 0 0 0 0 0 0 0 0 0 0 0 0 0 0 0 0 0 0 0 0 0 0 0 0 0 0 0 0 0 0 0 0 0 0 0 0 0 0 0 0 0 0 0 0 0 0 0 0 0 0 0 0 0 0 0 0 0 0 0 0 0 0 0 0 0 0 0 0 0 0 0 0 0 0 0 0 0 0 0 0 0 0 0 0 0 0 0 0 0 0 0 0 0 0 0 0 0 0 0 0 0 0 0 0 0 0 0 0 0 0 0 0 0 0 0 0 0 0 0 0 0 0 0 0 0 0 0 0 0 0 0 0 0 0 0 0 0 0 0 0 0 0 0 0 0 0 0 0 0 0 0 0 0 0 0 0 0 0 0 255
255 0 0 0 0 0 0 0 0 0 0 0 0 0 0 0 0 0 0 0 0 0 0 0 0 0 0 0 0 0 0 0 0 0 0 0 0 0 0 0 0 0 0 0 0 0 0 0 0 0 0 0 0 0 0 0 0 0 0 0 0 0 0 0 0 0 0 0 0 0 0 0 0 0 0 0 0 0 0 0 0 0 0 0 0 0 0 0 0 0 0 0 0 0 0 0 0 0 0 0 0 0 0 0 0 0 0 0 0 0 0 0 0 0 0 0 0 0 0 0 0 0 0 0 0 0 0 0 0 0 0 0 0 0 0 0 0 0 0 0 0 0 0 0 0 0 0 0 0 0 0 0 0 0 0 0 0 0 0 0 0 0 0 0 0 0 0 0 0 0 0 0 0 0 0 0 0 0 0 0 0 0 0 0 0 0 0 0 0 0 0 0 0 0 0 0 0 0 0 0 0 0 0 0 0 0 0 0 0 0 0 0 0 0 0 0 0 0 0 0 0 0 0 0 0 0 0 0 0 0 0 0 0 0 0 0 0 0 0 0 0 0 0 0 0 0 0 0 0 0 0 0 0 0 0 0 0 0 0 0 0 0 0 0 0 0 0 0 0 0 0 0 0 0 0 0 0 0 0 0 0 0 0 0 0 0 0 0 0 0 0 0 0 0 0 0 0 0 0 0 0 0 0 0 0 0 0 0 0 0 0 0 0 0 0 0 0 0 0 0 0 0 0 0 0 0 0 0 0 0 0 0 0 0 0 0 0 0 0 0 0 0 0 0 0 0 0 0 0 0 0 0 0 0 0 0 0 0 0 0 0 0 0 0 0 0 0 0 0 0 0 0 0 0 0 0 0 0 0 0 0 0 0 0 0 0 0 0 0 0 0 0 0 0 0 0 0 0 0 0 0 0 0 0 0 0 0 0 0 0 0 0 0 0 0 0 0 0 0 0 0 0 0 0 0 0 0 0 0 0 0 0 0 0 0 0 0 0 0 0 0 0 0 0 0 0 0 0 0 0 0 0 0 0 0 0 0 0 0 0 0 0 0 0 0 0 0 0 0 0 0 0 0 0 0 0 0 0 0 0 0 0 0 0 0 0 0 0 0 0 0 0 0 0 0 0 0 0 0 0 0 0 0 0 0 0 0 0 0 0 0 0 0 0 0 0 0 0 0 0 0 0 0 0 0 0 0 0 0 0 0 0 0 0 0 0 0 0 0 0 0 0 0 0 0 0 0 0 0 0 0 0 0 0 0 0 0 0 0 0 0 0 0 0 0 0 0 0 0 0 0 0 0 0 0 0 0 0 0 0 0 0 0 0 0 0 0 0 0 0 0 0 0 0 0 0 0 0 0 0 0 0 0 0 0 0 0 0 0 0 0 0 0 0 0 0 0 0 0 0 0 0 0 0 0 0 0 0 0 0 0 0 0 0 0 0 0 0 0 0 0 0 0 0 0 0 0 0 0 0 0 0 0 0 0 0 0 0 0 0 0 0 0 0 0 0 0 0 0 0 0 0 0 0 0 0 0 0 0 0 0 0 0 0 0 0 0 0 0 0 0 0 0 0 0 0 0 0 0 0 0 0 0 0 0 0 0 0 0 0 0 0 0 0 0 0 0 0 0 0 0 0 0 0 0 0 0 0 0 0 0 0 0 0 0 0 0 0 0 0 0 0 0 0 0 0 0 0 0 0 0 0 0 0 0 0 0 0 0 0 0 0 0 0 0 0 0 0 0 0 0 0 0 0 0 0 0 0 0 0 0 0 0 0 0 0 0 0 0 0 0 0 0 0 0 0 0 0 0 0 0 0 0 0 0 0 0 0 0 0 0 0 0 0 0 0 0 0 0 0 0 0 0 0 0 0 0 0 0 0 0 0 0 0 0 0 0 0 0 0 0 0 0 0 0 0 0 0 0 0 0 0 0 0 0 0 0 0 0 0 0 0 0 0 0 0 0 0 0 0 0 0 0 0 0 0 0 0 0 0 0 0 0 0 0 0 0 0 0 0 0 0 0 0 0 0 0 0 0 255
255 0 0 0 0 0 0 0 0 0 0 0 0 0 0 0 0 0 0 0 0 0 0 0 0 0 0 0 0 0 0 0 0 0 0 0 0 0 0 0 0 0 0 0 0 0 0 0 0 0 0 0 0 0 0 0 0 0 0 0 0 0 0 0 0 0 0 0 0 0 0 0 0 0 0 0 0 0 0 0 0 0 0 0 0 0 0 0 0 0 0 0 0 0 0 0 0 0 0 0 0 0 0 0 0 0 0 0 0 0 0 0 0 0 0 0 0 0 0 0 0 0 0 0 0 0 0 0 0 0 0 0 0 0 0 0 0 0 0 0 0 0 0 0 0 0 0 0 0 0 0 0 0 0 0 0 0 0 0 0 0 0 0 0 0 0 0 0 0 0 0 0 0 0 0 0 0 0 0 0 0 0 0 0 0 0 0 0 0 0 0 0 0 0 0 0 0 0 0 0 0 0 0 0 0 0 0 0 0 0 0 0 0 0 0 0 0 0 0 0 0 0 0 0 0 0 0 0 0 0 0 0 0 0 0 0 0 0 0 0 0 0 0 0 0 0 0 0 0 0 0 0 0 0 0 0 0 0 0 0 0 0 0 0 0 0 0 0 0 0 0 0 0 0 0 0 0 0 0 0 0 0 0 0 0 0 0 0 0 0 0 0 0 0 0 0 0 0 0 0 0 0 0 0 0 0 0 0 0 0 0 0 0 0 0 0 0 0 0 0 0 0 0 0 0 0 0 0 0 0 0 0 0 0 0 0 0 0 0 0 0 0 0 0 0 0 0 0 0 0 0 0 0 0 0 0 0 0 0 0 0 0 0 0 0 0 0 0 0 0 0 0 0 0 0 0 0 0 0 0 0 0 0 0 0 0 0 0 0 0 0 0 0 0 0 0 0 0 0 0 0 0 0 0 0 0 0 0 0 0 0 0 0 0 0 0 0 0 0 0 0 0 0 0 0 0 0 0 0 0 0 0 0 0 0 0 0 0 0 0 0 0 0 0 0 0 0 0 0 0 0 0 0 0 0 0 0 0 0 0 0 0 0 0 0 0 0 0 0 0 0 0 0 0 0 0 0 0 0 0 0 0 0 0 0 0 0 0 0 0 0 0 0 0 0 0 0 0 0 0 0 0 0 0 0 0 0 0 0 0 0 0 0 0 0 0 0 0 0 0 0 0 0 0 0 0 0 0 0 0 0 0 0 0 0 0 0 0 0 0 0 0 0 0 0 0 0 0 0 0 0 0 0 0 0 0 0 0 0 0 0 0 0 0 0 0 0 0 0 0 0 0 0 0 0 0 0 0 0 0 0 0 0 0 0 0 0 0 0 0 0 0 0 0 0 0 0 0 0 0 0 0 0 0 0 0 0 0 0 0 0 0 0 0 0 0 0 0 0 0 0 0 0 0 0 0 0 0 0 0 0 0 0 0 0 0 0 0 0 0 0 0 0 0 0 0 0 0 0 0 0 0 0 0 0 0 0 0 0 0 0 0 0 0 0 0 0 0 0 0 0 0 0 0 0 0 0 0 0 0 0 0 0 0 0 0 0 0 0 0 0 0 0 0 0 0 0 0 0 0 0 0 0 0 0 0 0 0 0 0 0 0 0 0 0 0 0 0 0 0 0 0 0 0 0 0 0 0 0 0 0 0 0 0 0 0 0 0 0 0 0 0 0 0 0 0 0 0 0 0 0 0 0 0 0 0 0 0 0 0 0 0 0 0 0 0 0 0 0 0 0 0 0 0 0 0 0 0 0 0 0 0 0 0 0 0 0 0 0 0 0 0 0 0 0 0 0 0 0 0 0 0 0 0 0 0 0 0 0 0 0 0 0 0 0 0 0 0 0 0 0 0 0 0 0 0 0 0 0 0 0 0 0 0 0 0 0 0 0 0 0 0 0 0 0 0 0 0 0 0 0 0 0 0 0 0 0 0 0 0 0 0 0 0 0 0 0 0 0 0 0 0 0 0 0 0 0 0 0 0 0 0 0 0 0 0 0 0 0 0 0 0 0 0 0 0 0 0 0 255
255 0 0 0 0 0 0 0 0 0 0 0 0 0 0 0 0 0 0 0 0 0 0 0 0 0 0 0 0 0 0 0 0 0 0 0 0 0 0 0 0 0 0 0 0 0 0 0 0 0 0 0 0 0 0 0 0 0 0 0 0 0 0 0 0 0 0 0 0 0 0 0 0 0 0 0 0 0 0 0 0 0 0 0 0 0 0 0 0 0 0 0 0 0 0 0 0 0 0 0 0 0 0 0 0 0 0 0 0 0 0 0 0 0 0 0 0 0 0 0 0 0 0 0 0 0 0 0 0 0 0 0 0 0 0 0 0 0 0 0 0 0 0 0 0 0 0 0 0 0 0 0 0 0 0 0 0 0 0 0 0 0 0 0 0 0 0 0 0 0 0 0 0 0 0 0 0 0 0 0 0 0 0 0 0 0 0 0 0 0 0 0 0 0 0 0 0 0 0 0 0 0 0 0 0 0 0 0 0 0 0 0 0 0 0 0 0 0 0 0 0 0 0 0 0 0 0 0 0 0 0 0 0 0 0 0 0 0 0 0 0 0 0 0 0 0 0 0 0 0 0 0 0 0 0 0 0 0 0 0 0 0 0 0 0 0 0 0 0 0 0 0 0 0 0 0 0 0 0 0 0 0 0 0 0 0 0 0 0 0 0 0 0 0 0 0 0 0 0 0 0 0 0 0 0 0 0 0 0 0 0 0 0 0 0 0 0 0 0 0 0 0 0 0 0 0 0 0 0 0 0 0 0 0 0 0 0 0 0 0 0 0 0 0 0 0 0 0 0 0 0 0 0 0 0 0 0 0 0 0 0 0 0 0 0 0 0 0 0 0 0 0 0 0 0 0 0 0 0 0 0 0 0 0 0 0 0 0 0 0 0 0 0 0 0 0 0 0 0 0 0 0 0 0 0 0 0 0 0 0 0 0 0 0 0 0 0 0 0 0 0 0 0 0 0 0 0 0 0 0 0 0 0 0 0 0 0 0 0 0 0 0 0 0 0 0 0 0 0 0 0 0 0 0 0 0 0 0 0 0 0 0 0 0 0 0 0 0 0 0 0 0 0 0 0 0 0 0 0 0 0 0 0 0 0 0 0 0 0 0 0 0 0 0 0 0 0 0 0 0 0 0 0 0 0 0 0 0 0 0 0 0 0 0 0 0 0 0 0 0 0 0 0 0 0 0 0 0 0 0 0 0 0 0 0 0 0 0 0 0 0 0 0 0 0 0 0 0 0 0 0 0 0 0 0 0 0 0 0 0 0 0 0 0 0 0 0 0 0 0 0 0 0 0 0 0 0 0 0 0 0 0 0 0 0 0 0 0 0 0 0 0 0 0 0 0 0 0 0 0 0 0 0 0 0 0 0 0 0 0 0 0 0 0 0 0 0 0 0 0 0 0 0 0 0 0 0 0 0 0 0 0 0 0 0 0 0 0 0 0 0 0 0 0 0 0 0 0 0 0 0 0 0 0 0 0 0 0 0 0 0 0 0 0 0 0 0 0 0 0 0 0 0 0 0 0 0 0 0 0 0 0 0 0 0 0 0 0 0 0 0 0 0 0 0 0 0 0 0 0 0 0 0 0 0 0 0 0 0 0 0 0 0 0 0 0 0 0 0 0 0 0 0 0 0 0 0 0 0 0 0 0 0 0 0 0 0 0 0 0 0 0 0 0 0 0 0 0 0 0 0 0 0 0 0 0 0 0 0 0 0 0 0 0 0 0 0 0 0 0 0 0 0 0 0 0 0 0 0 0 0 0 0 0 0 0 0 0 0 0 0 0 0 0 0 0 0 0 0 0 0 0 0 0 0 0 0 0 0 0 0 0 0 0 0 0 0 0 0 0 0 0 0 0 0 0 0 0 0 0 0 0 0 0 0 0 0 0 0 0 0 0 0 0 0 0 0 0 0 0 0 0 0 0 0 0 0 0 0 0 0 0 0 0 0 0 0 0 0 0 0 0 0 0 0 0 0 0 0 0 0 0 0 0 0 0 0 0 0 0 0 0 0 0 0 0 0 0 0 255
255 0 0 0 0 0 0 0 0 0 0 0 0 0 0 0 0 0 0 0 0 0 0 0 0 0 0 0 0 0 0 0 0 0 0 0 0 0 0 0 0 0 0 0 0 0 0 0 0 0 0 0 0 0 0 0 0 0 0 0 0 0 0 0 0 0 0 0 0 0 0 0 0 0 0 0 0 0 0 0 0 0 0 0 0 0 0 0 0 0 0 0 0 0 0 0 0 0 0 0 0 0 0 0 0 0 0 0 0 0 0 0 0 0 0 0 0 0 0 0 0 0 0 0 0 0 0 0 0 0 0 0 0 0 0 0 0 0 0 0 0 0 0 0 0 0 0 0 0 0 0 0 0 0 0 0 0 0 0 0 0 0 0 0 0 0 0 0 0 0 0 0 0 0 0 0 0 0 0 0 0 0 0 0 0 0 0 0 0 0 0 0 0 0 0 0 0 0 0 0 0 0 0 0 0 0 0 0 0 0 0 0 0 0 0 0 0 0 0 0 0 0 0 0 0 0 0 0 0 0 0 0 0 0 0 0 0 0 0 0 0 0 0 0 0 0 0 0 0 0 0 0 0 0 0 0 0 0 0 0 0 0 0 0 0 0 0 0 0 0 0 0 0 0 0 0 0 0 0 0 0 0 0 0 0 0 0 0 0 0 0 0 0 0 0 0 0 0 0 0 0 0 0 0 0 0 0 0 0 0 0 0 0 0 0 0 0 0 0 0 0 0 0 0 0 0 0 0 0 0 0 0 0 0 0 0 0 0 0 0 0 0 0 0 0 0 0 0 0 0 0 0 0 0 0 0 0 0 0 0 0 0 0 0 0 0 0 0 0 0 0 0 0 0 0 0 0 0 0 0 0 0 0 0 0 0 0 0 0 0 0 0 0 0 0 0 0 0 0 0 0 0 0 0 0 0 0 0 0 0 0 0 0 0 0 0 0 0 0 0 0 0 0 0 0 0 0 0 0 0 0 0 0 0 0 0 0 0 0 0 0 0 0 0 0 0 0 0 0 0 0 0 0 0 0 0 0 0 0 0 0 0 0 0 0 0 0 0 0 0 0 0 0 0 0 0 0 0 0 0 0 0 0 0 0 0 0 0 0 0 0 0 0 0 0 0 0 0 0 0 0 0 0 0 0 0 0 0 0 0 0 0 0 0 0 0 0 0 0 0 0 0 0 0 0 0 0 0 0 0 0 0 0 0 0 0 0 0 0 0 0 0 0 0 0 0 0 0 0 0 0 0 0 0 0 0 0 0 0 0 0 0 0 0 0 0 0 0 0 0 0 0 0 0 0 0 0 0 0 0 0 0 0 0 0 0 0 0 0 0 0 0 0 0 0 0 0 0 0 0 0 0 0 0 0 0 0 0 0 0 0 0 0 0 0 0 0 0 0 0 0 0 0 0 0 0 0 0 0 0 0 0 0 0 0 0 0 0 0 0 0 0 0 0 0 0 0 0 0 0 0 0 0 0 0 0 0 0 0 0 0 0 0 0 0 0 0 0 0 0 0 0 0 0 0 0 0 0 0 0 0 0 0 0 0 0 0 0 0 0 0 0 0 0 0 0 0 0 0 0 0 0 0 0 0 0 0 0 0 0 0 0 0 0 0 0 0 0 0 0 0 0 0 0 0 0 0 0 0 0 0 0 0 0 0 0 0 0 0 0 0 0 0 0 0 0 0 0 0 0 0 0 0 0 0 0 0 0 0 0 0 0 0 0 0 0 0 0 0 0 0 0 0 0 0 0 0 0 0 0 0 0 0 0 0 0 0 0 0 0 0 0 0 0 0 0 0 0 0 0 0 0 0 0 0 0 0 0 0 0 0 0 0 0 0 0 0 0 0 0 0 0 0 0 0 0 0 0 0 0 0 0 0 0 0 0 0 0 0 0 0 0 0 0 0 0 0 0 0 0 0 0 0 0 0 0 0 0 0 0 0 0 0 0 0 0 0 0 0 0 0 0 0 0 0 0 0 0 0 0 0 0 0 0 0 0 0 0 0 0 0 0 0 0 0 0 0 0 0 255
255 0 0 0 0 0 0 0 0 0 0 0 0 0 0 0 0 0 0 0 0 0 0 0 0 0 0 0 0 0 0 0 0 0 0 0 0 0 0 0 0 0 0 0 0 0 0 0 0 0 0 0 0 0 0 0 0 0 0 0 0 0 0 0 0 0 0 0 0 0 0 0 0 0 0 0 0 0 0 0 0 0 0 0 0 0 0 0 0 0 0 0 0 0 0 0 0 0 0 0 0 0 0 0 0 0 0 0 0 0 0 0 0 0 0 0 0 0 0 0 0 0 0 0 0 0 0 0 0 0 0 0 0 0 0 0 0 0 0 0 0 0 0 0 0 0 0 0 0 0 0 0 0 0 0 0 0 0 0 0 0 0 0 0 0 0 0 0 0 0 0 0 0 0 0 0 0 0 0 0 0 0 0 0 0 0 0 0 0 0 0 0 0 0 0 0 0 0 0 0 0 0 0 0 0 0 0 0 0 0 0 0 0 0 0 0 0 0 0 0 0 0 0 0 0 0 0 0 0 0 0 0 0 0 0 0 0 0 0 0 0 0 0 0 0 0 0 0 0 0 0 0 0 0 0 0 0 0 0 0 0 0 0 0 0 0 0 0 0 0 0 0 0 0 0 0 0 0 0 0 0 0 0 0 0 0 0 0 0 0 0 0 0 0 0 0 0 0 0 0 0 0 0 0 0 0 0 0 0 0 0 0 0 0 0 0 0 0 0 0 0 0 0 0 0 0 0 0 0 0 0 0 0 0 0 0 0 0 0 0 0 0 0 0 0 0 0 0 0 0 0 0 0 0 0 0 0 0 0 0 0 0 0 0 0 0 0 0 0 0 0 0 0 0 0 0 0 0 0 0 0 0 0 0 0 0 0 0 0 0 0 0 0 0 0 0 0 0 0 0 0 0 0 0 0 0 0 0 0 0 0 0 0 0 0 0 0 0 0 0 0 0 0 0 0 0 0 0 0 0 0 0 0 0 0 0 0 0 0 0 0 0 0 0 0 0 0 0 0 0 0 0 0 0 0 0 0 0 0 0 0 0 0 0 0 0 0 0 0 0 0 0 0 0 0 0 0 0 0 0 0 0 0 0 0 0 0 0 0 0 0 0 0 0 0 0 0 0 0 0 0 0 0 0 0 0 0 0 0 0 0 0 0 0 0 0 0 0 0 0 0 0 0 0 0 0 0 0 0 0 0 0 0 0 0 0 0 0 0 0 0 0 0 0 0 0 0 0 0 0 0 0 0 0 0 0 0 0 0 0 0 0 0 0 0 0 0 0 0 0 0 0 0 0 0 0 0 0 0 0 0 0 0 0 0 0 0 0 0 0 0 0 0 0 0 0 0 0 0 0 0 0 0 0 0 0 0 0 0 0 0 0 0 0 0 0 0 0 0 0 0 0 0 0 0 0 0 0 0 0 0 0 0 0 0 0 0 0 0 0 0 0 0 0 0 0 0 0 0 0 0 0 0 0 0 0 0 0 0 0 0 0 0 0 0 0 0 0 0 0 0 0 0 0 0 0 0 0 0 0 0 0 0 0 0 0 0 0 0 0 0 0 0 0 0 0 0 0 0 0 0 0 0 0 0 0 0 0 0 0 0 0 0 0 0 0 0 0 0 0 0 0 0 0 0 0 0 0 0 0 0 0 0 0 0 0 0 0 0 0 0 0 0 0 0 0 0 0 0 0 0 0 0 0 0 0 0 0 0 0 0 0 0 0 0 0 0 0 0 0 0 0 0 0 0 0 0 0 0 0 0 0 0 0 0 0 0 0 0 0 0 0 0 0 0 0 0 0 0 0 0 0 0 0 0 0 0 0 0 0 0 0 0 0 0 0 0 0 0 0 0 0 0 0 0 0 0 0 0 0 0 0 0 0 0 0 0 0 0 0 0 0 0 0 0 0 0 0 0 0 0 0 0 0 0 0 0 0 0 0 0 0 0 0 0 0 0 0 0 0 0 0 0 0 0 0 0 0 0 0 0 0 0 0 0 0 0 0 0 0 0 0 0 0 0 0 0 0 0 255
255 0 0 0 0 0 0 0 0 0 0 0 0 0 0 0 0 0 0 0 0 0 0 0 0 0 0 0 0 0 0 0 0 0 0 0 0 0 0 0 0 0 0 0 0 0 0 0 0 0 0 0 0 0 0 0 0 0 0 0 0 0 0 0 0 0 0 0 0 0 0 0 0 0 0 0 0 0 0 0 0 0 0 0 0 0 0 0 0 0 0 0 0 0 0 0 0 0 0 0 0 0 0 0 0 0 0 0 0 0 0 0 0 0 0 0 0 0 0 0 0 0 0 0 0 0 0 0 0 0 0 0 0 0 0 0 0 0 0 0 0 0 0 0 0 0 0 0 0 0 0 0 0 0 0 0 0 0 0 0 0 0 0 0 0 0 0 0 0 0 0 0 0 0 0 0 0 0 0 0 0 0 0 0 0 0 0 0 0 0 0 0 0 0 0 0 0 0 0 0 0 0 0 0 0 0 0 0 0 0 0 0 0 0 0 0 0 0 0 0 0 0 0 0 0 0 0 0 0 0 0 0 0 0 0 0 0 0 0 0 0 0 0 0 0 0 0 0 0 0 0 0 0 0 0 0 0 0 0 0 0 0 0 0 0 0 0 0 0 0 0 0 0 0 0 0 0 0 0 0 0 0 0 0 0 0 0 0 0 0 0 0 0 0 0 0 0 0 0 0 0 0 0 0 0 0 0 0 0 0 0 0 0 0 0 0 0 0 0 0 0 0 0 0 0 0 0 0 0 0 0 0 0 0 0 0 0 0 0 0 0 0 0 0 0 0 0 0 0 0 0 0 0 0 0 0 0 0 0 0 0 0 0 0 0 0 0 0 0 0 0 0 0 0 0 0 0 0 0 0 0 0 0 0 0 0 0 0 0 0 0 0 0 0 0 0 0 0 0 0 0 0 0 0 0 0 0 0 0 0 0 0 0 0 0 0 0 0 0 0 0 0 0 0 0 0 0 0 0 0 0 0 0 0 0 0 0 0 0 0 0 0 0 0 0 0 0 0 0 0 0 0 0 0 0 0 0 0 0 0 0 0 0 0 0 0 0 0 0 0 0 0 0 0 0 0 0 0 0 0 0 0 0 0 0 0 0 0 0 0 0 0 0 0 0 0 0 0 0 0 0 0 0 0 0 0 0 0 0 0 0 0 0 0 0 0 0 0 0 0 0 0 0 0 0 0 0 0 0 0 0 0 0 0 0 0 0 0 0 0 0 0 0 0 0 0 0 0 0 0 0 0 0 0 0 0 0 0 0 0 0 0 0 0 0 0 0 0 0 0 0 0 0 0 0 0 0 0 0 0 0 0 0 0 0 0 0 0 0 0 0 0 0 0 0 0 0 0 0 0 0 0 0 0 0 0 0 0 0 0 0 0 0 0 0 0 0 0 0 0 0 0 0 0 0 0 0 0 0 0 0 0 0 0 0 0 0 0 0 0 0 0 0 0 0 0 0 0 0 0 0 0 0 0 0 0 0 0 0 0 0 0 0 0 0 0 0 0 0 0 0 0 0 0 0 0 0 0 0 0 0 0 0 0 0 0 0 0 0 0 0 0 0 0 0 0 0 0 0 0 0 0 0 0 0 0 0 0 0 0 0 0 0 0 0 0 0 0 0 0 0 0 0 0 0 0 0 0 0 0 0 0 0 0 0 0 0 0 0 0 0 0 0 0 0 0 0 0 0 0 0 0 0 0 0 0 0 0 0 0 0 0 0 0 0 0 0 0 0 0 0 0 0 0 0 0 0 0 0 0 0 0 0 0 0 0 0 0 0 0 0 0 0 0 0 0 0 0 0 0 0 0 0 0 0 0 0 0 0 0 0 0 0 0 0 0 0 0 0 0 0 0 0 0 0 0 0 0 0 0 0 0 0 0 0 0 0 0 0 0 0 0 0 0 0 0 0 0 0 0 0 0 0 0 0 0 0 0 0 0 0 0 0 0 0 0 0 0 0 0 0 0 0 0 0 0 0 0 0 0 0 0 0 0 0 0 0 0 0 0 0 0 0 0 0 0 0 0 0 255
255 0 0 0 0 0 0 0 0 0 0 0 0 0 0 0 0 0 0 0 0 0 0 0 0 0 0 0 0 0 0 0 0 0 0 0 0 0 0 0 0 0 0 0 0 0 0 0 0 0 0 0 0 0 0 0 0 0 0 0 0 0 0 0 0 0 0 0 0 0 0 0 0 0 0 0 0 0 0 0 0 0 0 0 0 0 0 0 0 0 0 0 0 0 0 0 0 0 0 0 0 0 0 0 0 0 0 0 0 0 0 0 0 0 0 0 0 0 0 0 0 0 0 0 0 0 0 0 0 0 0 0 0 0 0 0 0 0 0 0 0 0 0 0 0 0 0 0 0 0 0 0 0 0 0 0 0 0 0 0 0 0 0 0 0 0 0 0 0 0 0 0 0 0 0 0 0 0 0 0 0 0 0 0 0 0 0 0 0 0 0 0 0 0 0 0 0 0 0 0 0 0 0 0 0 0 0 0 0 0 0 0 0 0 0 0 0 0 0 0 0 0 0 0 0 0 0 0 0 0 0 0 0 0 0 0 0 0 0 0 0 0 0 0 0 0 0 0 0 0 0 0 0 0 0 0 0 0 0 0 0 0 0 0 0 0 0 0 0 0 0 0 0 0 0 0 0 0 0 0 0 0 0 0 0 0 0 0 0 0 0 0 0 0 0 0 0 0 0 0 0 0 0 0 0 0 0 0 0 0 0 0 0 0 0 0 0 0 0 0 0 0 0 0 0 0 0 0 0 0 0 0 0 0 0 0 0 0 0 0 0 0 0 0 0 0 0 0 0 0 0 0 0 0 0 0 0 0 0 0 0 0 0 0 0 0 0 0 0 0 0 0 0 0 0 0 0 0 0 0 0 0 0 0 0 0 0 0 0 0 0 0 0 0 0 0 0 0 0 0 0 0 0 0 0 0 0 0 0 0 0 0 0 0 0 0 0 0 0 0 0 0 0 0 0 0 0 0 0 0 0 0 0 0 0 0 0 0 0 0 0 0 0 0 0 0 0 0 0 0 0 0 0 0 0 0 0 0 0 0 0 0 0 0 0 0 0 0 0 0 0 0 0 0 0 0 0 0 0 0 0 0 0 0 0 0 0 0 0 0 0 0 0 0 0 0 0 0 0 0 0 0 0 0 0 0 0 0 0 0 0 0 0 0 0 0 0 0 0 0 0 0 0 0 0 0 0 0 0 0 0 0 0 0 0 0 0 0 0 0 0 0 0 0 0 0 0 0 0 0 0 0 0 0 0 0 0 0 0 0 0 0 0 0 0 0 0 0 0 0 0 0 0 0 0 0 0 0 0 0 0 0 0 0 0 0 0 0 0 0 0 0 0 0 0 0 0 0 0 0 0 0 0 0 0 0 0 0 0 0 0 0 0 0 0 0 0 0 0 0 0 0 0 0 0 0 0 0 0 0 0 0 0 0 0 0 0 0 0 0 0 0 0 0 0 0 0 0 0 0 0 0 0 0 0 0 0 0 0 0 0 0 0 0 0 0 0 0 0 0 0 0 0 0 0 0 0 0 0 0 0 0 0 0 0 0 0 0 0 0 0 0 0 0 0 0 0 0 0 0 0 0 0 0 0 0 0 0 0 0 0 0 0 0 0 0 0 0 0 0 0 0 0 0 0 0 0 0 0 0 0 0 0 0 0 0 0 0 0 0 0 0 0 0 0 0 0 0 0 0 0 0 0 0 0 0 0 0 0 0 0 0 0 0 0 0 0 0 0 0 0 0 0 0 0 0 0 0 0 0 0 0 0 0 0 0 0 0 0 0 0 0 0 0 0 0 0 0 0 0 0 0 0 0 0 0 0 0 0 0 0 0 0 0 0 0 0 0 0 0 0 0 0 0 0 0 0 0 0 0 0 0 0 0 0 0 0 0 0 0 0 0 0 0 0 0 0 0 0 0 0 0 0 0 0 0 0 0 0 0 0 0 0 0 0 0 0 0 0 0 0 0 0 0 0 0 0 0 0 0 0 0 0 0 0 0 0 0 0 0 0 0 0 0 0 0 0 0 0 255
255 0 0 0 0 0 0 0 0 0 0 0 0 0 0 0 0 0 0 0 0 0 0 0 0 0 0 0 0 0 0 0 0 0 0 0 0 0 0 0 0 0 0 0 0 0 0 0 0 0 0 0 0 0 0 0 0 0 0 0 0 0 0 0 0 0 0 0 0 0 0 0 0 0 0 0 0 0 0 0 0 0 0 0 0 0 0 0 0 0 0 0 0 0 0 0 0 0 0 0 0 0 0 0 0 0 0 0 0 0 0 0 0 0 0 0 0 0 0 0 0 0 0 0 0 0 0 0 0 0 0 0 0 0 0 0 0 0 0 0 0 0 0 0 0 0 0 0 0 0 0 0 0 0 0 0 0 0 0 0 0 0 0 0 0 0 0 0 0 0 0 0 0 0 0 0 0 0 0 0 0 0 0 0 0 0 0 0 0 0 0 0 0 0 0 0 0 0 0 0 0 0 0 0 0 0 0 0 0 0 0 0 0 0 0 0 0 0 0 0 0 0 0 0 0 0 0 0 0 0 0 0 0 0 0 0 0 0 0 0 0 0 0 0 0 0 0 0 0 0 0 0 0 0 0 0 0 0 0 0 0 0 0 0 0 0 0 0 0 0 0 0 0 0 0 0 0 0 0 0 0 0 0 0 0 0 0 0 0 0 0 0 0 0 0 0 0 0 0 0 0 0 0 0 0 0 0 0 0 0 0 0 0 0 0 0 0 0 0 0 0 0 0 0 0 0 0 0 0 0 0 0 0 0 0 0 0 0 0 0 0 0 0 0 0 0 0 0 0 0 0 0 0 0 0 0 0 0 0 0 0 0 0 0 0 0 0 0 0 0 0 0 0 0 0 0 0 0 0 0 0 0 0 0 0 0 0 0 0 0 0 0 0 0 0 0 0 0 0 0 0 0 0 0 0 0 0 0 0 0 0 0 0 0 0 0 0 0 0 0 0 0 0 0 0 0 0 0 0 0 0 0 0 0 0 0 0 0 0 0 0 0 0 0 0 0 0 0 0 0 0 0 0 0 0 0 0 0 0 0 0 0 0 0 0 0 0 0 0 0 0 0 0 0 0 0 0 0 0 0 0 0 0 0 0 0 0 0 0 0 0 0 0 0 0 0 0 0 0 0 0 0 0 0 0 0 0 0 0 0 0 0 0 0 0 0 0 0 0 0 0 0 0 0 0 0 0 0 0 0 0 0 0 0 0 0 0 0 0 0 0 0 0 0 0 0 0 0 0 0 0 0 0 0 0 0 0 0 0 0 0 0 0 0 0 0 0 0 0 0 0 0 0 0 0 0 0 0 0 0 0 0 0 0 0 0 0 0 0 0 0 0 0 0 0 0 0 0 0 0 0 0 0 0 0 0 0 0 0 0 0 0 0 0 0 0 0 0 0 0 0 0 0 0 0 0 0 0 0 0 0 0 0 0 0 0 0 0 0 0 0 0 0 0 0 0 0 0 0 0 0 0 0 0 0 0 0 0 0 0 0 0 0 0 0 0 0 0 0 0 0 0 0 0 0 0 0 0 0 0 0 0 0 0 0 0 0 0 0 0 0 0 0 0 0 0 0 0 0 0 0 0 0 0 0 0 0 0 0 0 0 0 0 0 0 0 0 0 0 0 0 0 0 0 0 0 0 0 0 0 0 0 0 0 0 0 0 0 0 0 0 0 0 0 0 0 0 0 0 0 0 0 0 0 0 0 0 0 0 0 0 0 0 0 0 0 0 0 0 0 0 0 0 0 0 0 0 0 0 0 0 0 0 0 0 0 0 0 0 0 0 0 0 0 0 0 0 0 0 0 0 0 0 0 0 0 0 0 0 0 0 0 0 0 0 0 0 0 0 0 0 0 0 0 0 0 0 0 0 0 0 0 0 0 0 0 0 0 0 0 0 0 0 0 0 0 0 0 0 0 0 0 0 0 0 0 0 0 0 0 0 0 0 0 0 0 0 0 0 0 0 0 0 0 0 0 0 0 0 0 0 0 0 0 0 0 0 0 0 0 0 0 0 0 0 0 0 0 0 255
255 0 0 0 0 0 0 0 0 0 0 0 0 0 0 0 0 0 0 0 0 0 0 0 0 0 0 0 0 0 0 0 0 0 0 0 0 0 0 0 0 0 0 0 0 0 0 0 0 0 0 0 0 0 0 0 0 0 0 0 0 0 0 0 0 0 0 0 0 0 0 0 0 0 0 0 0 0 0 0 0 0 0 0 0 0 0 0 0 0 0 0 0 0 0 0 0 0 0 0 0 0 0 0 0 0 0 0 0 0 0 0 0 0 0 0 0 0 0 0 0 0 0 0 0 0 0 0 0 0 0 0 0 0 0 0 0 0 0 0 0 0 0 0 0 0 0 0 0 0 0 0 0 0 0 0 0 0 0 0 0 0 0 0 0 0 0 0 0 0 0 0 0 0 0 0 0 0 0 0 0 0 0 0 0 0 0 0 0 0 0 0 0 0 0 0 0 0 0 0 0 0 0 0 0 0 0 0 0 0 0 0 0 0 0 0 0 0 0 0 0 0 0 0 0 0 0 0 0 0 0 0 0 0 0 0 0 0 0 0 0 0 0 0 0 0 0 0 0 0 0 0 0 0 0 0 0 0 0 0 0 0 0 0 0 0 0 0 0 0 0 0 0 0 0 0 0 0 0 0 0 0 0 0 0 0 0 0 0 0 0 0 0 0 0 0 0 0 0 0 0 0 0 0 0 0 0 0 0 0 0 0 0 0 0 0 0 0 0 0 0 0 0 0 0 0 0 0 0 0 0 0 0 0 0 0 0 0 0 0 0 0 0 0 0 0 0 0 0 0 0 0 0 0 0 0 0 0 0 0 0 0 0 0 0 0 0 0 0 0 0 0 0 0 0 0 0 0 0 0 0 0 0 0 0 0 0 0 0 0 0 0 0 0 0 0 0 0 0 0 0 0 0 0 0 0 0 0 0 0 0 0 0 0 0 0 0 0 0 0 0 0 0 0 0 0 0 0 0 0 0 0 0 0 0 0 0 0 0 0 0 0 0 0 0 0 0 0 0 0 0 0 0 0 0 0 0 0 0 0 0 0 0 0 0 0 0 0 0 0 0 0 0 0 0 0 0 0 0 0 0 0 0 0 0 0 0 0 0 0 0 0 0 0 0 0 0 0 0 0 0 0 0 0 0 0 0 0 0 0 0 0 0 0 0 0 0 0 0 0 0 0 0 0 0 0 0 0 0 0 0 0 0 0 0 0 0 0 0 0 0 0 0 0 0 0 0 0 0 0 0 0 0 0 0 0 0 0 0 0 0 0 0 0 0 0 0 0 0 0 0 0 0 0 0 0 0 0 0 0 0 0 0 0 0 0 0 0 0 0 0 0 0 0 0 0 0 0 0 0 0 0 0 0 0 0 0 0 0 0 0 0 0 0 0 0 0 0 0 0 0 0 0 0 0 0 0 0 0 0 0 0 0 0 0 0 0 0 0 0 0 0 0 0 0 0 0 0 0 0 0 0 0 0 0 0 0 0 0 0 0 0 0 0 0 0 0 0 0 0 0 0 0 0 0 0 0 0 0 0 0 0 0 0 0 0 0 0 0 0 0 0 0 0 0 0 0 0 0 0 0 0 0 0 0 0 0 0 0 0 0 0 0 0 0 0 0 0 0 0 0 0 0 0 0 0 0 0 0 0 0 0 0 0 0 0 0 0 0 0 0 0 0 0 0 0 0 0 0 0 0 0 0 0 0 0 0 0 0 0 0 0 0 0 0 0 0 0 0 0 0 0 0 0 0 0 0 0 0 0 0 0 0 0 0 0 0 0 0 0 0 0 0 0 0 0 0 0 0 0 0 0 0 0 0 0 0 0 0 0 0 0 0 0 0 0 0 0 0 0 0 0 0 0 0 0 0 0 0 0 0 0 0 0 0 0 0 0 0 0 0 0 0 0 0 0 0 0 0 0 0 0 0 0 0 0 0 0 0 0 0 0 0 0 0 0 0 0 0 0 0 0 0 0 0 0 0 0 0 0 0 0 0 0 0 0 0 0 0 0 0 0 0 0 0 0 0 0 0 255
255 0 0 0 0 0 0 0 0 0 0 0 0 0 0 0 0 0 0 0 0 0 0 0 0 0 0 0 0 0 0 0 0 0 0 0 0 0 0 0 0 0 0 0 0 0 0 0 0 0 0 0 0 0 0 0 0 0 0 0 0 0 0 0 0 0 0 0 0 0 0 0 0 0 0 0 0 0 0 0 0 0 0 0 0 0 0 0 0 0 0 0 0 0 0 0 0 0 0 0 0 0 0 0 0 0 0 0 0 0 0 0 0 0 0 0 0 0 0 0 0 0 0 0 0 0 0 0 0 0 0 0 0 0 0 0 0 0 0 0 0 0 0 0 0 0 0 0 0 0 0 0 0 0 0 0 0 0 0 0 0 0 0 0 0 0 0 0 0 0 0 0 0 0 0 0 0 0 0 0 0 0 0 0 0 0 0 0 0 0 0 0 0 0 0 0 0 0 0 0 0 0 0 0 0 0 0 0 0 0 0 0 0 0 0 0 0 0 0 0 0 0 0 0 0 0 0 0 0 0 0 0 0 0 0 0 0 0 0 0 0 0 0 0 0 0 0 0 0 0 0 0 0 0 0 0 0 0 0 0 0 0 0 0 0 0 0 0 0 0 0 0 0 0 0 0 0 0 0 0 0 0 0 0 0 0 0 0 0 0 0 0 0 0 0 0 0 0 0 0 0 0 0 0 0 0 0 0 0 0 0 0 0 0 0 0 0 0 0 0 0 0 0 0 0 0 0 0 0 0 0 0 0 0 0 0 0 0 0 0 0 0 0 0 0 0 0 0 0 0 0 0 0 0 0 0 0 0 0 0 0 0 0 0 0 0 0 0 0 0 0 0 0 0 0 0 0 0 0 0 0 0 0 0 0 0 0 0 0 0 0 0 0 0 0 0 0 0 0 0 0 0 0 0 0 0 0 0 0 0 0 0 0 0 0 0 0 0 0 0 0 0 0 0 0 0 0 0 0 0 0 0 0 0 0 0 0 0 0 0 0 0 0 0 0 0 0 0 0 0 0 0 0 0 0 0 0 0 0 0 0 0 0 0 0 0 0 0 0 0 0 0 0 0 0 0 0 0 0 0 0 0 0 0 0 0 0 0 0 0 0 0 0 0 0 0 0 0 0 0 0 0 0 0 0 0 0 0 0 0 0 0 0 0 0 0 0 0 0 0 0 0 0 0 0 0 0 0 0 0 0 0 0 0 0 0 0 0 0 0 0 0 0 0 0 0 0 0 0 0 0 0 0 0 0 0 0 0 0 0 0 0 0 0 0 0 0 0 0 0 0 0 0 0 0 0 0 0 0 0 0 0 0 0 0 0 0 0 0 0 0 0 0 0 0 0 0 0 0 0 0 0 0 0 0 0 0 0 0 0 0 0 0 0 0 0 0 0 0 0 0 0 0 0 0 0 0 0 0 0 0 0 0 0 0 0 0 0 0 0 0 0 0 0 0 0 0 0 0 0 0 0 0 0 0 0 0 0 0 0 0 0 0 0 0 0 0 0 0 0 0 0 0 0 0 0 0 0 0 0 0 0 0 0 0 0 0 0 0 0 0 0 0 0 0 0 0 0 0 0 0 0 0 0 0 0 0 0 0 0 0 0 0 0 0 0 0 0 0 0 0 0 0 0 0 0 0 0 0 0 0 0 0 0 0 0 0 0 0 0 0 0 0 0 0 0 0 0 0 0 0 0 0 0 0 0 0 0 0 0 0 0 0 0 0 0 0 0 0 0 0 0 0 0 0 0 0 0 0 0 0 0 0 0 0 0 0 0 0 0 0 0 0 0 0 0 0 0 0 0 0 0 0 0 0 0 0 0 0 0 0 0 0 0 0 0 0 0 0 0 0 0 0 0 0 0 0 0 0 0 0 0 0 0 0 0 0 0 0 0 0 0 0 0 0 0 0 0 0 0 0 0 0 0 0 0 0 0 0 0 0 0 0 0 0 0 0 0 0 0 0 0 0 0 0 0 0 0 0 0 0 0 0 0 0 0 0 0 0 0 0 0 0 0 0 0 0 0 0 255
255 0 0 0 0 0 0 0 0 0 0 0 0 0 0 0 0 0 0 0 0 0 0 0 0 0 0 0 0 0 0 0 0 0 0 0 0 0 0 0 0 0 0 0 0 0 0 0 0 0 0 0 0 0 0 0 0 0 0 0 0 0 0 0 0 0 0 0 0 0 0 0 0 0 0 0 0 0 0 0 0 0 0 0 0 0 0 0 0 0 0 0 0 0 0 0 0 0 0 0 0 0 0 0 0 0 0 0 0 0 0 0 0 0 0 0 0 0 0 0 0 0 0 0 0 0 0 0 0 0 0 0 0 0 0 0 0 0 0 0 0 0 0 0 0 0 0 0 0 0 0 0 0 0 0 0 0 0 0 0 0 0 0 0 0 0 0 0 0 0 0 0 0 0 0 0 0 0 0 0 0 0 0 0 0 0 0 0 0 0 0 0 0 0 0 0 0 0 0 0 0 0 0 0 0 0 0 0 0 0 0 0 0 0 0 0 0 0 0 0 0 0 0 0 0 0 0 0 0 0 0 0 0 0 0 0 0 0 0 0 0 0 0 0 0 0 0 0 0 0 0 0 0 0 0 0 0 0 0 0 0 0 0 0 0 0 0 0 0 0 0 0 0 0 0 0 0 0 0 0 0 0 0 0 0 0 0 0 0 0 0 0 0 0 0 0 0 0 0 0 0 0 0 0 0 0 0 0 0 0 0 0 0 0 0 0 0 0 0 0 0 0 0 0 0 0 0 0 0 0 0 0 0 0 0 0 0 0 0 0 0 0 0 0 0 0 0 0 0 0 0 0 0 0 0 0 0 0 0 0 0 0 0 0 0 0 0 0 0 0 0 0 0 0 0 0 0 0 0 0 0 0 0 0 0 0 0 0 0 0 0 0 0 0 0 0 0 0 0 0 0 0 0 0 0 0 0 0 0 0 0 0 0 0 0 0 0 0 0 0 0 0 0 0 0 0 0 0 0 0 0 0 0 0 0 0 0 0 0 0 0 0 0 0 0 0 0 0 0 0 0 0 0 0 0 0 0 0 0 0 0 0 0 0 0 0 0 0 0 0 0 0 0 0 0 0 0 0 0 0 0 0 0 0 0 0 0 0 0 0 0 0 0 0 0 0 0 0 0 0 0 0 0 0 0 0 0 0 0 0 0 0 0 0 0 0 0 0 0 0 0 0 0 0 0 0 0 0 0 0 0 0 0 0 0 0 0 0 0 0 0 0 0 0 0 0 0 0 0 0 0 0 0 0 0 0 0 0 0 0 0 0 0 0 0 0 0 0 0 0 0 0 0 0 0 0 0 0 0 0 0 0 0 0 0 0 0 0 0 0 0 0 0 0 0 0 0 0 0 0 0 0 0 0 0 0 0 0 0 0 0 0 0 0 0 0 0 0 0 0 0 0 0 0 0 0 0 0 0 0 0 0 0 0 0 0 0 0 0 0 0 0 0 0 0 0 0 0 0 0 0 0 0 0 0 0 0 0 0 0 0 0 0 0 0 0 0 0 0 0 0 0 0 0 0 0 0 0 0 0 0 0 0 0 0 0 0 0 0 0 0 0 0 0 0 0 0 0 0 0 0 0 0 0 0 0 0 0 0 0 0 0 0 0 0 0 0 0 0 0 0 0 0 0 0 0 0 0 0 0 0 0 0 0 0 0 0 0 0 0 0 0 0 0 0 0 0 0 0 0 0 0 0 0 0 0 0 0 0 0 0 0 0 0 0 0 0 0 0 0 0 0 0 0 0 0 0 0 0 0 0 0 0 0 0 0 0 0 0 0 0 0 0 0 0 0 0 0 0 0 0 0 0 0 0 0 0 0 0 0 0 0 0 0 0 0 0 0 0 0 0 0 0 0 0 0 0 0 0 0 0 0 0 0 0 0 0 0 0 0 0 0 0 0 0 0 0 0 0 0 0 0 0 0 0 0 0 0 0 0 0 0 0 0 0 0 0 0 0 0 0 0 0 0 0 0 0 0 0 0 0 0 0 0 0 0 0 0 0 0 0 0 0 0 0 0 0 0 0 255
255 0 0 0 0 0 0 0 0 0 0 0 0 0 0 0 0 0 0 0 0 0 0 0 0 0 0 0 0 0 0 0 0 0 0 0 0 0 0 0 0 0 0 0 0 0 0 0 0 0 0 0 0 0 0 0 0 0 0 0 0 0 0 0 0 0 0 0 0 0 0 0 0 0 0 0 0 0 0 0 0 0 0 0 0 0 0 0 0 0 0 0 0 0 0 0 0 0 0 0 0 0 0 0 0 0 0 0 0 0 0 0 0 0 0 0 0 0 0 0 0 0 0 0 0 0 0 0 0 0 0 0 0 0 0 0 0 0 0 0 0 0 0 0 0 0 0 0 0 0 0 0 0 0 0 0 0 0 0 0 0 0 0 0 0 0 0 0 0 0 0 0 0 0 0 0 0 0 0 0 0 0 0 0 0 0 0 0 0 0 0 0 0 0 0 0 0 0 0 0 0 0 0 0 0 0 0 0 0 0 0 0 0 0 0 0 0 0 0 0 0 0 0 0 0 0 0 0 0 0 0 0 0 0 0 0 0 0 0 0 0 0 0 0 0 0 0 0 0 0 0 0 0 0 0 0 0 0 0 0 0 0 0 0 0 0 0 0 0 0 0 0 0 0 0 0 0 0 0 0 0 0 0 0 0 0 0 0 0 0 0 0 0 0 0 0 0 0 0 0 0 0 0 0 0 0 0 0 0 0 0 0 0 0 0 0 0 0 0 0 0 0 0 0 0 0 0 0 0 0 0 0 0 0 0 0 0 0 0 0 0 0 0 0 0 0 0 0 0 0 0 0 0 0 0 0 0 0 0 0 0 0 0 0 0 0 0 0 0 0 0 0 0 0 0 0 0 0 0 0 0 0 0 0 0 0 0 0 0 0 0 0 0 0 0 0 0 0 0 0 0 0 0 0 0 0 0 0 0 0 0 0 0 0 0 0 0 0 0 0 0 0 0 0 0 0 0 0 0 0 0 0 0 0 0 0 0 0 0 0 0 0 0 0 0 0 0 0 0 0 0 0 0 0 0 0 0 0 0 0 0 0 0 0 0 0 0 0 0 0 0 0 0 0 0 0 0 0 0 0 0 0 0 0 0 0 0 0 0 0 0 0 0 0 0 0 0 0 0 0 0 0 0 0 0 0 0 0 0 0 0 0 0 0 0 0 0 0 0 0 0 0 0 0 0 0 0 0 0 0 0 0 0 0 0 0 0 0 0 0 0 0 0 0 0 0 0 0 0 0 0 0 0 0 0 0 0 0 0 0 0 0 0 0 0 0 0 0 0 0 0 0 0 0 0 0 0 0 0 0 0 0 0 0 0 0 0 0 0 0 0 0 0 0 0 0 0 0 0 0 0 0 0 0 0 0 0 0 0 0 0 0 0 0 0 0 0 0 0 0 0 0 0 0 0 0 0 0 0 0 0 0 0 0 0 0 0 0 0 0 0 0 0 0 0 0 0 0 0 0 0 0 0 0 0 0 0 0 0 0 0 0 0 0 0 0 0 0 0 0 0 0 0 0 0 0 0 0 0 0 0 0 0 0 0 0 0 0 0 0 0 0 0 0 0 0 0 0 0 0 0 0 0 0 0 0 0 0 0 0 0 0 0 0 0 0 0 0 0 0 0 0 0 0 0 0 0 0 0 0 0 0 0 0 0 0 0 0 0 0 0 0 0 0 0 0 0 0 0 0 0 0 0 0 0 0 0 0 0 0 0 0 0 0 0 0 0 0 0 0 0 0 0 0 0 0 0 0 0 0 0 0 0 0 0 0 0 0 0 0 0 0 0 0 0 0 0 0 0 0 0 0 0 0 0 0 0 0 0 0 0 0 0 0 0 0 0 0 0 0 0 0 0 0 0 0 0 0 0 0 0 0 0 0 0 0 0 0 0 0 0 0 0 0 0 0 0 0 0 0 0 0 0 0 0 0 0 0 0 0 0 0 0 0 0 0 0 0 0 0 0 0 0 0 0 0 0 0 0 0 0 0 0 0 0 0 0 0 0 0 0 0 0 0 0 0 0 0 0 255
255 0 0 0 0 0 0 0 0 0 0 0 0 0 0 0 0 0 0 0 0 0 0 0 0 0 0 0 0 0 0 0 0 0 0 0 0 0 0 0 0 0 0 0 0 0 0 0 0 0 0 0 0 0 0 0 0 0 0 0 0 0 0 0 0 0 0 0 0 0 0 0 0 0 0 0 0 0 0 0 0 0 0 0 0 0 0 0 0 0 0 0 0 0 0 0 0 0 0 0 0 0 0 0 0 0 0 0 0 0 0 0 0 0 0 0 0 0 0 0 0 0 0 0 0 0 0 0 0 0 0 0 0 0 0 0 0 0 0 0 0 0 0 0 0 0 0 0 0 0 0 0 0 0 0 0 0 0 0 0 0 0 0 0 0 0 0 0 0 0 0 0 0 0 0 0 0 0 0 0 0 0 0 0 0 0 0 0 0 0 0 0 0 0 0 0 0 0 0 0 0 0 0 0 0 0 0 0 0 0 0 0 0 0 0 0 0 0 0 0 0 0 0 0 0 0 0 0 0 0 0 0 0 0 0 0 0 0 0 0 0 0 0 0 0 0 0 0 0 0 0 0 0 0 0 0 0 0 0 0 0 0 0 0 0 0 0 0 0 0 0 0 0 0 0 0 0 0 0 0 0 0 0 0 0 0 0 0 0 0 0 0 0 0 0 0 0 0 0 0 0 0 0 0 0 0 0 0 0 0 0 0 0 0 0 0 0 0 0 0 0 0 0 0 0 0 0 0 0 0 0 0 0 0 0 0 0 0 0 0 0 0 0 0 0 0 0 0 0 0 0 0 0 0 0 0 0 0 0 0 0 0 0 0 0 0 0 0 0 0 0 0 0 0 0 0 0 0 0 0 0 0 0 0 0 0 0 0 0 0 0 0 0 0 0 0 0 0 0 0 0 0 0 0 0 0 0 0 0 0 0 0 0 0 0 0 0 0 0 0 0 0 0 0 0 0 0 0 0 0 0 0 0 0 0 0 0 0 0 0 0 0 0 0 0 0 0 0 0 0 0 0 0 0 0 0 0 0 0 0 0 0 0 0 0 0 0 0 0 0 0 0 0 0 0 0 0 0 0 0 0 0 0 0 0 0 0 0 0 0 0 0 0 0 0 0 0 0 0 0 0 0 0 0 0 0 0 0 0 0 0 0 0 0 0 0 0 0 0 0 0 0 0 0 0 0 0 0 0 0 0 0 0 0 0 0 0 0 0 0 0 0 0 0 0 0 0 0 0 0 0 0 0 0 0 0 0 0 0 0 0 0 0 0 0 0 0 0 0 0 0 0 0 0 0 0 0 0 0 0 0 0 0 0 0 0 0 0 0 0 0 0 0 0 0 0 0 0 0 0 0 0 0 0 0 0 0 0 0 0 0 0 0 0 0 0 0 0 0 0 0 0 0 0 0 0 0 0 0 0 0 0 0 0 0 0 0 0 0 0 0 0 0 0 0 0 0 0 0 0 0 0 0 0 0 0 0 0 0 0 0 0 0 0 0 0 0 0 0 0 0 0 0 0 0 0 0 0 0 0 0 0 0 0 0 0 0 0 0 0 0 0 0 0 0 0 0 0 0 0 0 0 0 0 0 0 0 0 0 0 0 0 0 0 0 0 0 0 0 0 0 0 0 0 0 0 0 0 0 0 0 0 0 0 0 0 0 0 0 0 0 0 0 0 0 0 0 0 0 0 0 0 0 0 0 0 0 0 0 0 0 0 0 0 0 0 0 0 0 0 0 0 0 0 0 0 0 0 0 0 0 0 0 0 0 0 0 0 0 0 0 0 0 0 0 0 0 0 0 0 0 0 0 0 0 0 0 0 0 0 0 0 0 0 0 0 0 0 0 0 0 0 0 0 0 0 0 0 0 0 0 0 0 0 0 0 0 0 0 0 0 0 0 0 0 0 0 0 0 0 0 0 0 0 0 0 0 0 0 0 0 0 0 0 0 0 0 0 0 0 0 0 0 0 0 0 0 0 0 0 0 0 0 0 0 0 0 0 0 0 0 0 0 0 0 0 0 0 0 255
255 0 0 0 0 0 0 0 0 0 0 0 0 0 0 0 0 0 0 0 0 0 0 0 0 0 0 0 0 0 0 0 0 0 0 0 0 0 0 0 0 0 0 0 0 0 0 0 0 0 0 0 0 0 0 0 0 0 0 0 0 0 0 0 0 0 0 0 0 0 0 0 0 0 0 0 0 0 0 0 0 0 0 0 0 0 0 0 0 0 0 0 0 0 0 0 0 0 0 0 0 0 0 0 0 0 0 0 0 0 0 0 0 0 0 0 0 0 0 0 0 0 0 0 0 0 0 0 0 0 0 0 0 0 0 0 0 0 0 0 0 0 0 0 0 0 0 0 0 0 0 0 0 0 0 0 0 0 0 0 0 0 0 0 0 0 0 0 0 0 0 0 0 0 0 0 0 0 0 0 0 0 0 0 0 0 0 0 0 0 0 0 0 0 0 0 0 0 0 0 0 0 0 0 0 0 0 0 0 0 0 0 0 0 0 0 0 0 0 0 0 0 0 0 0 0 0 0 0 0 0 0 0 0 0 0 0 0 0 0 0 0 0 0 0 0 0 0 0 0 0 0 0 0 0 0 0 0 0 0 0 0 0 0 0 0 0 0 0 0 0 0 0 0 0 0 0 0 0 0 0 0 0 0 0 0 0 0 0 0 0 0 0 0 0 0 0 0 0 0 0 0 0 0 0 0 0 0 0 0 0 0 0 0 0 0 0 0 0 0 0 0 0 0 0 0 0 0 0 0 0 0 0 0 0 0 0 0 0 0 0 0 0 0 0 0 0 0 0 0 0 0 0 0 0 0 0 0 0 0 0 0 0 0 0 0 0 0 0 0 0 0 0 0 0 0 0 0 0 0 0 0 0 0 0 0 0 0 0 0 0 0 0 0 0 0 0 0 0 0 0 0 0 0 0 0 0 0 0 0 0 0 0 0 0 0 0 0 0 0 0 0 0 0 0 0 0 0 0 0 0 0 0 0 0 0 0 0 0 0 0 0 0 0 0 0 0 0 0 0 0 0 0 0 0 0 0 0 0 0 0 0 0 0 0 0 0 0 0 0 0 0 0 0 0 0 0 0 0 0 0 0 0 0 0 0 0 0 0 0 0 0 0 0 0 0 0 0 0 0 0 0 0 0 0 0 0 0 0 0 0 0 0 0 0 0 0 0 0 0 0 0 0 0 0 0 0 0 0 0 0 0 0 0 0 0 0 0 0 0 0 0 0 0 0 0 0 0 0 0 0 0 0 0 0 0 0 0 0 0 0 0 0 0 0 0 0 0 0 0 0 0 0 0 0 0 0 0 0 0 0 0 0 0 0 0 0 0 0 0 0 0 0 0 0 0 0 0 0 0 0 0 0 0 0 0 0 0 0 0 0 0 0 0 0 0 0 0 0 0 0 0 0 0 0 0 0 0 0 0 0 0 0 0 0 0 0 0 0 0 0 0 0 0 0 0 0 0 0 0 0 0 0 0 0 0 0 0 0 0 0 0 0 0 0 0 0 0 0 0 0 0 0 0 0 0 0 0 0 0 0 0 0 0 0 0 0 0 0 0 0 0 0 0 0 0 0 0 0 0 0 0 0 0 0 0 0 0 0 0 0 0 0 0 0 0 0 0 0 0 0 0 0 0 0 0 0 0 0 0 0 0 0 0 0 0 0 0 0 0 0 0 0 0 0 0 0 0 0 0 0 0 0 0 0 0 0 0 0 0 0 0 0 0 0 0 0 0 0 0 0 0 0 0 0 0 0 0 0 0 0 0 0 0 0 0 0 0 0 0 0 0 0 0 0 0 0 0 0 0 0 0 0 0 0 0 0 0 0 0 0 0 0 0 0 0 0 0 0 0 0 0 0 0 0 0 0 0 0 0 0 0 0 0 0 0 0 0 0 0 0 0 0 0 0 0 0 0 0 0 0 0 0 0 0 0 0 0 0 0 0 0 0 0 0 0 0 0 0 0 0 0 0 0 0 0 0 0 0 0 0 0 0 0 0 0 0 0 0 0 0 0 0 0 0 0 0 0 0 255
255 0 0 0 0 0 0 0 0 0 0 0 0 0 0 0 0 0 0 0 0 0 0 0 0 0 0 0 0 0 0 0 0 0 0 0 0 0 0 0 0 0 0 0 0 0 0 0 0 0 0 0 0 0 0 0 0 0 0 0 0 0 0 0 0 0 0 0 0 0 0 0 0 0 0 0 0 0 0 0 0 0 0 0 0 0 0 0 0 0 0 0 0 0 0 0 0 0 0 0 0 0 0 0 0 0 0 0 0 0 0 0 0 0 0 0 0 0 0 0 0 0 0 0 0 0 0 0 0 0 0 0 0 0 0 0 0 0 0 0 0 0 0 0 0 0 0 0 0 0 0 0 0 0 0 0 0 0 0 0 0 0 0 0 0 0 0 0 0 0 0 0 0 0 0 0 0 0 0 0 0 0 0 0 0 0 0 0 0 0 0 0 0 0 0 0 0 0 0 0 0 0 0 0 0 0 0 0 0 0 0 0 0 0 0 0 0 0 0 0 0 0 0 0 0 0 0 0 0 0 0 0 0 0 0 0 0 0 0 0 0 0 0 0 0 0 0 0 0 0 0 0 0 0 0 0 0 0 0 0 0 0 0 0 0 0 0 0 0 0 0 0 0 0 0 0 0 0 0 0 0 0 0 0 0 0 0 0 0 0 0 0 0 0 0 0 0 0 0 0 0 0 0 0 0 0 0 0 0 0 0 0 0 0 0 0 0 0 0 0 0 0 0 0 0 0 0 0 0 0 0 0 0 0 0 0 0 0 0 0 0 0 0 0 0 0 0 0 0 0 0 0 0 0 0 0 0 0 0 0 0 0 0 0 0 0 0 0 0 0 0 0 0 0 0 0 0 0 0 0 0 0 0 0 0 0 0 0 0 0 0 0 0 0 0 0 0 0 0 0 0 0 0 0 0 0 0 0 0 0 0 0 0 0 0 0 0 0 0 0 0 0 0 0 0 0 0 0 0 0 0 0 0 0 0 0 0 0 0 0 0 0 0 0 0 0 0 0 0 0 0 0 0 0 0 0 0 0 0 0 0 0 0 0 0 0 0 0 0 0 0 0 0 0 0 0 0 0 0 0 0 0 0 0 0 0 0 0 0 0 0 0 0 0 0 0 0 0 0 0 0 0 0 0 0 0 0 0 0 0 0 0 0 0 0 0 0 0 0 0 0 0 0 0 0 0 0 0 0 0 0 0 0 0 0 0 0 0 0 0 0 0 0 0 0 0 0 0 0 0 0 0 0 0 0 0 0 0 0 0 0 0 0 0 0 0 0 0 0 0 0 0 0 0 0 0 0 0 0 0 0 0 0 0 0 0 0 0 0 0 0 0 0 0 0 0 0 0 0 0 0 0 0 0 0 0 0 0 0 0 0 0 0 0 0 0 0 0 0 0 0 0 0 0 0 0 0 0 0 0 0 0 0 0 0 0 0 0 0 0 0 0 0 0 0 0 0 0 0 0 0 0 0 0 0 0 0 0 0 0 0 0 0 0 0 0 0 0 0 0 0 0 0 0 0 0 0 0 0 0 0 0 0 0 0 0 0 0 0 0 0 0 0 0 0 0 0 0 0 0 0 0 0 0 0 0 0 0 0 0 0 0 0 0 0 0 0 0 0 0 0 0 0 0 0 0 0 0 0 0 0 0 0 0 0 0 0 0 0 0 0 0 0 0 0 0 0 0 0 0 0 0 0 0 0 0 0 0 0 0 0 0 0 0 0 0 0 0 0 0 0 0 0 0 0 0 0 0 0 0 0 0 0 0 0 0 0 0 0 0 0 0 0 0 0 0 0 0 0 0 0 0 0 0 0 0 0 0 0 0 0 0 0 0 0 0 0 0 0 0 0 0 0 0 0 0 0 0 0 0 0 0 0 0 0 0 0 0 0 0 0 0 0 0 0 0 0 0 0 0 0 0 0 0 0 0 0 0 0 0 0 0 0 0 0 0 0 0 0 0 0 0 0 0 0 0 0 0 0 0 0 0 0 0 0 0 0 0 0 0 0 0 0 0 0 0 0 0 0 255
255 0 0 0 0 0 0 0 0 0 0 0 0 0 0 0 0 0 0 0 0 0 0 0 0 0 0 0 0 0 0 0 0 0 0 0 0 0 0 0 0 0 0 0 0 0 0 0 0 0 0 0 0 0 0 0 0 0 0 0 0 0 0 0 0 0 0 0 0 0 0 0 0 0 0 0 0 0 0 0 0 0 0 0 0 0 0 0 0 0 0 0 0 0 0 0 0 0 0 0 0 0 0 0 0 0 0 0 0 0 0 0 0 0 0 0 0 0 0 0 0 0 0 0 0 0 0 0 0 0 0 0 0 0 0 0 0 0 0 0 0 0 0 0 0 0 0 0 0 0 0 0 0 0 0 0 0 0 0 0 0 0 0 0 0 0 0 0 0 0 0 0 0 0 0 0 0 0 0 0 0 0 0 0 0 0 0 0 0 0 0 0 0 0 0 0 0 0 0 0 0 0 0 0 0 0 0 0 0 0 0 0 0 0 0 0 0 0 0 0 0 0 0 0 0 0 0 0 0 0 0 0 0 0 0 0 0 0 0 0 0 0 0 0 0 0 0 0 0 0 0 0 0 0 0 0 0 0 0 0 0 0 0 0 0 0 0 0 0 0 0 0 0 0 0 0 0 0 0 0 0 0 0 0 0 0 0 0 0 0 0 0 0 0 0 0 0 0 0 0 0 0 0 0 0 0 0 0 0 0 0 0 0 0 0 0 0 0 0 0 0 0 0 0 0 0 0 0 0 0 0 0 0 0 0 0 0 0 0 0 0 0 0 0 0 0 0 0 0 0 0 0 0 0 0 0 0 0 0 0 0 0 0 0 0 0 0 0 0 0 0 0 0 0 0 0 0 0 0 0 0 0 0 0 0 0 0 0 0 0 0 0 0 0 0 0 0 0 0 0 0 0 0 0 0 0 0 0 0 0 0 0 0 0 0 0 0 0 0 0 0 0 0 0 0 0 0 0 0 0 0 0 0 0 0 0 0 0 0 0 0 0 0 0 0 0 0 0 0 0 0 0 0 0 0 0 0 0 0 0 0 0 0 0 0 0 0 0 0 0 0 0 0 0 0 0 0 0 0 0 0 0 0 0 0 0 0 0 0 0 0 0 0 0 0 0 0 0 0 0 0 0 0 0 0 0 0 0 0 0 0 0 0 0 0 0 0 0 0 0 0 0 0 0 0 0 0 0 0 0 0 0 0 0 0 0 0 0 0 0 0 0 0 0 0 0 0 0 0 0 0 0 0 0 0 0 0 0 0 0 0 0 0 0 0 0 0 0 0 0 0 0 0 0 0 0 0 0 0 0 0 0 0 0 0 0 0 0 0 0 0 0 0 0 0 0 0 0 0 0 0 0 0 0 0 0 0 0 0 0 0 0 0 0 0 0 0 0 0 0 0 0 0 0 0 0 0 0 0 0 0 0 0 0 0 0 0 0 0 0 0 0 0 0 0 0 0 0 0 0 0 0 0 0 0 0 0 0 0 0 0 0 0 0 0 0 0 0 0 0 0 0 0 0 0 0 0 0 0 0 0 0 0 0 0 0 0 0 0 0 0 0 0 0 0 0 0 0 0 0 0 0 0 0 0 0 0 0 0 0 0 0 0 0 0 0 0 0 0 0 0 0 0 0 0 0 0 0 0 0 0 0 0 0 0 0 0 0 0 0 0 0 0 0 0 0 0 0 0 0 0 0 0 0 0 0 0 0 0 0 0 0 0 0 0 0 0 0 0 0 0 0 0 0 0 0 0 0 0 0 0 0 0 0 0 0 0 0 0 0 0 0 0 0 0 0 0 0 0 0 0 0 0 0 0 0 0 0 0 0 0 0 0 0 0 0 0 0 0 0 0 0 0 0 0 0 0 0 0 0 0 0 0 0 0 0 0 0 0 0 0 0 0 0 0 0 0 0 0 0 0 0 0 0 0 0 0 0 0 0 0 0 0 0 0 0 0 0 0 0 0 0 0 0 0 0 0 0 0 0 0 0 0 0 0 0 0 0 0 0 0 0 0 0 0 0 0 0 0 255
255 0 0 0 0 0 0 0 0 0 0 0 0 0 0 0 0 0 0 0 0 0 0 0 0 0 0 0 0 0 0 0 0 0 0 0 0 0 0 0 0 0 0 0 0 0 0 0 0 0 0 0 0 0 0 0 0 0 0 0 0 0 0 0 0 0 0 0 0 0 0 0 0 0 0 0 0 0 0 0 0 0 0 0 0 0 0 0 0 0 0 0 0 0 0 0 0 0 0 0 0 0 0 0 0 0 0 0 0 0 0 0 0 0 0 0 0 0 0 0 0 0 0 0 0 0 0 0 0 0 0 0 0 0 0 0 0 0 0 0 0 0 0 0 0 0 0 0 0 0 0 0 0 0 0 0 0 0 0 0 0 0 0 0 0 0 0 0 0 0 0 0 0 0 0 0 0 0 0 0 0 0 0 0 0 0 0 0 0 0 0 0 0 0 0 0 0 0 0 0 0 0 0 0 0 0 0 0 0 0 0 0 0 0 0 0 0 0 0 0 0 0 0 0 0 0 0 0 0 0 0 0 0 0 0 0 0 0 0 0 0 0 0 0 0 0 0 0 0 0 0 0 0 0 0 0 0 0 0 0 0 0 0 0 0 0 0 0 0 0 0 0 0 0 0 0 0 0 0 0 0 0 0 0 0 0 0 0 0 0 0 0 0 0 0 0 0 0 0 0 0 0 0 0 0 0 0 0 0 0 0 0 0 0 0 0 0 0 0 0 0 0 0 0 0 0 0 0 0 0 0 0 0 0 0 0 0 0 0 0 0 0 0 0 0 0 0 0 0 0 0 0 0 0 0 0 0 0 0 0 0 0 0 0 0 0 0 0 0 0 0 0 0 0 0 0 0 0 0 0 0 0 0 0 0 0 0 0 0 0 0 0 0 0 0 0 0 0 0 0 0 0 0 0 0 0 0 0 0 0 0 0 0 0 0 0 0 0 0 0 0 0 0 0 0 0 0 0 0 0 0 0 0 0 0 0 0 0 0 0 0 0 0 0 0 0 0 0 0 0 0 0 0 0 0 0 0 0 0 0 0 0 0 0 0 0 0 0 0 0 0 0 0 0 0 0 0 0 0 0 0 0 0 0 0 0 0 0 0 0 0 0 0 0 0 0 0 0 0 0 0 0 0 0 0 0 0 0 0 0 0 0 0 0 0 0 0 0 0 0 0 0 0 0 0 0 0 0 0 0 0 0 0 0 0 0 0 0 0 0 0 0 0 0 0 0 0 0 0 0 0 0 0 0 0 0 0 0 0 0 0 0 0 0 0 0 0 0 0 0 0 0 0 0 0 0 0 0 0 0 0 0 0 0 0 0 0 0 0 0 0 0 0 0 0 0 0 0 0 0 0 0 0 0 0 0 0 0 0 0 0 0 0 0 0 0 0 0 0 0 0 0 0 0 0 0 0 0 0 0 0 0 0 0 0 0 0 0 0 0 0 0 0 0 0 0 0 0 0 0 0 0 0 0 0 0 0 0 0 0 0 0 0 0 0 0 0 0 0 0 0 0 0 0 0 0 0 0 0 0 0 0 0 0 0 0 0 0 0 0 0 0 0 0 0 0 0 0 0 0 0 0 0 0 0 0 0 0 0 0 0 0 0 0 0 0 0 0 0 0 0 0 0 0 0 0 0 0 0 0 0 0 0 0 0 0 0 0 0 0 0 0 0 0 0 0 0 0 0 0 0 0 0 0 0 0 0 0 0 0 0 0 0 0 0 0 0 0 0 0 0 0 0 0 0 0 0 0 0 0 0 0 0 0 0 0 0 0 0 0 0 0 0 0 0 0 0 0 0 0 0 0 0 0 0 0 0 0 0 0 0 0 0 0 0 0 0 0 0 0 0 0 0 0 0 0 0 0 0 0 0 0 0 0 0 0 0 0 0 0 0 0 0 0 0 0 0 0 0 0 0 0 0 0 0 0 0 0 0 0 0 0 0 0 0 0 0 0 0 0 0 0 0 0 0 0 0 0 0 0 0 0 0 0 0 0 0 0 0 0 0 0 0 0 0 0 0 0 0 255
255 0 0 0 0 0 0 0 0 0 0 0 0 0 0 0 0 0 0 0 0 0 0 0 0 0 0 0 0 0 0 0 0 0 0 0 0 0 0 0 0 0 0 0 0 0 0 0 0 0 0 0 0 0 0 0 0 0 0 0 0 0 0 0 0 0 0 0 0 0 0 0 0 0 0 0 0 0 0 0 0 0 0 0 0 0 0 0 0 0 0 0 0 0 0 0 0 0 0 0 0 0 0 0 0 0 0 0 0 0 0 0 0 0 0 0 0 0 0 0 0 0 0 0 0 0 0 0 0 0 0 0 0 0 0 0 0 0 0 0 0 0 0 0 0 0 0 0 0 0 0 0 0 0 0 0 0 0 0 0 0 0 0 0 0 0 0 0 0 0 0 0 0 0 0 0 0 0 0 0 0 0 0 0 0 0 0 0 0 0 0 0 0 0 0 0 0 0 0 0 0 0 0 0 0 0 0 0 0 0 0 0 0 0 0 0 0 0 0 0 0 0 0 0 0 0 0 0 0 0 0 0 0 0 0 0 0 0 0 0 0 0 0 0 0 0 0 0 0 0 0 0 0 0 0 0 0 0 0 0 0 0 0 0 0 0 0 0 0 0 0 0 0 0 0 0 0 0 0 0 0 0 0 0 0 0 0 0 0 0 0 0 0 0 0 0 0 0 0 0 0 0 0 0 0 0 0 0 0 0 0 0 0 0 0 0 0 0 0 0 0 0 0 0 0 0 0 0 0 0 0 0 0 0 0 0 0 0 0 0 0 0 0 0 0 0 0 0 0 0 0 0 0 0 0 0 0 0 0 0 0 0 0 0 0 0 0 0 0 0 0 0 0 0 0 0 0 0 0 0 0 0 0 0 0 0 0 0 0 0 0 0 0 0 0 0 0 0 0 0 0 0 0 0 0 0 0 0 0 0 0 0 0 0 0 0 0 0 0 0 0 0 0 0 0 0 0 0 0 0 0 0 0 0 0 0 0 0 0 0 0 0 0 0 0 0 0 0 0 0 0 0 0 0 0 0 0 0 0 0 0 0 0 0 0 0 0 0 0 0 0 0 0 0 0 0 0 0 0 0 0 0 0 0 0 0 0 0 0 0 0 0 0 0 0 0 0 0 0 0 0 0 0 0 0 0 0 0 0 0 0 0 0 0 0 0 0 0 0 0 0 0 0 0 0 0 0 0 0 0 0 0 0 0 0 0 0 0 0 0 0 0 0 0 0 0 0 0 0 0 0 0 0 0 0 0 0 0 0 0 0 0 0 0 0 0 0 0 0 0 0 0 0 0 0 0 0 0 0 0 0 0 0 0 0 0 0 0 0 0 0 0 0 0 0 0 0 0 0 0 0 0 0 0 0 0 0 0 0 0 0 0 0 0 0 0 0 0 0 0 0 0 0 0 0 0 0 0 0 0 0 0 0 0 0 0 0 0 0 0 0 0 0 0 0 0 0 0 0 0 0 0 0 0 0 0 0 0 0 0 0 0 0 0 0 0 0 0 0 0 0 0 0 0 0 0 0 0 0 0 0 0 0 0 0 0 0 0 0 0 0 0 0 0 0 0 0 0 0 0 0 0 0 0 0 0 0 0 0 0 0 0 0 0 0 0 0 0 0 0 0 0 0 0 0 0 0 0 0 0 0 0 0 0 0 0 0 0 0 0 0 0 0 0 0 0 0 0 0 0 0 0 0 0 0 0 0 0 0 0 0 0 0 0 0 0 0 0 0 0 0 0 0 0 0 0 0 0 0 0 0 0 0 0 0 0 0 0 0 0 0 0 0 0 0 0 0 0 0 0 0 0 0 0 0 0 0 0 0 0 0 0 0 0 0 0 0 0 0 0 0 0 0 0 0 0 0 0 0 0 0 0 0 0 0 0 0 0 0 0 0 0 0 0 0 0 0 0 0 0 0 0 0 0 0 0 0 0 0 0 0 0 0 0 0 0 0 0 0 0 0 0 0 0 0 0 0 0 0 0 0 0 0 0 0 0 0 0 0 0 0 0 0 0 0 0 0 0 0 255
255 0 0 0 0 0 0 0 0 0 0 0 0 0 0 0 0 0 0 0 0 0 0 0 0 0 0 0 0 0 0 0 0 0 0 0 0 0 0 0 0 0 0 0 0 0 0 0 0 0 0 0 0 0 0 0 0 0 0 0 0 0 0 0 0 0 0 0 0 0 0 0 0 0 0 0 0 0 0 0 0 0 0 0 0 0 0 0 0 0 0 0 0 0 0 0 0 0 0 0 0 0 0 0 0 0 0 0 0 0 0 0 0 0 0 0 0 0 0 0 0 0 0 0 0 0 0 0 0 0 0 0 0 0 0 0 0 0 0 0 0 0 0 0 0 0 0 0 0 0 0 0 0 0 0 0 0 0 0 0 0 0 0 0 0 0 0 0 0 0 0 0 0 0 0 0 0 0 0 0 0 0 0 0 0 0 0 0 0 0 0 0 0 0 0 0 0 0 0 0 0 0 0 0 0 0 0 0 0 0 0 0 0 0 0 0 0 0 0 0 0 0 0 0 0 0 0 0 0 0 0 0 0 0 0 0 0 0 0 0 0 0 0 0 0 0 0 0 0 0 0 0 0 0 0 0 0 0 0 0 0 0 0 0 0 0 0 0 0 0 0 0 0 0 0 0 0 0 0 0 0 0 0 0 0 0 0 0 0 0 0 0 0 0 0 0 0 0 0 0 0 0 0 0 0 0 0 0 0 0 0 0 0 0 0 0 0 0 0 0 0 0 0 0 0 0 0 0 0 0 0 0 0 0 0 0 0 0 0 0 0 0 0 0 0 0 0 0 0 0 0 0 0 0 0 0 0 0 0 0 0 0 0 0 0 0 0 0 0 0 0 0 0 0 0 0 0 0 0 0 0 0 0 0 0 0 0 0 0 0 0 0 0 0 0 0 0 0 0 0 0 0 0 0 0 0 0 0 0 0 0 0 0 0 0 0 0 0 0 0 0 0 0 0 0 0 0 0 0 0 0 0 0 0 0 0 0 0 0 0 0 0 0 0 0 0 0 0 0 0 0 0 0 0 0 0 0 0 0 0 0 0 0 0 0 0 0 0 0 0 0 0 0 0 0 0 0 0 0 0 0 0 0 0 0 0 0 0 0 0 0 0 0 0 0 0 0 0 0 0 0 0 0 0 0 0 0 0 0 0 0 0 0 0 0 0 0 0 0 0 0 0 0 0 0 0 0 0 0 0 0 0 0 0 0 0 0 0 0 0 0 0 0 0 0 0 0 0 0 0 0 0 0 0 0 0 0 0 0 0 0 0 0 0 0 0 0 0 0 0 0 0 0 0 0 0 0 0 0 0 0 0 0 0 0 0 0 0 0 0 0 0 0 0 0 0 0 0 0 0 0 0 0 0 0 0 0 0 0 0 0 0 0 0 0 0 0 0 0 0 0 0 0 0 0 0 0 0 0 0 0 0 0 0 0 0 0 0 0 0 0 0 0 0 0 0 0 0 0 0 0 0 0 0 0 0 0 0 0 0 0 0 0 0 0 0 0 0 0 0 0 0 0 0 0 0 0 0 0 0 0 0 0 0 0 0 0 0 0 0 0 0 0 0 0 0 0 0 0 0 0 0 0 0 0 0 0 0 0 0 0 0 0 0 0 0 0 0 0 0 0 0 0 0 0 0 0 0 0 0 0 0 0 0 0 0 0 0 0 0 0 0 0 0 0 0 0 0 0 0 0 0 0 0 0 0 0 0 0 0 0 0 0 0 0 0 0 0 0 0 0 0 0 0 0 0 0 0 0 0 0 0 0 0 0 0 0 0 0 0 0 0 0 0 0 0 0 0 0 0 0 0 0 0 0 0 0 0 0 0 0 0 0 0 0 0 0 0 0 0 0 0 0 0 0 0 0 0 0 0 0 0 0 0 0 0 0 0 0 0 0 0 0 0 0 0 0 0 0 0 0 0 0 0 0 0 0 0 0 0 0 0 0 0 0 0 0 0 0 0 0 0 0 0 0 0 0 0 0 0 0 0 0 0 0 0 0 0 0 0 0 0 0 0 0 0 0 0 0 255
255 0 0 0 0 0 0 0 0 0 0 0 0 0 0 0 0 0 0 0 0 0 0 0 0 0 0 0 0 0 0 0 0 0 0 0 0 0 0 0 0 0 0 0 0 0 0 0 0 0 0 0 0 0 0 0 0 0 0 0 0 0 0 0 0 0 0 0 0 0 0 0 0 0 0 0 0 0 0 0 0 0 0 0 0 0 0 0 0 0 0 0 0 0 0 0 0 0 0 0 0 0 0 0 0 0 0 0 0 0 0 0 0 0 0 0 0 0 0 0 0 0 0 0 0 0 0 0 0 7 8 8 5 8 8 6 3 3 1 0 0 0 0 0 0 0 0 0 0 0 0 0 0 0 0 0 0 0 0 0 0 0 0 0 0 0 0 0 0 0 0 0 0 0 0 0 0 0 0 0 0 0 0 0 0 0 0 0 0 0 0 0 0 0 0 0 0 0 0 0 0 0 0 0 0 0 0 0 0 0 0 0 0 0 0 0 0 0 0 0 0 0 0 0 0 0 0 0 0 0 0 0 0 0 0 0 0 0 0 0 0 0 0 0 0 0 0 0 0 0 0 0 0 0 0 0 0 0 0 0 0 0 0 0 0 0 0 0 0 0 0 0 0 0 0 0 0 0 0 0 0 0 0 0 0 0 0 0 0 0 0 0 0 0 0 0 0 0 0 0 0 0 0 0 0 0 0 0 0 0 0 0 0 0 0 0 0 0 0 0 0 0 0 0 0 0 0 0 0 0 0 0 0 0 0 0 0 0 0 0 0 0 0 0 0 0 0 0 0 0 0 0 0 0 0 0 0 0 0 0 0 0 0 0 0 0 0 0 0 0 0 0 0 0 0 0 0 0 0 0 0 0 0 0 0 0 0 0 0 0 0 0 0 0 0 0 0 0 0 0 0 0 0 0 0 0 0 0 0 0 0 0 0 0 0 0 0 0 0 0 0 0 0 0 0 0 0 0 0 0 0 0 0 0 0 0 0 0 0 0 0 0 0 0 0 0 0 0 0 0 0 0 0 0 0 0 0 0 0 0 0 0 0 0 0 0 0 0 0 0 0 0 0 0 0 0 0 0 0 0 0 0 0 0 0 0 0 0 0 0 0 0 0 0 0 0 0 0 0 0 0 0 0 0 0 0 0 0 0 0 0 0 0 0 0 0 0 0 0 0 0 0 0 0 0 0 0 0 0 0 0 0 0 0 0 0 0 0 0 0 0 0 0 0 0 0 0 0 0 0 0 0 0 0 0 0 0 0 0 0 0 0 0 0 0 0 0 0 0 0 0 0 0 0 0 0 0 0 0 0 0 0 0 0 0 0 0 0 0 0 0 0 0 0 0 0 0 0 0 0 0 0 0 0 0 0 0 0 0 0 0 0 0 0 0 0 0 0 0 0 0 0 0 0 0 0 0 0 0 0 0 0 0 0 0 0 0 0 0 0 0 0 0 0 0 0 0 0 0 0 0 0 0 0 0 0 0 0 0 0 0 0 0 0 0 0 0 0 0 0 0 0 0 0 0 0 0 0 0 0 0 0 0 0 0 0 0 0 0 0 0 0 0 0 0 0 0 0 0 0 0 0 0 0 0 0 0 0 0 0 0 0 0 0 0 0 0 0 0 0 0 0 0 0 0 0 0 0 0 0 0 0 0 0 0 0 0 0 0 0 0 0 0 0 0 0 0 0 0 0 0 0 0 0 0 0 0 0 0 0 0 0 0 0 0 0 0 0 0 0 0 0 0 0 0 0 0 0 0 0 0 0 0 0 0 0 0 0 0 0 0 0 0 0 0 0 0 0 0 0 0 0 0 0 0 0 0 0 0 0 0 0 0 0 0 0 0 0 0 0 0 0 0 0 0 0 0 0 0 0 0 0 0 0 0 0 0 0 0 0 0 0 0 0 0 0 0 0 0 0 0 0 0 0 0 0 0 0 0 0 0 0 0 0 0 0 0 0 0 0 0 0 0 0 0 0 0 0 0 0 0 0 0 0 0 0 0 0 0 0 0 0 0 0 0 0 0 0 0 255
255 0 0 0 0 0 0 0 0 0 0 0 0 0 0 0 0 0 0 0 0 0 0 0 0 0 0 0 0 0 0 0 0 0 0 0 0 0 0 0 0 0 0 0 0 0 0 0 0 0 0 0 0 0 0 0 0 0 0 0 0 0 0 0 0 0 0 0 0 0 0 0 0 0 0 0 0 0 0 0 0 0 0 0 0 0 0 0 0 0 0 0 0 0 0 0 0 0 0 0 0 0 0 0 0 0 0 0 0 0 0 0 0 0 0 0 0 0 0 0 0 0 0 0 0 0 0 1 1 11 0 3 7 0 0 10 0 0 2 0 0 0 0 0 0 0 0 0 0 0 0 0 0 0 0 0 0 0 0 0 0 0 0 0 0 0 0 0 0 0 0 0 0 0 0 0 0 0 0 0 0 0 0 0 0 0 0 0 0 0 0 0 0 0 0 0 0 0 0 0 0 0 0 0 0 0 0 0 0 0 0 0 0 0 0 0 0 0 0 0 0 0 0 0 0 0 0 0 0 0 0 0 0 0 0 0 0 0 0 0 0 0 0 0 0 0 0 0 0 0 0 0 0 0 0 0 0 0 0 0 0 0 0 0 0 0 0 0 0 0 0 0 0 0 0 0 0 0 0 0 0 0 0 0 0 0 0 0 0 0 0 0 0 0 0 0 0 0 0 0 0 0 0 0 0 0 0 0 0 0 0 0 0 0 0 0 0 0 0 0 0 0 0 0 0 0 0 0 0 0 0 0 0 0 0 0 0 0 0 0 0 0 0 0 0 0 0 0 0 0 0 0 0 0 0 0 0 0 0 0 0 0 0 0 0 0 0 0 0 0 0 0 0 0 0 0 0 0 0 0 0 0 0 0 0 0 0 0 0 0 0 0 0 0 0 0 0 0 0 0 0 0 0 0 0 0 0 0 0 0 0 0 0 0 0 0 0 0 0 0 0 0 0 0 0 0 0 0 0 0 0 0 0 0 0 0 0 0 0 0 0 0 0 0 0 0 0 0 0 0 0 0 0 0 0 0 0 0 0 0 0 0 0 0 0 0 0 0 0 0 0 0 0 0 0 0 0 0 0 0 0 0 0 0 0 0 0 0 0 0 0 0 0 0 0 0 0 0 0 0 0 0 0 0 0 0 0 0 0 0 0 0 0 0 0 0 0 0 0 0 0 0 0 0 0 0 0 0 0 0 0 0 0 0 0 0 0 0 0 0 0 0 0 0 0 0 0 0 0 0 0 0 0 0 0 0 0 0 0 0 0 0 0 0 0 0 0 0 0 0 0 0 0 0 0 0 0 0 0 0 0 0 0 0 0 0 0 0 0 0 0 0 0 0 0 0 0 0 0 0 0 0 0 0 0 0 0 0 0 0 0 0 0 0 0 0 0 0 0 0 0 0 0 0 0 0 0 0 0 0 0 0 0 0 0 0 0 0 0 0 0 0 0 0 0 0 0 0 0 0 0 0 0 0 0 0 0 0 0 0 0 0 0 0 0 0 0 0 0 0 0 0 0 0 0 0 0 0 0 0 0 0 0 0 0 0 0 0 0 0 0 0 0 0 0 0 0 0 0 0 0 0 0 0 0 0 0 0 0 0 0 0 0 0 0 0 0 0 0 0 0 0 0 0 0 0 0 0 0 0 0 0 0 0 0 0 0 0 0 0 0 0 0 0 0 0 0 0 0 0 0 0 0 0 0 0 0 0 0 0 0 0 0 0 0 0 0 0 0 0 0 0 0 0 0 0 0 0 0 0 0 0 0 0 0 0 0 0 0 0 0 0 0 0 0 0 0 0 0 0 0 0 0 0 0 0 0 0 0 0 0 0 0 0 0 0 0 0 0 0 0 0 0 0 0 0 0 0 0 0 0 0 0 0 0 0 0 0 0 0 0 0 0 0 0 0 0 0 0 0 0 0 0 0 0 0 0 0 0 0 0 0 0 0 0 0 0 0 0 0 0 0 0 0 0 0 0 0 0 0 0 0 0 0 0 0 0 0 0 0 0 0 0 0 0 0 0 0 0 255
255 0 0 0 0 0 0 0 0 0 0 0 0 0 0 0 0 0 0 0 0 0 0 0 0 0 0 0 0 0 0 0 0 0 0 0 0 0 0 0 0 0 0 0 0 0 0 0 0 0 0 0 0 0 0 0 0 0 0 0 0 0 0 0 0 0 0 0 0 0 0 0 0 0 0 0 0 0 0 0 0 0 0 0 0 0 0 0 0 0 0 0 0 0 0 0 0 0 0 0 0 0 0 0 0 0 0 0 0 0 0 0 0 0 0 0 0 0 0 0 0 0 0 0 0 0 0 4 0 14 0 6 10 6 0 18 0 0 3 0 0 0 0 0 0 0 0 0 0 0 0 0 0 0 0 0 0 0 0 0 0 0 0 0 0 0 0 0 0 0 0 0 0 0 0 0 0 0 0 0 0 0 0 0 0 0 0 0 0 0 0 0 0 0 0 0 0 0 0 0 0 0 0 0 0 0 0 0 0 0 0 0 0 0 0 0 0 0 0 0 0 0 0 0 0 0 0 0 0 0 0 0 0 0 0 0 0 0 0 0 0 0 0 0 0 0 0 0 0 0 0 0 0 0 0 0 0 0 0 0 0 0 0 0 0 0 0 0 0 0 0 0 0 0 0 0 0 0 0 0 0 0 0 0 0 0 0 0 0 0 0 0 0 0 0 0 0 0 0 0 0 0 0 0 0 0 0 0 0 0 0 0 0 0 0 0 0 0 0 0 0 0 0 0 0 0 0 0 0 0 0 0 0 0 0 0 0 0 0 0 0 0 0 0 0 0 0 0 0 0 0 0 0 0 0 0 0 0 0 0 0 0 0 0 0 0 0 0 0 0 0 0 0 0 0 0 0 0 0 0 0 0 0 0 0 0 0 0 0 0 0 0 0 0 0 0 0 0 0 0 0 0 0 0 0 0 0 0 0 0 0 0 0 0 0 0 0 0 0 0 0 0 0 0 0 0 0 0 0 0 0 0 0 0 0 0 0 0 0 0 0 0 0 0 0 0 0 0 0 0 0 0 0 0 0 0 0 0 0 0 0 0 0 0 0 0 0 0 0 0 0 0 0 0 0 0 0 0 0 0 0 0 0 0 0 0 0 0 0 0 0 0 0 0 0 0 0 0 0 0 0 0 0 0 0 0 0 0 0 0 0 0 0 0 0 0 0 0 0 0 0 0 0 0 0 0 0 0 0 0 0 0 0 0 0 0 0 0 0 0 0 0 0 0 0 0 0 0 0 0 0 0 0 0 0 0 0 0 0 0 0 0 0 0 0 0 0 0 0 0 0 0 0 0 0 0 0 0 0 0 0 0 0 0 0 0 0 0 0 0 0 0 0 0 0 0 0 0 0 0 0 0 0 0 0 0 0 0 0 0 0 0 0 0 0 0 0 0 0 0 0 0 0 0 0 0 0 0 0 0 0 0 0 0 0 0 0 0 0 0 0 0 0 0 0 0 0 0 0 0 0 0 0 0 0 0 0 0 0 0 0 0 0 0 0 0 0 0 0 0 0 0 0 0 0 0 0 0 0 0 0 0 0 0 0 0 0 0 0 0 0 0 0 0 0 0 0 0 0 0 0 0 0 0 0 0 0 0 0 0 0 0 0 0 0 0 0 0 0 0 0 0 0 0 0 0 0 0 0 0 0 0 0 0 0 0 0 0 0 0 0 0 0 0 0 0 0 0 0 0 0 0 0 0 0 0 0 0 0 0 0 0 0 0 0 0 0 0 0 0 0 0 0 0 0 0 0 0 0 0 0 0 0 0 0 0 0 0 0 0 0 0 0 0 0 0 0 0 0 0 0 0 0 0 0 0 0 0 0 0 0 0 0 0 0 0 0 0 0 0 0 0 0 0 0 0 0 0 0 0 0 0 0 0 0 0 0 0 0 0 0 0 0 0 0 0 0 0 0 0 0 0 0 0 0 0 0 0 0 0 0 0 0 0 0 0 0 0 0 0 0 0 0 0 0 0 0 0 0 0 0 0 0 0 0 0 0 0 0 0 0 0 0 0 0 0 0 0 0 255
255 0 0 0 0 0 0 0 0 0 0 0 0 0 0 0 0 0 0 0 0 0 0 0 0 0 0 0 0 0 0 0 0 0 0 0 0 0 0 0 0 0 0 0 0 0 0 0 0 0 0 0 0 0 0 0 0 0 0 0 0 0 0 0 0 0 0 0 0 0 0 0 0 0 0 0 0 0 0 0 0 0 0 0 0 0 0 0 0 0 0 0 0 0 0 0 0 0 0 0 0 0 0 0 0 0 0 0 0 0 0 0 0 0 0 0 0 0 0 0 0 0 0 0 0 0 0 8 0 11 12 0 10 17 0 17 4 0 3 0 0 0 0 0 0 0 0 0 0 0 0 0 0 0 0 0 0 0 0 0 0 0 0 0 0 0 0 0 0 0 0 0 0 0 0 0 0 0 0 0 0 0 0 0 0 0 0 0 0 0 0 0 0 0 0 0 0 0 0 0 0 0 0 0 0 0 0 0 0 0 0 0 0 0 0 0 0 0 0 0 0 0 0 0 0 0 0 0 0 0 0 0 0 0 0 0 0 0 0 0 0 0 0 0 0 0 0 0 0 0 0 0 0 0 0 0 0 0 0 0 0 0 0 0 0 0 0 0 0 0 0 0 0 0 0 0 0 0 0 0 0 0 0 0 0 0 0 0 0 0 0 0 0 0 0 0 0 0 0 0 0 0 0 0 0 0 0 0 0 0 0 0 0 0 0 0 0 0 0 0 0 0 0 0 0 0 0 0 0 0 0 0 0 0 0 0 0 0 0 0 0 0 0 0 0 0 0 0 0 0 0 0 0 0 0 0 0 0 0 0 0 0 0 0 0 0 0 0 0 0 0 0 0 0 0 0 0 0 0 0 0 0 0 0 0 0 0 0 0 0 0 0 0 0 0 0 0 0 0 0 0 0 0 0 0 0 0 0 0 0 0 0 0 0 0 0 0 0 0 0 0 0 0 0 0 0 0 0 0 0 0 0 0 0 0 0 0 0 0 0 0 0 0 0 0 0 0 0 0 0 0 0 0 0 0 0 0 0 0 0 0 0 0 0 0 0 0 0 0 0 0 0 0 0 0 0 0 0 0 0 0 0 0 0 0 0 0 0 0 0 0 0 0 0 0 0 0 0 0 0 0 0 0 0 0 0 0 0 0 0 0 0 0 0 0 0 0 0 0 0 0 0 0 0 0 0 0 0 0 0 0 0 0 0 0 0 0 0 0 0 0 0 0 0 0 0 0 0 0 0 0 0 0 0 0 0 0 0 0 0 0 0 0 0 0 0 0 0 0 0 0 0 0 0 0 0 0 0 0 0 0 0 0 0 0 0 0 0 0 0 0 0 0 0 0 0 0 0 0 0 0 0 0 0 0 0 0 0 0 0 0 0 0 0 0 0 0 0 0 0 0 0 0 0 0 0 0 0 0 0 0 0 0 0 0 0 0 0 0 0 0 0 0 0 0 0 0 0 0 0 0 0 0 0 0 0 0 0 0 0 0 0 0 0 0 0 0 0 0 0 0 0 0 0 0 0 0 0 0 0 0 0 0 0 0 0 0 0 0 0 0 0 0 0 0 0 0 0 0 0 0 0 0 0 0 0 0 0 0 0 0 0 0 0 0 0 0 0 0 0 0 0 0 0 0 0 0 0 0 0 0 0 0 0 0 0 0 0 0 0 0 0 0 0 0 0 0 0 0 0 0 0 0 0 0 0 0 0 0 0 0 0 0 0 0 0 0 0 0 0 0 0 0 0 0 0 0 0 0 0 0 0 0 0 0 0 0 0 0 0 0 0 0 0 0 0 0 0 0 0 0 0 0 0 0 0 0 0 0 0 0 0 0 0 0 0 0 0 0 0 0 0 0 0 0 0 0 0 0 0 0 0 0 0 0 0 0 0 0 0 0 0 0 0 0 0 0 0 0 0 0 0 0 0 0 0 0 0 0 0 0 0 0 0 0 0 0 0 0 0 0 0 0 0 0 0 0 0 0 0 0 0 0 0 0 0 0 0 0 0 0 0 0 0 0 0 0 0 0 255
255 0 0 0 0 0 0 0 0 0 0 0 0 0 0 0 0 0 0 0 0 0 0 0 0 0 0 0 0 0 0 0 0 0 0 0 0 0 0 0 0 0 0 0 0 0 0 0 0 0 0 0 0 0 0 0 0 0 0 0 0 0 0 0 0 0 0 0 0 0 0 0 0 0 0 0 0 0 0 0 0 0 0 0 0 0 0 0 0 0 0 0 0 0 0 0 0 0 0 0 0 0 0 0 0 0 0 0 0 0 0 0 0 0 0 0 0 0 0 0 0 0 0 0 0 0 0 10 0 13 14 0 11 28 0 0 16 0 3 0 0 0 0 0 0 0 0 0 0 0 0 0 0 0 0 0 0 0 0 0 0 0 0 0 0 0 0 0 0 0 0 0 0 0 0 0 0 0 0 0 0 0 0 0 0 0 0 0 0 0 0 0 0 0 0 0 0 0 0 0 0 0 0 0 0 0 0 0 0 0 0 0 0 0 0 0 0 0 0 0 0 0 0 0 0 0 0 0 0 0 0 0 0 0 0 0 0 0 0 0 0 0 0 0 0 0 0 0 0 0 0 0 0 0 0 0 0 0 0 0 0 0 0 0 0 0 0 0 0 0 0 0 0 0 0 0 0 0 0 0 0 0 0 0 0 0 0 0 0 0 0 0 0 0 0 0 0 0 0 0 0 0 0 0 0 0 0 0 0 0 0 0 0 0 0 0 0 0 0 0 0 0 0 0 0 0 0 0 0 0 0 0 0 0 0 0 0 0 0 0 0 0 0 0 0 0 0 0 0 0 0 0 0 0 0 0 0 0 0 0 0 0 0 0 0 0 0 0 0 0 0 0 0 0 0 0 0 0 0 0 0 0 0 0 0 0 0 0 0 0 0 0 0 0 0 0 0 0 0 0 0 0 0 0 0 0 0 0 0 0 0 0 0 0 0 0 0 0 0 0 0 0 0 0 0 0 0 0 0 0 0 0 0 0 0 0 0 0 0 0 0 0 0 0 0 0 0 0 0 0 0 0 0 0 0 0 0 0 0 0 0 0 0 0 0 0 0 0 0 0 0 0 0 0 0 0 0 0 0 0 0 0 0 0 0 0 0 0 0 0 0 0 0 0 0 0 0 0 0 0 0 0 0 0 0 0 0 0 0 0 0 0 0 0 0 0 0 0 0 0 0 0 0 0 0 0 0 0 0 0 0 0 0 0 0 0 0 0 0 0 0 0 0 0 0 0 0 0 0 0 0 0 0 0 0 0 0 0 0 0 0 0 0 0 0 0 0 0 0 0 0 0 0 0 0 0 0 0 0 0 0 0 0 0 0 0 0 0 0 0 0 0 0 0 0 0 0 0 0 0 0 0 0 0 0 0 0 0 0 0 0 0 0 0 0 0 0 0 0 0 0 0 0 0 0 0 0 0 0 0 0 0 0 0 0 0 0 0 0 0 0 0 0 0 0 0 0 0 0 0 0 0 0 0 0 0 0 0 0 0 0 0 0 0 0 0 0 0 0 0 0 0 0 0 0 0 0 0 0 0 0 0 0 0 0 0 0 0 0 0 0 0 0 0 0 0 0 0 0 0 0 0 0 0 0 0 0 0 0 0 0 0 0 0 0 0 0 0 0 0 0 0 0 0 0 0 0 0 0 0 0 0 0 0 0 0 0 0 0 0 0 0 0 0 0 0 0 0 0 0 0 0 0 0 0 0 0 0 0 0 0 0 0 0 0 0 0 0 0 0 0 0 0 0 0 0 0 0 0 0 0 0 0 0 0 0 0 0 0 0 0 0 0 0 0 0 0 0 0 0 0 0 0 0 0 0 0 0 0 0 0 0 0 0 0 0 0 0 0 0 0 0 0 0 0 0 0 0 0 0 0 0 0 0 0 0 0 0 0 0 0 0 0 0 0 0 0 0 0 0 0 0 0 0 0 0 0 0 0 0 0 0 0 0 0 0 0 0 0 0 0 0 0 0 0 0 0 0 0 0 0 0 0 0 0 0 0 0 0 0 0 0 0 0 0 0 0 0 0 255
255 0 0 0 0 0 0 0 0 0 0 0 0 0 0 0 0 0 0 0 0 0 0 0 0 0 0 0 0 0 0 0 0 0 0 0 0 0 0 0 0 0 0 0 0 0 0 0 0 0 0 0 0 0 0 0 0 0 0 0 0 0 0 0 0 0 0 0 0 0 0 0 0 0 0 0 0 0 0 0 0 0 0 0 0 0 0 0 0 0 0 0 0 0 0 0 0 0 0 0 0 0 0 0 0 0 0 0 0 0 0 0 0 0 0 0 0 0 0 0 0 0 0 0 0 0 0 7 0 0 19 0 15 50 0 0 23 0 3 0 0 0 0 0 0 0 0 0 0 0 0 0 0 0 0 0 0 0 0 0 0 0 0 0 0 0 0 0 0 0 0 0 0 0 0 0 0 0 0 0 0 0 0 0 0 0 0 0 0 0 0 0 0 0 0 0 0 0 0 0 0 0 0 0 0 0 0 0 0 0 0 0 0 0 0 0 0 0 0 0 0 0 0 0 0 0 0 0 0 0 0 0 0 0 0 0 0 0 0 0 0 0 0 0 0 0 0 0 0 0 0 0 0 0 0 0 0 0 0 0 0 0 0 0 0 0 0 0 0 0 0 0 0 0 0 0 0 0 0 0 0 0 0 0 0 0 0 0 0 0 0 0 0 0 0 0 0 0 0 0 0 0 0 0 0 0 0 0 0 0 0 0 0 0 0 0 0 0 0 0 0 0 0 0 0 0 0 0 0 0 0 0 0 0 0 0 0 0 0 0 0 0 0 0 0 0 0 0 0 0 0 0 0 0 0 0 0 0 0 0 0 0 0 0 0 0 0 0 0 0 0 0 0 0 0 0 0 0 0 0 0 0 0 0 0 0 0 0 0 0 0 0 0 0 0 0 0 0 0 0 0 0 0 0 0 0 0 0 0 0 0 0 0 0 0 0 0 0 0 0 0 0 0 0 0 0 0 0 0 0 0 0 0 0 0 0 0 0 0 0 0 0 0 0 0 0 0 0 0 0 0 0 0 0 0 0 0 0 0 0 0 0 0 0 0 0 0 0 0 0 0 0 0 0 0 0 0 0 0 0 0 0 0 0 0 0 0 0 0 0 0 0 0 0 0 0 0 0 0 0 0 0 0 0 0 0 0 0 0 0 0 0 0 0 0 0 0 0 0 0 0 0 0 0 0 0 0 0 0 0 0 0 0 0 0 0 0 0 0 0 0 0 0 0 0 0 0 0 0 0 0 0 0 0 0 0 0 0 0 0 0 0 0 0 0 0 0 0 0 0 0 0 0 0 0 0 0 0 0 0 0 0 0 0 0 0 0 0 0 0 0 0 0 0 0 0 0 0 0 0 0 0 0 0 0 0 0 0 0 0 0 0 0 0 0 0 0 0 0 0 0 0 0 0 0 0 0 0 0 0 0 0 0 0 0 0 0 0 0 0 0 0 0 0 0 0 0 0 0 0 0 0 0 0 0 0 0 0 0 0 0 0 0 0 0 0 0 0 0 0 0 0 0 0 0 0 0 0 0 0 0 0 0 0 0 0 0 0 0 0 0 0 0 0 0 0 0 0 0 0 0 0 0 0 0 0 0 0 0 0 0 0 0 0 0 0 0 0 0 0 0 0 0 0 0 0 0 0 0 0 0 0 0 0 0 0 0 0 0 0 0 0 0 0 0 0 0 0 0 0 0 0 0 0 0 0 0 0 0 0 0 0 0 0 0 0 0 0 0 0 0 0 0 0 0 0 0 0 0 0 0 0 0 0 0 0 0 0 0 0 0 0 0 0 0 0 0 0 0 0 0 0 0 0 0 0 0 0 0 0 0 0 0 0 0 0 0 0 0 0 0 0 0 0 0 0 0 0 0 0 0 0 0 0 0 0 0 0 0 0 0 0 0 0 0 0 0 0 0 0 0 0 0 0 0 0 0 0 0 0 0 0 0 0 0 0 0 0 0 0 0 0 0 0 0 0 0 0 0 0 0 0 0 0 0 0 0 0 0 0 0 0 0 0 0 0 0 0 0 255
255 0 0 0 0 0 0 0 0 0 0 0 0 0 0 0 0 0 0 0 0 0 0 0 0 0 0 0 0 0 0 0 0 0 0 0 0 0 0 0 0 0 0 0 0 0 0 0 0 0 0 0 0 0 0 0 0 0 0 0 0 0 0 0 0 0 0 0 0 0 0 0 0 0 0 0 0 0 0 0 0 0 0 0 0 0 0 0 0 0 0 0 0 0 0 0 0 0 0 0 0 0 0 0 0 0 0 0 0 0 0 0 0 0 0 0 0 0 0 0 0 0 0 0 0 0 0 4 19 0 32 14 53 118 0 42 27 0 3 0 0 0 0 0 0 0 0 0 0 0 0 0 0 0 0 0 0 0 0 0 0 0 0 0 0 0 0 0 0 0 0 0 0 0 0 0 0 0 0 0 0 0 0 0 0 0 0 0 0 0 0 0 0 0 0 0 0 0 0 0 0 0 0 0 0 0 0 0 0 0 0 0 0 0 0 0 0 0 0 0 0 0 0 0 0 0 0 0 0 0 0 0 0 0 0 0 0 0 0 0 0 0 0 0 0 0 0 0 0 0 0 0 0 0 0 0 0 0 0 0 0 0 0 0 0 0 0 0 0 0 0 0 0 0 0 0 0 0 0 0 0 0 0 0 0 0 0 0 0 0 0 0 0 0 0 0 0 0 0 0 0 0 0 0 0 0 0 0 0 0 0 0 0 0 0 0 0 0 0 0 0 0 0 0 0 0 0 0 0 0 0 0 0 0 0 0 0 0 0 0 0 0 0 0 0 0 0 0 0 0 0 0 0 0 0 0 0 0 0 0 0 0 0 0 0 0 0 0 0 0 0 0 0 0 0 0 0 0 0 0 0 0 0 0 0 0 0 0 0 0 0 0 0 0 0 0 0 0 0 0 0 0 0 0 0 0 0 0 0 0 0 0 0 0 0 0 0 0 0 0 0 0 0 0 0 0 0 0 0 0 0 0 0 0 0 0 0 0 0 0 0 0 0 0 0 0 0 0 0 0 0 0 0 0 0 0 0 0 0 0 0 0 0 0 0 0 0 0 0 0 0 0 0 0 0 0 0 0 0 0 0 0 0 0 0 0 0 0 0 0 0 0 0 0 0 0 0 0 0 0 0 0 0 0 0 0 0 0 0 0 0 0 0 0 0 0 0 0 0 0 0 0 0 0 0 0 0 0 0 0 0 0 0 0 0 0 0 0 0 0 0 0 0 0 0 0 0 0 0 0 0 0 0 0 0 0 0 0 0 0 0 0 0 0 0 0 0 0 0 0 0 0 0 0 0 0 0 0 0 0 0 0 0 0 0 0 0 0 0 0 0 0 0 0 0 0 0 0 0 0 0 0 0 0 0 0 0 0 0 0 0 0 0 0 0 0 0 0 0 0 0 0 0 0 0 0 0 0 0 0 0 0 0 0 0 0 0 0 0 0 0 0 0 0 0 0 0 0 0 0 0 0 0 0 0 0 0 0 0 0 0 0 0 0 0 0 0 0 0 0 0 0 0 0 0 0 0 0 0 0 0 0 0 0 0 0 0 0 0 0 0 0 0 0 0 0 0 0 0 0 0 0 0 0 0 0 0 0 0 0 0 0 0 0 0 0 0 0 0 0 0 0 0 0 0 0 0 0 0 0 0 0 0 0 0 0 0 0 0 0 0 0 0 0 0 0 0 0 0 0 0 0 0 0 0 0 0 0 0 0 0 0 0 0 0 0 0 0 0 0 0 0 0 0 0 0 0 0 0 0 0 0 0 0 0 0 0 0 0 0 0 0 0 0 0 0 0 0 0 0 0 0 0 0 0 0 0 0 0 0 0 0 0 0 0 0 0 0 0 0 0 0 0 0 0 0 0 0 0 0 0 0 0 0 0 0 0 0 0 0 0 0 0 0 0 0 0 0 0 0 0 0 0 0 0 0 0 0 0 0 0 0 0 0 0 0 0 0 0 0 0 0 0 0 0 0 0 0 0 0 0 0 0 0 0 0 0 0 0 0 0 0 0 0 0 0 0 0 0 255
255 0 0 0 0 0 0 0 0 0 0 0 0 0 0 0 0 0 0 0 0 0 0 0 0 0 0 0 0 0 0 0 0 0 0 0 0 0 0 0 0 0 0 0 0 0 0 0 0 0 0 0 0 0 0 0 0 0 0 0 0 0 0 0 0 0 0 0 0 0 0 0 0 0 0 0 0 0 0 0 0 0 0 0 0 0 0 0 0 0 0 0 0 0 0 0 0 0 0 0 0 0 0 0 0 0 0 0 0 0 0 0 0 0 0 0 0 0 0 0 0 0 0 0 0 0 0 2 14 0 47 13 0 31 0 57 41 0 3 0 0 0 0 0 0 0 0 0 0 0 0 0 0 0 0 0 0 0 0 0 0 0 0 0 0 0 0 0 0 0 0 0 0 0 0 0 0 0 0 0 0 0 0 0 0 0 0 0 0 0 0 0 0 0 0 0 0 0 0 0 0 0 0 0 0 0 0 0 0 0 0 0 0 0 0 0 0 0 0 0 0 0 0 0 0 0 0 0 0 0 0 0 0 0 0 0 0 0 0 0 0 0 0 0 0 0 0 0 0 0 0 0 0 0 0 0 0 0 0 0 0 0 0 0 0 0 0 0 0 0 0 0 0 0 0 0 0 0 0 0 0 0 0 0 0 0 0 0 0 0 0 0 0 0 0 0 0 0 0 0 0 0 0 0 0 0 0 0 0 0 0 0 0 0 0 0 0 0 0 0 0 0 0 0 0 0 0 0 0 0 0 0 0 0 0 0 0 0 0 0 0 0 0 0 0 0 0 0 0 0 0 0 0 0 0 0 0 0 0 0 0 0 0 0 0 0 0 0 0 0 0 0 0 0 0 0 0 0 0 0 0 0 0 0 0 0 0 0 0 0 0 0 0 0 0 0 0 0 0 0 0 0 0 0 0 0 0 0 0 0 0 0 0 0 0 0 0 0 0 0 0 0 0 0 0 0 0 0 0 0 0 0 0 0 0 0 0 0 0 0 0 0 0 0 0 0 0 0 0 0 0 0 0 0 0 0 0 0 0 0 0 0 0 0 0 0 0 0 0 0 0 0 0 0 0 0 0 0 0 0 0 0 0 0 0 0 0 0 0 0 0 0 0 0 0 0 0 0 0 0 0 0 0 0 0 0 0 0 0 0 0 0 0 0 0 0 0 0 0 0 0 0 0 0 0 0 0 0 0 0 0 0 0 0 0 0 0 0 0 0 0 0 0 0 0 0 0 0 0 0 0 0 0 0 0 0 0 0 0 0 0 0 0 0 0 0 0 0 0 0 0 0 0 0 0 0 0 0 0 0 0 0 0 0 0 0 0 0 0 0 0 0 0 0 0 0 0 0 0 0 0 0 0 0 0 0 0 0 0 0 0 0 0 0 0 0 0 0 0 0 0 0 0 0 0 0 0 0 0 0 0 0 0 0 0 0 0 0 0 0 0 0 0 0 0 0 0 0 0 0 0 0 0 0 0 0 0 0 0 0 0 0 0 0 0 0 0 0 0 0 0 0 0 0 0 0 0 0 0 0 0 0 0 0 0 0 0 0 0 0 0 0 0 0 0 0 0 0 0 0 0 0 0 0 0 0 0 0 0 0 0 0 0 0 0 0 0 0 0 0 0 0 0 0 0 0 0 0 0 0 0 0 0 0 0 0 0 0 0 0 0 0 0 0 0 0 0 0 0 0 0 0 0 0 0 0 0 0 0 0 0 0 0 0 0 0 0 0 0 0 0 0 0 0 0 0 0 0 0 0 0 0 0 0 0 0 0 0 0 0 0 0 0 0 0 0 0 0 0 0 0 0 0 0 0 0 0 0 0 0 0 0 0 0 0 0 0 0 0 0 0 0 0 0 0 0 0 0 0 0 0 0 0 0 0 0 0 0 0 0 0 0 0 0 0 0 0 0 0 0 0 0 0 0 0 0 0 0 0 0 0 0 0 0 0 0 0 0 0 0 0 0 0 0 0 0 0 0 0 0 0 0 0 0 0 0 0 0 0 0 0 0 0 0 0 0 0 0 0 255
255 0 0 0 0 0 0 0 0 0 0 0 0 0 0 0 0 0 0 0 0 0 0 0 0 0 0 0 0 0 0 0 0 0 0 0 0 0 0 0 0 0 0 0 0 0 0 0 0 0 0 0 0 0 0 0 0 0 0 0 0 0 0 0 0 0 0 0 0 0 0 0 0 0 0 0 0 0 0 0 0 0 0 0 0 0 0 0 0 0 0 0 0 0 0 0 0 0 0 0 0 0 0 0 0 0 0 0 0 0 0 0 0 5 6 6 3 7 7 6 2 3 3 3 3 3 3 9 16 0 81 0 0 0 0 26 72 0 6 4 4 1 1 1 1 2 3 5 7 6 5 3 4 3 2 1 0 0 0 0 0 0 0 0 0 0 0 0 0 0 0 0 0 0 0 0 0 0 0 0 0 0 0 0 0 0 0 0 0 0 0 0 0 0 0 0 0 0 0 0 0 0 0 0 0 0 0 0 0 0 0 0 0 0 0 0 0 0 0 0 0 0 0 0 0 0 0 0 0 0 0 0 0 0 0 0 0 0 0 0 0 0 0 0 0 0 0 0 0 0 0 0 0 0 0 0 0 0 0 0 0 0 0 0 0 0 0 0 0 0 0 0 0 0 0 0 0 0 0 0 0 0 0 0 0 0 0 0 0 0 0 0 0 0 0 0 0 0 0 0 0 0 0 0 0 0 0 0 0 0 0 0 0 0 0 0 0 0 0 0 0 0 0 0 0 0 0 0 0 0 0 0 0 0 0 0 0 0 0 0 0 0 0 0 0 0 0 0 0 0 0 0 0 0 0 0 0 0 0 0 0 0 0 0 0 0 0 0 0 0 0 0 0 0 0 0 0 0 0 0 0 0 0 0 0 0 0 0 0 0 0 0 0 0 0 0 0 0 0 0 0 0 0 0 0 0 0 0 0 0 0 0 0 0 0 0 0 0 0 0 0 0 0 0 0 0 0 0 0 0 0 0 0 0 0 0 0 0 0 0 0 0 0 0 0 0 0 0 0 0 0 0 0 0 0 0 0 0 0 0 0 0 0 0 0 0 0 0 0 0 0 0 0 0 0 0 0 0 0 0 0 0 0 0 0 0 0 0 0 0 0 0 0 0 0 0 0 0 0 0 0 0 0 0 0 0 0 0 0 0 0 0 0 0 0 0 0 0 0 0 0 0 0 0 0 0 0 0 0 0 0 0 0 0 0 0 0 0 0 0 0 0 0 0 0 0 0 0 0 0 0 0 0 0 0 0 0 0 0 0 0 0 0 0 0 0 0 0 0 0 0 0 0 0 0 0 0 0 0 0 0 0 0 0 0 0 0 0 0 0 0 0 0 0 0 0 0 0 0 0 0 0 0 0 0 0 0 0 0 0 0 0 0 0 0 0 0 0 0 0 0 0 0 0 0 0 0 0 0 0 0 0 0 0 0 0 0 0 0 0 0 0 0 0 0 0 0 0 0 0 0 0 0 0 0 0 0 0 0 0 0 0 0 0 0 0 0 0 0 0 0 0 0 0 0 0 0 0 0 0 0 0 0 0 0 0 0 0 0 0 0 0 0 0 0 0 0 0 0 0 0 0 0 0 0 0 0 0 0 0 0 0 0 0 0 0 0 0 0 0 0 0 0 0 0 0 0 0 0 0 0 0 0 0 0 0 0 0 0 0 0 0 0 0 0 0 0 0 0 0 0 0 0 0 0 0 0 0 0 0 0 0 0 0 0 0 0 0 0 0 0 0 0 0 0 0 0 0 0 0 0 0 0 0 0 0 0 0 0 0 0 0 0 0 0 0 0 0 0 0 0 0 0 0 0 0 0 0 0 0 0 0 0 0 0 0 0 0 0 0 0 0 0 0 0 0 0 0 0 0 0 0 0 0 0 0 0 0 0 0 0 0 0 0 0 0 0 0 0 0 0 0 0 0 0 0 0 0 0 0 0 0 0 0 0 0 0 0 0 0 0 0 0 0 0 0 0 0 0 0 0 0 0 0 0 0 0 0 0 0 0 0 0 0 0 0 0 0 0 255
255 0 0 0 0 0 0 0 0 0 0 0 0 0 0 0 0 0 0 0 0 0 0 0 0 0 0 0 0 0 0 0 0 0 0 0 0 0 0 0 0 0 0 0 0 0 0 0 0 0 0 0 0 0 0 0 0 0 0 0 0 0 0 0 0 0 0 0 0 0 0 0 0 0 0 0 0 0 0 0 0 0 0 0 0 0 0 0 0 0 0 0 0 0 0 0 0 0 0 0 0 0 0 0 0 0 0 0 0 0 0 1 1 6 0 1 7 0 0 12 0 0 0 0 0 0 0 5 0 29 123 0 3 169 0 0 98 14 8 0 7 3 0 3 4 3 8 8 0 0 10 0 1 0 0 2 0 0 0 0 0 0 0 0 0 0 0 0 0 0 0 0 0 0 0 0 0 0 0 0 0 0 0 0 0 0 0 0 0 0 0 0 0 0 0 0 0 0 0 0 0 0 0 0 0 0 0 0 0 0 0 0 0 0 0 0 0 0 0 0 0 0 0 0 0 0 0 0 0 0 0 0 0 0 0 0 0 0 0 0 0 0 0 0 0 0 0 0 0 0 0 0 0 0 0 0 0 0 0 0 0 0 0 0 0 0 0 0 0 0 0 0 0 0 0 0 0 0 0 0 0 0 0 0 0 0 0 0 0 0 0 0 0 0 0 0 0 0 0 0 0 0 0 0 0 0 0 0 0 0 0 0 0 0 0 0 0 0 0 0 0 0 0 0 0 0 0 0 0 0 0 0 0 0 0 0 0 0 0 0 0 0 0 0 0 0 0 0 0 0 0 0 0 0 0 0 0 0 0 0 0 0 0 0 0 0 0 0 0 0 0 0 0 0 0 0 0 0 0 0 0 0 0 0 0 0 0 0 0 0 0 0 0 0 0 0 0 0 0 0 0 0 0 0 0 0 0 0 0 0 0 0 0 0 0 0 0 0 0 0 0 0 0 0 0 0 0 0 0 0 0 0 0 0 0 0 0 0 0 0 0 0 0 0 0 0 0 0 0 0 0 0 0 0 0 0 0 0 0 0 0 0 0 0 0 0 0 0 0 0 0 0 0 0 0 0 0 0 0 0 0 0 0 0 0 0 0 0 0 0 0 0 0 0 0 0 0 0 0 0 0 0 0 0 0 0 0 0 0 0 0 0 0 0 0 0 0 0 0 0 0 0 0 0 0 0 0 0 0 0 0 0 0 0 0 0 0 0 0 0 0 0 0 0 0 0 0 0 0 0 0 0 0 0 0 0 0 0 0 0 0 0 0 0 0 0 0 0 0 0 0 0 0 0 0 0 0 0 0 0 0 0 0 0 0 0 0 0 0 0 0 0 0 0 0 0 0 0 0 0 0 0 0 0 0 0 0 0 0 0 0 0 0 0 0 0 0 0 0 0 0 0 0 0 0 0 0 0 0 0 0 0 0 0 0 0 0 0 0 0 0 0 0 0 0 0 0 0 0 0 0 0 0 0 0 0 0 0 0 0 0 0 0 0 0 0 0 0 0 0 0 0 0 0 0 0 0 0 0 0 0 0 0 0 0 0 0 0 0 0 0 0 0 0 0 0 0 0 0 0 0 0 0 0 0 0 0 0 0 0 0 0 0 0 0 0 0 0 0 0 0 0 0 0 0 0 0 0 0 0 0 0 0 0 0 0 0 0 0 0 0 0 0 0 0 0 0 0 0 0 0 0 0 0 0 0 0 0 0 0 0 0 0 0 0 0 0 0 0 0 0 0 0 0 0 0 0 0 0 0 0 0 0 0 0 0 0 0 0 0 0 0 0 0 0 0 0 0 0 0 0 0 0 0 0 0 0 0 0 0 0 0 0 0 0 0 0 0 0 0 0 0 0 0 0 0 0 0 0 0 0 0 0 0 0 0 0 0 0 0 0 0 0 0 0 0 0 0 0 0 0 0 0 0 0 0 0 0 0 0 0 0 0 0 0 0 0 0 0 0 0 0 0 0 0 0 0 0 0 0 0 0 0 0 0 0 0 0 0 0 0 0 0 0 0 0 0 0 0 255
255 0 0 0 0 0 0 0 0 0 0 0 0 0 0 0 0 0 0 0 0 0 0 0 0 0 0 0 0 0 0 0 0 0 0 0 0 0 0 0 0 0 0 0 0 0 0 0 0 0 0 0 0 0 0 0 0 0 0 0 0 0 0 0 0 0 0 0 0 0 0 0 0 0 0 0 0 0 0 0 0 0 0 0 0 0 0 0 0 0 0 0 0 0 0 0 0 0 0 0 0 0 0 0 0 0 0 0 0 0 0 4 0 9 7 4 0 13 16 0 6 0 0 0 0 0 0 8 0 43 57 0 0 77 0 0 92 32 13 0 11 8 0 7 6 0 0 0 13 3 15 0 5 0 0 3 0 0 0 0 0 0 0 0 0 0 0 0 0 0 0 0 0 0 0 0 0 0 0 0 0 0 0 0 0 0 0 0 0 0 0 0 0 0 0 0 0 0 0 0 0 0 0 0 0 0 0 0 0 0 0 0 0 0 0 0 0 0 0 0 0 0 0 0 0 0 0 0 0 0 0 0 0 0 0 0 0 0 0 0 0 0 0 0 0 0 0 0 0 0 0 0 0 0 0 0 0 0 0 0 0 0 0 0 0 0 0 0 0 0 0 0 0 0 0 0 0 0 0 0 0 0 0 0 0 0 0 0 0 0 0 0 0 0 0 0 0 0 0 0 0 0 0 0 0 0 0 0 0 0 0 0 0 0 0 0 0 0 0 0 0 0 0 0 0 0 0 0 0 0 0 0 0 0 0 0 0 0 0 0 0 0 0 0 0 0 0 0 0 0 0 0 0 0 0 0 0 0 0 0 0 0 0 0 0 0 0 0 0 0 0 0 0 0 0 0 0 0 0 0 0 0 0 0 0 0 0 0 0 0 0 0 0 0 0 0 0 0 0 0 0 0 0 0 0 0 0 0 0 0 0 0 0 0 0 0 0 0 0 0 0 0 0 0 0 0 0 0 0 0 0 0 0 0 0 0 0 0 0 0 0 0 0 0 0 0 0 0 0 0 0 0 0 0 0 0 0 0 0 0 0 0 0 0 0 0 0 0 0 0 0 0 0 0 0 0 0 0 0 0 0 0 0 0 0 0 0 0 0 0 0 0 0 0 0 0 0 0 0 0 0 0 0 0 0 0 0 0 0 0 0 0 0 0 0 0 0 0 0 0 0 0 0 0 0 0 0 0 0 0 0 0 0 0 0 0 0 0 0 0 0 0 0 0 0 0 0 0 0 0 0 0 0 0 0 0 0 0 0 0 0 0 0 0 0 0 0 0 0 0 0 0 0 0 0 0 0 0 0 0 0 0 0 0 0 0 0 0 0 0 0 0 0 0 0 0 0 0 0 0 0 0 0 0 0 0 0 0 0 0 0 0 0 0 0 0 0 0 0 0 0 0 0 0 0 0 0 0 0 0 0 0 0 0 0 0 0 0 0 0 0 0 0 0 0 0 0 0 0 0 0 0 0 0 0 0 0 0 0 0 0 0 0 0 0 0 0 0 0 0 0 0 0 0 0 0 0 0 0 0 0 0 0 0 0 0 0 0 0 0 0 0 0 0 0 0 0 0 0 0 0 0 0 0 0 0 0 0 0 0 0 0 0 0 0 0 0 0 0 0 0 0 0 0 0 0 0 0 0 0 0 0 0 0 0 0 0 0 0 0 0 0 0 0 0 0 0 0 0 0 0 0 0 0 0 0 0 0 0 0 0 0 0 0 0 0 0 0 0 0 0 0 0 0 0 0 0 0 0 0 0 0 0 0 0 0 0 0 0 0 0 0 0 0 0 0 0 0 0 0 0 0 0 0 0 0 0 0 0 0 0 0 0 0 0 0 0 0 0 0 0 0 0 0 0 0 0 0 0 0 0 0 0 0 0 0 0 0 0 0 0 0 0 0 0 0 0 0 0 0 0 0 0 0 0 0 0 0 0 0 0 0 0 0 0 0 0 0 0 0 0 0 0 0 0 0 0 0 0 0 0 0 0 0 0 0 0 0 0 0 0 0 0 0 0 0 0 0 0 255
255 0 0 0 0 0 0 0 0 0 0 0 0 0 0 0 0 0 0 0 0 0 0 0 0 0 0 0 0 0 0 0 0 0 0 0 0 0 0 0 0 0 0 0 0 0 0 0 0 0 0 0 0 0 0 0 0 0 0 0 0 0 0 0 0 0 0 0 0 0 0 0 0 0 0 0 0 0 0 0 0 0 0 0 0 0 0 0 0 0 0 0 0 0 0 0 0 0 0 0 0 0 0 0 0 0 0 0 0 0 0 4 0 14 11 12 0 10 13 0 8 0 0 0 0 0 0 4 0 77 0 0 14 61 0 0 41 34 9 0 3 6 0 16 3 17 0 0 12 6 0 0 3 0 0 3 0 0 0 0 0 0 0 0 0 0 0 0 0 0 0 0 0 0 0 0 0 0 0 0 0 0 0 0 0 0 0 0 0 0 0 0 0 0 0 0 0 0 0 0 0 0 0 0 0 0 0 0 0 0 0 0 0 0 0 0 0 0 0 0 0 0 0 0 0 0 0 0 0 0 0 0 0 0 0 0 0 0 0 0 0 0 0 0 0 0 0 0 0 0 0 0 0 0 0 0 0 0 0 0 0 0 0 0 0 0 0 0 0 0 0 0 0 0 0 0 0 0 0 0 0 0 0 0 0 0 0 0 0 0 0 0 0 0 0 0 0 0 0 0 0 0 0 0 0 0 0 0 0 0 0 0 0 0 0 0 0 0 0 0 0 0 0 0 0 0 0 0 0 0 0 0 0 0 0 0 0 0 0 0 0 0 0 0 0 0 0 0 0 0 0 0 0 0 0 0 0 0 0 0 0 0 0 0 0 0 0 0 0 0 0 0 0 0 0 0 0 0 0 0 0 0 0 0 0 0 0 0 0 0 0 0 0 0 0 0 0 0 0 0 0 0 0 0 0 0 0 0 0 0 0 0 0 0 0 0 0 0 0 0 0 0 0 0 0 0 0 0 0 0 0 0 0 0 0 0 0 0 0 0 0 0 0 0 0 0 0 0 0 0 0 0 0 0 0 0 0 0 0 0 0 0 0 0 0 0 0 0 0 0 0 0 0 0 0 0 0 0 0 0 0 0 0 0 0 0 0 0 0 0 0 0 0 0 0 0 0 0 0 0 0 0 0 0 0 0 0 0 0 0 0 0 0 0 0 0 0 0 0 0 0 0 0 0 0 0 0 0 0 0 0 0 0 0 0 0 0 0 0 0 0 0 0 0 0 0 0 0 0 0 0 0 0 0 0 0 0 0 0 0 0 0 0 0 0 0 0 0 0 0 0 0 0 0 0 0 0 0 0 0 0 0 0 0 0 0 0 0 0 0 0 0 0 0 0 0 0 0 0 0 0 0 0 0 0 0 0 0 0 0 0 0 0 0 0 0 0 0 0 0 0 0 0 0 0 0 0 0 0 0 0 0 0 0 0 0 0 0 0 0 0 0 0 0 0 0 0 0 0 0 0 0 0 0 0 0 0 0 0 0 0 0 0 0 0 0 0 0 0 0 0 0 0 0 0 0 0 0 0 0 0 0 0 0 0 0 0 0 0 0 0 0 0 0 0 0 0 0 0 0 0 0 0 0 0 0 0 0 0 0 0 0 0 0 0 0 0 0 0 0 0 0 0 0 0 0 0 0 0 0 0 0 0 0 0 0 0 0 0 0 0 0 0 0 0 0 0 0 0 0 0 0 0 0 0 0 0 0 0 0 0 0 0 0 0 0 0 0 0 0 0 0 0 0 0 0 0 0 0 0 0 0 0 0 0 0 0 0 0 0 0 0 0 0 0 0 0 0 0 0 0 0 0 0 0 0 0 0 0 0 0 0 0 0 0 0 0 0 0 0 0 0 0 0 0 0 0 0 0 0 0 0 0 0 0 0 0 0 0 0 0 0 0 0 0 0 0 0 0 0 0 0 0 0 0 0 0 0 0 0 0 0 0 0 0 0 0 0 0 0 0 0 0 0 0 0 0 0 0 0 0 0 0 0 0 0 0 0 0 0 0 0 0 0 0 0 0 0 0 255
255 0 0 0 0 0 0 0 0 0 0 0 0 0 0 0 0 0 0 0 0 0 0 0 0 0 0 0 0 0 0 0 0 0 0 0 0 0 0 0 0 0 0 0 0 0 0 0 0 0 0 0 0 0 0 0 0 0 0 0 0 0 0 0 0 0 0 0 0 0 0 0 0 0 0 0 0 0 0 0 0 0 0 0 0 0 0 0 0 0 0 0 0 0 0 0 0 0 0 0 0 0 0 0 0 0 0 0 0 0 0 3 12 0 0 20 0 0 13 0 7 0 0 0 0 0 0 1 13 100 0 0 22 44 23 0 0 31 19 2 5 0 0 24 0 14 12 3 9 0 0 12 0 0 0 3 0 0 0 0 0 0 0 0 0 0 0 0 0 0 0 0 0 0 0 0 0 0 0 0 0 0 0 0 0 0 0 0 0 0 0 0 0 0 0 0 0 0 0 0 0 0 0 0 0 0 0 0 0 0 0 0 0 0 0 0 0 0 0 0 0 0 0 0 0 0 0 0 0 0 0 0 0 0 0 0 0 0 0 0 0 0 0 0 0 0 0 0 0 0 0 0 0 0 0 0 0 0 0 0 0 0 0 0 0 0 0 0 0 0 0 0 0 0 0 0 0 0 0 0 0 0 0 0 0 0 0 0 0 0 0 0 0 0 0 0 0 0 0 0 0 0 0 0 0 0 0 0 0 0 0 0 0 0 0 0 0 0 0 0 0 0 0 0 0 0 0 0 0 0 0 0 0 0 0 0 0 0 0 0 0 0 0 0 0 0 0 0 0 0 0 0 0 0 0 0 0 0 0 0 0 0 0 0 0 0 0 0 0 0 0 0 0 0 0 0 0 0 0 0 0 0 0 0 0 0 0 0 0 0 0 0 0 0 0 0 0 0 0 0 0 0 0 0 0 0 0 0 0 0 0 0 0 0 0 0 0 0 0 0 0 0 0 0 0 0 0 0 0 0 0 0 0 0 0 0 0 0 0 0 0 0 0 0 0 0 0 0 0 0 0 0 0 0 0 0 0 0 0 0 0 0 0 0 0 0 0 0 0 0 0 0 0 0 0 0 0 0 0 0 0 0 0 0 0 0 0 0 0 0 0 0 0 0 0 0 0 0 0 0 0 0 0 0 0 0 0 0 0 0 0 0 0 0 0 0 0 0 0 0 0 0 0 0 0 0 0 0 0 0 0 0 0 0 0 0 0 0 0 0 0 0 0 0 0 0 0 0 0 0 0 0 0 0 0 0 0 0 0 0 0 0 0 0 0 0 0 0 0 0 0 0 0 0 0 0 0 0 0 0 0 0 0 0 0 0 0 0 0 0 0 0 0 0 0 0 0 0 0 0 0 0 0 0 0 0 0 0 0 0 0 0 0 0 0 0 0 0 0 0 0 0 0 0 0 0 0 0 0 0 0 0 0 0 0 0 0 0 0 0 0 0 0 0 0 0 0 0 0 0 0 0 0 0 0 0 0 0 0 0 0 0 0 0 0 0 0 0 0 0 0 0 0 0 0 0 0 0 0 0 0 0 0 0 0 0 0 0 0 0 0 0 0 0 0 0 0 0 0 0 0 0 0 0 0 0 0 0 0 0 0 0 0 0 0 0 0 0 0 0 0 0 0 0 0 0 0 0 0 0 0 0 0 0 0 0 0 0 0 0 0 0 0 0 0 0 0 0 0 0 0 0 0 0 0 0 0 0 0 0 0 0 0 0 0 0 0 0 0 0 0 0 0 0 0 0 0 0 0 0 0 0 0 0 0 0 0 0 0 0 0 0 0 0 0 0 0 0 0 0 0 0 0 0 0 0 0 0 0 0 0 0 0 0 0 0 0 0 0 0 0 0 0 0 0 0 0 0 0 0 0 0 0 0 0 0 0 0 0 0 0 0 0 0 0 0 0 0 0 0 0 0 0 0 0 0 0 0 0 0 0 0 0 0 0 0 0 0 0 0 0 0 0 0 0 0 0 0 0 0 0 0 0 0 0 0 0 0 0 0 0 0 0 0 0 0 0 0 0 255
255 0 0 0 0 0 0 0 0 0 0 0 0 0 0 0 0 0 0 0 0 0 0 0 0 0 0 0 0 0 0 0 0 0 0 0 0 0 0 0 0 0 0 0 0 0 0 0 0 0 0 0 0 0 0 0 0 0 0 0 0 0 0 0 0 0 0 0 0 0 0 0 0 0 0 0 0 0 0 0 0 0 0 0 0 0 0 0 0 0 0 0 0 0 0 0 0 0 0 0 0 0 0 0 0 0 0 0 0 0 0 8 17 6 0 0 0 1 9 0 3 0 0 0 0 0 0 3 36 72 0 0 17 27 50 0 0 28 21 4 6 0 0 25 0 17 15 16 13 9 15 13 2 0 0 3 0 0 0 0 0 0 0 0 0 0 0 0 0 0 0 0 0 0 0 0 0 0 0 0 0 0 0 0 0 0 0 0 0 0 0 0 0 0 0 0 0 0 0 0 0 0 0 0 0 0 0 0 0 0 0 0 0 0 0 0 0 0 0 0 0 0 0 0 0 0 0 0 0 0 0 0 0 0 0 0 0 0 0 0 0 0 0 0 0 0 0 0 0 0 0 0 0 0 0 0 0 0 0 0 0 0 0 0 0 0 0 0 0 0 0 0 0 0 0 0 0 0 0 0 0 0 0 0 0 0 0 0 0 0 0 0 0 0 0 0 0 0 0 0 0 0 0 0 0 0 0 0 0 0 0 0 0 0 0 0 0 0 0 0 0 0 0 0 0 0 0 0 0 0 0 0 0 0 0 0 0 0 0 0 0 0 0 0 0 0 0 0 0 0 0 0 0 0 0 0 0 0 0 0 0 0 0 0 0 0 0 0 0 0 0 0 0 0 0 0 0 0 0 0 0 0 0 0 0 0 0 0 0 0 0 0 0 0 0 0 0 0 0 0 0 0 0 0 0 0 0 0 0 0 0 0 0 0 0 0 0 0 0 0 0 0 0 0 0 0 0 0 0 0 0 0 0 0 0 0 0 0 0 0 0 0 0 0 0 0 0 0 0 0 0 0 0 0 0 0 0 0 0 0 0 0 0 0 0 0 0 0 0 0 0 0 0 0 0 0 0 0 0 0 0 0 0 0 0 0 0 0 0 0 0 0 0 0 0 0 0 0 0 0 0 0 0 0 0 0 0 0 0 0 0 0 0 0 0 0 0 0 0 0 0 0 0 0 0 0 0 0 0 0 0 0 0 0 0 0 0 0 0 0 0 0 0 0 0 0 0 0 0 0 0 0 0 0 0 0 0 0 0 0 0 0 0 0 0 0 0 0 0 0 0 0 0 0 0 0 0 0 0 0 0 0 0 0 0 0 0 0 0 0 0 0 0 0 0 0 0 0 0 0 0 0 0 0 0 0 0 0 0 0 0 0 0 0 0 0 0 0 0 0 0 0 0 0 0 0 0 0 0 0 0 0 0 0 0 0 0 0 0 0 0 0 0 0 0 0 0 0 0 0 0 0 0 0 0 0 0 0 0 0 0 0 0 0 0 0 0 0 0 0 0 0 0 0 0 0 0 0 0 0 0 0 0 0 0 0 0 0 0 0 0 0 0 0 0 0 0 0 0 0 0 0 0 0 0 0 0 0 0 0 0 0 0 0 0 0 0 0 0 0 0 0 0 0 0 0 0 0 0 0 0 0 0 0 0 0 0 0 0 0 0 0 0 0 0 0 0 0 0 0 0 0 0 0 0 0 0 0 0 0 0 0 0 0 0 0 0 0 0 0 0 0 0 0 0 0 0 0 0 0 0 0 0 0 0 0 0 0 0 0 0 0 0 0 0 0 0 0 0 0 0 0 0 0 0 0 0 0 0 0 0 0 0 0 0 0 0 0 0 0 0 0 0 0 0 0 0 0 0 0 0 0 0 0 0 0 0 0 0 0 0 0 0 0 0 0 0 0 0 0 0 0 0 0 0 0 0 0 0 0 0 0 0 0 0 0 0 0 0 0 0 0 0 0 0 0 0 0 0 0 0 0 0 0 0 0 0 0 0 0 0 0 0 0 0 0 0 0 0 255
255 0 0 0 0 0 0 0 0 0 0 0 0 0 0 0 0 0 0 0 0 0 0 0 0 0 0 0 0 0 0 0 0 0 0 0 0 0 0 0 0 0 0 0 0 0 0 0 0 0 0 0 0 0 0 0 0 0 0 0 0 0 0 0 0 0 0 0 0 0 0 0 0 0 0 0 0 0 0 0 0 0 0 0 0 0 0 0 0 0 0 0 0 0 0 0 0 0 0 0 0 0 0 0 0 0 0 0 0 0 0 18 0 24 18 0 32 59 58 37 1 0 0 0 0 0 0 7 46 0 0 0 0 52 23 0 0 24 21 0 5 5 0 20 21 0 0 9 10 38 25 0 9 0 0 3 0 0 0 0 0 0 0 0 0 0 0 0 0 0 0 0 0 0 0 0 0 0 0 0 0 0 0 0 0 0 0 0 0 0 0 0 0 0 0 0 0 0 0 0 0 0 0 0 0 0 0 0 0 0 0 0 0 0 0 0 0 0 0 0 0 0 0 0 0 0 0 0 0 0 0 0 0 0 0 0 0 0 0 0 0 0 0 0 0 0 0 0 0 0 0 0 0 0 0 0 0 0 0 0 0 0 0 0 0 0 0 0 0 0 0 0 0 0 0 0 0 0 0 0 0 0 0 0 0 0 0 0 0 0 0 0 0 0 0 0 0 0 0 0 0 0 0 0 0 0 0 0 0 0 0 0 0 0 0 0 0 0 0 0 0 0 0 0 0 0 0 0 0 0 0 0 0 0 0 0 0 0 0 0 0 0 0 0 0 0 0 0 0 0 0 0 0 0 0 0 0 0 0 0 0 0 0 0 0 0 0 0 0 0 0 0 0 0 0 0 0 0 0 0 0 0 0 0 0 0 0 0 0 0 0 0 0 0 0 0 0 0 0 0 0 0 0 0 0 0 0 0 0 0 0 0 0 0 0 0 0 0 0 0 0 0 0 0 0 0 0 0 0 0 0 0 0 0 0 0 0 0 0 0 0 0 0 0 0 0 0 0 0 0 0 0 0 0 0 0 0 0 0 0 0 0 0 0 0 0 0 0 0 0 0 0 0 0 0 0 0 0 0 0 0 0 0 0 0 0 0 0 0 0 0 0 0 0 0 0 0 0 0 0 0 0 0 0 0 0 0 0 0 0 0 0 0 0 0 0 0 0 0 0 0 0 0 0 0 0 0 0 0 0 0 0 0 0 0 0 0 0 0 0 0 0 0 0 0 0 0 0 0 0 0 0 0 0 0 0 0 0 0 0 0 0 0 0 0 0 0 0 0 0 0 0 0 0 0 0 0 0 0 0 0 0 0 0 0 0 0 0 0 0 0 0 0 0 0 0 0 0 0 0 0 0 0 0 0 0 0 0 0 0 0 0 0 0 0 0 0 0 0 0 0 0 0 0 0 0 0 0 0 0 0 0 0 0 0 0 0 0 0 0 0 0 0 0 0 0 0 0 0 0 0 0 0 0 0 0 0 0 0 0 0 0 0 0 0 0 0 0 0 0 0 0 0 0 0 0 0 0 0 0 0 0 0 0 0 0 0 0 0 0 0 0 0 0 0 0 0 0 0 0 0 0 0 0 0 0 0 0 0 0 0 0 0 0 0 0 0 0 0 0 0 0 0 0 0 0 0 0 0 0 0 0 0 0 0 0 0 0 0 0 0 0 0 0 0 0 0 0 0 0 0 0 0 0 0 0 0 0 0 0 0 0 0 0 0 0 0 0 0 0 0 0 0 0 0 0 0 0 0 0 0 0 0 0 0 0 0 0 0 0 0 0 0 0 0 0 0 0 0 0 0 0 0 0 0 0 0 0 0 0 0 0 0 0 0 0 0 0 0 0 0 0 0 0 0 0 0 0 0 0 0 0 0 0 0 0 0 0 0 0 0 0 0 0 0 0 0 0 0 0 0 0 0 0 0 0 0 0 0 0 0 0 0 0 0 0 0 0 0 0 0 0 0 0 0 0 0 0 0 0 0 0 0 0 0 0 0 0 0 0 0 0 0 0 0 0 0 0 0 255
255 0 0 0 0 0 0 0 0 0 0 0 0 0 0 0 0 0 0 0 0 0 0 0 0 0 0 0 0 0 0 0 0 0 0 0 0 0 0 0 0 0 0 0 0 0 0 0 0 0 0 0 0 0 0 0 0 0 0 0 0 0 0 0 0 0 0 0 0 0 0 0 0 0 0 0 0 0 0 0 0 0 0 0 0 0 0 0 0 0 0 0 0 0 0 0 0 0 0 0 0 0 0 0 0 0 0 0 0 0 0 18 0 28 18 12 106 9 0 141 17 0 0 0 0 0 0 11 75 0 0 0 0 119 0 0 0 20 27 1 4 11 0 6 23 0 12 28 0 29 62 0 13 0 0 3 0 0 0 0 0 0 0 0 0 0 0 0 0 0 0 0 0 0 0 0 0 0 0 0 0 0 0 0 0 0 0 0 0 0 0 0 0 0 0 0 0 0 0 0 0 0 0 0 0 0 0 0 0 0 0 0 0 0 0 0 0 0 0 0 0 0 0 0 0 0 0 0 0 0 0 0 0 0 0 0 0 0 0 0 0 0 0 0 0 0 0 0 0 0 0 0 0 0 0 0 0 0 0 0 0 0 0 0 0 0 0 0 0 0 0 0 0 0 0 0 0 0 0 0 0 0 0 0 0 0 0 0 0 0 0 0 0 0 0 0 0 0 0 0 0 0 0 0 0 0 0 0 0 0 0 0 0 0 0 0 0 0 0 0 0 0 0 0 0 0 0 0 0 0 0 0 0 0 0 0 0 0 0 0 0 0 0 0 0 0 0 0 0 0 0 0 0 0 0 0 0 0 0 0 0 0 0 0 0 0 0 0 0 0 0 0 0 0 0 0 0 0 0 0 0 0 0 0 0 0 0 0 0 0 0 0 0 0 0 0 0 0 0 0 0 0 0 0 0 0 0 0 0 0 0 0 0 0 0 0 0 0 0 0 0 0 0 0 0 0 0 0 0 0 0 0 0 0 0 0 0 0 0 0 0 0 0 0 0 0 0 0 0 0 0 0 0 0 0 0 0 0 0 0 0 0 0 0 0 0 0 0 0 0 0 0 0 0 0 0 0 0 0 0 0 0 0 0 0 0 0 0 0 0 0 0 0 0 0 0 0 0 0 0 0 0 0 0 0 0 0 0 0 0 0 0 0 0 0 0 0 0 0 0 0 0 0 0 0 0 0 0 0 0 0 0 0 0 0 0 0 0 0 0 0 0 0 0 0 0 0 0 0 0 0 0 0 0 0 0 0 0 0 0 0 0 0 0 0 0 0 0 0 0 0 0 0 0 0 0 0 0 0 0 0 0 0 0 0 0 0 0 0 0 0 0 0 0 0 0 0 0 0 0 0 0 0 0 0 0 0 0 0 0 0 0 0 0 0 0 0 0 0 0 0 0 0 0 0 0 0 0 0 0 0 0 0 0 0 0 0 0 0 0 0 0 0 0 0 0 0 0 0 0 0 0 0 0 0 0 0 0 0 0 0 0 0 0 0 0 0 0 0 0 0 0 0 0 0 0 0 0 0 0 0 0 0 0 0 0 0 0 0 0 0 0 0 0 0 0 0 0 0 0 0 0 0 0 0 0 0 0 0 0 0 0 0 0 0 0 0 0 0 0 0 0 0 0 0 0 0 0 0 0 0 0 0 0 0 0 0 0 0 0 0 0 0 0 0 0 0 0 0 0 0 0 0 0 0 0 0 0 0 0 0 0 0 0 0 0 0 0 0 0 0 0 0 0 0 0 0 0 0 0 0 0 0 0 0 0 0 0 0 0 0 0 0 0 0 0 0 0 0 0 0 0 0 0 0 0 0 0 0 0 0 0 0 0 0 0 0 0 0 0 0 0 0 0 0 0 0 0 0 0 0 0 0 0 0 0 0 0 0 0 0 0 0 0 0 0 0 0 0 0 0 0 0 0 0 0 0 0 0 0 0 0 0 0 0 0 0 0 0 0 0 0 0 0 0 0 0 0 0 0 0 0 0 0 0 0 0 0 0 0 0 0 0 0 0 0 0 0 0 255
255 0 0 0 0 0 0 0 0 0 0 0 0 0 0 0 0 0 0 0 0 0 0 0 0 0 0 0 0 0 0 0 0 0 0 0 0 0 0 0 0 0 0 0 0 0 0 0 0 0 0 0 0 0 0 0 0 0 0 0 0 0 0 0 0 0 0 0 0 0 0 0 0 0 0 0 0 0 0 0 0 0 0 0 0 0 0 0 0 0 0 0 0 0 0 0 0 0 0 0 0 0 0 0 0 0 0 0 0 0 0 10 11 12 0 18 140 0 0 197 112 6 17 14 17 11 9 31 103 0 0 0 0 131 0 3 0 34 34 7 3 7 0 4 20 0 43 110 0 0 124 0 12 3 0 4 3 3 1 0 0 0 0 0 0 0 0 0 0 0 0 0 0 0 0 0 0 0 0 0 0 0 0 0 0 0 0 0 0 0 0 0 0 0 0 0 0 0 0 0 0 0 0 0 0 0 0 0 0 0 0 0 0 0 0 0 0 0 0 0 0 0 0 0 0 0 0 0 0 0 0 0 0 0 0 0 0 0 0 0 0 0 0 0 0 0 0 0 0 0 0 0 0 0 0 0 0 0 0 0 0 0 0 0 0 0 0 0 0 0 0 0 0 0 0 0 0 0 0 0 0 0 0 0 0 0 0 0 0 0 0 0 0 0 0 0 0 0 0 0 0 0 0 0 0 0 0 0 0 0 0 0 0 0 0 0 0 0 0 0 0 0 0 0 0 0 0 0 0 0 0 0 0 0 0 0 0 0 0 0 0 0 0 0 0 0 0 0 0 0 0 0 0 0 0 0 0 0 0 0 0 0 0 0 0 0 0 0 0 0 0 0 0 0 0 0 0 0 0 0 0 0 0 0 0 0 0 0 0 0 0 0 0 0 0 0 0 0 0 0 0 0 0 0 0 0 0 0 0 0 0 0 0 0 0 0 0 0 0 0 0 0 0 0 0 0 0 0 0 0 0 0 0 0 0 0 0 0 0 0 0 0 0 0 0 0 0 0 0 0 0 0 0 0 0 0 0 0 0 0 0 0 0 0 0 0 0 0 0 0 0 0 0 0 0 0 0 0 0 0 0 0 0 0 0 0 0 0 0 0 0 0 0 0 0 0 0 0 0 0 0 0 0 0 0 0 0 0 0 0 0 0 0 0 0 0 0 0 0 0 0 0 0 0 0 0 0 0 0 0 0 0 0 0 0 0 0 0 0 0 0 0 0 0 0 0 0 0 0 0 0 0 0 0 0 0 0 0 0 0 0 0 0 0 0 0 0 0 0 0 0 0 0 0 0 0 0 0 0 0 0 0 0 0 0 0 0 0 0 0 0 0 0 0 0 0 0 0 0 0 0 0 0 0 0 0 0 0 0 0 0 0 0 0 0 0 0 0 0 0 0 0 0 0 0 0 0 0 0 0 0 0 0 0 0 0 0 0 0 0 0 0 0 0 0 0 0 0 0 0 0 0 0 0 0 0 0 0 0 0 0 0 0 0 0 0 0 0 0 0 0 0 0 0 0 0 0 0 0 0 0 0 0 0 0 0 0 0 0 0 0 0 0 0 0 0 0 0 0 0 0 0 0 0 0 0 0 0 0 0 0 0 0 0 0 0 0 0 0 0 0 0 0 0 0 0 0 0 0 0 0 0 0 0 0 0 0 0 0 0 0 0 0 0 0 0 0 0 0 0 0 0 0 0 0 0 0 0 0 0 0 0 0 0 0 0 0 0 0 0 0 0 0 0 0 0 0 0 0 0 0 0 0 0 0 0 0 0 0 0 0 0 0 0 0 0 0 0 0 0 0 0 0 0 0 0 0 0 0 0 0 0 0 0 0 0 0 0 0 0 0 0 0 0 0 0 0 0 0 0 0 0 0 0 0 0 0 0 0 0 0 0 0 0 0 0 0 0 0 0 0 0 0 0 0 0 0 0 0 0 0 0 0 0 0 0 0 0 0 0 0 0 0 0 0 0 0 0 0 0 0 0 0 0 0 0 0 0 0 0 0 0 0 0 0 0 0 0 0 255
255 0 0 0 0 0 0 0 0 0 0 0 0 0 0 0 0 0 0 0 0 0 0 0 0 0 0 0 0 0 0 0 0 0 0 0 0 0 0 0 0 0 0 0 0 0 0 0 0 0 0 0 0 0 0 0 0 0 0 0 0 0 0 0 0 0 0 0 0 0 0 0 0 0 0 0 0 0 0 0 0 0 0 0 0 0 0 0 0 0 0 0 0 0 0 0 0 0 0 0 0 0 0 0 0 0 0 0 0 0 0 0 1 13 6 11 159 0 0 0 255 1 24 0 0 0 0 46 14 0 30 0 85 0 18 0 0 0 6 15 4 4 0 13 5 18 87 217 0 0 109 52 2 0 13 6 0 0 2 0 0 0 0 0 0 0 0 0 0 0 0 0 0 0 0 0 0 0 0 0 0 0 0 0 0 0 0 0 0 0 0 0 0 0 0 0 0 0 0 0 0 0 0 0 0 0 0 0 0 0 0 0 0 0 0 0 0 0 0 0 0 0 0 0 0 0 0 0 0 0 0 0 0 0 0 0 0 0 0 0 0 0 0 0 0 0 0 0 0 0 0 0 0 0 0 0 0 0 0 0 0 0 0 0 0 0 0 0 0 0 0 0 0 0 0 0 0 0 0 0 0 0 0 0 0 0 0 0 0 0 0 0 0 0 0 0 0 0 0 0 0 0 0 0 0 0 0 0 0 0 0 0 0 0 0 0 0 0 0 0 0 0 0 0 0 0 0 0 0 0 0 0 0 0 0 0 0 0 0 0 0 0 0 0 0 0 0 0 0 0 0 0 0 0 0 0 0 0 0 0 0 0 0 0 0 0 0 0 0 0 0 0 0 0 0 0 0 0 0 0 0 0 0 0 0 0 0 0 0 0 0 0 0 0 0 0 0 0 0 0 0 0 0 0 0 0 0 0 0 0 0 0 0 0 0 0 0 0 0 0 0 0 0 0 0 0 0 0 0 0 0 0 0 0 0 0 0 0 0 0 0 0 0 0 0 0 0 0 0 0 0 0 0 0 0 0 0 0 0 0 0 0 0 0 0 0 0 0 0 0 0 0 0 0 0 0 0 0 0 0 0 0 0 0 0 0 0 0 0 0 0 0 0 0 0 0 0 0 0 0 0 0 0 0 0 0 0 0 0 0 0 0 0 0 0 0 0 0 0 0 0 0 0 0 0 0 0 0 0 0 0 0 0 0 0 0 0 0 0 0 0 0 0 0 0 0 0 0 0 0 0 0 0 0 0 0 0 0 0 0 0 0 0 0 0 0 0 0 0 0 0 0 0 0 0 0 0 0 0 0 0 0 0 0 0 0 0 0 0 0 0 0 0 0 0 0 0 0 0 0 0 0 0 0 0 0 0 0 0 0 0 0 0 0 0 0 0 0 0 0 0 0 0 0 0 0 0 0 0 0 0 0 0 0 0 0 0 0 0 0 0 0 0 0 0 0 0 0 0 0 0 0 0 0 0 0 0 0 0 0 0 0 0 0 0 0 0 0 0 0 0 0 0 0 0 0 0 0 0 0 0 0 0 0 0 0 0 0 0 0 0 0 0 0 0 0 0 0 0 0 0 0 0 0 0 0 0 0 0 0 0 0 0 0 0 0 0 0 0 0 0 0 0 0 0 0 0 0 0 0 0 0 0 0 0 0 0 0 0 0 0 0 0 0 0 0 0 0 0 0 0 0 0 0 0 0 0 0 0 0 0 0 0 0 0 0 0 0 0 0 0 0 0 0 0 0 0 0 0 0 0 0 0 0 0 0 0 0 0 0 0 0 0 0 0 0 0 0 0 0 0 0 0 0 0 0 0 0 0 0 0 0 0 0 0 0 0 0 0 0 0 0 0 0 0 0 0 0 0 0 0 0 0 0 0 0 0 0 0 0 0 0 0 0 0 0 0 0 0 0 0 0 0 0 0 0 0 0 0 0 0 0 0 0 0 0 0 0 0 0 0 0 0 0 0 0 0 0 0 0 0 0 0 0 0 0 0 0 0 0 0 0 0 0 0 0 0 0 0 255
255 0 0 0 0 0 0 0 0 0 0 0 0 0 0 0 0 0 0 0 0 0 0 0 0 0 0 0 0 0 0 0 0 0 0 0 0 0 0 0 0 0 0 0 0 0 0 0 0 0 0 0 0 0 0 0 0 0 0 0 0 0 0 0 0 0 0 0 0 0 0 0 0 0 0 0 0 0 0 0 0 0 0 0 0 0 0 0 0 0 0 0 0 0 0 0 0 0 0 0 0 0 0 0 0 0 0 0 0 0 0 0 0 4 0 6 139 165 0 0 107 170 0 31 20 0 19 81 0 0 2 0 74 5 51 17 0 0 18 18 6 0 0 18 0 67 126 0 0 0 47 84 10 0 1 9 0 0 5 3 1 0 0 0 0 0 0 0 0 0 0 0 0 0 0 0 0 0 0 0 0 0 0 0 0 0 0 0 0 0 0 0 0 0 0 0 0 0 0 0 0 0 0 0 0 0 0 0 0 0 0 0 0 0 0 0 0 0 0 0 0 0 0 0 0 0 0 0 0 0 0 0 0 0 0 0 0 0 0 0 0 0 0 0 0 0 0 0 0 0 0 0 0 0 0 0 0 0 0 0 0 0 0 0 0 0 0 0 0 0 0 0 0 0 0 0 0 0 0 0 0 0 0 0 0 0 0 0 0 0 0 0 0 0 0 0 0 0 0 0 0 0 0 0 0 0 0 0 0 0 0 0 0 0 0 0 0 0 0 0 0 0 0 0 0 0 0 0 0 0 0 0 0 0 0 0 0 0 0 0 0 0 0 0 0 0 0 0 0 0 0 0 0 0 0 0 0 0 0 0 0 0 0 0 0 0 0 0 0 0 0 0 0 0 0 0 0 0 0 0 0 0 0 0 0 0 0 0 0 0 0 0 0 0 0 0 0 0 0 0 0 0 0 0 0 0 0 0 0 0 0 0 0 0 0 0 0 0 0 0 0 0 0 0 0 0 0 0 0 0 0 0 0 0 0 0 0 0 0 0 0 0 0 0 0 0 0 0 0 0 0 0 0 0 0 0 0 0 0 0 0 0 0 0 0 0 0 0 0 0 0 0 0 0 0 0 0 0 0 0 0 0 0 0 0 0 0 0 0 0 0 0 0 0 0 0 0 0 0 0 0 0 0 0 0 0 0 0 0 0 0 0 0 0 0 0 0 0 0 0 0 0 0 0 0 0 0 0 0 0 0 0 0 0 0 0 0 0 0 0 0 0 0 0 0 0 0 0 0 0 0 0 0 0 0 0 0 0 0 0 0 0 0 0 0 0 0 0 0 0 0 0 0 0 0 0 0 0 0 0 0 0 0 0 0 0 0 0 0 0 0 0 0 0 0 0 0 0 0 0 0 0 0 0 0 0 0 0 0 0 0 0 0 0 0 0 0 0 0 0 0 0 0 0 0 0 0 0 0 0 0 0 0 0 0 0 0 0 0 0 0 0 0 0 0 0 0 0 0 0 0 0 0 0 0 0 0 0 0 0 0 0 0 0 0 0 0 0 0 0 0 0 0 0 0 0 0 0 0 0 0 0 0 0 0 0 0 0 0 0 0 0 0 0 0 0 0 0 0 0 0 0 0 0 0 0 0 0 0 0 0 0 0 0 0 0 0 0 0 0 0 0 0 0 0 0 0 0 0 0 0 0 0 0 0 0 0 0 0 0 0 0 0 0 0 0 0 0 0 0 0 0 0 0 0 0 0 0 0 0 0 0 0 0 0 0 0 0 0 0 0 0 0 0 0 0 0 0 0 0 0 0 0 0 0 0 0 0 0 0 0 0 0 0 0 0 0 0 0 0 0 0 0 0 0 0 0 0 0 0 0 0 0 0 0 0 0 0 0 0 0 0 0 0 0 0 0 0 0 0 0 0 0 0 0 0 0 0 0 0 0 0 0 0 0 0 0 0 0 0 0 0 0 0 0 0 0 0 0 0 0 0 0 0 0 0 0 0 0 0 0 0 0 0 0 0 0 0 0 0 0 0 0 0 0 0 0 0 0 0 0 0 0 0 0 0 0 0 0 255
255 0 0 0 0 0 0 0 0 0 0 0 0 0 0 0 0 0 0 0 0 0 0 0 0 0 0 0 0 0 0 0 0 0 0 0 0 0 0 0 0 0 0 0 0 0 0 0 0 0 0 0 0 0 0 0 0 0 0 0 0 0 0 0 0 0 0 0 0 0 0 0 0 0 0 0 0 0 0 0 0 0 0 0 0 0 0 0 0 0 0 0 0 0 0 0 0 0 0 0 0 0 0 0 0 0 0 0 0 0 0 1 1 4 6 0 92 255 0 0 0 255 59 25 0 0 18 86 0 0 0 0 46 14 59 27 0 0 0 22 11 0 4 20 0 140 46 0 0 0 0 183 37 0 0 9 3 8 0 0 2 0 0 0 0 0 0 0 0 0 0 0 0 0 0 0 0 0 0 0 0 0 0 0 0 0 0 0 0 0 0 0 0 0 0 0 0 0 0 0 0 0 0 0 0 0 0 0 0 0 0 0 0 0 0 0 0 0 0 0 0 0 0 0 0 0 0 0 0 0 0 0 0 0 0 0 0 0 0 0 0 0 0 0 0 0 0 0 0 0 0 0 0 0 0 0 0 0 0 0 0 0 0 0 0 0 0 0 0 0 0 0 0 0 0 0 0 0 0 0 0 0 0 0 0 0 0 0 0 0 0 0 0 0 0 0 0 0 0 0 0 0 0 0 0 0 0 0 0 0 0 0 0 0 0 0 0 0 0 0 0 0 0 0 0 0 0 0 0 0 0 0 0 0 0 0 0 0 0 0 0 0 0 0 0 0 0 0 0 0 0 0 0 0 0 0 0 0 0 0 0 0 0 0 0 0 0 0 0 0 0 0 0 0 0 0 0 0 0 0 0 0 0 0 0 0 0 0 0 0 0 0 0 0 0 0 0 0 0 0 0 0 0 0 0 0 0 0 0 0 0 0 0 0 0 0 0 0 0 0 0 0 0 0 0 0 0 0 0 0 0 0 0 0 0 0 0 0 0 0 0 0 0 0 0 0 0 0 0 0 0 0 0 0 0 0 0 0 0 0 0 0 0 0 0 0 0 0 0 0 0 0 0 0 0 0 0 0 0 0 0 0 0 0 0 0 0 0 0 0 0 0 0 0 0 0 0 0 0 0 0 0 0 0 0 0 0 0 0 0 0 0 0 0 0 0 0 0 0 0 0 0 0 0 0 0 0 0 0 0 0 0 0 0 0 0 0 0 0 0 0 0 0 0 0 0 0 0 0 0 0 0 0 0 0 0 0 0 0 0 0 0 0 0 0 0 0 0 0 0 0 0 0 0 0 0 0 0 0 0 0 0 0 0 0 0 0 0 0 0 0 0 0 0 0 0 0 0 0 0 0 0 0 0 0 0 0 0 0 0 0 0 0 0 0 0 0 0 0 0 0 0 0 0 0 0 0 0 0 0 0 0 0 0 0 0 0 0 0 0 0 0 0 0 0 0 0 0 0 0 0 0 0 0 0 0 0 0 0 0 0 0 0 0 0 0 0 0 0 0 0 0 0 0 0 0 0 0 0 0 0 0 0 0 0 0 0 0 0 0 0 0 0 0 0 0 0 0 0 0 0 0 0 0 0 0 0 0 0 0 0 0 0 0 0 0 0 0 0 0 0 0 0 0 0 0 0 0 0 0 0 0 0 0 0 0 0 0 0 0 0 0 0 0 0 0 0 0 0 0 0 0 0 0 0 0 0 0 0 0 0 0 0 0 0 0 0 0 0 0 0 0 0 0 0 0 0 0 0 0 0 0 0 0 0 0 0 0 0 0 0 0 0 0 0 0 0 0 0 0 0 0 0 0 0 0 0 0 0 0 0 0 0 0 0 0 0 0 0 0 0 0 0 0 0 0 0 0 0 0 0 0 0 0 0 0 0 0 0 0 0 0 0 0 0 0 0 0 0 0 0 0 0 0 0 0 0 0 0 0 0 0 0 0 0 0 0 0 0 0 0 0 0 0 0 0 0 0 0 0 0 0 0 0 0 0 0 0 0 0 0 0 0 0 0 0 0 0 0 255
255 0 0 0 0 0 0 0 0 0 0 0 0 0 0 0 0 0 0 0 0 0 0 0 0 0 0 0 0 0 0 0 0 0 0 0 0 0 0 0 0 0 0 0 0 0 0 0 0 0 0 0 0 0 0 0 0 0 0 0 0 0 0 0 0 0 0 0 0 0 0 0 0 0 0 0 0 0 0 0 0 0 0 0 0 0 0 0 0 0 0 0 0 0 0 0 0 0 0 0 0 0 0 0 0 0 0 0 0 0 0 1 0 3 15 0 59 234 0 0 0 0 204 0 0 2 23 94 0 0 0 0 9 0 10 4 0 0 0 25 12 0 4 19 24 131 0 0 58 43 0 125 113 14 0 7 3 3 0 4 3 0 0 0 0 0 0 0 0 0 0 0 0 0 0 0 0 0 0 0 0 0 0 0 0 0 0 0 0 0 0 0 0 0 0 0 0 0 0 0 0 0 0 0 0 0 0 0 0 0 0 0 0 0 0 0 0 0 0 0 0 0 0 0 0 0 0 0 0 0 0 0 0 0 0 0 0 0 0 0 0 0 0 0 0 0 0 0 0 0 0 0 0 0 0 0 0 0 0 0 0 0 0 0 0 0 0 0 0 0 0 0 0 0 0 0 0 0 0 0 0 0 0 0 0 0 0 0 0 0 0 0 0 0 0 0 0 0 0 0 0 0 0 0 0 0 0 0 0 0 0 0 0 0 0 0 0 0 0 0 0 0 0 0 0 0 0 0 0 0 0 0 0 0 0 0 0 0 0 0 0 0 0 0 0 0 0 0 0 0 0 0 0 0 0 0 0 0 0 0 0 0 0 0 0 0 0 0 0 0 0 0 0 0 0 0 0 0 0 0 0 0 0 0 0 0 0 0 0 0 0 0 0 0 0 0 0 0 0 0 0 0 0 0 0 0 0 0 0 0 0 0 0 0 0 0 0 0 0 0 0 0 0 0 0 0 0 0 0 0 0 0 0 0 0 0 0 0 0 0 0 0 0 0 0 0 0 0 0 0 0 0 0 0 0 0 0 0 0 0 0 0 0 0 0 0 0 0 0 0 0 0 0 0 0 0 0 0 0 0 0 0 0 0 0 0 0 0 0 0 0 0 0 0 0 0 0 0 0 0 0 0 0 0 0 0 0 0 0 0 0 0 0 0 0 0 0 0 0 0 0 0 0 0 0 0 0 0 0 0 0 0 0 0 0 0 0 0 0 0 0 0 0 0 0 0 0 0 0 0 0 0 0 0 0 0 0 0 0 0 0 0 0 0 0 0 0 0 0 0 0 0 0 0 0 0 0 0 0 0 0 0 0 0 0 0 0 0 0 0 0 0 0 0 0 0 0 0 0 0 0 0 0 0 0 0 0 0 0 0 0 0 0 0 0 0 0 0 0 0 0 0 0 0 0 0 0 0 0 0 0 0 0 0 0 0 0 0 0 0 0 0 0 0 0 0 0 0 0 0 0 0 0 0 0 0 0 0 0 0 0 0 0 0 0 0 0 0 0 0 0 0 0 0 0 0 0 0 0 0 0 0 0 0 0 0 0 0 0 0 0 0 0 0 0 0 0 0 0 0 0 0 0 0 0 0 0 0 0 0 0 0 0 0 0 0 0 0 0 0 0 0 0 0 0 0 0 0 0 0 0 0 0 0 0 0 0 0 0 0 0 0 0 0 0 0 0 0 0 0 0 0 0 0 0 0 0 0 0 0 0 0 0 0 0 0 0 0 0 0 0 0 0 0 0 0 0 0 0 0 0 0 0 0 0 0 0 0 0 0 0 0 0 0 0 0 0 0 0 0 0 0 0 0 0 0 0 0 0 0 0 0 0 0 0 0 0 0 0 0 0 0 0 0 0 0 0 0 0 0 0 0 0 0 0 0 0 0 0 0 0 0 0 0 0 0 0 0 0 0 0 0 0 0 0 0 0 0 0 0 0 0 0 0 0 0 0 0 0 0 0 0 0 0 0 0 0 0 0 0 0 0 0 0 0 0 0 0 0 0 0 0 0 0 0 0 0 0 0 255
255 0 0 0 0 0 0 0 0 0 0 0 0 0 0 0 0 0 0 0 0 0 0 0 0 0 0 0 0 0 0 0 0 0 0 0 0 0 0 0 0 0 0 0 0 0 0 0 0 0 0 0 0 0 0 0 0 0 0 0 0 0 0 0 0 0 0 0 0 0 0 0 0 0 0 0 0 0 0 0 0 0 0 0 0 0 0 0 0 0 0 0 0 0 0 0 0 0 0 0 0 0 0 0 0 0 0 0 0 0 0 1 10 1 17 0 12 209 0 2 0 0 172 114 21 0 46 58 0 22 0 0 0 26 12 9 0 0 0 7 18 3 6 21 112 21 0 0 10 85 0 0 148 69 16 0 6 6 0 6 3 0 0 0 0 0 0 0 0 0 0 0 0 0 0 0 0 0 0 0 0 0 0 0 0 0 0 0 0 0 0 0 0 0 0 0 0 0 0 0 0 0 0 0 0 0 0 0 0 0 0 0 0 0 0 0 0 0 0 0 0 0 0 0 0 0 0 0 0 0 0 0 0 0 0 0 0 0 0 0 0 0 0 0 0 0 0 0 0 0 0 0 0 0 0 0 0 0 0 0 0 0 0 0 0 0 0 0 0 0 0 0 0 0 0 0 0 0 0 0 0 0 0 0 0 0 0 0 0 0 0 0 0 0 0 0 0 0 0 0 0 0 0 0 0 0 0 0 0 0 0 0 0 0 0 0 0 0 0 0 0 0 0 0 0 0 0 0 0 0 0 0 0 0 0 0 0 0 0 0 0 0 0 0 0 0 0 0 0 0 0 0 0 0 0 0 0 0 0 0 0 0 0 0 0 0 0 0 0 0 0 0 0 0 0 0 0 0 0 0 0 0 0 0 0 0 0 0 0 0 0 0 0 0 0 0 0 0 0 0 0 0 0 0 0 0 0 0 0 0 0 0 0 0 0 0 0 0 0 0 0 0 0 0 0 0 0 0 0 0 0 0 0 0 0 0 0 0 0 0 0 0 0 0 0 0 0 0 0 0 0 0 0 0 0 0 0 0 0 0 0 0 0 0 0 0 0 0 0 0 0 0 0 0 0 0 0 0 0 0 0 0 0 0 0 0 0 0 0 0 0 0 0 0 0 0 0 0 0 0 0 0 0 0 0 0 0 0 0 0 0 0 0 0 0 0 0 0 0 0 0 0 0 0 0 0 0 0 0 0 0 0 0 0 0 0 0 0 0 0 0 0 0 0 0 0 0 0 0 0 0 0 0 0 0 0 0 0 0 0 0 0 0 0 0 0 0 0 0 0 0 0 0 0 0 0 0 0 0 0 0 0 0 0 0 0 0 0 0 0 0 0 0 0 0 0 0 0 0 0 0 0 0 0 0 0 0 0 0 0 0 0 0 0 0 0 0 0 0 0 0 0 0 0 0 0 0 0 0 0 0 0 0 0 0 0 0 0 0 0 0 0 0 0 0 0 0 0 0 0 0 0 0 0 0 0 0 0 0 0 0 0 0 0 0 0 0 0 0 0 0 0 0 0 0 0 0 0 0 0 0 0 0 0 0 0 0 0 0 0 0 0 0 0 0 0 0 0 0 0 0 0 0 0 0 0 0 0 0 0 0 0 0 0 0 0 0 0 0 0 0 0 0 0 0 0 0 0 0 0 0 0 0 0 0 0 0 0 0 0 0 0 0 0 0 0 0 0 0 0 0 0 0 0 0 0 0 0 0 0 0 0 0 0 0 0 0 0 0 0 0 0 0 0 0 0 0 0 0 0 0 0 0 0 0 0 0 0 0 0 0 0 0 0 0 0 0 0 0 0 0 0 0 0 0 0 0 0 0 0 0 0 0 0 0 0 0 0 0 0 0 0 0 0 0 0 0 0 0 0 0 0 0 0 0 0 0 0 0 0 0 0 0 0 0 0 0 0 0 0 0 0 0 0 0 0 0 0 0 0 0 0 0 0 0 0 0 0 0 0 0 0 0 0 0 0 0 0 0 0 0 0 0 0 0 0 0 0 0 0 0 0 0 0 0 0 0 0 0 255
255 0 0 0 0 0 0 0 0 0 0 0 0 0 0 0 0 0 0 0 0 0 0 0 0 0 0 0 0 0 0 0 0 0 0 0 0 0 0 0 0 0 0 0 0 0 0 0 0 0 0 0 0 0 0 0 0 0 0 0 0 0 0 0 0 0 0 0 0 0 0 0 0 0 0 0 0 0 0 0 0 0 0 0 0 0 0 0 0 0 0 0 0 0 0 0 0 0 0 0 0 0 0 0 0 0 0 0 0 0 0 0 19 0 23 2 21 241 0 0 14 0 0 237 30 0 70 0 0 30 0 8 0 69 22 21 0 0 0 0 27 9 10 57 73 0 84 0 0 107 61 0 23 98 34 0 0 15 0 5 2 0 0 0 0 0 0 0 0 0 0 0 0 0 0 0 0 0 0 0 0 0 0 0 0 0 0 0 0 0 0 0 0 0 0 0 0 0 0 0 0 0 0 0 0 0 0 0 0 0 0 0 0 0 0 0 0 0 0 0 0 0 0 0 0 0 0 0 0 0 0 0 0 0 0 0 0 0 0 0 0 0 0 0 0 0 0 0 0 0 0 0 0 0 0 0 0 0 0 0 0 0 0 0 0 0 0 0 0 0 0 0 0 0 0 0 0 0 0 0 0 0 0 0 0 0 0 0 0 0 0 0 0 0 0 0 0 0 0 0 0 0 0 0 0 0 0 0 0 0 0 0 0 0 0 0 0 0 0 0 0 0 0 0 0 0 0 0 0 0 0 0 0 0 0 0 0 0 0 0 0 0 0 0 0 0 0 0 0 0 0 0 0 0 0 0 0 0 0 0 0 0 0 0 0 0 0 0 0 0 0 0 0 0 0 0 0 0 0 0 0 0 0 0 0 0 0 0 0 0 0 0 0 0 0 0 0 0 0 0 0 0 0 0 0 0 0 0 0 0 0 0 0 0 0 0 0 0 0 0 0 0 0 0 0 0 0 0 0 0 0 0 0 0 0 0 0 0 0 0 0 0 0 0 0 0 0 0 0 0 0 0 0 0 0 0 0 0 0 0 0 0 0 0 0 0 0 0 0 0 0 0 0 0 0 0 0 0 0 0 0 0 0 0 0 0 0 0 0 0 0 0 0 0 0 0 0 0 0 0 0 0 0 0 0 0 0 0 0 0 0 0 0 0 0 0 0 0 0 0 0 0 0 0 0 0 0 0 0 0 0 0 0 0 0 0 0 0 0 0 0 0 0 0 0 0 0 0 0 0 0 0 0 0 0 0 0 0 0 0 0 0 0 0 0 0 0 0 0 0 0 0 0 0 0 0 0 0 0 0 0 0 0 0 0 0 0 0 0 0 0 0 0 0 0 0 0 0 0 0 0 0 0 0 0 0 0 0 0 0 0 0 0 0 0 0 0 0 0 0 0 0 0 0 0 0 0 0 0 0 0 0 0 0 0 0 0 0 0 0 0 0 0 0 0 0 0 0 0 0 0 0 0 0 0 0 0 0 0 0 0 0 0 0 0 0 0 0 0 0 0 0 0 0 0 0 0 0 0 0 0 0 0 0 0 0 0 0 0 0 0 0 0 0 0 0 0 0 0 0 0 0 0 0 0 0 0 0 0 0 0 0 0 0 0 0 0 0 0 0 0 0 0 0 0 0 0 0 0 0 0 0 0 0 0 0 0 0 0 0 0 0 0 0 0 0 0 0 0 0 0 0 0 0 0 0 0 0 0 0 0 0 0 0 0 0 0 0 0 0 0 0 0 0 0 0 0 0 0 0 0 0 0 0 0 0 0 0 0 0 0 0 0 0 0 0 0 0 0 0 0 0 0 0 0 0 0 0 0 0 0 0 0 0 0 0 0 0 0 0 0 0 0 0 0 0 0 0 0 0 0 0 0 0 0 0 0 0 0 0 0 0 0 0 0 0 0 0 0 0 0 0 0 0 0 0 0 0 0 0 0 0 0 0 0 0 0 0 0 0 0 0 0 0 0 0 0 0 0 0 0 0 0 0 0 0 0 0 0 0 0 0 0 0 0 0 0 0 0 255
255 0 0 0 0 0 0 0 0 0 0 0 0 0 0 0 0 0 0 0 0 0 0 0 0 0 0 0 0 0 0 0 0 0 0 0 0 0 0 0 0 0 0 0 0 0 0 0 0 0 0 0 0 0 0 0 0 0 0 0 0 0 0 0 0 0 0 0 0 0 0 0 0 0 0 0 0 0 0 0 0 0 0 0 0 0 0 0 0 0 0 0 0 0 0 0 0 0 0 0 0 0 0 0 0 0 0 0 0 0 0 3 28 0 28 9 7 245 0 0 41 21 0 133 85 38 88 0 0 46 0 15 0 86 12 28 13 0 0 0 16 15 6 109 0 0 151 0 0 152 188 0 0 92 81 0 6 13 0 10 1 0 0 0 0 0 0 0 0 0 0 0 0 0 0 0 0 0 0 0 0 0 0 0 0 0 0 0 0 0 0 0 0 0 0 0 0 0 0 0 0 0 0 0 0 0 0 0 0 0 0 0 0 0 0 0 0 0 0 0 0 0 0 0 0 0 0 0 0 0 0 0 0 0 0 0 0 0 0 0 0 0 0 0 0 0 0 0 0 0 0 0 0 0 0 0 0 0 0 0 0 0 0 0 0 0 0 0 0 0 0 0 0 0 0 0 0 0 0 0 0 0 0 0 0 0 0 0 0 0 0 0 0 0 0 0 0 0 0 0 0 0 0 0 0 0 0 0 0 0 0 0 0 0 0 0 0 0 0 0 0 0 0 0 0 0 0 0 0 0 0 0 0 0 0 0 0 0 0 0 0 0 0 0 0 0 0 0 0 0 0 0 0 0 0 0 0 0 0 0 0 0 0 0 0 0 0 0 0 0 0 0 0 0 0 0 0 0 0 0 0 0 0 0 0 0 0 0 0 0 0 0 0 0 0 0 0 0 0 0 0 0 0 0 0 0 0 0 0 0 0 0 0 0 0 0 0 0 0 0 0 0 0 0 0 0 0 0 0 0 0 0 0 0 0 0 0 0 0 0 0 0 0 0 0 0 0 0 0 0 0 0 0 0 0 0 0 0 0 0 0 0 0 0 0 0 0 0 0 0 0 0 0 0 0 0 0 0 0 0 0 0 0 0 0 0 0 0 0 0 0 0 0 0 0 0 0 0 0 0 0 0 0 0 0 0 0 0 0 0 0 0 0 0 0 0 0 0 0 0 0 0 0 0 0 0 0 0 0 0 0 0 0 0 0 0 0 0 0 0 0 0 0 0 0 0 0 0 0 0 0 0 0 0 0 0 0 0 0 0 0 0 0 0 0 0 0 0 0 0 0 0 0 0 0 0 0 0 0 0 0 0 0 0 0 0 0 0 0 0 0 0 0 0 0 0 0 0 0 0 0 0 0 0 0 0 0 0 0 0 0 0 0 0 0 0 0 0 0 0 0 0 0 0 0 0 0 0 0 0 0 0 0 0 0 0 0 0 0 0 0 0 0 0 0 0 0 0 0 0 0 0 0 0 0 0 0 0 0 0 0 0 0 0 0 0 0 0 0 0 0 0 0 0 0 0 0 0 0 0 0 0 0 0 0 0 0 0 0 0 0 0 0 0 0 0 0 0 0 0 0 0 0 0 0 0 0 0 0 0 0 0 0 0 0 0 0 0 0 0 0 0 0 0 0 0 0 0 0 0 0 0 0 0 0 0 0 0 0 0 0 0 0 0 0 0 0 0 0 0 0 0 0 0 0 0 0 0 0 0 0 0 0 0 0 0 0 0 0 0 0 0 0 0 0 0 0 0 0 0 0 0 0 0 0 0 0 0 0 0 0 0 0 0 0 0 0 0 0 0 0 0 0 0 0 0 0 0 0 0 0 0 0 0 0 0 0 0 0 0 0 0 0 0 0 0 0 0 0 0 0 0 0 0 0 0 0 0 0 0 0 0 0 0 0 0 0 0 0 0 0 0 0 0 0 0 0 0 0 0 0 0 0 0 0 0 0 0 0 0 0 0 0 0 0 0 0 0 0 0 0 0 0 0 0 0 0 0 0 0 0 0 0 0 0 0 0 0 0 255
255 0 0 0 0 0 0 0 0 0 0 0 0 0 0 0 0 0 0 0 0 0 0 0 0 0 0 0 0 0 0 0 0 0 0 0 0 0 0 0 0 0 0 0 0 0 0 0 0 0 0 0 0 0 0 0 0 0 0 0 0 0 0 0 0 0 0 0 0 0 0 0 0 0 0 0 0 0 0 0 0 0 0 0 0 0 0 0 0 0 0 0 0 0 0 0 0 0 0 0 0 0 0 0 0 0 0 0 0 0 0 5 0 0 21 10 0 210 0 0 0 0 0 0 228 98 7 0 0 45 0 11 0 83 0 0 23 0 0 0 44 23 30 175 0 0 122 0 0 163 55 121 0 108 178 0 6 3 0 8 2 3 2 1 0 0 0 0 0 0 0 0 0 0 0 0 0 0 0 0 0 0 0 6 7 8 7 6 6 8 8 14 11 12 5 1 0 0 0 0 0 0 0 0 0 0 0 0 0 0 0 0 0 0 0 0 0 0 0 0 0 0 0 0 0 0 0 0 0 0 0 0 0 0 0 0 0 0 0 0 0 0 0 0 0 0 0 0 0 0 0 0 0 0 0 0 0 0 0 0 0 0 0 0 0 0 0 0 0 0 0 0 0 0 0 0 0 0 0 0 0 0 0 0 0 0 0 0 0 0 0 0 0 0 0 0 0 0 0 0 0 0 0 0 0 0 0 0 0 0 0 0 0 0 0 0 0 0 0 0 0 0 0 0 0 0 0 0 0 0 0 0 0 0 0 0 0 0 0 0 0 0 0 0 0 0 0 0 0 0 0 0 0 0 0 0 0 0 0 0 0 0 0 0 0 0 0 0 0 0 0 0 0 0 0 0 0 0 0 0 0 0 0 0 0 0 0 0 0 0 0 0 0 0 0 0 0 0 0 0 0 0 0 0 0 0 0 0 0 0 0 0 0 0 0 0 0 0 0 0 0 0 0 0 0 0 0 0 0 0 0 0 0 0 0 0 0 0 0 0 0 0 0 0 0 0 0 0 0 0 0 0 0 0 0 0 0 0 0 0 0 0 0 0 0 0 0 0 0 0 0 0 0 0 0 0 0 0 0 0 0 0 0 0 0 0 0 0 0 0 0 0 0 0 0 0 0 0 0 0 0 0 0 0 0 0 0 0 0 0 0 0 0 0 0 0 0 0 0 0 0 0 0 0 0 0 0 0 0 0 0 0 0 0 0 0 0 0 0 0 0 0 0 0 0 0 0 0 0 0 0 0 0 0 0 0 0 0 0 0 0 0 0 0 0 0 0 0 0 0 0 0 0 0 0 0 0 0 0 0 0 0 0 0 0 0 0 0 0 0 0 0 0 0 0 0 0 0 0 0 0 0 0 0 0 0 0 0 0 0 0 0 0 0 0 0 0 0 0 0 0 0 0 0 0 0 0 0 0 0 0 0 0 0 0 0 0 0 0 0 0 0 0 0 0 0 0 0 0 0 0 0 0 0 0 0 0 0 0 0 0 0 0 0 0 0 0 0 0 0 0 0 0 0 0 0 0 0 0 0 0 0 0 0 0 0 0 0 0 0 0 0 0 0 0 0 0 0 0 0 0 0 0 0 0 0 0 0 0 0 0 0 0 0 0 0 0 0 0 0 0 0 0 0 0 0 0 0 0 0 0 0 0 0 0 0 0 0 0 0 0 0 0 0 0 0 0 0 0 0 0 0 0 0 0 0 0 0 0 0 0 0 0 0 0 0 0 0 0 0 0 0 0 0 0 0 0 0 0 0 0 0 0 0 0 0 0 0 0 0 0 0 0 0 0 0 0 0 0 0 0 0 0 0 0 0 0 0 0 0 0 0 0 0 0 0 0 0 0 0 0 0 0 0 0 0 0 0 0 0 0 0 0 0 0 0 0 0 0 0 0 0 0 0 0 0 0 0 0 0 0 0 0 0 0 0 0 0 0 0 0 0 0 0 0 0 0 0 0 0 0 0 0 0 0 0 0 0 0 0 0 0 0 0 0 0 0 0 0 0 0 0 0 0 0 0 0 0 0 255
255 0 0 0 0 0 0 0 0 0 0 0 0 0 0 0 0 0 0 0 0 0 0 0 0 0 0 0 0 0 0 0 0 0 0 0 0 0 0 0 0 0 0 0 0 0 0 0 0 0 0 0 0 0 0 0 0 0 0 0 0 0 0 0 0 0 0 0 0 0 0 0 0 0 0 0 0 0 0 0 0 0 0 0 0 0 0 0 0 0 0 0 0 0 0 0 0 0 0 0 0 0 0 0 0 0 0 0 0 0 0 7 0 14 11 0 20 137 51 0 76 10 44 0 0 193 101 0 0 52 0 0 0 67 45 0 5 39 0 0 13 43 18 108 0 51 0 0 0 115 22 210 0 0 182 60 3 4 0 11 0 0 0 2 0 0 0 0 0 0 0 0 0 0 0 0 0 0 0 0 0 0 0 7 0 9 7 0 21 18 0 55 0 0 1 2 0 0 0 0 0 0 0 0 0 0 0 0 0 0 0 0 0 0 0 0 0 0 0 0 0 0 0 0 0 0 0 0 0 0 0 0 0 0 0 0 0 0 0 0 0 0 0 0 0 0 0 0 0 0 0 0 0 0 0 0 0 0 0 0 0 0 0 0 0 0 0 0 0 0 0 0 0 0 0 0 0 0 0 0 0 0 0 0 0 0 0 0 0 0 0 0 0 0 0 0 0 0 0 0 0 0 0 0 0 0 0 0 0 0 0 0 0 0 0 0 0 0 0 0 0 0 0 0 0 0 0 0 0 0 0 0 0 0 0 0 0 0 0 0 0 0 0 0 0 0 0 0 0 0 0 0 0 0 0 0 0 0 0 0 0 0 0 0 0 0 0 0 0 0 0 0 0 0 0 0 0 0 0 0 0 0 0 0 0 0 0 0 0 0 0 0 0 0 0 0 0 0 0 0 0 0 0 0 0 0 0 0 0 0 0 0 0 0 0 0 0 0 0 0 0 0 0 0 0 0 0 0 0 0 0 0 0 0 0 0 0 0 0 0 0 0 0 0 0 0 0 0 0 0 0 0 0 0 0 0 0 0 0 0 0 0 0 0 0 0 0 0 0 0 0 0 0 0 0 0 0 0 0 0 0 0 0 0 0 0 0 0 0 0 0 0 0 0 0 0 0 0 0 0 0 0 0 0 0 0 0 0 0 0 0 0 0 0 0 0 0 0 0 0 0 0 0 0 0 0 0 0 0 0 0 0 0 0 0 0 0 0 0 0 0 0 0 0 0 0 0 0 0 0 0 0 0 0 0 0 0 0 0 0 0 0 0 0 0 0 0 0 0 0 0 0 0 0 0 0 0 0 0 0 0 0 0 0 0 0 0 0 0 0 0 0 0 0 0 0 0 0 0 0 0 0 0 0 0 0 0 0 0 0 0 0 0 0 0 0 0 0 0 0 0 0 0 0 0 0 0 0 0 0 0 0 0 0 0 0 0 0 0 0 0 0 0 0 0 0 0 0 0 0 0 0 0 0 0 0 0 0 0 0 0 0 0 0 0 0 0 0 0 0 0 0 0 0 0 0 0 0 0 0 0 0 0 0 0 0 0 0 0 0 0 0 0 0 0 0 0 0 0 0 0 0 0 0 0 0 0 0 0 0 0 0 0 0 0 0 0 0 0 0 0 0 0 0 0 0 0 0 0 0 0 0 0 0 0 0 0 0 0 0 0 0 0 0 0 0 0 0 0 0 0 0 0 0 0 0 0 0 0 0 0 0 0 0 0 0 0 0 0 0 0 0 0 0 0 0 0 0 0 0 0 0 0 0 0 0 0 0 0 0 0 0 0 0 0 0 0 0 0 0 0 0 0 0 0 0 0 0 0 0 0 0 0 0 0 0 0 0 0 0 0 0 0 0 0 0 0 0 0 0 0 0 0 0 0 0 0 0 0 0 0 0 0 0 0 0 0 0 0 0 0 0 0 0 0 0 0 0 0 0 0 0 0 0 0 0 0 0 0 0 0 0 0 0 0 0 0 0 0 0 0 0 0 0 0 0 0 0 0 0 0 0 0 0 0 0 0 0 0 255
255 0 0 0 0 0 0 0 0 0 0 0 0 0 0 0 0 0 0 0 0 0 0 0 0 0 0 0 0 0 0 0 0 0 0 0 0 0 0 0 0 0 0 0 0 0 0 0 0 0 0 0 0 0 0 0 0 0 0 0 0 0 0 0 0 0 0 0 0 0 0 0 0 0 0 0 0 0 0 0 0 0 0 0 0 0 0 0 0 0 0 0 0 0 0 0 0 0 0 0 0 0 0 0 0 0 0 0 0 0 0 6 0 6 4 0 19 116 48 0 57 0 44 0 0 150 161 0 0 37 0 0 0 69 67 0 17 10 0 0 0 65 79 89 0 33 0 0 0 108 12 156 0 0 36 143 13 16 0 17 0 0 0 3 0 0 0 0 0 0 0 0 0 0 0 0 0 0 0 0 0 0 0 7 8 0 16 18 0 29 97 0 37 0 4 2 0 0 0 0 0 0 0 0 0 0 0 0 0 0 0 0 0 0 0 0 0 0 0 0 0 0 0 0 0 0 0 0 0 0 0 0 0 0 0 0 0 0 0 0 0 0 0 0 0 0 0 0 0 0 0 0 0 0 0 0 0 0 0 0 0 0 0 0 0 0 0 0 0 0 0 0 0 0 0 0 0 0 0 0 0 0 0 0 0 0 0 0 0 0 0 0 0 0 0 0 0 0 0 0 0 0 0 0 0 0 0 0 0 0 0 0 0 0 0 0 0 0 0 0 0 0 0 0 0 0 0 0 0 0 0 0 0 0 0 0 0 0 0 0 0 0 0 0 0 0 0 0 0 0 0 0 0 0 0 0 0 0 0 0 0 0 0 0 0 0 0 0 0 0 0 0 0 0 0 0 0 0 0 0 0 0 0 0 0 0 0 0 0 0 0 0 0 0 0 0 0 0 0 0 0 0 0 0 0 0 0 0 0 0 0 0 0 0 0 0 0 0 0 0 0 0 0 0 0 0 0 0 0 0 0 0 0 0 0 0 0 0 0 0 0 0 0 0 0 0 0 0 0 0 0 0 0 0 0 0 0 0 0 0 0 0 0 0 0 0 0 0 0 0 0 0 0 0 0 0 0 0 0 0 0 0 0 0 0 0 0 0 0 0 0 0 0 0 0 0 0 0 0 0 0 0 0 0 0 0 0 0 0 0 0 0 0 0 0 0 0 0 0 0 0 0 0 0 0 0 0 0 0 0 0 0 0 0 0 0 0 0 0 0 0 0 0 0 0 0 0 0 0 0 0 0 0 0 0 0 0 0 0 0 0 0 0 0 0 0 0 0 0 0 0 0 0 0 0 0 0 0 0 0 0 0 0 0 0 0 0 0 0 0 0 0 0 0 0 0 0 0 0 0 0 0 0 0 0 0 0 0 0 0 0 0 0 0 0 0 0 0 0 0 0 0 0 0 0 0 0 0 0 0 0 0 0 0 0 0 0 0 0 0 0 0 0 0 0 0 0 0 0 0 0 0 0 0 0 0 0 0 0 0 0 0 0 0 0 0 0 0 0 0 0 0 0 0 0 0 0 0 0 0 0 0 0 0 0 0 0 0 0 0 0 0 0 0 0 0 0 0 0 0 0 0 0 0 0 0 0 0 0 0 0 0 0 0 0 0 0 0 0 0 0 0 0 0 0 0 0 0 0 0 0 0 0 0 0 0 0 0 0 0 0 0 0 0 0 0 0 0 0 0 0 0 0 0 0 0 0 0 0 0 0 0 0 0 0 0 0 0 0 0 0 0 0 0 0 0 0 0 0 0 0 0 0 0 0 0 0 0 0 0 0 0 0 0 0 0 0 0 0 0 0 0 0 0 0 0 0 0 0 0 0 0 0 0 0 0 0 0 0 0 0 0 0 0 0 0 0 0 0 0 0 0 0 0 0 0 0 0 0 0 0 0 0 0 0 0 0 0 0 0 0 0 0 0 0 0 0 0 0 0 0 0 0 0 0 0 0 0 0 0 0 0 0 0 0 0 0 0 0 0 0 0 0 0 0 0 0 0 0 0 0 0 0 0 0 0 0 0 0 255
255 0 0 0 0 0 0 0 0 0 0 0 0 0 0 0 0 0 0 0 0 0 0 0 0 0 0 0 0 0 0 0 0 0 0 0 0 0 0 0 0 0 0 0 0 0 0 0 0 0 0 0 0 0 0 0 0 0 0 0 0 0 0 0 0 0 0 0 0 0 0 0 0 0 0 0 0 0 0 0 0 0 0 0 0 0 0 0 0 0 0 0 0 0 0 0 0 0 0 0 0 0 0 0 0 0 0 0 0 0 0 6 0 6 3 0 13 120 50 0 39 0 44 0 0 12 238 0 0 15 0 0 0 43 49 0 27 0 4 0 0 78 131 0 0 21 0 0 0 106 1 108 13 0 0 180 38 18 0 19 0 0 0 3 0 0 0 0 0 0 0 0 0 0 0 0 0 0 0 0 0 0 0 8 17 17 17 34 71 0 0 0 47 0 10 1 0 0 0 0 0 0 0 0 0 0 0 0 0 0 0 0 0 0 0 0 0 0 0 0 0 0 0 0 0 0 0 0 0 0 0 0 0 0 0 0 0 0 0 0 0 0 0 0 0 0 0 0 0 0 0 0 0 0 0 0 0 0 0 0 0 0 0 0 0 0 0 0 0 0 0 0 0 0 0 0 0 0 0 0 0 0 0 0 0 0 0 0 0 0 0 0 0 0 0 0 0 0 0 0 0 0 0 0 0 0 0 0 0 0 0 0 0 0 0 0 0 0 0 0 0 0 0 0 0 0 0 0 0 0 0 0 0 0 0 0 0 0 0 0 0 0 0 0 0 0 0 0 0 0 0 0 0 0 0 0 0 0 0 0 0 0 0 0 0 0 0 0 0 0 0 0 0 0 0 0 0 0 0 0 0 0 0 0 0 0 0 0 0 0 0 0 0 0 0 0 0 0 0 0 0 0 0 0 0 0 0 0 0 0 0 0 0 0 0 0 0 0 0 0 0 0 0 0 0 0 0 0 0 0 0 0 0 0 0 0 0 0 0 0 0 0 0 0 0 0 0 0 0 0 0 0 0 0 0 0 0 0 0 0 0 0 0 0 0 0 0 0 0 0 0 0 0 0 0 0 0 0 0 0 0 0 0 0 0 0 0 0 0 0 0 0 0 0 0 0 0 0 0 0 0 0 0 0 0 0 0 0 0 0 0 0 0 0 0 0 0 0 0 0 0 0 0 0 0 0 0 0 0 0 0 0 0 0 0 0 0 0 0 0 0 0 0 0 0 0 0 0 0 0 0 0 0 0 0 0 0 0 0 0 0 0 0 0 0 0 0 0 0 0 0 0 0 0 0 0 0 0 0 0 0 0 0 0 0 0 0 0 0 0 0 0 0 0 0 0 0 0 0 0 0 0 0 0 0 0 0 0 0 0 0 0 0 0 0 0 0 0 0 0 0 0 0 0 0 0 0 0 0 0 0 0 0 0 0 0 0 0 0 0 0 0 0 0 0 0 0 0 0 0 0 0 0 0 0 0 0 0 0 0 0 0 0 0 0 0 0 0 0 0 0 0 0 0 0 0 0 0 0 0 0 0 0 0 0 0 0 0 0 0 0 0 0 0 0 0 0 0 0 0 0 0 0 0 0 0 0 0 0 0 0 0 0 0 0 0 0 0 0 0 0 0 0 0 0 0 0 0 0 0 0 0 0 0 0 0 0 0 0 0 0 0 0 0 0 0 0 0 0 0 0 0 0 0 0 0 0 0 0 0 0 0 0 0 0 0 0 0 0 0 0 0 0 0 0 0 0 0 0 0 0 0 0 0 0 0 0 0 0 0 0 0 0 0 0 0 0 0 0 0 0 0 0 0 0 0 0 0 0 0 0 0 0 0 0 0 0 0 0 0 0 0 0 0 0 0 0 0 0 0 0 0 0 0 0 0 0 0 0 0 0 0 0 0 0 0 0 0 0 0 0 0 0 0 0 0 0 0 0 0 0 0 0 0 0 0 0 0 0 0 0 0 0 0 0 0 0 0 0 0 0 0 0 0 0 0 0 0 0 0 0 0 0 0 0 0 0 0 0 255
255 0 0 0 0 0 0 0 0 0 0 0 0 0 0 0 0 0 0 0 0 0 0 0 0 0 0 0 0 0 0 0 0 0 0 0 0 0 0 0 0 0 0 0 0 0 0 0 0 0 0 0 0 0 0 0 0 0 0 0 0 0 0 0 0 0 0 0 0 0 0 0 0 0 0 0 0 0 0 0 0 0 0 0 0 0 0 0 0 0 0 0 0 0 0 0 0 0 0 0 0 0 0 0 0 0 0 0 0 0 0 5 0 5 4 0 10 116 61 0 0 31 10 35 0 0 229 35 10 28 0 0 0 19 28 0 45 0 28 0 0 96 174 0 0 33 0 0 0 100 0 71 65 0 0 113 78 10 0 18 1 0 0 3 0 0 0 0 0 0 0 0 0 0 0 0 0 0 0 0 0 0 0 7 0 12 30 18 56 0 0 73 20 0 6 0 0 0 0 0 0 0 0 0 0 0 0 0 0 0 0 0 0 0 0 0 0 0 0 0 0 0 0 0 0 0 0 0 0 0 0 0 0 0 0 0 0 0 0 0 0 0 0 0 0 0 0 0 0 0 0 0 0 0 0 0 0 0 0 0 0 0 0 0 0 0 0 0 0 0 0 0 0 0 0 0 0 0 0 0 0 0 0 0 0 0 0 0 0 0 0 0 0 0 0 0 0 0 0 0 0 0 0 0 0 0 0 0 0 0 0 0 0 0 0 0 0 0 0 0 0 0 0 0 0 0 0 0 0 0 0 0 0 0 0 0 0 0 0 0 0 0 0 0 0 0 0 0 0 0 0 0 0 0 0 0 0 0 0 0 0 0 0 0 0 0 0 0 0 0 0 0 0 0 0 0 0 0 0 0 0 0 0 0 0 0 0 0 0 0 0 0 0 0 0 0 0 0 0 0 0 0 0 0 0 0 0 0 0 0 0 0 0 0 0 0 0 0 0 0 0 0 0 0 0 0 0 0 0 0 0 0 0 0 0 0 0 0 0 0 0 0 0 0 0 0 0 0 0 0 0 0 0 0 0 0 0 0 0 0 0 0 0 0 0 0 0 0 0 0 0 0 0 0 0 0 0 0 0 0 0 0 0 0 0 0 0 0 0 0 0 0 0 0 0 0 0 0 0 0 0 0 0 0 0 0 0 0 0 0 0 0 0 0 0 0 0 0 0 0 0 0 0 0 0 0 0 0 0 0 0 0 0 0 0 0 0 0 0 0 0 0 0 0 0 0 0 0 0 0 0 0 0 0 0 0 0 0 0 0 0 0 0 0 0 0 0 0 0 0 0 0 0 0 0 0 0 0 0 0 0 0 0 0 0 0 0 0 0 0 0 0 0 0 0 0 0 0 0 0 0 0 0 0 0 0 0 0 0 0 0 0 0 0 0 0 0 0 0 0 0 0 0 0 0 0 0 0 0 0 0 0 0 0 0 0 0 0 0 0 0 0 0 0 0 0 0 0 0 0 0 0 0 0 0 0 0 0 0 0 0 0 0 0 0 0 0 0 0 0 0 0 0 0 0 0 0 0 0 0 0 0 0 0 0 0 0 0 0 0 0 0 0 0 0 0 0 0 0 0 0 0 0 0 0 0 0 0 0 0 0 0 0 0 0 0 0 0 0 0 0 0 0 0 0 0 0 0 0 0 0 0 0 0 0 0 0 0 0 0 0 0 0 0 0 0 0 0 0 0 0 0 0 0 0 0 0 0 0 0 0 0 0 0 0 0 0 0 0 0 0 0 0 0 0 0 0 0 0 0 0 0 0 0 0 0 0 0 0 0 0 0 0 0 0 0 0 0 0 0 0 0 0 0 0 0 0 0 0 0 0 0 0 0 0 0 0 0 0 0 0 0 0 0 0 0 0 0 0 0 0 0 0 0 0 0 0 0 0 0 0 0 0 0 0 0 0 0 0 0 0 0 0 0 0 0 0 0 0 0 0 0 0 0 0 0 0 0 0 0 0 0 0 0 0 0 0 0 0 0 0 0 0 0 0 0 0 0 0 0 0 0 0 0 0 0 0 0 0 255
255 0 0 0 0 0 0 0 0 0 0 0 0 0 0 0 0 0 0 0 0 0 0 0 0 0 0 0 0 0 0 0 0 0 0 0 0 0 0 0 0 0 0 0 0 0 0 0 0 0 0 0 0 0 0 0 0 0 0 0 0 0 0 0 0 0 0 0 0 0 0 0 0 0 0 0 0 0 0 0 0 0 0 0 0 0 0 0 0 0 0 0 0 0 0 0 0 0 0 0 0 0 0 0 0 0 0 0 0 0 0 4 0 5 7 0 10 116 60 0 0 83 0 13 5 0 53 77 40 11 0 0 0 5 22 0 59 0 46 10 0 104 187 0 0 40 0 0 0 87 0 74 71 0 0 0 126 0 17 0 3 0 0 3 0 0 0 0 0 0 0 0 0 0 0 0 0 0 0 0 0 0 0 8 13 0 97 47 0 0 110 48 7 1 3 0 0 0 0 0 0 0 0 0 0 0 0 0 0 0 0 0 0 0 0 0 0 0 0 0 0 0 0 0 0 0 0 0 0 0 0 0 0 0 0 0 0 0 0 0 0 0 0 0 0 0 0 0 0 0 0 0 0 0 0 0 0 0 0 0 0 0 0 0 0 0 0 0 0 0 0 0 0 0 0 0 0 0 0 0 0 0 0 0 0 0 0 0 0 0 0 0 0 0 0 0 0 0 0 0 0 0 0 0 0 0 0 0 0 0 0 0 0 0 0 0 0 0 0 0 0 0 0 0 0 0 0 0 0 0 0 0 0 0 0 0 0 0 0 0 0 0 0 0 0 0 0 0 0 0 0 0 0 0 0 0 0 0 0 0 0 0 0 0 0 0 0 0 0 0 0 0 0 0 0 0 0 0 0 0 0 0 0 0 0 0 0 0 0 0 0 0 0 0 0 0 0 0 0 0 0 0 0 0 0 0 0 0 0 0 0 0 0 0 0 0 0 0 0 0 0 0 0 0 0 0 0 0 0 0 0 0 0 0 0 0 0 0 0 0 0 0 0 0 0 0 0 0 0 0 0 0 0 0 0 0 0 0 0 0 0 0 0 0 0 0 0 0 0 0 0 0 0 0 0 0 0 0 0 0 0 0 0 0 0 0 0 0 0 0 0 0 0 0 0 0 0 0 0 0 0 0 0 0 0 0 0 0 0 0 0 0 0 0 0 0 0 0 0 0 0 0 0 0 0 0 0 0 0 0 0 0 0 0 0 0 0 0 0 0 0 0 0 0 0 0 0 0 0 0 0 0 0 0 0 0 0 0 0 0 0 0 0 0 0 0 0 0 0 0 0 0 0 0 0 0 0 0 0 0 0 0 0 0 0 0 0 0 0 0 0 0 0 0 0 0 0 0 0 0 0 0 0 0 0 0 0 0 0 0 0 0 0 0 0 0 0 0 0 0 0 0 0 0 0 0 0 0 0 0 0 0 0 0 0 0 0 0 0 0 0 0 0 0 0 0 0 0 0 0 0 0 0 0 0 0 0 0 0 0 0 0 0 0 0 0 0 0 0 0 0 0 0 0 0 0 0 0 0 0 0 0 0 0 0 0 0 0 0 0 0 0 0 0 0 0 0 0 0 0 0 0 0 0 0 0 0 0 0 0 0 0 0 0 0 0 0 0 0 0 0 0 0 0 0 0 0 0 0 0 0 0 0 0 0 0 0 0 0 0 0 0 0 0 0 0 0 0 0 0 0 0 0 0 0 0 0 0 0 0 0 0 0 0 0 0 0 0 0 0 0 0 0 0 0 0 0 0 0 0 0 0 0 0 0 0 0 0 0 0 0 0 0 0 0 0 0 0 0 0 0 0 0 0 0 0 0 0 0 0 0 0 0 0 0 0 0 0 0 0 0 0 0 0 0 0 0 0 0 0 0 0 0 0 0 0 0 0 0 0 0 0 0 0 0 0 0 0 0 0 0 0 0 0 0 0 0 0 0 0 0 0 0 0 0 0 0 0 0 0 0 0 0 0 0 0 0 0 0 0 0 0 0 0 0 0 0 0 0 0 0 0 0 0 0 0 0 0 0 255
255 0 0 0 0 0 0 0 0 0 0 0 0 0 0 0 0 0 0 0 0 0 0 0 0 0 0 0 0 0 0 0 0 0 0 0 0 0 0 0 0 0 0 0 0 0 0 0 0 0 0 0 0 0 0 0 0 0 0 0 0 0 0 0 0 0 0 0 0 0 0 0 0 0 0 0 0 0 0 0 0 0 0 0 0 0 0 0 0 0 0 0 0 0 0 0 0 0 0 0 0 0 0 0 0 0 0 0 0 0 0 3 0 5 2 0 12 112 61 0 0 86 0 0 26 0 0 0 86 0 0 0 8 18 29 26 50 0 48 15 0 98 181 0 0 13 0 0 0 86 0 51 91 0 0 0 133 29 19 0 4 0 0 3 0 0 0 0 0 0 0 0 0 0 0 0 0 0 0 0 0 0 0 4 8 81 39 0 0 99 57 0 7 4 1 1 2 2 1 0 0 0 0 0 0 0 0 0 0 0 0 0 0 0 0 0 0 0 0 0 0 0 0 0 0 0 0 0 0 0 0 0 0 0 0 0 0 0 0 0 0 0 0 0 0 0 0 0 0 0 0 0 0 0 0 0 0 0 0 0 0 0 0 0 0 0 0 0 0 0 0 0 0 0 0 0 0 0 0 0 0 0 0 0 0 0 0 0 0 0 0 0 0 0 0 0 0 0 0 0 0 0 0 0 0 0 0 0 0 0 0 0 0 0 0 0 0 0 0 0 0 0 0 0 0 0 0 0 0 0 0 0 0 0 0 0 0 0 0 0 0 0 0 0 0 0 0 0 0 0 0 0 0 0 0 0 0 0 0 0 0 0 0 0 0 0 0 0 0 0 0 0 0 0 0 0 0 0 0 0 0 0 0 0 0 0 0 0 0 0 0 0 0 0 0 0 0 0 0 0 0 0 0 0 0 0 0 0 0 0 0 0 0 0 0 0 0 0 0 0 0 0 0 0 0 0 0 0 0 0 0 0 0 0 0 0 0 0 0 0 0 0 0 0 0 0 0 0 0 0 0 0 0 0 0 0 0 0 0 0 0 0 0 0 0 0 0 0 0 0 0 0 0 0 0 0 0 0 0 0 0 0 0 0 0 0 0 0 0 0 0 0 0 0 0 0 0 0 0 0 0 0 0 0 0 0 0 0 0 0 0 0 0 0 0 0 0 0 0 0 0 0 0 0 0 0 0 0 0 0 0 0 0 0 0 0 0 0 0 0 0 0 0 0 0 0 0 0 0 0 0 0 0 0 0 0 0 0 0 0 0 0 0 0 0 0 0 0 0 0 0 0 0 0 0 0 0 0 0 0 0 0 0 0 0 0 0 0 0 0 0 0 0 0 0 0 0 0 0 0 0 0 0 0 0 0 0 0 0 0 0 0 0 0 0 0 0 0 0 0 0 0 0 0 0 0 0 0 0 0 0 0 0 0 0 0 0 0 0 0 0 0 0 0 0 0 0 0 0 0 0 0 0 0 0 0 0 0 0 0 0 0 0 0 0 0 0 0 0 0 0 0 0 0 0 0 0 0 0 0 0 0 0 0 0 0 0 0 0 0 0 0 0 0 0 0 0 0 0 0 0 0 0 0 0 0 0 0 0 0 0 0 0 0 0 0 0 0 0 0 0 0 0 0 0 0 0 0 0 0 0 0 0 0 0 0 0 0 0 0 0 0 0 0 0 0 0 0 0 0 0 0 0 0 0 0 0 0 0 0 0 0 0 0 0 0 0 0 0 0 0 0 0 0 0 0 0 0 0 0 0 0 0 0 0 0 0 0 0 0 0 0 0 0 0 0 0 0 0 0 0 0 0 0 0 0 0 0 0 0 0 0 0 0 0 0 0 0 0 0 0 0 0 0 0 0 0 0 0 0 0 0 0 0 0 0 0 0 0 0 0 0 0 0 0 0 0 0 0 0 0 0 0 0 0 0 0 0 0 0 0 0 0 0 0 0 0 0 0 0 0 0 0 0 0 0 0 0 0 0 0 0 0 0 0 0 0 0 0 0 0 0 0 0 0 0 0 0 0 255
255 0 0 0 0 0 0 0 0 0 0 0 0 0 0 0 0 0 0 0 0 0 0 0 0 0 0 0 0 0 0 0 0 0 0 0 0 0 0 0 0 0 0 0 0 0 0 0 0 0 0 0 0 0 0 0 0 0 0 0 0 0 0 0 0 0 0 0 0 0 0 0 0 0 0 0 0 0 0 0 0 0 0 0 0 0 0 0 0 0 0 0 0 0 0 0 0 0 0 0 0 0 0 0 0 0 0 0 0 0 0 2 0 6 7 0 17 113 60 0 0 13 28 0 0 0 0 0 135 0 0 0 20 16 18 21 34 0 39 13 0 79 129 0 0 9 0 0 0 80 0 27 109 0 6 0 36 79 0 16 1 0 0 3 0 0 0 0 0 0 0 0 0 0 0 0 0 0 0 0 0 1 2 7 39 122 0 0 76 73 4 0 13 1 0 2 0 0 2 0 0 0 0 0 0 0 0 0 0 0 0 0 0 0 0 0 0 0 0 0 0 0 0 0 0 0 0 0 0 0 0 0 0 0 0 0 0 0 0 0 0 0 0 0 0 0 0 0 0 0 0 0 0 0 0 0 0 0 0 0 0 0 0 0 0 0 0 0 0 0 0 0 0 0 0 0 0 0 0 0 0 0 0 0 0 0 0 0 0 0 0 0 0 0 0 0 0 0 0 0 0 0 0 0 0 0 0 0 0 0 0 0 0 0 0 0 0 0 0 0 0 0 0 0 0 0 0 0 0 0 0 0 0 0 0 0 0 0 0 0 0 0 0 0 0 0 0 0 0 0 0 0 0 0 0 0 0 0 0 0 0 0 0 0 0 0 0 0 0 0 0 0 0 0 0 0 0 0 0 0 0 0 0 0 0 0 0 0 0 0 0 0 0 0 0 0 0 0 0 0 0 0 0 0 0 0 0 0 0 0 0 0 0 0 0 0 0 0 0 0 0 0 0 0 0 0 0 0 0 0 0 0 0 0 0 0 0 0 0 0 0 0 0 0 0 0 0 0 0 0 0 0 0 0 0 0 0 0 0 0 0 0 0 0 0 0 0 0 0 0 0 0 0 0 0 0 0 0 0 0 0 0 0 0 0 0 0 0 0 0 0 0 0 0 0 0 0 0 0 0 0 0 0 0 0 0 0 0 0 0 0 0 0 0 0 0 0 0 0 0 0 0 0 0 0 0 0 0 0 0 0 0 0 0 0 0 0 0 0 0 0 0 0 0 0 0 0 0 0 0 0 0 0 0 0 0 0 0 0 0 0 0 0 0 0 0 0 0 0 0 0 0 0 0 0 0 0 0 0 0 0 0 0 0 0 0 0 0 0 0 0 0 0 0 0 0 0 0 0 0 0 0 0 0 0 0 0 0 0 0 0 0 0 0 0 0 0 0 0 0 0 0 0 0 0 0 0 0 0 0 0 0 0 0 0 0 0 0 0 0 0 0 0 0 0 0 0 0 0 0 0 0 0 0 0 0 0 0 0 0 0 0 0 0 0 0 0 0 0 0 0 0 0 0 0 0 0 0 0 0 0 0 0 0 0 0 0 0 0 0 0 0 0 0 0 0 0 0 0 0 0 0 0 0 0 0 0 0 0 0 0 0 0 0 0 0 0 0 0 0 0 0 0 0 0 0 0 0 0 0 0 0 0 0 0 0 0 0 0 0 0 0 0 0 0 0 0 0 0 0 0 0 0 0 0 0 0 0 0 0 0 0 0 0 0 0 0 0 0 0 0 0 0 0 0 0 0 0 0 0 0 0 0 0 0 0 0 0 0 0 0 0 0 0 0 0 0 0 0 0 0 0 0 0 0 0 0 0 0 0 0 0 0 0 0 0 0 0 0 0 0 0 0 0 0 0 0 0 0 0 0 0 0 0 0 0 0 0 0 0 0 0 0 0 0 0 0 0 0 0 0 0 0 0 0 0 0 0 0 0 0 0 0 0 0 0 0 0 0 0 0 0 0 0 0 0 0 0 0 0 0 0 0 0 0 0 0 0 0 0 0 0 0 0 0 0 0 0 0 255
255 0 0 0 0 0 0 0 0 0 0 0 0 0 0 0 0 0 0 0 0 0 0 0 0 0 0 0 0 0 0 0 0 0 0 0 0 0 0 0 0 0 0 0 0 0 0 0 0 0 0 0 0 0 0 0 0 0 0 0 0 0 0 0 0 0 0 0 0 0 0 0 0 0 0 0 0 0 0 0 0 0 0 0 0 0 0 3 3 3 2 6 6 4 3 4 5 3 2 1 0 0 0 0 0 0 0 0 0 0 0 5 7 11 0 0 10 114 74 0 36 0 79 0 0 119 44 0 172 0 0 0 28 19 0 0 10 0 23 13 0 66 119 0 0 3 0 0 0 63 0 0 102 0 0 0 0 131 0 23 8 2 0 5 3 2 1 1 3 3 2 5 8 9 9 8 16 14 14 12 12 13 1 47 167 0 0 47 89 16 3 0 6 0 0 2 0 0 2 0 0 0 0 0 0 0 0 0 0 0 0 0 0 0 0 0 0 0 0 0 0 0 0 0 0 0 0 0 0 0 0 0 0 0 0 0 0 0 0 0 0 0 0 0 0 0 0 0 0 0 0 0 0 0 0 0 0 0 0 0 0 0 0 0 0 0 0 0 0 0 0 0 0 0 0 0 0 0 0 0 0 0 0 0 0 0 0 0 0 0 0 0 0 0 0 0 0 0 0 0 0 0 0 0 0 0 0 0 0 0 0 0 0 0 0 0 0 0 0 0 0 0 0 0 0 0 0 0 0 0 0 0 0 0 0 0 0 0 0 0 0 0 0 0 0 0 0 0 0 0 0 0 0 0 0 0 0 0 0 0 0 0 0 0 0 0 0 0 0 0 0 0 0 0 0 0 0 0 0 0 0 0 0 0 0 0 0 0 0 0 0 0 0 0 0 0 0 0 0 0 0 0 0 0 0 0 0 0 0 0 0 0 0 0 0 0 0 0 0 0 0 0 0 0 0 0 0 0 0 0 0 0 0 0 0 0 0 0 0 0 0 0 0 0 0 0 0 0 0 0 0 0 0 0 0 0 0 0 0 0 0 0 0 0 0 0 0 0 0 0 0 0 0 0 0 0 0 0 0 0 0 0 0 0 0 0 0 0 0 0 0 0 0 0 0 0 0 0 0 0 0 0 0 0 0 0 0 0 0 0 0 0 0 0 0 0 0 0 0 0 0 0 0 0 0 0 0 0 0 0 0 0 0 0 0 0 0 0 0 0 0 0 0 0 0 0 0 0 0 0 0 0 0 0 0 0 0 0 0 0 0 0 0 0 0 0 0 0 0 0 0 0 0 0 0 0 0 0 0 0 0 0 0 0 0 0 0 0 0 0 0 0 0 0 0 0 0 0 0 0 0 0 0 0 0 0 0 0 0 0 0 0 0 0 0 0 0 0 0 0 0 0 0 0 0 0 0 0 0 0 0 0 0 0 0 0 0 0 0 0 0 0 0 0 0 0 0 0 0 0 0 0 0 0 0 0 0 0 0 0 0 0 0 0 0 0 0 0 0 0 0 0 0 0 0 0 0 0 0 0 0 0 0 0 0 0 0 0 0 0 0 0 0 0 0 0 0 0 0 0 0 0 0 0 0 0 0 0 0 0 0 0 0 0 0 0 0 0 0 0 0 0 0 0 0 0 0 0 0 0 0 0 0 0 0 0 0 0 0 0 0 0 0 0 0 0 0 0 0 0 0 0 0 0 0 0 0 0 0 0 0 0 0 0 0 0 0 0 0 0 0 0 0 0 0 0 0 0 0 0 0 0 0 0 0 0 0 0 0 0 0 0 0 0 0 0 0 0 0 0 0 0 0 0 0 0 0 0 0 0 0 0 0 0 0 0 0 0 0 0 0 0 0 0 0 0 0 0 0 0 0 0 0 0 0 0 0 0 0 0 0 0 0 0 0 0 0 0 0 0 0 0 0 0 0 0 0 0 0 0 0 0 0 0 0 0 0 0 0 0 0 0 0 0 0 0 0 0 0 0 0 0 0 0 0 0 0 0 0 0 0 0 0 0 0 0 0 0 0 255
255 0 0 0 0 0 0 0 0 0 0 0 0 0 0 0 0 0 0 0 0 0 0 0 0 0 0 0 0 0 0 0 0 0 0 0 0 0 0 0 0 0 0 0 0 0 0 0 0 0 0 0 0 0 0 0 0 0 0 0 0 0 0 0 0 0 0 0 0 0 0 0 0 0 0 0 0 0 0 0 0 0 0 0 0 0 0 3 0 7 11 0 0 4 3 0 0 0 0 2 0 0 0 0 0 0 0 0 0 0 0 5 0 0 6 6 26 103 36 0 16 18 10 46 0 88 0 0 180 0 0 31 0 16 63 0 43 58 0 40 0 0 180 0 0 57 22 0 0 22 18 4 144 36 0 21 0 111 52 0 5 0 1 0 0 0 2 3 0 0 3 12 0 0 3 0 5 0 0 2 0 0 16 100 0 0 0 88 32 1 0 0 4 0 0 1 2 2 1 0 0 0 0 0 0 0 0 0 0 0 0 0 0 0 0 0 0 0 0 0 0 0 0 0 0 0 0 0 0 0 0 0 0 0 0 0 0 0 0 0 0 0 0 0 0 0 0 0 0 0 0 0 0 0 0 0 0 0 0 0 0 0 0 0 0 0 0 0 0 0 0 0 0 0 0 0 0 0 0 0 0 0 0 0 0 0 0 0 0 0 0 0 0 0 0 0 0 0 0 0 0 0 0 0 0 0 0 0 0 0 0 0 0 0 0 0 0 0 0 0 0 0 0 0 0 0 0 0 0 0 0 0 0 0 0 0 0 0 0 0 0 0 0 0 0 0 0 0 0 0 0 0 0 0 0 0 0 0 0 0 0 0 0 0 0 0 0 0 0 0 0 0 0 0 0 0 0 0 0 0 0 0 0 0 0 0 0 0 0 0 0 0 0 0 0 0 0 0 0 0 0 0 0 0 0 0 0 0 0 0 0 0 0 0 0 0 0 0 0 0 0 0 0 0 0 0 0 0 0 0 0 0 0 0 0 0 0 0 0 0 0 0 0 0 0 0 0 0 0 0 0 0 0 0 0 0 0 0 0 0 0 0 0 0 0 0 0 0 0 0 0 0 0 0 0 0 0 0 0 0 0 0 0 0 0 0 0 0 0 0 0 0 0 0 0 0 0 0 0 0 0 0 0 0 0 0 0 0 0 0 0 0 0 0 0 0 0 0 0 0 0 0 0 0 0 0 0 0 0 0 0 0 0 0 0 0 0 0 0 0 0 0 0 0 0 0 0 0 0 0 0 0 0 0 0 0 0 0 0 0 0 0 0 0 0 0 0 0 0 0 0 0 0 0 0 0 0 0 0 0 0 0 0 0 0 0 0 0 0 0 0 0 0 0 0 0 0 0 0 0 0 0 0 0 0 0 0 0 0 0 0 0 0 0 0 0 0 0 0 0 0 0 0 0 0 0 0 0 0 0 0 0 0 0 0 0 0 0 0 0 0 0 0 0 0 0 0 0 0 0 0 0 0 0 0 0 0 0 0 0 0 0 0 0 0 0 0 0 0 0 0 0 0 0 0 0 0 0 0 0 0 0 0 0 0 0 0 0 0 0 0 0 0 0 0 0 0 0 0 0 0 0 0 0 0 0 0 0 0 0 0 0 0 0 0 0 0 0 0 0 0 0 0 0 0 0 0 0 0 0 0 0 0 0 0 0 0 0 0 0 0 0 0 0 0 0 0 0 0 0 0 0 0 0 0 0 0 0 0 0 0 0 0 0 0 0 0 0 0 0 0 0 0 0 0 0 0 0 0 0 0 0 0 0 0 0 0 0 0 0 0 0 0 0 0 0 0 0 0 0 0 0 0 0 0 0 0 0 0 0 0 0 0 0 0 0 0 0 0 0 0 0 0 0 0 0 0 0 0 0 0 0 0 0 0 0 0 0 0 0 0 0 0 0 0 0 0 0 0 0 0 0 0 0 0 0 0 0 0 0 0 0 0 0 0 0 0 0 0 0 0 0 0 0 0 0 0 0 0 0 0 0 0 0 0 0 0 0 0 0 0 0 0 0 0 0 0 0 0 255
255 0 0 0 0 0 0 0 0 0 0 0 0 0 0 0 0 0 0 0 0 0 0 0 0 0 0 0 0 0 0 0 0 0 0 0 0 0 0 0 0 0 0 0 0 0 0 0 0 0 0 0 0 0 0 0 0 0 0 0 0 0 0 0 0 0 0 0 0 0 0 0 0 0 0 0 0 0 0 0 0 0 0 0 0 0 0 7 10 14 0 0 18 18 18 15 2 0 0 3 0 0 0 0 0 0 0 0 0 0 0 6 1 4 4 0 12 85 30 0 0 0 0 109 8 0 0 57 149 0 0 0 0 0 34 0 0 31 0 36 0 0 145 0 0 35 6 0 0 18 20 0 59 42 0 28 0 36 72 0 6 0 3 0 0 0 3 6 0 14 0 24 0 25 17 0 18 0 23 4 0 32 56 71 0 0 0 69 22 5 0 0 3 0 0 0 0 0 0 0 0 0 0 0 0 0 0 0 0 0 0 0 0 0 0 0 0 0 0 0 0 0 0 0 0 0 0 0 0 0 0 0 0 0 0 0 0 0 0 0 0 0 0 0 0 0 0 0 0 0 0 0 0 0 0 0 0 0 0 0 0 0 0 0 0 0 0 0 0 0 0 0 0 0 0 0 0 0 0 0 0 0 0 0 0 0 0 0 0 0 0 0 0 0 0 0 0 0 0 0 0 0 0 0 0 0 0 0 0 0 0 0 0 0 0 0 0 0 0 0 0 0 0 0 0 0 0 0 0 0 0 0 0 0 0 0 0 0 0 0 0 0 0 0 0 0 0 0 0 0 0 0 0 0 0 0 0 0 0 0 0 0 0 0 0 0 0 0 0 0 0 0 0 0 0 0 0 0 0 0 0 0 0 0 0 0 0 0 0 0 0 0 0 0 0 0 0 0 0 0 0 0 0 0 0 0 0 0 0 0 0 0 0 0 0 0 0 0 0 0 0 0 0 0 0 0 0 0 0 0 0 0 0 0 0 0 0 0 0 0 0 0 0 0 0 0 0 0 0 0 0 0 0 0 0 0 0 0 0 0 0 0 0 0 0 0 0 0 0 0 0 0 0 0 0 0 0 0 0 0 0 0 0 0 0 0 0 0 0 0 0 0 0 0 0 0 0 0 0 0 0 0 0 0 0 0 0 0 0 0 0 0 0 0 0 0 0 0 0 0 0 0 0 0 0 0 0 0 0 0 0 0 0 0 0 0 0 0 0 0 0 0 0 0 0 0 0 0 0 0 0 0 0 0 0 0 0 0 0 0 0 0 0 0 0 0 0 0 0 0 0 0 0 0 0 0 0 0 0 0 0 0 0 0 0 0 0 0 0 0 0 0 0 0 0 0 0 0 0 0 0 0 0 0 0 0 0 0 0 0 0 0 0 0 0 0 0 0 0 0 0 0 0 0 0 0 0 0 0 0 0 0 0 0 0 0 0 0 0 0 0 0 0 0 0 0 0 0 0 0 0 0 0 0 0 0 0 0 0 0 0 0 0 0 0 0 0 0 0 0 0 0 0 0 0 0 0 0 0 0 0 0 0 0 0 0 0 0 0 0 0 0 0 0 0 0 0 0 0 0 0 0 0 0 0 0 0 0 0 0 0 0 0 0 0 0 0 0 0 0 0 0 0 0 0 0 0 0 0 0 0 0 0 0 0 0 0 0 0 0 0 0 0 0 0 0 0 0 0 0 0 0 0 0 0 0 0 0 0 0 0 0 0 0 0 0 0 0 0 0 0 0 0 0 0 0 0 0 0 0 0 0 0 0 0 0 0 0 0 0 0 0 0 0 0 0 0 0 0 0 0 0 0 0 0 0 0 0 0 0 0 0 0 0 0 0 0 0 0 0 0 0 0 0 0 0 0 0 0 0 0 0 0 0 0 0 0 0 0 0 0 0 0 0 0 0 0 0 0 0 0 0 0 0 0 0 0 0 0 0 0 0 0 0 0 0 0 0 0 0 0 0 0 0 0 0 0 0 0 0 0 0 0 0 0 0 0 0 0 0 0 0 0 0 0 0 0 0 0 255
255 0 0 0 0 0 0 0 0 0 0 0 0 0 0 0 0 0 0 0 0 0 0 0 0 0 0 0 0 0 0 0 0 0 0 0 0 0 0 0 0 0 0 0 0 0 0 0 0 0 0 0 0 0 0 0 0 0 0 0 0 0 0 0 0 0 0 0 0 0 0 0 0 0 0 0 0 0 0 0 0 0 0 0 0 0 0 8 0 0 12 10 3 0 0 0 0 0 0 3 0 0 0 0 0 0 0 0 0 0 0 3 0 0 3 0 3 95 46 0 17 0 0 126 88 0 0 122 129 0 0 0 0 0 31 16 0 35 0 46 0 0 137 0 0 29 23 0 0 17 33 0 7 91 0 52 0 0 120 25 0 0 3 0 0 0 3 8 0 22 0 23 0 59 11 35 0 13 2 0 19 60 11 0 0 0 39 63 11 4 5 0 3 0 0 0 0 0 0 0 0 0 0 0 0 0 0 0 0 0 0 0 0 0 0 0 0 0 0 0 0 0 0 0 0 0 0 0 0 0 0 0 0 0 0 0 0 0 0 0 0 0 0 0 0 0 0 0 0 0 0 0 0 0 0 0 0 0 0 0 0 0 0 0 0 0 0 0 0 0 0 0 0 0 0 0 0 0 0 0 0 0 0 0 0 0 0 0 0 0 0 0 0 0 0 0 0 0 0 0 0 0 0 0 0 0 0 0 0 0 0 0 0 0 0 0 0 0 0 0 0 0 0 0 0 0 0 0 0 0 0 0 0 0 0 0 0 0 0 0 0 0 0 0 0 0 0 0 0 0 0 0 0 0 0 0 0 0 0 0 0 0 0 0 0 0 0 0 0 0 0 0 0 0 0 0 0 0 0 0 0 0 0 0 0 0 0 0 0 0 0 0 0 0 0 0 0 0 0 0 0 0 0 0 0 0 0 0 0 0 0 0 0 0 0 0 0 0 0 0 0 0 0 0 0 0 0 0 0 0 0 0 0 0 0 0 0 0 0 0 0 0 0 0 0 0 0 0 0 0 0 0 0 0 0 0 0 0 0 0 0 0 0 0 0 0 0 0 0 0 0 0 0 0 0 0 0 0 0 0 0 0 0 0 0 0 0 0 0 0 0 0 0 0 0 0 0 0 0 0 0 0 0 0 0 0 0 0 0 0 0 0 0 0 0 0 0 0 0 0 0 0 0 0 0 0 0 0 0 0 0 0 0 0 0 0 0 0 0 0 0 0 0 0 0 0 0 0 0 0 0 0 0 0 0 0 0 0 0 0 0 0 0 0 0 0 0 0 0 0 0 0 0 0 0 0 0 0 0 0 0 0 0 0 0 0 0 0 0 0 0 0 0 0 0 0 0 0 0 0 0 0 0 0 0 0 0 0 0 0 0 0 0 0 0 0 0 0 0 0 0 0 0 0 0 0 0 0 0 0 0 0 0 0 0 0 0 0 0 0 0 0 0 0 0 0 0 0 0 0 0 0 0 0 0 0 0 0 0 0 0 0 0 0 0 0 0 0 0 0 0 0 0 0 0 0 0 0 0 0 0 0 0 0 0 0 0 0 0 0 0 0 0 0 0 0 0 0 0 0 0 0 0 0 0 0 0 0 0 0 0 0 0 0 0 0 0 0 0 0 0 0 0 0 0 0 0 0 0 0 0 0 0 0 0 0 0 0 0 0 0 0 0 0 0 0 0 0 0 0 0 0 0 0 0 0 0 0 0 0 0 0 0 0 0 0 0 0 0 0 0 0 0 0 0 0 0 0 0 0 0 0 0 0 0 0 0 0 0 0 0 0 0 0 0 0 0 0 0 0 0 0 0 0 0 0 0 0 0 0 0 0 0 0 0 0 0 0 0 0 0 0 0 0 0 0 0 0 0 0 0 0 0 0 0 0 0 0 0 0 0 0 0 0 0 0 0 0 0 0 0 0 0 0 0 0 0 0 0 0 0 0 0 0 0 0 0 0 0 0 0 0 0 0 0 0 0 0 0 0 0 0 0 0 0 0 0 0 0 0 0 0 0 0 0 0 0 0 0 255
255 0 0 0 0 0 0 0 0 0 0 0 0 0 0 0 0 0 0 0 0 0 0 0 0 0 0 0 0 0 0 0 0 0 0 0 0 0 0 0 0 0 0 0 0 0 0 0 0 0 0 0 0 0 0 0 0 0 0 0 0 0 0 0 0 0 0 0 0 0 0 0 0 0 0 0 0 0 0 0 0 0 0 0 0 0 0 8 0 17 20 23 23 19 15 12 0 0 0 3 0 0 0 0 0 0 0 0 0 0 0 3 0 8 2 0 15 109 61 0 27 0 0 84 68 0 0 0 55 0 0 26 49 17 14 7 6 44 0 46 0 0 107 50 0 5 9 0 0 6 36 0 0 126 0 16 37 0 97 36 0 0 3 0 0 0 3 9 0 30 0 35 21 54 0 92 0 14 0 0 28 98 0 0 0 0 73 30 0 2 5 0 2 0 0 0 0 0 0 0 0 0 0 0 0 0 0 0 0 0 0 0 0 0 0 0 0 0 0 0 0 0 0 0 0 0 0 0 0 0 0 0 0 0 0 0 0 0 0 0 0 0 0 0 0 0 0 0 0 0 0 0 0 0 0 0 0 0 0 0 0 0 0 0 0 0 0 0 0 0 0 0 0 0 0 0 0 0 0 0 0 0 0 0 0 0 0 0 0 0 0 0 0 0 0 0 0 0 0 0 0 0 0 0 0 0 0 0 0 0 0 0 0 0 0 0 0 0 0 0 0 0 0 0 0 0 0 0 0 0 0 0 0 0 0 0 0 0 0 0 0 0 0 0 0 0 0 0 0 0 0 0 0 0 0 0 0 0 0 0 0 0 0 0 0 0 0 0 0 0 0 0 0 0 0 0 0 0 0 0 0 0 0 0 0 0 0 0 0 0 0 0 0 0 0 0 0 0 0 0 0 0 0 0 0 0 0 0 0 0 0 0 0 0 0 0 0 0 0 0 0 0 0 0 0 0 0 0 0 0 0 0 0 0 0 0 0 0 0 0 0 0 0 0 0 0 0 0 0 0 0 0 0 0 0 0 0 0 0 0 0 0 0 0 0 0 0 0 0 0 0 0 0 0 0 0 0 0 0 0 0 0 0 0 0 0 0 0 0 0 0 0 0 0 0 0 0 0 0 0 0 0 0 0 0 0 0 0 0 0 0 0 0 0 0 0 0 0 0 0 0 0 0 0 0 0 0 0 0 0 0 0 0 0 0 0 0 0 0 0 0 0 0 0 0 0 0 0 0 0 0 0 0 0 0 0 0 0 0 0 0 0 0 0 0 0 0 0 0 0 0 0 0 0 0 0 0 0 0 0 0 0 0 0 0 0 0 0 0 0 0 0 0 0 0 0 0 0 0 0 0 0 0 0 0 0 0 0 0 0 0 0 0 0 0 0 0 0 0 0 0 0 0 0 0 0 0 0 0 0 0 0 0 0 0 0 0 0 0 0 0 0 0 0 0 0 0 0 0 0 0 0 0 0 0 0 0 0 0 0 0 0 0 0 0 0 0 0 0 0 0 0 0 0 0 0 0 0 0 0 0 0 0 0 0 0 0 0 0 0 0 0 0 0 0 0 0 0 0 0 0 0 0 0 0 0 0 0 0 0 0 0 0 0 0 0 0 0 0 0 0 0 0 0 0 0 0 0 0 0 0 0 0 0 0 0 0 0 0 0 0 0 0 0 0 0 0 0 0 0 0 0 0 0 0 0 0 0 0 0 0 0 0 0 0 0 0 0 0 0 0 0 0 0 0 0 0 0 0 0 0 0 0 0 0 0 0 0 0 0 0 0 0 0 0 0 0 0 0 0 0 0 0 0 0 0 0 0 0 0 0 0 0 0 0 0 0 0 0 0 0 0 0 0 0 0 0 0 0 0 0 0 0 0 0 0 0 0 0 0 0 0 0 0 0 0 0 0 0 0 0 0 0 0 0 0 0 0 0 0 0 0 0 0 0 0 0 0 0 0 0 0 0 0 0 0 0 0 0 0 0 0 0 0 0 0 0 0 0 0 0 0 0 0 0 0 0 0 0 255
255 0 0 0 0 0 0 0 0 0 0 0 0 0 0 0 0 0 0 0 0 0 0 0 0 0 0 0 0 0 0 0 0 0 0 0 0 0 0 0 0 0 0 0 0 0 0 0 0 0 0 0 0 0 0 0 0 0 0 0 0 0 0 0 0 0 0 0 0 0 0 0 0 0 0 0 0 0 0 0 0 0 0 0 0 0 0 9 9 15 0 0 0 17 16 15 4 0 0 3 0 0 0 0 0 0 0 0 0 0 0 2 0 0 1 4 14 99 60 0 66 0 0 122 22 0 132 0 0 0 0 0 32 0 0 0 0 15 0 0 0 0 40 107 0 0 7 11 0 1 43 0 0 136 0 0 28 0 31 74 5 0 3 0 0 0 3 8 0 28 0 27 109 0 0 157 0 13 0 16 65 39 0 0 0 38 77 13 0 0 5 1 1 0 0 0 0 0 0 0 0 0 0 0 0 0 0 0 0 0 0 0 0 0 0 0 0 0 0 0 0 0 0 0 0 0 0 0 0 0 0 0 0 0 0 0 0 0 0 0 0 0 0 0 0 0 0 0 0 0 0 0 0 0 0 0 0 0 0 0 0 0 0 0 0 0 0 0 0 0 0 0 0 0 0 0 0 0 0 0 0 0 0 0 0 0 0 0 0 0 0 0 0 0 0 0 0 0 0 0 0 0 0 0 0 0 0 0 0 0 0 0 0 0 0 0 0 0 0 0 0 0 0 0 0 0 0 0 0 0 0 0 0 0 0 0 0 0 0 0 0 0 0 0 0 0 0 0 0 0 0 0 0 0 0 0 0 0 0 0 0 0 0 0 0 0 0 0 0 0 0 0 0 0 0 0 0 0 0 0 0 0 0 0 0 0 0 0 0 0 0 0 0 0 0 0 0 0 0 0 0 0 0 0 0 0 0 0 0 0 0 0 0 0 0 0 0 0 0 0 0 0 0 0 0 0 0 0 0 0 0 0 0 0 0 0 0 0 0 0 0 0 0 0 0 0 0 0 0 0 0 0 0 0 0 0 0 0 0 0 0 0 0 0 0 0 0 0 0 0 0 0 0 0 0 0 0 0 0 0 0 0 0 0 0 0 0 0 0 0 0 0 0 0 0 0 0 0 0 0 0 0 0 0 0 0 0 0 0 0 0 0 0 0 0 0 0 0 0 0 0 0 0 0 0 0 0 0 0 0 0 0 0 0 0 0 0 0 0 0 0 0 0 0 0 0 0 0 0 0 0 0 0 0 0 0 0 0 0 0 0 0 0 0 0 0 0 0 0 0 0 0 0 0 0 0 0 0 0 0 0 0 0 0 0 0 0 0 0 0 0 0 0 0 0 0 0 0 0 0 0 0 0 0 0 0 0 0 0 0 0 0 0 0 0 0 0 0 0 0 0 0 0 0 0 0 0 0 0 0 0 0 0 0 0 0 0 0 0 0 0 0 0 0 0 0 0 0 0 0 0 0 0 0 0 0 0 0 0 0 0 0 0 0 0 0 0 0 0 0 0 0 0 0 0 0 0 0 0 0 0 0 0 0 0 0 0 0 0 0 0 0 0 0 0 0 0 0 0 0 0 0 0 0 0 0 0 0 0 0 0 0 0 0 0 0 0 0 0 0 0 0 0 0 0 0 0 0 0 0 0 0 0 0 0 0 0 0 0 0 0 0 0 0 0 0 0 0 0 0 0 0 0 0 0 0 0 0 0 0 0 0 0 0 0 0 0 0 0 0 0 0 0 0 0 0 0 0 0 0 0 0 0 0 0 0 0 0 0 0 0 0 0 0 0 0 0 0 0 0 0 0 0 0 0 0 0 0 0 0 0 0 0 0 0 0 0 0 0 0 0 0 0 0 0 0 0 0 0 0 0 0 0 0 0 0 0 0 0 0 0 0 0 0 0 0 0 0 0 0 0 0 0 0 0 0 0 0 0 0 0 0 0 0 0 0 0 0 0 0 0 0 0 0 0 0 0 0 0 0 0 0 0 0 0 0 0 0 0 0 0 0 0 0 0 0 0 0 0 255
255 0 0 0 0 0 0 0 0 0 0 0 0 0 0 0 0 0 0 0 0 0 0 0 0 0 0 0 0 0 0 0 0 0 0 0 0 0 0 0 0 0 0 0 0 0 0 0 0 0 0 0 0 0 0 0 0 0 0 0 0 0 0 0 0 0 0 0 0 0 0 0 0 0 0 0 0 0 0 0 0 0 0 0 0 0 0 21 0 69 61 46 0 0 0 0 4 0 0 3 0 0 0 0 0 0 0 0 0 0 0 1 4 0 5 0 0 81 29 0 103 0 0 172 75 0 109 60 0 0 0 0 25 0 0 69 0 15 23 0 0 0 3 141 0 0 0 17 0 0 43 0 4 139 18 0 55 0 0 112 12 0 3 0 0 0 3 7 0 19 0 17 195 0 0 207 5 0 6 31 90 0 0 0 0 66 46 0 0 7 5 2 1 0 0 0 0 0 0 0 0 0 0 0 0 0 0 0 0 0 0 0 0 0 0 0 0 0 0 0 0 0 0 0 0 0 0 0 0 0 0 0 0 0 0 0 0 0 0 0 0 0 0 0 0 0 0 0 0 0 0 0 0 0 0 0 0 0 0 0 0 0 0 0 0 0 0 0 0 0 0 0 0 0 0 0 0 0 0 0 0 0 0 0 0 0 0 0 0 0 0 0 0 0 0 0 0 0 0 0 0 0 0 0 0 0 0 0 0 0 0 0 0 0 0 0 0 0 0 0 0 0 0 0 0 0 0 0 0 0 0 0 0 0 0 0 0 0 0 0 0 0 0 0 0 0 0 0 0 0 0 0 0 0 0 0 0 0 0 0 0 0 0 0 0 0 0 0 0 0 0 0 0 0 0 0 0 0 0 0 0 0 0 0 0 0 0 0 0 0 0 0 0 0 0 0 0 0 0 0 0 0 0 0 0 0 0 0 0 0 0 0 0 0 0 0 0 0 0 0 0 0 0 0 0 0 0 0 0 0 0 0 0 0 0 0 0 0 0 0 0 0 0 0 0 0 0 0 0 0 0 0 0 0 0 0 0 0 0 0 0 0 0 0 0 0 0 0 0 0 0 0 0 0 0 0 0 0 0 0 0 0 0 0 0 0 0 0 0 0 0 0 0 0 0 0 0 0 0 0 0 0 0 0 0 0 0 0 0 0 0 0 0 0 0 0 0 0 0 0 0 0 0 0 0 0 0 0 0 0 0 0 0 0 0 0 0 0 0 0 0 0 0 0 0 0 0 0 0 0 0 0 0 0 0 0 0 0 0 0 0 0 0 0 0 0 0 0 0 0 0 0 0 0 0 0 0 0 0 0 0 0 0 0 0 0 0 0 0 0 0 0 0 0 0 0 0 0 0 0 0 0 0 0 0 0 0 0 0 0 0 0 0 0 0 0 0 0 0 0 0 0 0 0 0 0 0 0 0 0 0 0 0 0 0 0 0 0 0 0 0 0 0 0 0 0 0 0 0 0 0 0 0 0 0 0 0 0 0 0 0 0 0 0 0 0 0 0 0 0 0 0 0 0 0 0 0 0 0 0 0 0 0 0 0 0 0 0 0 0 0 0 0 0 0 0 0 0 0 0 0 0 0 0 0 0 0 0 0 0 0 0 0 0 0 0 0 0 0 0 0 0 0 0 0 0 0 0 0 0 0 0 0 0 0 0 0 0 0 0 0 0 0 0 0 0 0 0 0 0 0 0 0 0 0 0 0 0 0 0 0 0 0 0 0 0 0 0 0 0 0 0 0 0 0 0 0 0 0 0 0 0 0 0 0 0 0 0 0 0 0 0 0 0 0 0 0 0 0 0 0 0 0 0 0 0 0 0 0 0 0 0 0 0 0 0 0 0 0 0 0 0 0 0 0 0 0 0 0 0 0 0 0 0 0 0 0 0 0 0 0 0 0 0 0 0 0 0 0 0 0 0 0 0 0 0 0 0 0 0 0 0 0 0 0 0 0 0 0 0 0 0 0 0 0 0 0 0 0 0 0 0 0 0 0 0 0 0 0 0 0 0 0 0 0 0 0 0 0 255
255 0 0 0 0 0 0 0 0 0 0 0 0 0 0 0 0 0 0 0 0 0 0 0 0 0 0 0 0 0 0 0 0 0 0 0 0 0 0 0 0 0 0 0 0 0 0 0 0 0 0 0 0 0 0 0 0 0 0 0 0 0 0 0 0 0 0 0 0 0 0 0 0 0 0 0 0 0 0 0 0 0 0 0 0 0 0 53 18 83 135 198 95 22 0 26 6 0 0 3 0 0 0 0 0 0 0 0 0 0 0 0 4 2 4 0 10 85 45 0 93 0 0 93 187 0 6 138 0 29 0 0 43 0 0 81 6 19 46 5 15 8 0 123 0 0 0 39 0 0 46 0 4 115 129 0 80 4 0 106 32 0 3 0 0 0 3 6 0 10 20 0 248 0 0 247 11 0 8 57 2 0 0 0 3 82 29 0 19 11 0 0 2 0 0 0 0 0 0 0 0 0 0 0 0 0 0 0 0 0 0 0 0 0 0 0 0 0 0 0 0 0 0 0 0 0 0 0 0 0 0 0 0 0 0 0 0 0 0 0 0 0 0 0 0 0 0 0 0 0 0 0 0 0 0 0 0 0 0 0 0 0 0 0 0 0 0 0 0 0 0 0 0 0 0 0 0 0 0 0 0 0 0 0 0 0 0 0 0 0 0 0 0 0 0 0 0 0 0 0 0 0 0 0 0 0 0 0 0 0 0 0 0 0 0 0 0 0 0 0 0 0 0 0 0 0 0 0 0 0 0 0 0 0 0 0 0 0 0 0 0 0 0 0 0 0 0 0 0 0 0 0 0 0 0 0 0 0 0 0 0 0 0 0 0 0 0 0 0 0 0 0 0 0 0 0 0 0 0 0 0 0 0 0 0 0 0 0 0 0 0 0 0 0 0 0 0 0 0 0 0 0 0 0 0 0 0 0 0 0 0 0 0 0 0 0 0 0 0 0 0 0 0 0 0 0 0 0 0 0 0 0 0 0 0 0 0 0 0 0 0 0 0 0 0 0 0 0 0 0 0 0 0 0 0 0 0 0 0 0 0 0 0 0 0 0 0 0 0 0 0 0 0 0 0 0 0 0 0 0 0 0 0 0 0 0 0 0 0 0 0 0 0 0 0 0 0 0 0 0 0 0 0 0 0 0 0 0 0 0 0 0 0 0 0 0 0 0 0 0 0 0 0 0 0 0 0 0 0 0 0 0 0 0 0 0 0 0 0 0 0 0 0 0 0 0 0 0 0 0 0 0 0 0 0 0 0 0 0 0 0 0 0 0 0 0 0 0 0 0 0 0 0 0 0 0 0 0 0 0 0 0 0 0 0 0 0 0 0 0 0 0 0 0 0 0 0 0 0 0 0 0 0 0 0 0 0 0 0 0 0 0 0 0 0 0 0 0 0 0 0 0 0 0 0 0 0 0 0 0 0 0 0 0 0 0 0 0 0 0 0 0 0 0 0 0 0 0 0 0 0 0 0 0 0 0 0 0 0 0 0 0 0 0 0 0 0 0 0 0 0 0 0 0 0 0 0 0 0 0 0 0 0 0 0 0 0 0 0 0 0 0 0 0 0 0 0 0 0 0 0 0 0 0 0 0 0 0 0 0 0 0 0 0 0 0 0 0 0 0 0 0 0 0 0 0 0 0 0 0 0 0 0 0 0 0 0 0 0 0 0 0 0 0 0 0 0 0 0 0 0 0 0 0 0 0 0 0 0 0 0 0 0 0 0 0 0 0 0 0 0 0 0 0 0 0 0 0 0 0 0 0 0 0 0 0 0 0 0 0 0 0 0 0 0 0 0 0 0 0 0 0 0 0 0 0 0 0 0 0 0 0 0 0 0 0 0 0 0 0 0 0 0 0 0 0 0 0 0 0 0 0 0 0 0 0 0 0 0 0 0 0 0 0 0 0 0 0 0 0 0 0 0 0 0 0 0 0 0 0 0 0 0 0 0 0 0 0 0 0 0 0 0 0 0 0 0 0 0 0 0 0 0 0 0 0 0 0 0 0 0 0 0 0 0 0 0 0 0 255
255 0 0 0 0 0 0 0 0 0 0 0 0 0 0 0 0 0 0 0 0 0 0 0 0 0 0 0 0 0 0 0 0 0 0 0 0 0 0 0 0 0 0 0 0 0 0 0 0 0 0 0 0 0 0 0 0 0 0 0 0 0 0 0 0 0 0 0 0 0 0 0 0 0 0 0 0 0 0 0 0 0 0 0 0 0 0 49 0 0 0 0 255 207 47 19 9 9 0 6 5 4 5 3 2 0 2 6 7 5 1 1 8 2 0 0 18 70 41 0 39 73 0 0 255 0 0 120 0 4 0 0 78 0 0 16 0 0 42 0 23 9 0 66 46 0 25 50 0 0 79 0 0 63 157 0 71 39 0 64 76 0 5 4 6 5 12 6 0 5 26 0 255 0 0 234 0 0 35 132 0 0 0 0 31 56 18 0 9 7 0 0 4 1 0 2 4 5 3 1 0 0 0 0 0 1 3 3 2 0 0 0 0 0 0 0 0 0 0 0 0 0 0 0 0 0 0 0 0 0 0 0 0 0 0 0 0 0 0 0 0 0 0 0 0 0 0 0 0 0 0 0 0 0 0 0 0 0 0 0 0 0 0 0 0 0 0 0 0 0 0 0 0 0 0 0 0 0 0 0 0 0 0 0 0 0 0 0 0 0 0 0 0 0 0 0 0 0 0 0 0 0 0 0 0 0 0 0 0 0 0 0 0 0 0 0 0 0 0 0 0 0 0 0 0 0 0 0 0 0 0 0 0 0 0 0 0 0 0 0 0 0 0 0 0 0 0 0 0 0 0 0 0 0 0 0 0 0 0 0 0 0 0 0 0 0 0 0 0 0 0 0 0 0 0 0 0 0 0 0 0 0 0 0 0 0 0 0 0 0 0 0 0 0 0 0 0 0 0 0 0 0 0 0 0 0 0 0 0 0 0 0 0 0 0 0 0 0 0 0 0 0 0 0 0 0 0 0 0 0 0 0 0 0 0 0 0 0 0 0 0 0 0 0 0 0 0 0 0 0 0 0 0 0 0 0 0 0 0 0 0 0 0 0 0 0 0 0 0 0 0 0 0 0 0 0 0 0 0 0 0 0 0 0 0 0 0 0 0 0 0 0 0 0 0 0 0 0 0 0 0 0 0 0 0 0 0 0 0 0 0 0 0 0 0 0 0 0 0 0 0 0 0 0 0 0 0 0 0 0 0 0 0 0 0 0 0 0 0 0 0 0 0 0 0 0 0 0 0 0 0 0 0 0 0 0 0 0 0 0 0 0 0 0 0 0 0 0 0 0 0 0 0 0 0 0 0 0 0 0 0 0 0 0 0 0 0 0 0 0 0 0 0 0 0 0 0 0 0 0 0 0 0 0 0 0 0 0 0 0 0 0 0 0 0 0 0 0 0 0 0 0 0 0 0 0 0 0 0 0 0 0 0 0 0 0 0 0 0 0 0 0 0 0 0 0 0 0 0 0 0 0 0 0 0 0 0 0 0 0 0 0 0 0 0 0 0 0 0 0 0 0 0 0 0 0 0 0 0 0 0 0 0 0 0 0 0 0 0 0 0 0 0 0 0 0 0 0 0 0 0 0 0 0 0 0 0 0 0 0 0 0 0 0 0 0 0 0 0 0 0 0 0 0 0 0 0 0 0 0 0 0 0 0 0 0 0 0 0 0 0 0 0 0 0 0 0 0 0 0 0 0 0 0 0 0 0 0 0 0 0 0 0 0 0 0 0 0 0 0 0 0 0 0 0 0 0 0 0 0 0 0 0 0 0 0 0 0 0 0 0 0 0 0 0 0 0 0 0 0 0 0 0 0 0 0 0 0 0 0 0 0 0 0 0 0 0 0 0 0 0 0 0 0 0 0 0 0 0 0 0 0 0 0 0 0 0 0 0 0 0 0 0 0 0 0 0 0 0 0 0 0 0 0 0 0 0 0 0 0 0 0 0 0 0 0 0 0 0 0 0 0 0 0 0 0 0 0 0 0 0 0 0 0 0 0 0 0 0 0 0 0 0 0 0 0 0 0 0 255
255 0 0 0 0 0 0 0 0 0 0 0 0 0 0 0 0 0 0 0 0 0 0 0 0 0 0 0 0 0 0 0 0 0 0 0 0 0 0 0 0 0 0 0 0 0 0 0 0 0 0 0 0 0 0 0 0 0 0 0 0 0 0 0 0 0 0 0 0 0 0 0 0 0 0 0 0 0 0 0 0 0 0 0 0 0 0 38 131 251 0 0 0 79 255 182 2 34 27 5 7 0 0 0 2 0 3 0 0 0 1 9 7 0 0 0 12 48 154 0 0 59 0 47 120 56 0 182 0 0 0 0 11 0 0 51 12 2 26 1 0 0 0 39 61 0 0 13 0 0 0 32 0 139 149 0 0 136 0 0 133 26 0 16 9 0 9 3 12 14 20 0 255 0 0 208 0 32 77 35 0 160 0 0 132 5 4 7 2 7 0 1 0 4 1 2 0 0 0 4 3 3 0 0 0 2 0 0 2 0 0 0 0 0 0 0 0 0 0 0 0 0 0 0 0 0 0 0 0 0 0 0 0 0 0 0 0 0 0 0 0 0 0 0 0 0 0 0 0 0 0 0 0 0 0 0 0 0 0 0 0 0 0 0 0 0 0 0 0 0 0 0 0 0 0 0 0 0 0 0 0 0 0 0 0 0 0 0 0 0 0 0 0 0 0 0 0 0 0 0 0 0 0 0 0 0 0 0 0 0 0 0 0 0 0 0 0 0 0 0 0 0 0 0 0 0 0 0 0 0 0 0 0 0 0 0 0 0 0 0 0 0 0 0 0 0 0 0 0 0 0 0 0 0 0 0 0 0 0 0 0 0 0 0 0 0 0 0 0 0 0 0 0 0 0 0 0 0 0 0 0 0 0 0 0 0 0 0 0 0 0 0 0 0 0 0 0 0 0 0 0 0 0 0 0 0 0 0 0 0 0 0 0 0 0 0 0 0 0 0 0 0 0 0 0 0 0 0 0 0 0 0 0 0 0 0 0 0 0 0 0 0 0 0 0 0 0 0 0 0 0 0 0 0 0 0 0 0 0 0 0 0 0 0 0 0 0 0 0 0 0 0 0 0 0 0 0 0 0 0 0 0 0 0 0 0 0 0 0 0 0 0 0 0 0 0 0 0 0 0 0 0 0 0 0 0 0 0 0 0 0 0 0 0 0 0 0 0 0 0 0 0 0 0 0 0 0 0 0 0 0 0 0 0 0 0 0 0 0 0 0 0 0 0 0 0 0 0 0 0 0 0 0 0 0 0 0 0 0 0 0 0 0 0 0 0 0 0 0 0 0 0 0 0 0 0 0 0 0 0 0 0 0 0 0 0 0 0 0 0 0 0 0 0 0 0 0 0 0 0 0 0 0 0 0 0 0 0 0 0 0 0 0 0 0 0 0 0 0 0 0 0 0 0 0 0 0 0 0 0 0 0 0 0 0 0 0 0 0 0 0 0 0 0 0 0 0 0 0 0 0 0 0 0 0 0 0 0 0 0 0 0 0 0 0 0 0 0 0 0 0 0 0 0 0 0 0 0 0 0 0 0 0 0 0 0 0 0 0 0 0 0 0 0 0 0 0 0 0 0 0 0 0 0 0 0 0 0 0 0 0 0 0 0 0 0 0 0 0 0 0 0 0 0 0 0 0 0 0 0 0 0 0 0 0 0 0 0 0 0 0 0 0 0 0 0 0 0 0 0 0 0 0 0 0 0 0 0 0 0 0 0 0 0 0 0 0 0 0 0 0 0 0 0 0 0 0 0 0 0 0 0 0 0 0 0 0 0 0 0 0 0 0 0 0 0 0 0 0 0 0 0 0 0 0 0 0 0 0 0 0 0 0 0 0 0 0 0 0 0 0 0 0 0 0 0 0 0 0 0 0 0 0 0 0 0 0 0 0 0 0 0 0 0 0 0 0 0 0 0 0 0 0 0 0 0 0 0 0 0 0 0 0 0 0 0 0 0 0 0 0 0 0 0 0 0 0 0 0 0 0 0 0 0 0 0 0 0 0 0 0 0 0 0 0 0 0 0 0 255
255 0 0 0 0 0 0 0 0 0 0 0 0 0 0 0 0 0 0 0 0 0 0 0 0 0 0 0 0 0 0 0 0 0 0 0 0 0 0 0 0 0 0 0 0 0 0 0 0 0 0 0 0 0 0 0 0 0 0 0 0 0 0 0 0 0 0 0 0 0 0 0 0 0 0 0 0 0 0 0 0 0 0 0 0 0 0 7 0 46 255 255 0 0 0 50 255 0 0 0 0 10 18 10 9 2 5 1 1 6 5 14 0 15 26 34 0 0 59 3 0 38 0 27 78 79 0 108 57 0 123 14 0 114 0 31 19 4 35 20 0 0 0 0 73 0 0 6 6 0 0 49 0 102 147 0 0 111 0 0 125 50 0 13 22 0 3 17 0 0 4 134 136 0 0 193 0 47 124 0 0 78 0 0 90 0 2 3 0 6 0 1 0 0 4 3 4 5 6 12 0 11 3 1 4 9 2 8 3 0 0 0 0 0 0 0 0 0 0 0 0 0 0 0 0 0 0 0 0 0 0 0 0 0 0 0 0 0 0 0 0 0 0 0 0 0 0 0 0 0 0 0 0 0 0 0 0 0 0 0 0 0 0 0 0 0 0 0 0 0 0 0 0 0 0 0 0 0 0 0 0 0 0 0 0 0 0 0 0 0 0 0 0 0 0 0 0 0 0 0 0 0 0 0 0 0 0 0 0 0 0 0 0 0 0 0 0 0 0 0 0 0 0 0 0 0 0 0 0 0 0 0 0 0 0 0 0 0 0 0 0 0 0 0 0 0 0 0 0 0 0 0 0 0 0 0 0 0 0 0 0 0 0 0 0 0 0 0 0 0 0 0 0 0 0 0 0 0 0 0 0 0 0 0 0 0 0 0 0 0 0 0 0 0 0 0 0 0 0 0 0 0 0 0 0 0 0 0 0 0 0 0 0 0 0 0 0 0 0 0 0 0 0 0 0 0 0 0 0 0 0 0 0 0 0 0 0 0 0 0 0 0 0 0 0 0 0 0 0 0 0 0 0 0 0 0 0 0 0 0 0 0 0 0 0 0 0 0 0 0 0 0 0 0 0 0 0 0 0 0 0 0 0 0 0 0 0 0 0 0 0 0 0 0 0 0 0 0 0 0 0 0 0 0 0 0 0 0 0 0 0 0 0 0 0 0 0 0 0 0 0 0 0 0 0 0 0 0 0 0 0 0 0 0 0 0 0 0 0 0 0 0 0 0 0 0 0 0 0 0 0 0 0 0 0 0 0 0 0 0 0 0 0 0 0 0 0 0 0 0 0 0 0 0 0 0 0 0 0 0 0 0 0 0 0 0 0 0 0 0 0 0 0 0 0 0 0 0 0 0 0 0 0 0 0 0 0 0 0 0 0 0 0 0 0 0 0 0 0 0 0 0 0 0 0 0 0 0 0 0 0 0 0 0 0 0 0 0 0 0 0 0 0 0 0 0 0 0 0 0 0 0 0 0 0 0 0 0 0 0 0 0 0 0 0 0 0 0 0 0 0 0 0 0 0 0 0 0 0 0 0 0 0 0 0 0 0 0 0 0 0 0 0 0 0 0 0 0 0 0 0 0 0 0 0 0 0 0 0 0 0 0 0 0 0 0 0 0 0 0 0 0 0 0 0 0 0 0 0 0 0 0 0 0 0 0 0 0 0 0 0 0 0 0 0 0 0 0 0 0 0 0 0 0 0 0 0 0 0 0 0 0 0 0 0 0 0 0 0 0 0 0 0 0 0 0 0 0 0 0 0 0 0 0 0 0 0 0 0 0 0 0 0 0 0 0 0 0 0 0 0 0 0 0 0 0 0 0 0 0 0 0 0 0 0 0 0 0 0 0 0 0 0 0 0 0 0 0 0 0 0 0 0 0 0 0 0 0 0 0 0 0 0 0 0 0 0 0 0 0 0 0 0 0 0 0 0 0 0 0 0 0 0 0 0 0 0 0 0 0 0 0 0 0 0 0 0 0 0 0 0 0 0 0 0 0 0 0 0 0 0 0 0 0 0 0 0 0 0 255
255 0 0 0 0 0 0 0 0 0 0 0 0 0 0 0 0 0 0 0 0 0 0 0 0 0 0 0 0 0 0 0 0 0 0 0 0 0 0 0 0 0 0 0 0 0 0 0 0 0 0 0 0 0 0 0 0 0 0 0 0 0 0 0 0 0 0 0 0 0 0 0 0 0 0 0 0 0 0 0 0 1 2 3 3 2 1 6 17 0 0 187 186 0 0 0 0 255 183 54 21 0 25 0 10 10 2 1 6 3 16 20 63 52 9 0 2 33 72 0 0 0 0 0 43 123 0 18 132 0 28 23 0 43 0 0 35 4 24 25 9 0 0 0 94 17 0 0 0 0 0 20 0 49 141 0 0 56 32 0 59 85 0 0 24 7 0 11 0 0 47 255 0 0 17 191 0 105 49 0 51 32 0 100 46 0 2 4 0 6 0 0 2 0 0 1 1 3 9 0 0 0 8 6 0 0 0 0 2 0 0 0 0 0 0 0 0 0 0 0 0 0 0 0 0 0 0 0 0 0 0 0 0 0 0 0 0 0 0 0 0 0 0 0 0 0 0 0 0 0 0 0 0 0 0 0 0 0 0 0 0 0 0 0 0 0 0 0 0 0 0 0 0 0 0 0 0 0 0 0 0 0 0 0 0 0 0 0 0 0 0 0 0 0 0 0 0 0 0 0 0 0 0 0 0 0 0 0 0 0 0 0 0 0 0 0 0 0 0 0 0 0 0 0 0 0 0 0 0 0 0 0 0 0 0 0 0 0 0 0 0 0 0 0 0 0 0 0 0 0 0 0 0 0 0 0 0 0 0 0 0 0 0 0 0 0 0 0 0 0 0 0 0 0 0 0 0 0 0 0 0 0 0 0 0 0 0 0 0 0 0 0 0 0 0 0 0 0 0 0 0 0 0 0 0 0 0 0 0 0 0 0 0 0 0 0 0 0 0 0 0 0 0 0 0 0 0 0 0 0 0 0 0 0 0 0 0 0 0 0 0 0 0 0 0 0 0 0 0 0 0 0 0 0 0 0 0 0 0 0 0 0 0 0 0 0 0 0 0 0 0 0 0 0 0 0 0 0 0 0 0 0 0 0 0 0 0 0 0 0 0 0 0 0 0 0 0 0 0 0 0 0 0 0 0 0 0 0 0 0 0 0 0 0 0 0 0 0 0 0 0 0 0 0 0 0 0 0 0 0 0 0 0 0 0 0 0 0 0 0 0 0 0 0 0 0 0 0 0 0 0 0 0 0 0 0 0 0 0 0 0 0 0 0 0 0 0 0 0 0 0 0 0 0 0 0 0 0 0 0 0 0 0 0 0 0 0 0 0 0 0 0 0 0 0 0 0 0 0 0 0 0 0 0 0 0 0 0 0 0 0 0 0 0 0 0 0 0 0 0 0 0 0 0 0 0 0 0 0 0 0 0 0 0 0 0 0 0 0 0 0 0 0 0 0 0 0 0 0 0 0 0 0 0 0 0 0 0 0 0 0 0 0 0 0 0 0 0 0 0 0 0 0 0 0 0 0 0 0 0 0 0 0 0 0 0 0 0 0 0 0 0 0 0 0 0 0 0 0 0 0 0 0 0 0 0 0 0 0 0 0 0 0 0 0 0 0 0 0 0 0 0 0 0 0 0 0 0 0 0 0 0 0 0 0 0 0 0 0 0 0 0 0 0 0 0 0 0 0 0 0 0 0 0 0 0 0 0 0 0 0 0 0 0 0 0 0 0 0 0 0 0 0 0 0 0 0 0 0 0 0 0 0 0 0 0 0 0 0 0 0 0 0 0 0 0 0 0 0 0 0 0 0 0 0 0 0 0 0 0 0 0 0 0 0 0 0 0 0 0 0 0 0 0 0 0 0 0 0 0 0 0 0 0 0 0 0 0 0 0 0 0 0 0 0 0 0 0 0 0 0 0 0 0 0 0 0 0 0 0 0 0 0 0 0 0 0 0 0 0 0 0 0 0 0 0 0 0 0 0 0 0 0 0 0 0 0 0 0 0 0 0 0 0 0 0 0 0 0 255
255 0 0 0 0 0 0 0 0 0 0 0 0 0 0 0 0 0 0 0 0 0 0 0 0 0 0 0 0 0 0 0 0 0 0 0 0 0 0 0 0 0 0 0 0 0 0 0 0 0 0 0 0 0 0 0 0 0 0 0 0 0 0 0 0 0 0 0 0 0 0 0 0 0 0 0 0 0 0 0 0 1 0 0 0 0 2 6 18 35 0 0 166 233 0 0 0 0 132 178 18 22 0 0 0 0 0 0 7 7 16 32 0 26 91 45 0 0 33 67 0 0 21 0 10 163 0 0 132 22 0 0 89 0 53 0 49 7 9 16 18 0 0 0 88 39 6 0 0 0 0 0 0 26 144 0 0 22 93 0 0 117 22 0 18 6 0 9 20 6 131 24 0 0 27 191 68 95 0 0 0 46 0 180 11 0 2 0 1 0 5 0 0 0 4 4 8 2 0 0 15 5 0 0 2 1 1 0 2 0 0 0 0 0 0 0 0 0 0 0 0 0 0 0 0 0 0 0 0 0 0 0 0 0 0 0 0 0 0 0 0 0 0 0 0 0 0 0 0 0 0 0 0 0 0 0 0 0 0 0 0 0 0 0 0 0 0 0 0 0 0 0 0 0 0 0 0 0 0 0 0 0 0 0 0 0 0 0 0 0 0 0 0 0 0 0 0 0 0 0 0 0 0 0 0 0 0 0 0 0 0 0 0 0 0 0 0 0 0 0 0 0 0 0 0 0 0 0 0 0 0 0 0 0 0 0 0 0 0 0 0 0 0 0 0 0 0 0 0 0 0 0 0 0 0 0 0 0 0 0 0 0 0 0 0 0 0 0 0 0 0 0 0 0 0 0 0 0 0 0 0 0 0 0 0 0 0 0 0 0 0 0 0 0 0 0 0 0 0 0 0 0 0 0 0 0 0 0 0 0 0 0 0 0 0 0 0 0 0 0 0 0 0 0 0 0 0 0 0 0 0 0 0 0 0 0 0 0 0 0 0 0 0 0 0 0 0 0 0 0 0 0 0 0 0 0 0 0 0 0 0 0 0 0 0 0 0 0 0 0 0 0 0 0 0 0 0 0 0 0 0 0 0 0 0 0 0 0 0 0 0 0 0 0 0 0 0 0 0 0 0 0 0 0 0 0 0 0 0 0 0 0 0 0 0 0 0 0 0 0 0 0 0 0 0 0 0 0 0 0 0 0 0 0 0 0 0 0 0 0 0 0 0 0 0 0 0 0 0 0 0 0 0 0 0 0 0 0 0 0 0 0 0 0 0 0 0 0 0 0 0 0 0 0 0 0 0 0 0 0 0 0 0 0 0 0 0 0 0 0 0 0 0 0 0 0 0 0 0 0 0 0 0 0 0 0 0 0 0 0 0 0 0 0 0 0 0 0 0 0 0 0 0 0 0 0 0 0 0 0 0 0 0 0 0 0 0 0 0 0 0 0 0 0 0 0 0 0 0 0 0 0 0 0 0 0 0 0 0 0 0 0 0 0 0 0 0 0 0 0 0 0 0 0 0 0 0 0 0 0 0 0 0 0 0 0 0 0 0 0 0 0 0 0 0 0 0 0 0 0 0 0 0 0 0 0 0 0 0 0 0 0 0 0 0 0 0 0 0 0 0 0 0 0 0 0 0 0 0 0 0 0 0 0 0 0 0 0 0 0 0 0 0 0 0 0 0 0 0 0 0 0 0 0 0 0 0 0 0 0 0 0 0 0 0 0 0 0 0 0 0 0 0 0 0 0 0 0 0 0 0 0 0 0 0 0 0 0 0 0 0 0 0 0 0 0 0 0 0 0 0 0 0 0 0 0 0 0 0 0 0 0 0 0 0 0 0 0 0 0 0 0 0 0 0 0 0 0 0 0 0 0 0 0 0 0 0 0 0 0 0 0 0 0 0 0 0 0 0 0 0 0 0 0 0 0 0 0 0 0 0 0 0 0 0 0 0 0 0 0 0 0 0 0 0 0 0 0 0 0 0 0 0 0 0 0 0 0 0 0 0 0 0 0 0 0 0 0 0 255
255 0 0 0 0 0 0 0 0 0 0 0 0 0 0 0 0 0 0 0 0 0 0 0 0 0 0 0 0 0 0 0 0 0 0 0 0 0 0 0 0 0 0 0 0 0 0 0 0 0 0 0 0 0 0 0 0 0 0 0 0 0 0 0 0 0 0 0 0 0 0 0 0 0 0 0 0 0 0 0 0 1 2 4 0 0 2 9 0 29 34 42 0 140 200 0 0 0 0 0 242 37 10 19 0 4 0 0 6 10 0 44 0 0 38 66 75 35 0 30 0 0 27 0 2 147 0 0 113 228 0 0 126 0 33 0 57 0 0 3 7 3 0 0 38 37 24 0 0 0 0 0 0 24 131 49 0 0 131 0 0 155 27 0 27 11 0 8 25 0 241 0 0 0 0 255 146 0 0 76 0 0 0 116 4 0 2 0 3 0 4 6 0 6 1 4 0 0 3 9 14 26 8 2 15 4 5 4 3 0 0 0 0 0 0 0 0 0 0 0 0 0 0 0 0 0 0 0 0 0 0 0 0 0 0 0 0 0 0 0 0 0 0 0 0 0 0 0 0 0 0 0 0 0 0 0 0 0 0 0 0 0 0 0 0 0 0 0 0 0 0 0 0 0 0 0 0 0 0 0 0 0 0 0 0 0 0 0 0 0 0 0 0 0 0 0 0 0 0 0 0 0 0 0 0 0 0 0 0 0 0 0 0 0 0 0 0 0 0 0 0 0 0 0 0 0 0 0 0 0 0 0 0 0 0 0 0 0 0 0 0 0 0 0 0 0 0 0 0 0 0 0 0 0 0 0 0 0 0 0 0 0 0 0 0 0 0 0 0 0 0 0 0 0 0 0 0 0 0 0 0 0 0 0 0 0 0 0 0 0 0 0 0 0 0 0 0 0 0 0 0 0 0 0 0 0 0 0 0 0 0 0 0 0 0 0 0 0 0 0 0 0 0 0 0 0 0 0 0 0 0 0 0 0 0 0 0 0 0 0 0 0 0 0 0 0 0 0 0 0 0 0 0 0 0 0 0 0 0 0 0 0 0 0 0 0 0 0 0 0 0 0 0 0 0 0 0 0 0 0 0 0 0 0 0 0 0 0 0 0 0 0 0 0 0 0 0 0 0 0 0 0 0 0 0 0 0 0 0 0 0 0 0 0 0 0 0 0 0 0 0 0 0 0 0 0 0 0 0 0 0 0 0 0 0 0 0 0 0 0 0 0 0 0 0 0 0 0 0 0 0 0 0 0 0 0 0 0 0 0 0 0 0 0 0 0 0 0 0 0 0 0 0 0 0 0 0 0 0 0 0 0 0 0 0 0 0 0 0 0 0 0 0 0 0 0 0 0 0 0 0 0 0 0 0 0 0 0 0 0 0 0 0 0 0 0 0 0 0 0 0 0 0 0 0 0 0 0 0 0 0 0 0 0 0 0 0 0 0 0 0 0 0 0 0 0 0 0 0 0 0 0 0 0 0 0 0 0 0 0 0 0 0 0 0 0 0 0 0 0 0 0 0 0 0 0 0 0 0 0 0 0 0 0 0 0 0 0 0 0 0 0 0 0 0 0 0 0 0 0 0 0 0 0 0 0 0 0 0 0 0 0 0 0 0 0 0 0 0 0 0 0 0 0 0 0 0 0 0 0 0 0 0 0 0 0 0 0 0 0 0 0 0 0 0 0 0 0 0 0 0 0 0 0 0 0 0 0 0 0 0 0 0 0 0 0 0 0 0 0 0 0 0 0 0 0 0 0 0 0 0 0 0 0 0 0 0 0 0 0 0 0 0 0 0 0 0 0 0 0 0 0 0 0 0 0 0 0 0 0 0 0 0 0 0 0 0 0 0 0 0 0 0 0 0 0 0 0 0 0 0 0 0 0 0 0 0 0 0 0 0 0 0 0 0 0 0 0 0 0 0 0 0 0 0 0 0 0 0 0 0 0 0 0 0 0 0 0 0 0 0 0 0 0 0 0 0 0 0 0 0 0 0 0 0 0 0 0 0 0 0 0 0 0 0 0 0 0 0 255
255 0 0 0 0 0 0 0 0 0 0 0 0 0 0 0 0 0 0 0 0 0 0 0 0 0 0 0 0 0 0 0 0 0 0 0 0 0 0 0 0 0 0 0 0 0 0 0 0 0 0 0 0 0 0 0 0 0 0 0 0 0 0 0 0 0 0 0 0 0 0 0 0 0 0 0 0 0 0 0 0 0 0 1 2 2 1 10 0 0 0 0 24 64 126 255 0 0 0 0 0 170 135 43 6 8 6 5 3 9 6 81 0 0 0 0 84 160 81 96 40 0 20 0 13 67 95 0 0 218 104 0 0 202 0 0 54 0 0 8 5 2 0 0 4 48 54 0 0 0 0 0 0 27 94 87 0 0 97 0 0 139 43 0 23 0 0 0 30 0 255 0 90 0 0 255 87 0 10 33 14 0 106 62 8 0 2 6 0 0 3 4 0 7 3 6 0 5 19 39 32 12 0 0 15 9 8 0 4 0 0 0 0 0 0 0 0 0 0 0 0 0 0 0 0 0 0 0 0 0 0 0 0 0 0 0 0 0 0 0 0 0 0 0 0 0 0 0 0 0 0 0 0 0 0 0 0 0 0 0 0 0 0 0 0 0 0 0 0 0 0 0 0 0 0 0 0 0 0 0 0 0 0 0 0 0 0 0 0 0 0 0 0 0 0 0 0 0 0 0 0 0 0 0 0 0 0 0 0 0 0 0 0 0 0 0 0 0 0 0 0 0 0 0 0 0 0 0 0 0 0 0 0 0 0 0 0 0 0 0 0 0 0 0 0 0 0 0 0 0 0 0 0 0 0 0 0 0 0 0 0 0 0 0 0 0 0 0 0 0 0 0 0 0 0 0 0 0 0 0 0 0 0 0 0 0 0 0 0 0 0 0 0 0 0 0 0 0 0 0 0 0 0 0 0 0 0 0 0 0 0 0 0 0 0 0 0 0 0 0 0 0 0 0 0 0 0 0 0 0 0 0 0 0 0 0 0 0 0 0 0 0 0 0 0 0 0 0 0 0 0 0 0 0 0 0 0 0 0 0 0 0 0 0 0 0 0 0 0 0 0 0 0 0 0 0 0 0 0 0 0 0 0 0 0 0 0 0 0 0 0 0 0 0 0 0 0 0 0 0 0 0 0 0 0 0 0 0 0 0 0 0 0 0 0 0 0 0 0 0 0 0 0 0 0 0 0 0 0 0 0 0 0 0 0 0 0 0 0 0 0 0 0 0 0 0 0 0 0 0 0 0 0 0 0 0 0 0 0 0 0 0 0 0 0 0 0 0 0 0 0 0 0 0 0 0 0 0 0 0 0 0 0 0 0 0 0 0 0 0 0 0 0 0 0 0 0 0 0 0 0 0 0 0 0 0 0 0 0 0 0 0 0 0 0 0 0 0 0 0 0 0 0 0 0 0 0 0 0 0 0 0 0 0 0 0 0 0 0 0 0 0 0 0 0 0 0 0 0 0 0 0 0 0 0 0 0 0 0 0 0 0 0 0 0 0 0 0 0 0 0 0 0 0 0 0 0 0 0 0 0 0 0 0 0 0 0 0 0 0 0 0 0 0 0 0 0 0 0 0 0 0 0 0 0 0 0 0 0 0 0 0 0 0 0 0 0 0 0 0 0 0 0 0 0 0 0 0 0 0 0 0 0 0 0 0 0 0 0 0 0 0 0 0 0 0 0 0 0 0 0 0 0 0 0 0 0 0 0 0 0 0 0 0 0 0 0 0 0 0 0 0 0 0 0 0 0 0 0 0 0 0 0 0 0 0 0 0 0 0 0 0 0 0 0 0 0 0 0 0 0 0 0 0 0 0 0 0 0 0 0 0 0 0 0 0 0 0 0 0 0 0 0 0 0 0 0 0 0 0 0 0 0 0 0 0 0 0 0 0 0 0 0 0 0 0 0 0 0 0 0 0 0 0 0 0 0 0 0 0 0 0 0 0 0 0 0 0 0 0 0 0 0 0 0 0 0 0 0 0 0 0 0 0 0 0 0 0 0 0 0 0 0 0 0 0 0 0 0 255
255 0 0 0 0 0 0 0 0 0 0 0 0 0 0 0 0 0 0 0 0 0 0 0 0 0 0 0 0 0 0 0 0 0 0 0 0 0 0 0 0 0 0 0 0 0 0 0 0 0 0 0 0 0 0 0 0 0 0 0 0 0 0 0 0 0 0 0 0 0 0 0 0 0 0 0 0 0 0 0 0 0 0 0 0 0 0 5 8 24 18 0 28 0 0 121 234 42 0 0 0 0 32 158 26 12 3 3 3 7 8 90 0 90 0 0 0 0 25 211 36 2 0 0 31 0 219 0 0 71 255 0 0 138 0 0 29 0 15 17 6 0 6 15 0 42 74 45 0 0 0 32 0 14 25 89 0 0 56 0 0 80 51 8 15 0 14 3 17 62 125 0 98 0 0 255 0 0 70 0 0 0 188 0 12 0 2 0 3 0 3 2 5 4 0 11 5 21 20 30 0 0 0 0 0 0 0 0 4 0 0 0 0 0 0 0 0 0 0 0 0 0 0 0 0 0 0 0 0 0 0 0 0 0 0 0 0 0 0 0 0 0 0 0 0 0 0 0 0 0 0 0 0 0 0 0 0 0 0 0 0 0 0 0 0 0 0 0 0 0 0 0 0 0 0 0 0 0 0 0 0 0 0 0 0 0 0 0 0 0 0 0 0 0 0 0 0 0 0 0 0 0 0 0 0 0 0 0 0 0 0 0 0 0 0 0 0 0 0 0 0 0 0 0 0 0 0 0 0 0 0 0 0 0 0 0 0 0 0 0 0 0 0 0 0 0 0 0 0 0 0 0 0 0 0 0 0 0 0 0 0 0 0 0 0 0 0 0 0 0 0 0 0 0 0 0 0 0 0 0 0 0 0 0 0 0 0 0 0 0 0 0 0 0 0 0 0 0 0 0 0 0 0 0 0 0 0 0 0 0 0 0 0 0 0 0 0 0 0 0 0 0 0 0 0 0 0 0 0 0 0 0 0 0 0 0 0 0 0 0 0 0 0 0 0 0 0 0 0 0 0 0 0 0 0 0 0 0 0 0 0 0 0 0 0 0 0 0 0 0 0 0 0 0 0 0 0 0 0 0 0 0 0 0 0 0 0 0 0 0 0 0 0 0 0 0 0 0 0 0 0 0 0 0 0 0 0 0 0 0 0 0 0 0 0 0 0 0 0 0 0 0 0 0 0 0 0 0 0 0 0 0 0 0 0 0 0 0 0 0 0 0 0 0 0 0 0 0 0 0 0 0 0 0 0 0 0 0 0 0 0 0 0 0 0 0 0 0 0 0 0 0 0 0 0 0 0 0 0 0 0 0 0 0 0 0 0 0 0 0 0 0 0 0 0 0 0 0 0 0 0 0 0 0 0 0 0 0 0 0 0 0 0 0 0 0 0 0 0 0 0 0 0 0 0 0 0 0 0 0 0 0 0 0 0 0 0 0 0 0 0 0 0 0 0 0 0 0 0 0 0 0 0 0 0 0 0 0 0 0 0 0 0 0 0 0 0 0 0 0 0 0 0 0 0 0 0 0 0 0 0 0 0 0 0 0 0 0 0 0 0 0 0 0 0 0 0 0 0 0 0 0 0 0 0 0 0 0 0 0 0 0 0 0 0 0 0 0 0 0 0 0 0 0 0 0 0 0 0 0 0 0 0 0 0 0 0 0 0 0 0 0 0 0 0 0 0 0 0 0 0 0 0 0 0 0 0 0 0 0 0 0 0 0 0 0 0 0 0 0 0 0 0 0 0 0 0 0 0 0 0 0 0 0 0 0 0 0 0 0 0 0 0 0 0 0 0 0 0 0 0 0 0 0 0 0 0 0 0 0 0 0 0 0 0 0 0 0 0 0 0 0 0 0 0 0 0 0 0 0 0 0 0 0 0 0 0 0 0 0 0 0 0 0 0 0 0 0 0 0 0 0 0 0 0 0 0 0 0 0 0 0 0 0 0 0 0 0 0 0 0 0 0 0 0 0 0 0 0 0 0 0 0 0 0 0 0 0 0 0 0 0 0 0 0 0 0 0 0 255
255 0 0 0 0 0 0 0 0 0 0 0 0 0 0 0 0 0 0 0 0 0 0 0 0 0 0 0 0 0 0 0 0 0 0 0 0 0 0 0 0 0 0 0 0 0 0 0 0 0 0 0 0 0 0 0 0 0 0 0 0 0 0 0 0 0 0 0 0 0 0 0 0 0 0 0 0 0 0 1 2 3 3 2 1 0 0 7 12 0 15 18 0 40 49 0 77 176 170 0 0 0 14 43 141 63 22 2 0 11 0 84 0 0 0 0 41 0 0 0 58 27 0 0 16 0 255 0 0 1 216 7 0 0 86 51 6 3 24 36 13 0 0 0 0 25 90 46 0 0 0 70 0 50 31 121 61 0 17 0 0 34 76 15 0 0 17 13 17 191 0 0 0 0 0 255 0 0 45 32 0 0 139 0 9 0 0 0 5 0 4 7 11 5 0 5 21 59 14 0 0 0 9 35 18 2 8 4 2 0 0 0 0 0 0 0 0 0 0 0 0 0 0 0 0 0 0 0 0 0 0 0 0 0 0 0 0 0 0 0 0 0 0 0 0 0 0 0 0 0 0 0 0 0 0 0 0 0 0 0 0 0 0 0 0 0 0 0 0 0 0 0 0 0 0 0 0 0 0 0 0 0 0 0 0 0 0 0 0 0 0 0 0 0 0 0 0 0 0 0 0 0 0 0 0 0 0 0 0 0 0 0 0 0 0 0 0 0 0 0 0 0 0 0 0 0 0 0 0 0 0 0 0 0 0 0 0 0 0 0 0 0 0 0 0 0 0 0 0 0 0 0 0 0 0 0 0 0 0 0 0 0 0 0 0 0 0 0 0 0 0 0 0 0 0 0 0 0 0 0 0 0 0 0 0 0 0 0 0 0 0 0 0 0 0 0 0 0 0 0 0 0 0 0 0 0 0 0 0 0 0 0 0 0 0 0 0 0 0 0 0 0 0 0 0 0 0 0 0 0 0 0 0 0 0 0 0 0 0 0 0 0 0 0 0 0 0 0 0 0 0 0 0 0 0 0 0 0 0 0 0 0 0 0 0 0 0 0 0 0 0 0 0 0 0 0 0 0 0 0 0 0 0 0 0 0 0 0 0 0 0 0 0 0 0 0 0 0 0 0 0 0 0 0 0 0 0 0 0 0 0 0 0 0 0 0 0 0 0 0 0 0 0 0 0 0 0 0 0 0 0 0 0 0 0 0 0 0 0 0 0 0 0 0 0 0 0 0 0 0 0 0 0 0 0 0 0 0 0 0 0 0 0 0 0 0 0 0 0 0 0 0 0 0 0 0 0 0 0 0 0 0 0 0 0 0 0 0 0 0 0 0 0 0 0 0 0 0 0 0 0 0 0 0 0 0 0 0 0 0 0 0 0 0 0 0 0 0 0 0 0 0 0 0 0 0 0 0 0 0 0 0 0 0 0 0 0 0 0 0 0 0 0 0 0 0 0 0 0 0 0 0 0 0 0 0 0 0 0 0 0 0 0 0 0 0 0 0 0 0 0 0 0 0 0 0 0 0 0 0 0 0 0 0 0 0 0 0 0 0 0 0 0 0 0 0 0 0 0 0 0 0 0 0 0 0 0 0 0 0 0 0 0 0 0 0 0 0 0 0 0 0 0 0 0 0 0 0 0 0 0 0 0 0 0 0 0 0 0 0 0 0 0 0 0 0 0 0 0 0 0 0 0 0 0 0 0 0 0 0 0 0 0 0 0 0 0 0 0 0 0 0 0 0 0 0 0 0 0 0 0 0 0 0 0 0 0 0 0 0 0 0 0 0 0 0 0 0 0 0 0 0 0 0 0 0 0 0 0 0 0 0 0 0 0 0 0 0 0 0 0 0 0 0 0 0 0 0 0 0 0 0 0 0 0 0 0 0 0 0 0 0 0 0 0 0 0 0 0 0 0 0 0 0 0 0 0 0 0 0 0 0 0 0 0 0 0 0 0 0 0 0 0 0 0 0 0 0 0 0 0 0 0 0 0 0 0 0 0 0 0 0 0 0 0 0 0 0 0 255
255 0 0 0 0 0 0 0 0 0 0 0 0 0 0 0 0 0 0 0 0 0 0 0 0 0 0 0 0 0 0 0 0 0 0 0 0 0 0 0 0 0 0 0 0 0 0 0 0 0 0 0 0 0 0 0 0 0 0 0 0 0 0 0 0 0 0 0 0 0 0 0 0 0 0 0 0 0 0 2 0 0 0 0 1 0 0 6 0 18 15 0 25 20 11 0 0 62 148 193 0 0 0 0 0 104 109 29 0 22 17 79 22 0 0 0 0 68 144 36 0 0 97 43 0 0 45 104 0 10 233 11 3 0 0 106 0 60 19 0 43 8 0 0 29 0 86 100 0 0 0 74 0 0 31 0 66 0 106 0 0 10 75 25 6 14 7 0 54 94 0 139 0 0 75 54 0 0 4 141 0 25 93 17 0 14 18 0 0 13 8 0 0 25 0 0 90 69 0 0 110 46 23 0 0 0 3 0 0 0 0 0 0 0 0 0 0 0 0 0 0 0 0 0 0 0 0 0 0 0 0 0 0 0 0 0 0 0 0 0 0 0 0 0 0 0 0 0 0 0 0 0 0 0 0 0 0 0 0 0 0 0 0 0 0 0 0 0 0 0 0 0 0 0 0 0 0 0 0 0 0 0 0 0 0 0 0 0 0 0 0 0 0 0 0 0 0 0 0 0 0 0 0 0 0 0 0 0 0 0 0 0 0 0 0 0 0 0 0 0 0 0 0 0 0 0 0 0 0 0 0 0 0 0 0 0 0 0 0 0 0 0 0 0 0 0 0 0 0 0 0 0 0 0 0 0 0 0 0 0 0 0 0 0 0 0 0 0 0 0 0 0 0 0 0 0 0 0 0 0 0 0 0 0 0 0 0 0 0 0 0 0 0 0 0 0 0 0 0 0 0 0 0 0 0 0 0 0 0 0 0 0 0 0 0 0 0 0 0 0 0 0 0 0 0 0 0 0 0 0 0 0 0 0 0 0 0 0 0 0 0 0 0 0 0 0 0 0 0 0 0 0 0 0 0 0 0 0 0 0 0 0 0 0 0 0 0 0 0 0 0 0 0 0 0 0 0 0 0 0 0 0 0 0 0 0 0 0 0 0 0 0 0 0 0 0 0 0 0 0 0 0 0 0 0 0 0 0 0 0 0 0 0 0 0 0 0 0 0 0 0 0 0 0 0 0 0 0 0 0 0 0 0 0 0 0 0 0 0 0 0 0 0 0 0 0 0 0 0 0 0 0 0 0 0 0 0 0 0 0 0 0 0 0 0 0 0 0 0 0 0 0 0 0 0 0 0 0 0 0 0 0 0 0 0 0 0 0 0 0 0 0 0 0 0 0 0 0 0 0 0 0 0 0 0 0 0 0 0 0 0 0 0 0 0 0 0 0 0 0 0 0 0 0 0 0 0 0 0 0 0 0 0 0 0 0 0 0 0 0 0 0 0 0 0 0 0 0 0 0 0 0 0 0 0 0 0 0 0 0 0 0 0 0 0 0 0 0 0 0 0 0 0 0 0 0 0 0 0 0 0 0 0 0 0 0 0 0 0 0 0 0 0 0 0 0 0 0 0 0 0 0 0 0 0 0 0 0 0 0 0 0 0 0 0 0 0 0 0 0 0 0 0 0 0 0 0 0 0 0 0 0 0 0 0 0 0 0 0 0 0 0 0 0 0 0 0 0 0 0 0 0 0 0 0 0 0 0 0 0 0 0 0 0 0 0 0 0 0 0 0 0 0 0 0 0 0 0 0 0 0 0 0 0 0 0 0 0 0 0 0 0 0 0 0 0 0 0 0 0 0 0 0 0 0 0 0 0 0 0 0 0 0 0 0 0 0 0 0 0 0 0 0 0 0 0 0 0 0 0 0 0 0 0 0 0 0 0 0 0 0 0 0 0 0 0 0 0 0 0 0 0 0 0 0 0 0 0 0 0 0 0 0 0 0 0 0 0 0 0 0 0 0 0 0 0 0 0 0 0 0 0 0 0 0 0 0 0 0 0 0 0 0 0 0 0 0 0 0 255
255 0 0 0 0 0 0 0 0 0 0 0 0 0 0 0 0 0 0 0 0 0 0 0 0 0 0 0 0 0 0 0 0 0 0 0 0 0 0 0 0 0 0 0 0 0 0 0 0 0 0 0 0 0 0 0 0 0 0 0 0 0 0 0 0 0 0 0 0 0 0 0 0 0 0 0 0 0 0 2 0 0 4 2 1 0 0 6 13 12 0 19 22 0 0 30 30 0 0 127 161 0 0 0 63 12 64 172 69 0 0 27 101 26 0 66 6 0 0 85 0 0 47 47 0 0 20 140 0 0 241 0 0 0 0 18 0 0 12 0 23 7 0 0 22 0 70 55 0 0 0 28 0 0 51 28 124 0 140 30 0 0 106 34 0 0 6 10 171 0 0 0 0 0 31 5 0 0 109 0 0 108 47 2 8 3 0 0 0 0 0 0 20 0 59 141 0 0 0 96 34 0 0 0 3 0 3 0 0 0 0 0 0 0 0 0 0 0 0 0 0 0 0 0 0 0 0 0 0 0 0 0 0 0 0 0 0 0 0 0 0 0 0 0 0 0 0 0 0 0 0 0 0 0 0 0 0 0 0 0 0 0 0 0 0 0 0 0 0 0 0 0 0 0 0 0 0 0 0 0 0 0 0 0 0 0 0 0 0 0 0 0 0 0 0 0 0 0 0 0 0 0 0 0 0 0 0 0 0 0 0 0 0 0 0 0 0 0 0 0 0 0 0 0 0 0 0 0 0 0 0 0 0 0 0 0 0 0 0 0 0 0 0 0 0 0 0 0 0 0 0 0 0 0 0 0 0 0 0 0 0 0 0 0 0 0 0 0 0 0 0 0 0 0 0 0 0 0 0 0 0 0 0 0 0 0 0 0 0 0 0 0 0 0 0 0 0 0 0 0 0 0 0 0 0 0 0 0 0 0 0 0 0 0 0 0 0 0 0 0 0 0 0 0 0 0 0 0 0 0 0 0 0 0 0 0 0 0 0 0 0 0 0 0 0 0 0 0 0 0 0 0 0 0 0 0 0 0 0 0 0 0 0 0 0 0 0 0 0 0 0 0 0 0 0 0 0 0 0 0 0 0 0 0 0 0 0 0 0 0 0 0 0 0 0 0 0 0 0 0 0 0 0 0 0 0 0 0 0 0 0 0 0 0 0 0 0 0 0 0 0 0 0 0 0 0 0 0 0 0 0 0 0 0 0 0 0 0 0 0 0 0 0 0 0 0 0 0 0 0 0 0 0 0 0 0 0 0 0 0 0 0 0 0 0 0 0 0 0 0 0 0 0 0 0 0 0 0 0 0 0 0 0 0 0 0 0 0 0 0 0 0 0 0 0 0 0 0 0 0 0 0 0 0 0 0 0 0 0 0 0 0 0 0 0 0 0 0 0 0 0 0 0 0 0 0 0 0 0 0 0 0 0 0 0 0 0 0 0 0 0 0 0 0 0 0 0 0 0 0 0 0 0 0 0 0 0 0 0 0 0 0 0 0 0 0 0 0 0 0 0 0 0 0 0 0 0 0 0 0 0 0 0 0 0 0 0 0 0 0 0 0 0 0 0 0 0 0 0 0 0 0 0 0 0 0 0 0 0 0 0 0 0 0 0 0 0 0 0 0 0 0 0 0 0 0 0 0 0 0 0 0 0 0 0 0 0 0 0 0 0 0 0 0 0 0 0 0 0 0 0 0 0 0 0 0 0 0 0 0 0 0 0 0 0 0 0 0 0 0 0 0 0 0 0 0 0 0 0 0 0 0 0 0 0 0 0 0 0 0 0 0 0 0 0 0 0 0 0 0 0 0 0 0 0 0 0 0 0 0 0 0 0 0 0 0 0 0 0 0 0 0 0 0 0 0 0 0 0 0 0 0 0 0 0 0 0 0 0 0 0 0 0 0 0 0 0 0 0 0 0 0 0 0 0 0 0 0 0 0 0 0 0 0 0 0 0 0 0 0 0 0 0 0 0 0 0 0 0 0 0 0 0 0 0 0 0 0 0 0 0 0 0 0 0 0 0 0 0 255
255 0 0 0 0 0 0 0 0 0 0 0 0 0 0 0 0 0 0 0 0 0 0 0 0 0 0 0 0 0 0 0 0 0 0 0 0 0 0 0 0 0 0 0 0 0 0 0 0 0 0 0 0 0 0 0 0 0 0 0 0 0 0 0 0 0 0 0 0 0 0 0 0 0 0 0 0 0 0 1 2 2 1 0 0 0 0 0 10 0 0 14 19 0 1 12 0 31 39 0 102 248 65 0 0 0 0 0 93 70 38 33 90 0 0 0 81 0 0 108 74 0 27 55 15 0 13 149 0 0 201 0 0 0 0 0 20 0 38 47 14 22 43 28 0 0 37 36 59 0 0 0 67 0 75 39 123 0 71 35 0 0 117 60 0 16 0 39 255 0 77 0 0 157 0 0 4 0 157 0 0 164 0 12 12 0 0 4 12 9 13 13 0 53 164 34 0 0 102 36 0 5 0 0 1 0 3 0 0 0 0 0 0 0 0 0 0 0 0 0 0 0 0 0 0 0 0 0 0 0 0 0 0 0 0 0 0 0 0 0 0 0 0 0 0 0 0 0 0 0 0 0 0 0 0 0 0 0 0 0 0 0 0 0 0 0 0 0 0 0 0 0 0 0 0 0 0 0 0 0 0 0 0 0 0 0 0 0 0 0 0 0 0 0 0 0 0 0 0 0 0 0 0 0 0 0 0 0 0 0 0 0 0 0 0 0 0 0 0 0 0 0 0 0 0 0 0 0 0 0 0 0 0 0 0 0 0 0 0 0 0 0 0 0 0 0 0 0 0 0 0 0 0 0 0 0 0 0 0 0 0 0 0 0 0 0 0 0 0 0 0 0 0 0 0 0 0 0 0 0 0 0 0 0 0 0 0 0 0 0 0 0 0 0 0 0 0 0 0 0 0 0 0 0 0 0 0 0 0 0 0 0 0 0 0 0 0 0 0 0 0 0 0 0 0 0 0 0 0 0 0 0 0 0 0 0 0 0 0 0 0 0 0 0 0 0 0 0 0 0 0 0 0 0 0 0 0 0 0 0 0 0 0 0 0 0 0 0 0 0 0 0 0 0 0 0 0 0 0 0 0 0 0 0 0 0 0 0 0 0 0 0 0 0 0 0 0 0 0 0 0 0 0 0 0 0 0 0 0 0 0 0 0 0 0 0 0 0 0 0 0 0 0 0 0 0 0 0 0 0 0 0 0 0 0 0 0 0 0 0 0 0 0 0 0 0 0 0 0 0 0 0 0 0 0 0 0 0 0 0 0 0 0 0 0 0 0 0 0 0 0 0 0 0 0 0 0 0 0 0 0 0 0 0 0 0 0 0 0 0 0 0 0 0 0 0 0 0 0 0 0 0 0 0 0 0 0 0 0 0 0 0 0 0 0 0 0 0 0 0 0 0 0 0 0 0 0 0 0 0 0 0 0 0 0 0 0 0 0 0 0 0 0 0 0 0 0 0 0 0 0 0 0 0 0 0 0 0 0 0 0 0 0 0 0 0 0 0 0 0 0 0 0 0 0 0 0 0 0 0 0 0 0 0 0 0 0 0 0 0 0 0 0 0 0 0 0 0 0 0 0 0 0 0 0 0 0 0 0 0 0 0 0 0 0 0 0 0 0 0 0 0 0 0 0 0 0 0 0 0 0 0 0 0 0 0 0 0 0 0 0 0 0 0 0 0 0 0 0 0 0 0 0 0 0 0 0 0 0 0 0 0 0 0 0 0 0 0 0 0 0 0 0 0 0 0 0 0 0 0 0 0 0 0 0 0 0 0 0 0 0 0 0 0 0 0 0 0 0 0 0 0 0 0 0 0 0 0 0 0 0 0 0 0 0 0 0 0 0 0 0 0 0 0 0 0 0 0 0 0 0 0 0 0 0 0 0 0 0 0 0 0 0 0 0 0 0 0 0 0 0 0 0 0 0 0 0 0 0 0 0 0 0 0 0 0 0 0 0 0 0 0 0 0 0 0 0 0 0 0 0 0 0 0 0 0 0 0 0 0 0 0 0 0 0 0 0 0 0 255
255 0 0 0 0 0 0 0 0 0 0 0 0 0 0 0 0 0 0 0 0 0 0 0 0 0 0 0 0 0 0 0 0 0 0 0 0 0 0 0 0 0 0 0 0 0 0 0 0 0 0 0 0 0 0 0 0 0 0 0 0 0 0 0 0 0 0 0 0 0 0 0 0 0 0 0 0 0 0 0 0 0 0 0 0 0 0 0 12 0 16 29 0 43 36 0 13 0 0 0 24 68 125 222 0 0 0 0 180 109 0 0 69 100 0 0 58 28 0 0 99 0 32 60 7 0 0 90 0 0 137 86 0 11 0 3 42 0 60 72 0 14 67 0 0 0 15 28 139 19 0 0 79 0 45 20 86 0 0 35 52 0 83 81 0 23 0 113 173 0 88 0 36 194 0 0 0 35 47 0 102 86 0 4 0 0 0 6 11 0 0 21 39 158 0 0 0 127 65 0 4 1 0 7 0 0 4 2 1 0 0 0 0 0 0 0 0 0 0 0 0 0 0 0 0 0 0 0 0 0 0 0 0 0 0 0 0 0 0 0 0 0 0 0 0 0 0 0 0 0 0 0 0 0 0 0 0 0 0 0 0 0 0 0 0 0 0 0 0 0 0 0 0 0 0 0 0 0 0 0 0 0 0 0 0 0 0 0 0 0 0 0 0 0 0 0 0 0 0 0 0 0 0 0 0 0 0 0 0 0 0 0 0 0 0 0 0 0 0 0 0 0 0 0 0 0 0 0 0 0 0 0 0 0 0 0 0 0 0 0 0 0 0 0 0 0 0 0 0 0 0 0 0 0 0 0 0 0 0 0 0 0 0 0 0 0 0 0 0 0 0 0 0 0 0 0 0 0 0 0 0 0 0 0 0 0 0 0 0 0 0 0 0 0 0 0 0 0 0 0 0 0 0 0 0 0 0 0 0 0 0 0 0 0 0 0 0 0 0 0 0 0 0 0 0 0 0 0 0 0 0 0 0 0 0 0 0 0 0 0 0 0 0 0 0 0 0 0 0 0 0 0 0 0 0 0 0 0 0 0 0 0 0 0 0 0 0 0 0 0 0 0 0 0 0 0 0 0 0 0 0 0 0 0 0 0 0 0 0 0 0 0 0 0 0 0 0 0 0 0 0 0 0 0 0 0 0 0 0 0 0 0 0 0 0 0 0 0 0 0 0 0 0 0 0 0 0 0 0 0 0 0 0 0 0 0 0 0 0 0 0 0 0 0 0 0 0 0 0 0 0 0 0 0 0 0 0 0 0 0 0 0 0 0 0 0 0 0 0 0 0 0 0 0 0 0 0 0 0 0 0 0 0 0 0 0 0 0 0 0 0 0 0 0 0 0 0 0 0 0 0 0 0 0 0 0 0 0 0 0 0 0 0 0 0 0 0 0 0 0 0 0 0 0 0 0 0 0 0 0 0 0 0 0 0 0 0 0 0 0 0 0 0 0 0 0 0 0 0 0 0 0 0 0 0 0 0 0 0 0 0 0 0 0 0 0 0 0 0 0 0 0 0 0 0 0 0 0 0 0 0 0 0 0 0 0 0 0 0 0 0 0 0 0 0 0 0 0 0 0 0 0 0 0 0 0 0 0 0 0 0 0 0 0 0 0 0 0 0 0 0 0 0 0 0 0 0 0 0 0 0 0 0 0 0 0 0 0 0 0 0 0 0 0 0 0 0 0 0 0 0 0 0 0 0 0 0 0 0 0 0 0 0 0 0 0 0 0 0 0 0 0 0 0 0 0 0 0 0 0 0 0 0 0 0 0 0 0 0 0 0 0 0 0 0 0 0 0 0 0 0 0 0 0 0 0 0 0 0 0 0 0 0 0 0 0 0 0 0 0 0 0 0 0 0 0 0 0 0 0 0 0 0 0 0 0 0 0 0 0 0 0 0 0 0 0 0 0 0 0 0 0 0 0 0 0 0 0 0 0 0 0 0 0 0 0 0 0 0 0 0 0 0 0 0 0 0 0 0 0 0 0 0 0 0 0 0 0 0 0 0 0 0 0 0 0 0 0 0 255
255 0 0 0 0 0 0 0 0 0 0 0 0 0 0 0 0 0 0 0 0 0 0 0 0 0 0 0 0 0 0 0 0 0 0 0 0 0 0 0 0 0 0 0 0 0 0 0 0 0 0 0 0 0 0 0 0 0 0 0 0 0 0 0 0 0 0 0 0 0 0 0 0 0 0 0 0 0 0 0 0 0 0 0 0 0 0 0 14 0 16 40 0 0 87 33 2 0 16 29 2 0 30 136 255 105 0 0 0 255 225 30 0 112 9 0 27 29 0 0 31 0 72 72 5 0 20 30 66 0 67 189 0 0 0 54 16 0 23 43 0 0 19 0 0 0 0 8 142 55 0 0 38 0 0 19 87 0 0 104 9 0 31 83 0 23 15 232 0 0 2 0 146 30 0 13 0 95 0 0 232 25 15 6 7 6 6 5 0 0 0 32 150 34 0 0 146 82 0 14 2 0 3 2 2 3 0 0 2 0 0 0 0 0 0 0 0 0 0 0 0 0 0 0 0 0 0 0 0 0 0 0 0 0 0 0 0 0 0 0 0 0 0 0 0 0 0 0 0 0 0 0 0 0 0 0 0 0 0 0 0 0 0 0 0 0 0 0 0 0 0 0 0 0 0 0 0 0 0 0 0 0 0 0 0 0 0 0 0 0 0 0 0 0 0 0 0 0 0 0 0 0 0 0 0 0 0 0 0 0 0 0 0 0 0 0 0 0 0 0 0 0 0 0 0 0 0 0 0 0 0 0 0 0 0 0 0 0 0 0 0 0 0 0 0 0 0 0 0 0 0 0 0 0 0 0 0 0 0 0 0 0 0 0 0 0 0 0 0 0 0 0 0 0 0 0 0 0 0 0 0 0 0 0 0 0 0 0 0 0 0 0 0 0 0 0 0 0 0 0 0 0 0 0 0 0 0 0 0 0 0 0 0 0 0 0 0 0 0 0 0 0 0 0 0 0 0 0 0 0 0 0 0 0 0 0 0 0 0 0 0 0 0 0 0 0 0 0 0 0 0 0 0 0 0 0 0 0 0 0 0 0 0 0 0 0 0 0 0 0 0 0 0 0 0 0 0 0 0 0 0 0 0 0 0 0 0 0 0 0 0 0 0 0 0 0 0 0 0 0 0 0 0 0 0 0 0 0 0 0 0 0 0 0 0 0 0 0 0 0 0 0 0 0 0 0 0 0 0 0 0 0 0 0 0 0 0 0 0 0 0 0 0 0 0 0 0 0 0 0 0 0 0 0 0 0 0 0 0 0 0 0 0 0 0 0 0 0 0 0 0 0 0 0 0 0 0 0 0 0 0 0 0 0 0 0 0 0 0 0 0 0 0 0 0 0 0 0 0 0 0 0 0 0 0 0 0 0 0 0 0 0 0 0 0 0 0 0 0 0 0 0 0 0 0 0 0 0 0 0 0 0 0 0 0 0 0 0 0 0 0 0 0 0 0 0 0 0 0 0 0 0 0 0 0 0 0 0 0 0 0 0 0 0 0 0 0 0 0 0 0 0 0 0 0 0 0 0 0 0 0 0 0 0 0 0 0 0 0 0 0 0 0 0 0 0 0 0 0 0 0 0 0 0 0 0 0 0 0 0 0 0 0 0 0 0 0 0 0 0 0 0 0 0 0 0 0 0 0 0 0 0 0 0 0 0 0 0 0 0 0 0 0 0 0 0 0 0 0 0 0 0 0 0 0 0 0 0 0 0 0 0 0 0 0 0 0 0 0 0 0 0 0 0 0 0 0 0 0 0 0 0 0 0 0 0 0 0 0 0 0 0 0 0 0 0 0 0 0 0 0 0 0 0 0 0 0 0 0 0 0 0 0 0 0 0 0 0 0 0 0 0 0 0 0 0 0 0 0 0 0 0 0 0 0 0 0 0 0 0 0 0 0 0 0 0 0 0 0 0 0 0 0 0 0 0 0 0 0 0 0 0 0 0 0 0 0 0 0 0 0 0 0 0 0 0 0 0 0 0 0 0 0 0 0 0 0 0 0 0 0 0 0 0 0 0 0 0 0 255
255 0 0 0 0 0 0 0 0 0 0 0 0 0 0 0 0 0 0 0 0 0 0 0 0 0 0 0 0 0 0 0 0 0 0 0 0 0 0 0 0 0 0 0 0 0 0 0 0 0 0 0 0 0 0 0 0 0 0 0 0 0 0 0 0 0 0 0 0 0 0 0 0 0 0 0 0 0 0 0 0 0 0 0 0 0 0 0 17 0 14 57 0 0 0 135 36 33 35 0 0 27 31 0 0 193 255 0 0 0 30 255 150 126 12 0 17 51 23 28 0 0 69 84 20 16 24 0 149 0 0 255 0 0 0 29 2 0 3 16 2 26 27 0 13 0 6 0 99 74 0 0 66 0 0 23 81 0 0 124 0 0 12 144 0 5 97 255 0 0 0 0 206 0 21 48 0 99 0 0 165 0 13 0 8 4 5 0 12 23 58 153 20 0 0 117 116 6 21 0 11 3 1 0 0 2 6 0 4 0 0 0 0 0 0 0 0 0 0 0 0 0 0 0 0 0 0 0 0 0 0 0 0 0 0 0 0 0 0 0 0 0 0 0 0 0 0 0 0 0 0 0 0 0 0 0 0 0 0 0 0 0 0 0 0 0 0 0 0 0 0 0 0 0 0 0 0 0 0 0 0 0 0 0 0 0 0 0 0 0 0 0 0 0 0 0 0 0 0 0 0 0 0 0 0 0 0 0 0 0 0 0 0 0 0 0 0 0 0 0 0 0 0 0 0 0 0 0 0 0 0 0 0 0 0 0 0 0 0 0 0 0 0 0 0 0 0 0 0 0 0 0 0 0 0 0 0 0 0 0 0 0 0 0 0 0 0 0 0 0 0 0 0 0 0 0 0 0 0 0 0 0 0 0 0 0 0 0 0 0 0 0 0 0 0 0 0 0 0 0 0 0 0 0 0 0 0 0 0 0 0 0 0 0 0 0 0 0 0 0 0 0 0 0 0 0 0 0 0 0 0 0 0 0 0 0 0 0 0 0 0 0 0 0 0 0 0 0 0 0 0 0 0 0 0 0 0 0 0 0 0 0 0 0 0 0 0 0 0 0 0 0 0 0 0 0 0 0 0 0 0 0 0 0 0 0 0 0 0 0 0 0 0 0 0 0 0 0 0 0 0 0 0 0 0 0 0 0 0 0 0 0 0 0 0 0 0 0 0 0 0 0 0 0 0 0 0 0 0 0 0 0 0 0 0 0 0 0 0 0 0 0 0 0 0 0 0 0 0 0 0 0 0 0 0 0 0 0 0 0 0 0 0 0 0 0 0 0 0 0 0 0 0 0 0 0 0 0 0 0 0 0 0 0 0 0 0 0 0 0 0 0 0 0 0 0 0 0 0 0 0 0 0 0 0 0 0 0 0 0 0 0 0 0 0 0 0 0 0 0 0 0 0 0 0 0 0 0 0 0 0 0 0 0 0 0 0 0 0 0 0 0 0 0 0 0 0 0 0 0 0 0 0 0 0 0 0 0 0 0 0 0 0 0 0 0 0 0 0 0 0 0 0 0 0 0 0 0 0 0 0 0 0 0 0 0 0 0 0 0 0 0 0 0 0 0 0 0 0 0 0 0 0 0 0 0 0 0 0 0 0 0 0 0 0 0 0 0 0 0 0 0 0 0 0 0 0 0 0 0 0 0 0 0 0 0 0 0 0 0 0 0 0 0 0 0 0 0 0 0 0 0 0 0 0 0 0 0 0 0 0 0 0 0 0 0 0 0 0 0 0 0 0 0 0 0 0 0 0 0 0 0 0 0 0 0 0 0 0 0 0 0 0 0 0 0 0 0 0 0 0 0 0 0 0 0 0 0 0 0 0 0 0 0 0 0 0 0 0 0 0 0 0 0 0 0 0 0 0 0 0 0 0 0 0 0 0 0 0 0 0 0 0 0 0 0 0 0 0 0 0 0 0 0 0 0 0 0 0 0 0 0 0 0 0 0 0 0 0 0 0 0 0 0 0 0 0 0 0 0 0 0 0 0 0 0 0 0 0 0 0 0 0 0 0 0 0 0 0 255
255 0 0 0 0 0 0 0 0 0 0 0 0 0 0 0 0 0 0 0 0 0 0 0 0 0 0 0 0 0 0 0 0 0 0 0 0 0 0 0 0 0 0 0 0 0 0 0 0 0 0 0 0 0 0 0 0 0 0 0 0 0 0 0 0 0 0 0 0 0 0 0 0 0 0 0 0 0 0 0 0 1 2 3 3 2 1 0 14 0 0 44 61 0 0 0 191 0 0 33 29 0 0 41 43 0 88 255 210 0 0 0 255 197 113 0 0 0 0 0 0 0 5 76 53 11 3 0 111 0 0 245 0 0 0 0 0 1 0 0 54 62 31 28 22 0 25 0 39 95 0 0 104 0 1 43 88 0 0 98 0 0 0 186 29 22 194 2 0 28 0 28 193 0 16 21 20 24 0 99 102 3 0 0 0 6 0 0 10 55 97 84 0 0 20 136 0 0 18 0 2 2 0 0 1 3 0 0 4 0 0 0 0 0 0 0 0 0 0 0 0 0 0 0 0 0 0 0 0 0 0 0 0 0 0 0 0 0 0 0 0 0 0 0 0 0 0 0 0 0 0 0 0 0 0 0 0 0 0 0 0 0 0 0 0 0 0 0 0 0 0 0 0 0 0 0 0 0 0 0 0 0 0 0 0 0 0 0 0 0 0 0 0 0 0 0 0 0 0 0 0 0 0 0 0 0 0 0 0 0 0 0 0 0 0 0 0 0 0 0 0 0 0 0 0 0 0 0 0 0 0 0 0 0 0 0 0 0 0 0 0 0 0 0 0 0 0 0 0 0 0 0 0 0 0 0 0 0 0 0 0 0 0 0 0 0 0 0 0 0 0 0 0 0 0 0 0 0 0 0 0 0 0 0 0 0 0 0 0 0 0 0 0 0 0 0 0 0 0 0 0 0 0 0 0 0 0 0 0 0 0 0 0 0 0 0 0 0 0 0 0 0 0 0 0 0 0 0 0 0 0 0 0 0 0 0 0 0 0 0 0 0 0 0 0 0 0 0 0 0 0 0 0 0 0 0 0 0 0 0 0 0 0 0 0 0 0 0 0 0 0 0 0 0 0 0 0 0 0 0 0 0 0 0 0 0 0 0 0 0 0 0 0 0 0 0 0 0 0 0 0 0 0 0 0 0 0 0 0 0 0 0 0 0 0 0 0 0 0 0 0 0 0 0 0 0 0 0 0 0 0 0 0 0 0 0 0 0 0 0 0 0 0 0 0 0 0 0 0 0 0 0 0 0 0 0 0 0 0 0 0 0 0 0 0 0 0 0 0 0 0 0 0 0 0 0 0 0 0 0 0 0 0 0 0 0 0 0 0 0 0 0 0 0 0 0 0 0 0 0 0 0 0 0 0 0 0 0 0 0 0 0 0 0 0 0 0 0 0 0 0 0 0 0 0 0 0 0 0 0 0 0 0 0 0 0 0 0 0 0 0 0 0 0 0 0 0 0 0 0 0 0 0 0 0 0 0 0 0 0 0 0 0 0 0 0 0 0 0 0 0 0 0 0 0 0 0 0 0 0 0 0 0 0 0 0 0 0 0 0 0 0 0 0 0 0 0 0 0 0 0 0 0 0 0 0 0 0 0 0 0 0 0 0 0 0 0 0 0 0 0 0 0 0 0 0 0 0 0 0 0 0 0 0 0 0 0 0 0 0 0 0 0 0 0 0 0 0 0 0 0 0 0 0 0 0 0 0 0 0 0 0 0 0 0 0 0 0 0 0 0 0 0 0 0 0 0 0 0 0 0 0 0 0 0 0 0 0 0 0 0 0 0 0 0 0 0 0 0 0 0 0 0 0 0 0 0 0 0 0 0 0 0 0 0 0 0 0 0 0 0 0 0 0 0 0 0 0 0 0 0 0 0 0 0 0 0 0 0 0 0 0 0 0 0 0 0 0 0 0 0 0 0 0 0 0 0 0 0 0 0 0 0 0 0 0 0 0 0 0 0 0 0 0 0 0 0 0 0 0 0 0 0 0 0 0 0 0 0 0 0 0 0 0 0 0 0 0 0 255
255 0 0 0 0 0 0 0 0 0 0 0 0 0 0 0 0 0 0 0 0 0 0 0 0 0 0 0 0 0 0 0 0 0 0 0 0 0 0 0 0 0 0 0 0 0 0 0 0 0 0 0 0 0 0 0 0 0 0 0 0 0 0 0 0 0 0 0 0 0 0 0 0 0 0 0 0 0 0 0 0 1 0 0 0 0 4 2 12 23 0 18 103 3 0 0 88 157 98 35 0 5 18 0 0 26 0 0 163 253 0 0 0 11 255 220 0 0 25 0 0 0 0 121 101 2 0 0 30 0 0 188 0 0 88 0 0 0 0 0 110 104 0 3 28 0 34 0 0 84 0 0 25 0 0 57 98 32 0 143 93 0 0 136 37 120 229 0 0 106 0 21 146 0 14 0 22 0 0 128 49 15 0 17 0 13 12 0 44 178 9 0 0 50 33 8 31 17 0 13 0 2 0 0 1 0 0 0 3 0 0 0 0 0 0 0 0 0 0 0 0 0 0 0 0 0 0 0 0 0 0 0 0 0 0 0 0 0 0 0 0 0 0 0 0 0 0 0 0 0 0 0 0 0 0 0 0 0 0 0 0 0 0 0 0 0 0 0 0 0 0 0 0 0 0 0 0 0 0 0 0 0 0 0 0 0 0 0 0 0 0 0 0 0 0 0 0 0 0 0 0 0 0 0 0 0 0 0 0 0 0 0 0 0 0 0 0 0 0 0 0 0 0 0 0 0 0 0 0 0 0 0 0 0 0 0 0 0 0 0 0 0 0 0 0 0 0 0 0 0 0 0 0 0 0 0 0 0 0 0 0 0 0 0 0 0 0 0 0 0 0 0 0 0 0 0 0 0 0 0 0 0 0 0 0 0 0 0 0 0 0 0 0 0 0 0 0 0 0 0 0 0 0 0 0 0 0 0 0 0 0 0 0 0 0 0 0 0 0 0 0 0 0 0 0 0 0 0 0 0 0 0 0 0 0 0 0 0 0 0 0 0 0 0 0 0 0 0 0 0 0 0 0 0 0 0 0 0 0 0 0 0 0 0 0 0 0 0 0 0 0 0 0 0 0 0 0 0 0 0 0 0 0 0 0 0 0 0 0 0 0 0 0 0 0 0 0 0 0 0 0 0 0 0 0 0 0 0 0 0 0 0 0 0 0 0 0 0 0 0 0 0 0 0 0 0 0 0 0 0 0 0 0 0 0 0 0 0 0 0 0 0 0 0 0 0 0 0 0 0 0 0 0 0 0 0 0 0 0 0 0 0 0 0 0 0 0 0 0 0 0 0 0 0 0 0 0 0 0 0 0 0 0 0 0 0 0 0 0 0 0 0 0 0 0 0 0 0 0 0 0 0 0 0 0 0 0 0 0 0 0 0 0 0 0 0 0 0 0 0 0 0 0 0 0 0 0 0 0 0 0 0 0 0 0 0 0 0 0 0 0 0 0 0 0 0 0 0 0 0 0 0 0 0 0 0 0 0 0 0 0 0 0 0 0 0 0 0 0 0 0 0 0 0 0 0 0 0 0 0 0 0 0 0 0 0 0 0 0 0 0 0 0 0 0 0 0 0 0 0 0 0 0 0 0 0 0 0 0 0 0 0 0 0 0 0 0 0 0 0 0 0 0 0 0 0 0 0 0 0 0 0 0 0 0 0 0 0 0 0 0 0 0 0 0 0 0 0 0 0 0 0 0 0 0 0 0 0 0 0 0 0 0 0 0 0 0 0 0 0 0 0 0 0 0 0 0 0 0 0 0 0 0 0 0 0 0 0 0 0 0 0 0 0 0 0 0 0 0 0 0 0 0 0 0 0 0 0 0 0 0 0 0 0 0 0 0 0 0 0 0 0 0 0 0 0 0 0 0 0 0 0 0 0 0 0 0 0 0 0 0 0 0 0 0 0 0 0 0 0 0 0 0 0 0 0 0 0 0 0 0 0 0 0 0 0 0 0 0 0 0 0 0 0 0 0 0 0 0 0 0 0 0 0 0 0 0 0 0 0 0 0 0 0 0 0 0 0 0 255
255 0 0 0 0 0 0 0 0 0 0 0 0 0 0 0 0 0 0 0 0 0 0 0 0 0 0 0 0 0 0 0 0 0 0 0 0 0 0 0 0 0 0 0 0 0 0 0 0 0 0 0 0 0 0 0 0 0 0 0 0 0 0 0 0 0 0 0 0 0 0 0 0 0 0 0 0 0 0 0 0 1 2 5 0 0 0 0 8 0 0 9 53 104 7 0 0 28 145 35 0 15 11 0 8 0 13 9 0 102 240 229 0 0 0 0 157 0 77 24 34 0 0 133 109 0 13 9 0 74 0 77 239 0 0 0 0 103 0 0 0 0 51 58 0 46 0 36 12 57 226 0 0 47 0 0 75 83 0 156 119 0 0 240 111 255 0 0 221 0 0 199 124 0 92 0 104 0 0 181 39 0 21 12 0 0 26 16 105 128 0 36 0 8 67 49 9 9 0 16 3 1 0 0 1 2 3 2 1 0 0 0 0 0 0 0 0 0 0 0 0 0 0 0 0 0 0 0 0 0 0 0 0 0 0 0 0 0 0 0 0 0 0 0 0 0 0 0 0 0 0 0 0 0 0 0 0 0 0 0 0 0 0 0 0 0 0 0 0 0 0 0 0 0 0 0 0 0 0 0 0 0 0 0 0 0 0 0 0 0 0 0 0 0 0 0 0 0 0 0 0 0 0 0 0 0 0 0 0 0 0 0 0 0 0 0 0 0 0 0 0 0 0 0 0 0 0 0 0 0 0 0 0 0 0 0 0 0 0 0 0 0 0 0 0 0 0 0 0 0 0 0 0 0 0 0 0 0 0 0 0 0 0 0 0 0 0 0 0 0 0 0 0 0 0 0 0 0 0 0 0 0 0 0 0 0 0 0 0 0 0 0 0 0 0 0 0 0 0 0 0 0 0 0 0 0 0 0 0 0 0 0 0 0 0 0 0 0 0 0 0 0 0 0 0 0 0 0 0 0 0 0 0 0 0 0 0 0 0 0 0 0 0 0 0 0 0 0 0 0 0 0 0 0 0 0 0 0 0 0 0 0 0 0 0 0 0 0 0 0 0 0 0 0 0 0 0 0 0 0 0 0 0 0 0 0 0 0 0 0 0 0 0 0 0 0 0 0 0 0 0 0 0 0 0 0 0 0 0 0 0 0 0 0 0 0 0 0 0 0 0 0 0 0 0 0 0 0 0 0 0 0 0 0 0 0 0 0 0 0 0 0 0 0 0 0 0 0 0 0 0 0 0 0 0 0 0 0 0 0 0 0 0 0 0 0 0 0 0 0 0 0 0 0 0 0 0 0 0 0 0 0 0 0 0 0 0 0 0 0 0 0 0 0 0 0 0 0 0 0 0 0 0 0 0 0 0 0 0 0 0 0 0 0 0 0 0 0 0 0 0 0 0 0 0 0 0 0 0 0 0 0 0 0 0 0 0 0 0 0 0 0 0 0 0 0 0 0 0 0 0 0 0 0 0 0 0 0 0 0 0 0 0 0 0 0 0 0 0 0 0 0 0 0 0 0 0 0 0 0 0 0 0 0 0 0 0 0 0 0 0 0 0 0 0 0 0 0 0 0 0 0 0 0 0 0 0 0 0 0 0 0 0 0 0 0 0 0 0 0 0 0 0 0 0 0 0 0 0 0 0 0 0 0 0 0 0 0 0 0 0 0 0 0 0 0 0 0 0 0 0 0 0 0 0 0 0 0 0 0 0 0 0 0 0 0 0 0 0 0 0 0 0 0 0 0 0 0 0 0 0 0 0 0 0 0 0 0 0 0 0 0 0 0 0 0 0 0 0 0 0 0 0 0 0 0 0 0 0 0 0 0 0 0 0 0 0 0 0 0 0 0 0 0 0 0 0 0 0 0 0 0 0 0 0 0 0 0 0 0 0 0 0 0 0 0 0 0 0 0 0 0 0 0 0 0 0 0 0 0 0 0 0 0 0 0 0 0 0 0 0 0 0 0 0 0 0 0 0 0 0 0 0 0 0 0 0 0 0 0 0 0 0 0 0 0 0 0 0 255
255 0 0 0 0 0 0 0 0 0 0 0 0 0 0 0 0 0 0 0 0 0 0 0 0 0 0 0 0 0 0 0 0 0 0 0 0 0 0 0 0 0 0 0 0 0 0 0 0 0 0 0 0 0 0 0 0 0 0 0 0 0 0 0 0 0 0 0 0 0 0 0 0 0 0 0 0 0 0 0 0 0 0 2 0 0 0 0 8 3 3 0 24 100 34 0 0 0 11 251 106 0 0 15 16 19 7 8 8 17 79 65 116 255 32 0 0 0 19 0 0 11 0 0 192 24 16 0 0 48 0 0 189 0 0 0 0 5 31 0 1 23 4 91 0 51 0 29 33 0 145 0 0 22 0 23 107 95 0 66 66 0 0 175 255 3 0 90 95 0 0 255 0 0 48 0 76 0 45 133 14 0 30 0 9 17 0 119 178 0 0 97 0 31 88 22 8 7 1 0 3 0 0 0 0 0 0 0 0 0 0 0 0 0 0 0 0 0 0 0 0 0 0 0 0 0 0 0 0 0 0 0 0 0 0 0 0 0 0 0 0 0 0 0 0 0 0 0 0 0 0 0 0 0 0 0 0 0 0 0 0 0 0 0 0 0 0 0 0 0 0 0 0 0 0 0 0 0 0 0 0 0 0 0 0 0 0 0 0 0 0 0 0 0 0 0 0 0 0 0 0 0 0 0 0 0 0 0 0 0 0 0 0 0 0 0 0 0 0 0 0 0 0 0 0 0 0 0 0 0 0 0 0 0 0 0 0 0 0 0 0 0 0 0 0 0 0 0 0 0 0 0 0 0 0 0 0 0 0 0 0 0 0 0 0 0 0 0 0 0 0 0 0 0 0 0 0 0 0 0 0 0 0 0 0 0 0 0 0 0 0 0 0 0 0 0 0 0 0 0 0 0 0 0 0 0 0 0 0 0 0 0 0 0 0 0 0 0 0 0 0 0 0 0 0 0 0 0 0 0 0 0 0 0 0 0 0 0 0 0 0 0 0 0 0 0 0 0 0 0 0 0 0 0 0 0 0 0 0 0 0 0 0 0 0 0 0 0 0 0 0 0 0 0 0 0 0 0 0 0 0 0 0 0 0 0 0 0 0 0 0 0 0 0 0 0 0 0 0 0 0 0 0 0 0 0 0 0 0 0 0 0 0 0 0 0 0 0 0 0 0 0 0 0 0 0 0 0 0 0 0 0 0 0 0 0 0 0 0 0 0 0 0 0 0 0 0 0 0 0 0 0 0 0 0 0 0 0 0 0 0 0 0 0 0 0 0 0 0 0 0 0 0 0 0 0 0 0 0 0 0 0 0 0 0 0 0 0 0 0 0 0 0 0 0 0 0 0 0 0 0 0 0 0 0 0 0 0 0 0 0 0 0 0 0 0 0 0 0 0 0 0 0 0 0 0 0 0 0 0 0 0 0 0 0 0 0 0 0 0 0 0 0 0 0 0 0 0 0 0 0 0 0 0 0 0 0 0 0 0 0 0 0 0 0 0 0 0 0 0 0 0 0 0 0 0 0 0 0 0 0 0 0 0 0 0 0 0 0 0 0 0 0 0 0 0 0 0 0 0 0 0 0 0 0 0 0 0 0 0 0 0 0 0 0 0 0 0 0 0 0 0 0 0 0 0 0 0 0 0 0 0 0 0 0 0 0 0 0 0 0 0 0 0 0 0 0 0 0 0 0 0 0 0 0 0 0 0 0 0 0 0 0 0 0 0 0 0 0 0 0 0 0 0 0 0 0 0 0 0 0 0 0 0 0 0 0 0 0 0 0 0 0 0 0 0 0 0 0 0 0 0 0 0 0 0 0 0 0 0 0 0 0 0 0 0 0 0 0 0 0 0 0 0 0 0 0 0 0 0 0 0 0 0 0 0 0 0 0 0 0 0 0 0 0 0 0 0 0 0 0 0 0 0 0 0 0 0 0 0 0 0 0 0 0 0 0 0 0 0 0 0 0 0 0 0 0 0 0 0 0 0 0 0 0 0 0 0 0 0 0 0 0 0 0 0 0 0 0 255
255 0 0 0 0 0 0 0 0 0 0 0 0 0 0 0 0 0 0 0 0 0 0 0 0 0 0 0 0 0 0 0 0 0 0 0 0 0 0 0 0 0 0 0 0 0 0 0 0 0 0 0 0 0 0 0 0 0 0 0 0 0 0 0 0 0 0 0 0 0 0 0 0 0 0 0 0 0 0 0 0 0 0 1 2 3 3 2 2 3 13 0 11 68 89 0 0 0 0 0 174 132 0 0 0 0 8 10 0 0 0 0 4 119 0 108 48 0 0 255 69 20 39 0 255 10 0 20 0 18 4 0 100 0 0 0 0 0 71 0 0 46 0 85 39 62 0 0 55 0 89 94 0 0 0 0 72 89 0 0 114 0 0 255 253 0 0 54 15 0 0 255 0 58 0 20 93 0 217 67 0 0 31 0 26 0 116 112 0 0 38 16 0 76 57 0 0 11 11 0 4 0 0 0 0 0 0 0 0 0 0 0 0 0 0 0 0 0 0 0 0 0 0 0 0 0 0 0 0 0 0 0 0 0 0 0 0 0 0 0 0 0 0 0 0 0 0 0 0 0 0 0 0 0 0 0 0 0 0 0 0 0 0 0 0 0 0 0 0 0 0 0 0 0 0 0 0 0 0 0 0 0 0 0 0 0 0 0 0 0 0 0 0 0 0 0 0 0 0 0 0 0 0 0 0 0 0 0 0 0 0 0 0 0 0 0 0 0 0 0 0 0 0 0 0 0 0 0 0 0 0 0 0 0 0 0 0 0 0 0 0 0 0 0 0 0 0 0 0 0 0 0 0 0 0 0 0 0 0 0 0 0 0 0 0 0 0 0 0 0 0 0 0 0 0 0 0 0 0 0 0 0 0 0 0 0 0 0 0 0 0 0 0 0 0 0 0 0 0 0 0 0 0 0 0 0 0 0 0 0 0 0 0 0 0 0 0 0 0 0 0 0 0 0 0 0 0 0 0 0 0 0 0 0 0 0 0 0 0 0 0 0 0 0 0 0 0 0 0 0 0 0 0 0 0 0 0 0 0 0 0 0 0 0 0 0 0 0 0 0 0 0 0 0 0 0 0 0 0 0 0 0 0 0 0 0 0 0 0 0 0 0 0 0 0 0 0 0 0 0 0 0 0 0 0 0 0 0 0 0 0 0 0 0 0 0 0 0 0 0 0 0 0 0 0 0 0 0 0 0 0 0 0 0 0 0 0 0 0 0 0 0 0 0 0 0 0 0 0 0 0 0 0 0 0 0 0 0 0 0 0 0 0 0 0 0 0 0 0 0 0 0 0 0 0 0 0 0 0 0 0 0 0 0 0 0 0 0 0 0 0 0 0 0 0 0 0 0 0 0 0 0 0 0 0 0 0 0 0 0 0 0 0 0 0 0 0 0 0 0 0 0 0 0 0 0 0 0 0 0 0 0 0 0 0 0 0 0 0 0 0 0 0 0 0 0 0 0 0 0 0 0 0 0 0 0 0 0 0 0 0 0 0 0 0 0 0 0 0 0 0 0 0 0 0 0 0 0 0 0 0 0 0 0 0 0 0 0 0 0 0 0 0 0 0 0 0 0 0 0 0 0 0 0 0 0 0 0 0 0 0 0 0 0 0 0 0 0 0 0 0 0 0 0 0 0 0 0 0 0 0 0 0 0 0 0 0 0 0 0 0 0 0 0 0 0 0 0 0 0 0 0 0 0 0 0 0 0 0 0 0 0 0 0 0 0 0 0 0 0 0 0 0 0 0 0 0 0 0 0 0 0 0 0 0 0 0 0 0 0 0 0 0 0 0 0 0 0 0 0 0 0 0 0 0 0 0 0 0 0 0 0 0 0 0 0 0 0 0 0 0 0 0 0 0 0 0 0 0 0 0 0 0 0 0 0 0 0 0 0 0 0 0 0 0 0 0 0 0 0 0 0 0 0 0 0 0 0 0 0 0 0 0 0 0 0 0 0 0 0 0 0 0 0 0 0 0 0 0 0 0 0 0 0 0 0 0 0 0 0 0 0 0 0 0 0 0 0 0 255
255 0 0 0 0 0 0 0 0 0 0 0 0 0 0 0 0 0 0 0 0 0 0 0 0 0 0 0 0 0 0 0 0 0 0 0 0 0 0 0 0 0 0 0 0 0 0 0 0 0 0 0 0 0 0 0 0 0 0 0 0 0 0 0 0 0 0 0 0 0 0 0 0 0 0 0 0 0 0 0 0 0 0 0 0 0 0 0 4 4 11 0 2 21 91 134 0 129 0 0 0 194 146 32 0 0 0 19 13 19 16 49 0 30 0 23 245 229 0 0 86 0 140 0 194 44 0 54 0 0 57 0 69 0 0 0 29 0 40 0 17 10 0 0 59 91 0 0 34 0 40 145 0 0 0 0 27 88 0 0 194 0 0 255 0 0 98 0 41 0 0 255 0 51 0 64 50 0 255 27 25 13 30 0 28 11 255 0 0 0 65 0 26 70 25 0 0 8 0 2 3 0 0 0 0 0 0 0 0 0 0 0 0 0 0 0 0 0 0 0 0 0 0 0 0 0 0 0 0 0 0 0 0 0 0 0 0 0 0 0 0 0 0 0 0 0 0 0 0 0 0 0 0 0 0 0 0 0 0 0 0 0 0 0 0 0 0 0 0 0 0 0 0 0 0 0 0 0 0 0 0 0 0 0 0 0 0 0 0 0 0 0 0 0 0 0 0 0 0 0 0 0 0 0 0 0 0 0 0 0 0 0 0 0 0 0 0 0 0 0 0 0 0 0 0 0 0 0 0 0 0 0 0 0 0 0 0 0 0 0 0 0 0 0 0 0 0 0 0 0 0 0 0 0 0 0 0 0 0 0 0 0 0 0 0 0 0 0 0 0 0 0 0 0 0 0 0 0 0 0 0 0 0 0 0 0 0 0 0 0 0 0 0 0 0 0 0 0 0 0 0 0 0 0 0 0 0 0 0 0 0 0 0 0 0 0 0 0 0 0 0 0 0 0 0 0 0 0 0 0 0 0 0 0 0 0 0 0 0 0 0 0 0 0 0 0 0 0 0 0 0 0 0 0 0 0 0 0 0 0 0 0 0 0 0 0 0 0 0 0 0 0 0 0 0 0 0 0 0 0 0 0 0 0 0 0 0 0 0 0 0 0 0 0 0 0 0 0 0 0 0 0 0 0 0 0 0 0 0 0 0 0 0 0 0 0 0 0 0 0 0 0 0 0 0 0 0 0 0 0 0 0 0 0 0 0 0 0 0 0 0 0 0 0 0 0 0 0 0 0 0 0 0 0 0 0 0 0 0 0 0 0 0 0 0 0 0 0 0 0 0 0 0 0 0 0 0 0 0 0 0 0 0 0 0 0 0 0 0 0 0 0 0 0 0 0 0 0 0 0 0 0 0 0 0 0 0 0 0 0 0 0 0 0 0 0 0 0 0 0 0 0 0 0 0 0 0 0 0 0 0 0 0 0 0 0 0 0 0 0 0 0 0 0 0 0 0 0 0 0 0 0 0 0 0 0 0 0 0 0 0 0 0 0 0 0 0 0 0 0 0 0 0 0 0 0 0 0 0 0 0 0 0 0 0 0 0 0 0 0 0 0 0 0 0 0 0 0 0 0 0 0 0 0 0 0 0 0 0 0 0 0 0 0 0 0 0 0 0 0 0 0 0 0 0 0 0 0 0 0 0 0 0 0 0 0 0 0 0 0 0 0 0 0 0 0 0 0 0 0 0 0 0 0 0 0 0 0 0 0 0 0 0 0 0 0 0 0 0 0 0 0 0 0 0 0 0 0 0 0 0 0 0 0 0 0 0 0 0 0 0 0 0 0 0 0 0 0 0 0 0 0 0 0 0 0 0 0 0 0 0 0 0 0 0 0 0 0 0 0 0 0 0 0 0 0 0 0 0 0 0 0 0 0 0 0 0 0 0 0 0 0 0 0 0 0 0 0 0 0 0 0 0 0 0 0 0 0 0 0 0 0 0 0 0 0 0 0 0 0 0 0 0 0 0 0 0 0 0 0 0 0 0 0 0 0 0 0 0 0 0 0 0 0 0 0 0 0 0 255
255 0 0 0 0 0 0 0 0 0 0 0 0 0 0 0 0 0 0 0 0 0 0 0 0 0 0 0 0 0 0 0 0 0 0 0 0 0 0 0 0 0 0 0 0 0 0 0 0 0 0 0 0 0 0 0 0 0 0 0 0 0 0 0 0 0 0 0 0 0 0 0 0 0 0 0 0 0 0 0 0 0 0 0 0 0 0 0 10 0 13 5 10 14 45 202 0 0 0 98 0 0 247 170 64 12 0 0 9 16 18 94 0 56 104 0 0 255 112 0 0 0 193 0 59 148 4 35 0 0 66 0 68 0 0 33 13 43 0 3 66 0 0 0 27 102 27 0 4 41 49 120 0 0 0 0 21 83 24 0 208 0 0 255 0 0 110 0 65 0 143 177 0 0 0 142 0 0 234 0 21 0 0 16 84 172 0 0 0 103 54 0 119 50 15 5 11 8 0 15 1 0 0 0 0 0 0 0 0 0 0 0 0 0 0 0 0 0 0 0 0 0 0 0 0 0 0 0 0 0 0 0 0 0 0 0 0 0 0 0 0 0 0 0 0 0 0 0 0 0 0 0 0 0 0 0 0 0 0 0 0 0 0 0 0 0 0 0 0 0 0 0 0 0 0 0 0 0 0 0 0 0 0 0 0 0 0 0 0 0 0 0 0 0 0 0 0 0 0 0 0 0 0 0 0 0 0 0 0 0 0 0 0 0 0 0 0 0 0 0 0 0 0 0 0 0 0 0 0 0 0 0 0 0 0 0 0 0 0 0 0 0 0 0 0 0 0 0 0 0 0 0 0 0 0 0 0 0 0 0 0 0 0 0 0 0 0 0 0 0 0 0 0 0 0 0 0 0 0 0 0 0 0 0 0 0 0 0 0 0 0 0 0 0 0 0 0 0 0 0 0 0 0 0 0 0 0 0 0 0 0 0 0 0 0 0 0 0 0 0 0 0 0 0 0 0 0 0 0 0 0 0 0 0 0 0 0 0 0 0 0 0 0 0 0 0 0 0 0 0 0 0 0 0 0 0 0 0 0 0 0 0 0 0 0 0 0 0 0 0 0 0 0 0 0 0 0 0 0 0 0 0 0 0 0 0 0 0 0 0 0 0 0 0 0 0 0 0 0 0 0 0 0 0 0 0 0 0 0 0 0 0 0 0 0 0 0 0 0 0 0 0 0 0 0 0 0 0 0 0 0 0 0 0 0 0 0 0 0 0 0 0 0 0 0 0 0 0 0 0 0 0 0 0 0 0 0 0 0 0 0 0 0 0 0 0 0 0 0 0 0 0 0 0 0 0 0 0 0 0 0 0 0 0 0 0 0 0 0 0 0 0 0 0 0 0 0 0 0 0 0 0 0 0 0 0 0 0 0 0 0 0 0 0 0 0 0 0 0 0 0 0 0 0 0 0 0 0 0 0 0 0 0 0 0 0 0 0 0 0 0 0 0 0 0 0 0 0 0 0 0 0 0 0 0 0 0 0 0 0 0 0 0 0 0 0 0 0 0 0 0 0 0 0 0 0 0 0 0 0 0 0 0 0 0 0 0 0 0 0 0 0 0 0 0 0 0 0 0 0 0 0 0 0 0 0 0 0 0 0 0 0 0 0 0 0 0 0 0 0 0 0 0 0 0 0 0 0 0 0 0 0 0 0 0 0 0 0 0 0 0 0 0 0 0 0 0 0 0 0 0 0 0 0 0 0 0 0 0 0 0 0 0 0 0 0 0 0 0 0 0 0 0 0 0 0 0 0 0 0 0 0 0 0 0 0 0 0 0 0 0 0 0 0 0 0 0 0 0 0 0 0 0 0 0 0 0 0 0 0 0 0 0 0 0 0 0 0 0 0 0 0 0 0 0 0 0 0 0 0 0 0 0 0 0 0 0 0 0 0 0 0 0 0 0 0 0 0 0 0 0 0 0 0 0 0 0 0 0 0 0 0 0 0 0 0 0 0 0 0 0 0 0 0 0 0 0 0 0 0 0 0 0 0 0 0 0 0 0 0 0 0 0 0 0 0 0 0 0 255
255 0 0 0 0 0 0 0 0 0 0 0 0 0 0 0 0 0 0 0 0 0 0 0 0 0 0 0 0 0 0 0 0 0 0 0 0 0 0 0 0 0 0 0 0 0 0 0 0 0 0 0 0 0 0 0 0 0 0 0 0 0 0 0 0 0 0 0 0 0 0 0 0 0 0 0 0 0 0 0 0 0 0 0 0 0 0 0 14 0 7 6 3 0 17 110 162 0 0 164 0 0 0 53 188 87 31 0 0 0 0 63 0 0 182 0 0 0 147 255 0 0 0 0 83 156 0 37 0 0 7 11 88 0 21 59 0 71 0 0 72 0 47 0 0 54 81 0 0 56 80 101 0 0 0 28 56 79 81 0 211 0 0 225 0 10 0 46 25 0 255 0 28 0 0 199 0 0 201 0 21 0 0 61 198 0 0 0 59 148 0 73 100 17 0 0 8 13 0 16 1 0 0 0 0 0 0 0 0 0 0 0 0 0 0 0 0 0 0 0 0 0 0 0 0 0 0 0 0 0 0 0 0 0 0 0 0 0 0 0 0 0 0 0 0 0 0 0 0 0 0 0 0 0 0 0 0 0 0 0 0 0 0 0 0 0 0 0 0 0 0 0 0 0 0 0 0 0 0 0 0 0 0 0 0 0 0 0 0 0 0 0 0 0 0 0 0 0 0 0 0 0 0 0 0 0 0 0 0 0 0 0 0 0 0 0 0 0 0 0 0 0 0 0 0 0 0 0 0 0 0 0 0 0 0 0 0 0 0 0 0 0 0 0 0 0 0 0 0 0 0 0 0 0 0 0 0 0 0 0 0 0 0 0 0 0 0 0 0 0 0 0 0 0 0 0 0 0 0 0 0 0 0 0 0 0 0 0 0 0 0 0 0 0 0 0 0 0 0 0 0 0 0 0 0 0 0 0 0 0 0 0 0 0 0 0 0 0 0 0 0 0 0 0 0 0 0 0 0 0 0 0 0 0 0 0 0 0 0 0 0 0 0 0 0 0 0 0 0 0 0 0 0 0 0 0 0 0 0 0 0 0 0 0 0 0 0 0 0 0 0 0 0 0 0 0 0 0 0 0 0 0 0 0 0 0 0 0 0 0 0 0 0 0 0 0 0 0 0 0 0 0 0 0 0 0 0 0 0 0 0 0 0 0 0 0 0 0 0 0 0 0 0 0 0 0 0 0 0 0 0 0 0 0 0 0 0 0 0 0 0 0 0 0 0 0 0 0 0 0 0 0 0 0 0 0 0 0 0 0 0 0 0 0 0 0 0 0 0 0 0 0 0 0 0 0 0 0 0 0 0 0 0 0 0 0 0 0 0 0 0 0 0 0 0 0 0 0 0 0 0 0 0 0 0 0 0 0 0 0 0 0 0 0 0 0 0 0 0 0 0 0 0 0 0 0 0 0 0 0 0 0 0 0 0 0 0 0 0 0 0 0 0 0 0 0 0 0 0 0 0 0 0 0 0 0 0 0 0 0 0 0 0 0 0 0 0 0 0 0 0 0 0 0 0 0 0 0 0 0 0 0 0 0 0 0 0 0 0 0 0 0 0 0 0 0 0 0 0 0 0 0 0 0 0 0 0 0 0 0 0 0 0 0 0 0 0 0 0 0 0 0 0 0 0 0 0 0 0 0 0 0 0 0 0 0 0 0 0 0 0 0 0 0 0 0 0 0 0 0 0 0 0 0 0 0 0 0 0 0 0 0 0 0 0 0 0 0 0 0 0 0 0 0 0 0 0 0 0 0 0 0 0 0 0 0 0 0 0 0 0 0 0 0 0 0 0 0 0 0 0 0 0 0 0 0 0 0 0 0 0 0 0 0 0 0 0 0 0 0 0 0 0 0 0 0 0 0 0 0 0 0 0 0 0 0 0 0 0 0 0 0 0 0 0 0 0 0 0 0 0 0 0 0 0 0 0 0 0 0 0 0 0 0 0 0 0 0 0 0 0 0 0 0 0 0 0 0 0 0 0 0 0 0 0 0 0 0 0 0 0 0 0 0 0 0 0 0 0 255
255 0 0 0 0 0 0 0 0 0 0 0 0 0 0 0 0 0 0 0 0 0 0 0 0 0 0 0 0 0 0 0 0 0 0 0 0 0 0 0 0 0 0 0 0 0 0 0 0 0 0 0 0 0 0 0 0 0 0 0 0 0 0 0 0 0 0 0 0 0 0 0 0 0 0 0 0 0 0 0 0 0 0 0 0 0 0 0 10 0 5 12 0 0 17 47 195 56 0 0 133 0 0 0 91 177 128 39 24 35 12 47 108 0 88 37 0 51 0 64 217 0 0 0 99 138 0 0 0 0 0 10 73 0 83 0 12 31 0 0 38 33 10 0 0 0 89 38 0 36 80 60 142 0 0 34 28 49 125 0 171 43 0 5 0 0 0 22 0 0 255 0 42 0 0 172 0 0 161 48 11 0 57 146 30 0 0 0 62 61 0 199 45 15 0 0 12 6 0 4 4 0 0 0 0 0 0 0 0 0 0 0 0 0 0 0 0 0 0 0 0 0 0 0 0 0 0 0 0 0 0 0 0 0 0 0 0 0 0 0 0 0 0 0 0 0 0 0 0 0 0 0 0 0 0 0 0 0 0 0 0 0 0 0 0 0 0 0 0 0 0 0 0 0 0 0 0 0 0 0 0 0 0 0 0 0 0 0 0 0 0 0 0 0 0 0 0 0 0 0 0 0 0 0 0 0 0 0 0 0 0 0 0 0 0 0 0 0 0 0 0 0 0 0 0 0 0 0 0 0 0 0 0 0 0 0 0 0 0 0 0 0 0 0 0 0 0 0 0 0 0 0 0 0 0 0 0 0 0 0 0 0 0 0 0 0 0 0 0 0 0 0 0 0 0 0 0 0 0 0 0 0 0 0 0 0 0 0 0 0 0 0 0 0 0 0 0 0 0 0 0 0 0 0 0 0 0 0 0 0 0 0 0 0 0 0 0 0 0 0 0 0 0 0 0 0 0 0 0 0 0 0 0 0 0 0 0 0 0 0 0 0 0 0 0 0 0 0 0 0 0 0 0 0 0 0 0 0 0 0 0 0 0 0 0 0 0 0 0 0 0 0 0 0 0 0 0 0 0 0 0 0 0 0 0 0 0 0 0 0 0 0 0 0 0 0 0 0 0 0 0 0 0 0 0 0 0 0 0 0 0 0 0 0 0 0 0 0 0 0 0 0 0 0 0 0 0 0 0 0 0 0 0 0 0 0 0 0 0 0 0 0 0 0 0 0 0 0 0 0 0 0 0 0 0 0 0 0 0 0 0 0 0 0 0 0 0 0 0 0 0 0 0 0 0 0 0 0 0 0 0 0 0 0 0 0 0 0 0 0 0 0 0 0 0 0 0 0 0 0 0 0 0 0 0 0 0 0 0 0 0 0 0 0 0 0 0 0 0 0 0 0 0 0 0 0 0 0 0 0 0 0 0 0 0 0 0 0 0 0 0 0 0 0 0 0 0 0 0 0 0 0 0 0 0 0 0 0 0 0 0 0 0 0 0 0 0 0 0 0 0 0 0 0 0 0 0 0 0 0 0 0 0 0 0 0 0 0 0 0 0 0 0 0 0 0 0 0 0 0 0 0 0 0 0 0 0 0 0 0 0 0 0 0 0 0 0 0 0 0 0 0 0 0 0 0 0 0 0 0 0 0 0 0 0 0 0 0 0 0 0 0 0 0 0 0 0 0 0 0 0 0 0 0 0 0 0 0 0 0 0 0 0 0 0 0 0 0 0 0 0 0 0 0 0 0 0 0 0 0 0 0 0 0 0 0 0 0 0 0 0 0 0 0 0 0 0 0 0 0 0 0 0 0 0 0 0 0 0 0 0 0 0 0 0 0 0 0 0 0 0 0 0 0 0 0 0 0 0 0 0 0 0 0 0 0 0 0 0 0 0 0 0 0 0 0 0 0 0 0 0 0 0 0 0 0 0 0 0 0 0 0 0 0 0 0 0 0 0 0 0 0 0 0 0 0 0 0 0 0 0 0 0 0 0 0 0 0 0 0 0 0 0 0 0 0 0 0 0 255
255 0 0 0 0 0 0 0 0 0 0 0 0 0 0 0 0 0 0 0 0 0 0 0 0 0 0 0 0 0 0 0 0 0 0 0 0 0 0 0 0 0 0 0 0 0 0 0 0 0 0 0 0 0 0 0 0 0 0 0 0 0 0 0 0 0 0 0 0 0 0 0 0 0 0 0 0 0 0 0 0 0 0 0 0 0 0 1 6 7 8 0 0 12 4 0 131 85 0 0 1 31 0 0 0 68 233 133 53 0 0 20 118 0 0 169 0 0 0 232 49 225 51 0 52 255 95 0 43 53 0 0 18 0 126 0 59 0 50 0 5 115 0 29 0 0 104 89 0 0 75 69 255 0 0 0 0 4 160 0 70 34 0 0 0 0 108 0 0 0 255 0 30 0 8 78 0 0 27 101 0 45 185 86 0 0 0 17 51 0 91 86 0 20 32 26 163 225 240 152 98 43 16 8 6 5 3 4 4 3 2 1 0 0 0 0 0 0 0 0 0 0 0 0 0 0 0 0 0 0 0 0 0 0 0 0 0 0 0 0 0 0 0 0 0 0 0 0 0 0 0 0 0 0 0 0 0 0 0 0 0 0 0 0 0 0 0 0 0 0 0 0 0 0 0 0 0 0 0 0 0 0 0 0 0 0 0 0 0 0 0 0 0 0 0 0 0 0 0 0 0 0 0 0 0 0 0 0 0 0 0 0 0 0 0 0 0 0 0 0 0 0 0 0 0 0 0 0 0 0 0 0 0 0 0 0 0 0 0 0 0 0 0 0 0 0 0 0 0 0 0 0 0 0 0 0 0 0 0 0 0 0 0 0 0 0 0 0 0 0 0 0 0 0 0 0 0 0 0 0 0 0 0 0 0 0 0 0 0 0 0 0 0 0 0 0 0 0 0 0 0 0 0 0 0 0 0 0 0 0 0 0 0 0 0 0 0 0 0 0 0 1 3 3 2 1 2 2 1 1 1 1 0 0 0 0 0 0 0 1 2 3 2 1 0 0 0 0 0 0 0 0 0 0 0 0 0 0 0 0 0 0 0 0 0 0 0 0 0 0 0 0 0 0 0 0 0 0 0 0 0 0 0 0 0 0 0 0 0 0 0 0 0 0 0 0 0 0 0 0 0 0 0 0 0 0 0 0 0 0 0 0 0 0 0 0 0 0 0 0 0 0 0 0 0 0 0 0 0 0 0 0 0 0 0 0 0 0 0 0 0 0 0 0 0 0 0 0 0 0 0 0 0 0 0 0 0 0 0 0 0 0 0 0 0 0 0 0 0 0 0 0 0 0 0 0 0 0 0 0 0 0 0 0 0 0 0 0 0 0 0 0 0 0 0 0 0 0 0 0 0 0 0 0 0 0 0 0 0 0 0 0 0 0 0 0 0 0 0 0 0 0 0 0 0 0 0 0 0 0 0 0 0 0 0 0 0 0 0 0 0 0 0 0 0 0 0 0 0 0 0 0 0 0 0 0 0 0 0 0 0 0 0 0 0 0 0 0 0 0 0 0 0 0 0 0 0 0 0 0 0 0 0 0 0 0 0 0 0 0 0 0 0 0 0 0 0 0 0 0 0 0 0 0 0 0 0 0 0 0 0 0 0 0 0 0 0 0 0 0 0 0 0 0 0 0 0 0 0 0 0 0 0 0 0 0 0 0 0 0 0 0 0 0 0 0 0 0 0 0 0 0 0 0 0 0 0 0 0 0 0 0 0 0 0 0 0 0 0 0 0 0 0 0 0 0 0 0 0 0 0 0 0 0 0 0 0 0 0 0 0 0 0 0 0 0 0 0 0 0 0 0 0 0 0 0 0 0 0 0 0 0 0 0 0 0 0 0 0 0 0 0 0 0 0 0 0 0 0 0 0 0 0 0 0 0 0 0 0 0 0 0 0 0 0 0 0 0 0 0 0 0 0 0 0 0 0 0 0 0 0 0 0 0 0 0 0 0 0 0 0 0 0 0 0 0 0 0 0 0 0 0 0 0 0 0 0 0 0 0 0 0 0 0 0 0 0 0 0 255
255 0 0 0 0 0 0 0 0 0 0 0 0 0 0 0 0 0 0 0 0 0 0 0 0 0 0 0 0 0 0 0 0 0 0 0 0 0 0 0 0 0 0 0 0 0 0 0 0 0 0 0 0 0 0 0 0 0 0 0 0 0 0 0 0 0 0 0 0 0 0 0 0 0 0 0 0 0 0 0 0 0 0 0 0 0 0 2 0 0 4 6 6 7 3 6 66 134 0 0 0 26 0 0 0 0 0 187 89 0 30 0 87 0 0 39 44 101 0 0 116 112 176 0 0 0 201 34 0 60 0 55 111 0 0 0 0 74 15 0 0 0 79 27 0 0 0 43 92 8 15 0 111 0 0 17 10 52 118 0 0 138 45 0 13 122 0 25 0 119 150 0 85 0 66 18 104 0 2 86 26 15 169 0 0 0 0 0 38 0 217 145 45 146 200 146 6 0 0 0 0 0 7 0 0 9 0 0 0 0 0 2 0 0 0 0 0 0 0 0 0 0 0 0 0 0 0 0 0 0 0 0 0 0 0 0 0 0 0 0 0 0 0 0 0 0 0 0 0 0 0 0 0 0 0 0 0 0 0 0 0 0 0 0 0 0 0 0 0 0 0 0 0 0 0 0 0 0 0 0 0 0 0 0 0 0 0 0 0 0 0 0 0 0 0 0 0 0 0 0 0 0 0 0 0 0 0 0 0 0 0 0 0 0 0 0 0 0 0 0 0 0 0 0 0 0 0 0 0 0 0 0 0 0 0 0 0 0 0 0 0 0 0 0 0 0 0 0 0 0 0 0 0 0 0 0 0 0 0 0 0 0 0 0 0 0 0 0 0 0 0 0 0 0 0 0 0 0 0 0 0 0 0 0 0 0 0 0 0 0 0 0 0 0 0 0 0 0 0 0 0 0 0 0 0 0 0 0 0 0 0 0 0 0 0 0 0 0 0 0 0 2 0 0 3 3 0 0 7 8 1 8 4 0 0 0 0 0 0 2 0 0 0 2 0 0 0 0 0 0 0 0 0 0 0 0 0 0 0 0 0 0 0 0 0 0 0 0 0 0 0 0 0 0 0 0 0 0 0 0 0 0 0 0 0 0 0 0 0 0 0 0 0 0 0 0 0 0 0 0 0 0 0 0 0 0 0 0 0 0 0 0 0 0 0 0 0 0 0 0 0 0 0 0 0 0 0 0 0 0 0 0 0 0 0 0 0 0 0 0 0 0 0 0 0 0 0 0 0 0 0 0 0 0 0 0 0 0 0 0 0 0 0 0 0 0 0 0 0 0 0 0 0 0 0 0 0 0 0 0 0 0 0 0 0 0 0 0 0 0 0 0 0 0 0 0 0 0 0 0 0 0 0 0 0 0 0 0 0 0 0 0 0 0 0 0 0 0 0 0 0 0 0 0 0 0 0 0 0 0 0 0 0 0 0 0 0 0 0 0 0 0 0 0 0 0 0 0 0 0 0 0 0 0 0 0 0 0 0 0 0 0 0 0 0 0 0 0 0 0 0 0 0 0 0 0 0 0 0 0 0 0 0 0 0 0 0 0 0 0 0 0 0 0 0 0 0 0 0 0 0 0 0 0 0 0 0 0 0 0 0 0 0 0 0 0 0 0 0 0 0 0 0 0 0 0 0 0 0 0 0 0 0 0 0 0 0 0 0 0 0 0 0 0 0 0 0 0 0 0 0 0 0 0 0 0 0 0 0 0 0 0 0 0 0 0 0 0 0 0 0 0 0 0 0 0 0 0 0 0 0 0 0 0 0 0 0 0 0 0 0 0 0 0 0 0 0 0 0 0 0 0 0 0 0 0 0 0 0 0 0 0 0 0 0 0 0 0 0 0 0 0 0 0 0 0 0 0 0 0 0 0 0 0 0 0 0 0 0 0 0 0 0 0 0 0 0 0 0 0 0 0 0 0 0 0 0 0 0 0 0 0 0 0 0 0 0 0 0 0 0 0 0 0 0 0 0 0 0 0 0 0 0 0 0 0 0 0 0 0 0 0 0 0 0 0 0 0 0 255
255 0 0 0 0 0 0 0 0 0 0 0 0 0 0 0 0 0 0 0 0 0 0 0 0 0 0 0 0 0 0 0 0 0 0 0 0 0 0 0 0 0 0 0 0 0 0 0 0 0 0 0 0 0 0 0 0 0 0 0 0 0 0 0 0 0 0 0 0 0 0 0 0 0 0 0 0 0 0 0 0 0 0 0 0 0 0 3 0 0 3 0 0 3 0 1 22 124 44 0 0 3 18 0 0 104 0 0 255 111 0 19 39 47 0 0 0 43 0 0 0 0 92 194 0 0 0 181 72 57 0 0 17 19 46 28 0 57 0 0 36 0 25 27 0 0 0 7 69 19 22 0 117 0 0 0 0 55 120 0 0 64 10 0 23 76 0 19 0 206 73 0 46 0 90 6 179 0 0 200 75 236 0 0 13 0 24 0 0 34 55 0 146 0 0 0 0 0 0 0 21 20 21 9 0 12 3 0 6 0 0 3 0 0 0 0 0 0 0 0 0 0 0 0 0 0 0 0 0 0 0 0 0 0 0 0 0 0 0 0 0 0 0 0 0 0 0 0 0 0 0 0 0 0 0 0 0 0 0 0 0 0 0 0 0 0 0 0 0 0 0 0 0 0 0 0 0 0 0 0 0 0 0 0 0 0 0 0 0 0 0 0 0 0 0 0 0 0 0 0 0 0 0 0 0 0 0 0 0 0 0 0 0 0 0 0 0 0 0 0 0 0 0 0 0 0 0 0 0 0 0 0 0 0 0 0 0 0 0 0 0 0 0 0 0 0 0 0 0 0 0 0 0 0 0 0 0 0 0 0 0 0 0 0 0 0 0 0 0 0 0 0 0 0 0 0 0 0 0 0 0 0 0 0 0 0 0 0 0 0 0 0 0 0 0 0 0 0 0 0 0 0 0 0 0 0 0 0 0 0 0 0 0 0 0 0 0 0 0 0 0 2 0 0 5 6 0 0 0 0 0 0 7 0 0 0 0 0 0 3 0 0 0 3 0 0 0 0 0 0 0 0 0 0 0 0 0 0 0 0 0 0 0 0 0 0 0 0 0 0 0 0 0 0 0 0 0 0 0 0 0 0 0 0 0 0 0 0 0 0 0 0 0 0 0 0 0 0 0 0 0 0 0 0 0 0 0 0 0 0 0 0 0 0 0 0 0 0 0 0 0 0 0 0 0 0 0 0 0 0 0 0 0 0 0 0 0 0 0 0 0 0 0 0 0 0 0 0 0 0 0 0 0 0 0 0 0 0 0 0 0 0 0 0 0 0 0 0 0 0 0 0 0 0 0 0 0 0 0 0 0 0 0 0 0 0 0 0 0 0 0 0 0 0 0 0 0 0 0 0 0 0 0 0 0 0 0 0 0 0 0 0 0 0 0 0 0 0 0 0 0 0 0 0 0 0 0 0 0 0 0 0 0 0 0 0 0 0 0 0 0 0 0 0 0 0 0 0 0 0 0 0 0 0 0 0 0 0 0 0 0 0 0 0 0 0 0 0 0 0 0 0 0 0 0 0 0 0 0 0 0 0 0 0 0 0 0 0 0 0 0 0 0 0 0 0 0 0 0 0 0 0 0 0 0 0 0 0 0 0 0 0 0 0 0 0 0 0 0 0 0 0 0 0 0 0 0 0 0 0 0 0 0 0 0 0 0 0 0 0 0 0 0 0 0 0 0 0 0 0 0 0 0 0 0 0 0 0 0 0 0 0 0 0 0 0 0 0 0 0 0 0 0 0 0 0 0 0 0 0 0 0 0 0 0 0 0 0 0 0 0 0 0 0 0 0 0 0 0 0 0 0 0 0 0 0 0 0 0 0 0 0 0 0 0 0 0 0 0 0 0 0 0 0 0 0 0 0 0 0 0 0 0 0 0 0 0 0 0 0 0 0 0 0 0 0 0 0 0 0 0 0 0 0 0 0 0 0 0 0 0 0 0 0 0 0 0 0 0 0 0 0 0 0 0 0 0 0 0 0 0 0 0 0 0 0 0 0 0 0 0 0 0 0 0 0 0 0 0 255
255 0 0 0 0 0 0 0 0 0 0 0 0 0 0 0 0 0 0 0 0 0 0 0 0 0 0 0 0 0 0 0 0 0 0 0 0 0 0 0 0 0 0 0 0 0 0 0 0 0 0 0 0 0 0 0 0 0 0 0 0 0 0 0 0 0 0 0 0 0 0 0 0 0 0 0 0 0 0 0 0 0 0 0 0 0 0 3 0 0 3 0 0 3 0 5 0 73 159 0 0 0 33 0 0 0 0 0 0 255 84 0 29 57 12 0 0 61 106 0 0 0 16 145 187 0 0 0 100 28 63 0 0 36 24 0 0 85 0 0 72 0 0 61 0 19 0 0 75 63 51 0 30 0 0 0 0 40 67 40 0 67 25 44 55 16 20 0 0 255 0 0 0 0 81 62 183 0 0 226 183 34 0 0 73 0 50 0 0 184 0 0 0 0 0 196 203 241 255 182 34 24 9 0 0 10 4 0 7 0 0 3 0 0 0 0 0 0 0 0 0 0 0 0 0 0 0 0 0 0 0 0 0 0 0 0 0 0 0 0 0 0 0 0 0 0 0 0 0 0 0 0 0 0 0 0 0 0 0 0 0 0 0 0 0 0 0 0 0 0 0 0 0 0 0 0 0 0 0 0 0 0 0 0 0 0 0 0 0 0 0 0 0 0 0 0 0 0 0 0 0 0 0 0 0 0 0 0 0 0 0 0 0 0 0 0 0 0 0 0 0 0 0 0 0 0 0 0 0 0 0 0 0 0 0 0 0 0 0 0 0 0 0 0 0 0 0 0 0 0 0 0 0 0 0 0 0 0 0 0 0 0 0 0 0 0 0 0 0 0 0 0 0 0 0 0 0 0 0 0 0 0 0 0 0 0 0 0 0 0 0 0 0 0 0 0 0 0 0 0 0 0 0 0 0 0 0 0 0 0 0 0 0 0 0 1 2 3 2 1 0 1 2 5 0 1 0 8 6 8 4 0 7 0 0 0 0 0 0 3 0 0 0 3 0 0 0 0 0 0 0 0 0 0 0 0 0 0 0 0 0 0 0 0 0 0 0 0 0 0 0 0 0 0 0 0 0 0 0 0 0 0 0 0 0 0 0 0 0 0 0 0 0 0 0 0 0 0 0 0 0 0 0 0 0 0 0 0 0 0 0 0 0 0 0 0 0 0 0 0 0 0 0 0 0 0 0 0 0 0 0 0 0 0 0 0 0 0 0 0 0 0 0 0 0 0 0 0 0 0 0 0 0 0 0 0 0 0 0 0 0 0 0 0 0 0 0 0 0 0 0 0 0 0 0 0 0 0 0 0 0 0 0 0 0 0 0 0 0 0 0 0 0 0 0 0 0 0 0 0 0 0 0 0 0 0 0 0 0 0 0 0 0 0 0 0 0 0 0 0 0 0 0 0 0 0 0 0 0 0 0 0 0 0 0 0 0 0 0 0 0 0 0 0 0 0 0 0 0 0 0 0 0 0 0 0 0 0 0 0 0 0 0 0 0 0 0 0 0 0 0 0 0 0 0 0 0 0 0 0 0 0 0 0 0 0 0 0 0 0 0 0 0 0 0 0 0 0 0 0 0 0 0 0 0 0 0 0 0 0 0 0 0 0 0 0 0 0 0 0 0 0 0 0 0 0 0 0 0 0 0 0 0 0 0 0 0 0 0 0 0 0 0 0 0 0 0 0 0 0 0 0 0 0 0 0 0 0 0 0 0 0 0 0 0 0 0 0 0 0 0 0 0 0 0 0 0 0 0 0 0 0 0 0 0 0 0 0 0 0 0 0 0 0 0 0 0 0 0 0 0 0 0 0 0 0 0 0 0 0 0 0 0 0 0 0 0 0 0 0 0 0 0 0 0 0 0 0 0 0 0 0 0 0 0 0 0 0 0 0 0 0 0 0 0 0 0 0 0 0 0 0 0 0 0 0 0 0 0 0 0 0 0 0 0 0 0 0 0 0 0 0 0 0 0 0 0 0 0 0 0 0 0 0 0 0 0 0 0 0 0 0 0 0 0 0 0 0 0 255
255 0 0 0 0 0 0 0 0 0 0 0 0 0 0 0 0 0 0 0 0 0 0 0 0 0 0 0 0 0 0 0 0 0 0 0 0 0 0 0 0 0 0 0 0 0 0 0 0 0 0 0 0 0 0 0 0 0 0 0 0 0 0 0 0 0 0 0 0 0 0 0 0 0 0 0 0 0 0 0 0 0 0 0 0 0 0 3 0 0 3 0 0 3 0 5 0 23 163 77 0 0 2 0 46 0 60 0 0 58 255 51 2 16 79 0 0 0 75 17 0 94 0 0 106 219 49 0 0 0 167 74 0 0 0 0 0 138 0 0 57 0 0 66 6 36 0 0 49 69 84 0 0 0 0 0 0 45 16 68 0 7 0 93 29 0 31 0 0 255 0 38 0 0 39 131 94 0 0 255 157 0 0 0 76 0 40 0 52 63 31 82 0 0 127 100 42 0 10 0 12 8 17 0 0 8 1 0 5 0 0 3 0 0 0 0 0 0 0 0 0 0 0 0 0 0 0 0 0 0 0 0 0 0 0 0 0 0 0 0 0 0 0 0 0 0 0 0 0 0 0 0 0 0 0 0 0 0 0 0 0 0 0 0 0 0 0 0 0 0 0 0 0 0 0 0 0 0 0 0 0 0 0 0 0 0 0 0 0 0 0 0 0 0 0 0 0 0 0 0 0 0 0 0 0 0 0 0 0 0 0 0 0 0 0 0 0 0 0 0 0 0 0 0 0 0 0 0 0 0 0 0 0 0 0 0 0 0 0 0 0 0 0 0 0 0 0 0 0 0 0 0 0 0 0 0 0 0 0 0 0 0 0 0 0 0 0 0 0 0 0 0 0 0 0 0 0 0 0 0 0 0 0 0 0 0 0 0 0 0 0 0 0 0 0 0 0 0 0 0 0 0 0 0 0 0 0 0 0 0 0 0 0 0 0 3 0 0 0 3 1 0 0 6 0 0 2 5 1 2 8 8 6 0 0 0 0 0 0 3 0 0 0 3 0 0 0 0 0 0 0 0 0 0 0 0 0 0 0 0 0 0 0 0 0 0 0 0 0 0 0 0 0 0 0 0 0 0 0 0 0 0 0 0 0 0 0 0 0 0 0 0 0 0 0 0 0 0 0 0 0 0 0 0 0 0 0 0 0 0 0 0 0 0 0 0 0 0 0 0 0 0 0 0 0 0 0 0 0 0 0 0 0 0 0 0 0 0 0 0 0 0 0 0 0 0 0 0 0 0 0 0 0 0 0 0 0 0 0 0 0 0 0 0 0 0 0 0 0 0 0 0 0 0 0 0 0 0 0 0 0 0 0 0 0 0 0 0 0 0 0 0 0 0 0 0 0 0 0 0 0 0 0 0 0 0 0 0 0 0 0 0 0 0 0 0 0 0 0 0 0 0 0 0 0 0 0 0 0 0 0 0 0 0 0 0 0 0 0 0 0 0 0 0 0 0 0 0 0 0 0 0 0 0 0 0 0 0 0 0 0 0 0 0 0 0 0 0 0 0 0 0 0 0 0 0 0 0 0 0 0 0 0 0 0 0 0 0 0 0 0 0 0 0 0 0 0 0 0 0 0 0 0 0 0 0 0 0 0 0 0 0 0 0 0 0 0 0 0 0 0 0 0 0 0 0 0 0 0 0 0 0 0 0 0 0 0 0 0 0 0 0 0 0 0 0 0 0 0 0 0 0 0 0 0 0 0 0 0 0 0 0 0 0 0 0 0 0 0 0 0 0 0 0 0 0 0 0 0 0 0 0 0 0 0 0 0 0 0 0 0 0 0 0 0 0 0 0 0 0 0 0 0 0 0 0 0 0 0 0 0 0 0 0 0 0 0 0 0 0 0 0 0 0 0 0 0 0 0 0 0 0 0 0 0 0 0 0 0 0 0 0 0 0 0 0 0 0 0 0 0 0 0 0 0 0 0 0 0 0 0 0 0 0 0 0 0 0 0 0 0 0 0 0 0 0 0 0 0 0 0 0 0 0 0 0 0 0 0 0 0 0 0 0 0 0 0 0 0 255
255 0 0 0 0 0 0 0 0 0 0 0 0 0 0 0 0 0 0 0 0 0 0 0 0 0 0 0 0 0 0 0 0 0 0 0 0 0 0 0 0 0 0 0 0 0 0 0 0 0 0 0 0 0 0 0 0 0 0 0 0 0 0 0 0 0 0 0 0 0 0 0 0 0 0 0 0 0 0 0 0 0 0 0 0 0 0 3 0 0 3 0 0 3 0 4 9 0 70 132 0 0 0 0 0 140 0 71 0 0 152 228 8 0 67 21 0 0 0 73 0 0 32 75 0 0 201 143 0 0 27 40 0 41 0 14 0 144 21 0 40 0 0 3 0 32 0 0 0 29 70 49 0 0 50 0 0 98 0 47 0 0 0 52 0 0 24 0 92 251 0 74 0 0 22 220 5 0 0 255 0 0 0 44 0 0 0 0 112 0 93 0 0 13 108 12 5 14 35 31 20 11 0 0 0 7 5 0 1 0 0 3 0 0 0 0 0 0 0 0 0 0 0 0 0 0 0 0 0 0 0 0 0 0 0 0 0 0 0 0 0 0 0 0 0 0 0 0 0 0 0 0 0 0 0 0 0 0 0 0 0 0 0 0 0 0 0 0 0 0 0 0 0 0 0 0 0 0 0 0 0 0 0 0 0 0 0 0 0 0 0 0 0 0 0 0 0 0 0 0 0 0 0 0 0 0 0 0 0 0 0 0 0 0 0 0 0 0 0 0 0 0 0 0 0 0 0 0 0 0 0 0 0 0 0 0 0 0 0 0 0 0 0 0 0 0 0 0 0 0 0 0 0 0 0 0 0 0 0 0 0 0 0 0 0 0 0 0 0 0 0 0 0 0 0 0 0 0 0 0 0 0 0 0 0 0 0 0 0 0 0 0 0 0 0 0 0 0 0 0 0 0 0 0 0 0 0 0 0 0 0 0 0 0 0 4 0 1 0 0 3 1 0 5 0 0 0 0 1 2 0 0 6 0 0 0 0 0 0 3 0 0 0 3 0 0 0 0 0 0 0 0 0 0 0 0 0 0 0 0 0 0 0 0 0 0 0 0 0 0 0 0 0 0 0 0 0 0 0 0 0 0 0 0 0 0 0 0 0 0 0 0 0 0 0 0 0 0 0 0 0 0 0 0 0 0 0 0 0 0 0 0 0 0 0 0 0 0 0 0 0 0 0 0 0 0 0 0 0 0 0 0 0 0 0 0 0 0 0 0 0 0 0 0 0 0 0 0 0 0 0 0 0 0 0 0 0 0 0 0 0 0 0 0 0 0 0 0 0 0 0 0 0 0 0 0 0 0 0 0 0 0 0 0 0 0 0 0 0 0 0 0 0 0 0 0 0 0 0 0 0 0 0 0 0 0 0 0 0 0 0 0 0 0 0 0 0 0 0 0 0 0 0 0 0 0 0 0 0 0 0 0 0 0 0 0 0 0 0 0 0 0 0 0 0 0 0 0 0 0 0 0 0 0 0 0 0 0 0 0 0 0 0 0 0 0 0 0 0 0 0 0 0 0 0 0 0 0 0 0 0 0 0 0 0 0 0 0 0 0 0 0 0 0 0 0 0 0 0 0 0 0 0 0 0 0 0 0 0 0 0 0 0 0 0 0 0 0 0 0 0 0 0 0 0 0 0 0 0 0 0 0 0 0 0 0 0 0 0 0 0 0 0 0 0 0 0 0 0 0 0 0 0 0 0 0 0 0 0 0 0 0 0 0 0 0 0 0 0 0 0 0 0 0 0 0 0 0 0 0 0 0 0 0 0 0 0 0 0 0 0 0 0 0 0 0 0 0 0 0 0 0 0 0 0 0 0 0 0 0 0 0 0 0 0 0 0 0 0 0 0 0 0 0 0 0 0 0 0 0 0 0 0 0 0 0 0 0 0 0 0 0 0 0 0 0 0 0 0 0 0 0 0 0 0 0 0 0 0 0 0 0 0 0 0 0 0 0 0 0 0 0 0 0 0 0 0 0 0 0 0 0 0 0 0 0 0 0 0 0 0 0 0 0 0 0 0 0 0 255
255 0 0 0 0 0 0 0 0 0 0 0 0 0 0 0 0 0 0 0 0 0 0 0 0 0 0 0 0 0 0 0 0 0 0 0 0 0 0 0 0 0 0 0 0 0 0 0 0 0 0 0 0 0 0 0 0 0 0 0 0 0 0 0 0 0 0 0 0 0 0 0 0 0 0 0 0 0 0 0 0 0 0 0 0 0 0 3 0 0 3 0 0 3 0 0 5 0 34 146 69 0 0 0 0 0 54 0 0 0 0 213 192 0 37 65 92 0 0 0 99 0 0 167 0 0 132 151 80 0 0 0 0 87 0 0 0 101 17 0 35 28 5 0 17 51 0 0 0 0 70 123 0 0 19 0 0 103 0 0 100 0 36 40 0 0 0 0 255 79 0 59 0 0 57 251 0 0 35 252 0 4 19 7 0 14 0 0 89 0 101 0 0 131 63 2 6 18 0 0 6 0 0 0 0 4 1 4 0 0 0 3 0 0 0 0 0 0 0 0 0 0 0 0 0 0 0 0 0 0 0 0 0 0 0 0 0 0 0 0 0 0 0 0 0 0 0 0 0 0 0 0 0 0 0 0 0 0 0 0 0 0 0 0 0 0 0 0 0 0 0 0 0 0 0 0 0 0 0 0 0 0 0 0 0 0 0 0 0 0 0 0 0 0 0 0 0 0 0 0 0 0 0 0 0 0 0 0 0 0 0 0 0 0 0 0 0 0 0 0 0 0 0 0 0 0 0 0 0 0 0 0 0 0 0 0 0 0 0 0 0 0 0 0 0 0 0 0 0 0 0 0 0 0 0 0 0 0 0 0 0 0 0 0 0 0 0 0 0 0 0 0 0 0 0 0 0 0 0 0 0 0 0 0 0 0 0 0 0 0 0 0 0 0 0 0 0 0 0 0 0 0 0 0 0 0 0 0 0 0 0 0 0 0 0 4 0 1 0 0 0 4 3 6 10 14 13 9 5 5 2 0 7 0 0 0 0 0 0 3 0 0 0 3 0 0 0 0 0 0 0 0 0 0 0 0 0 0 0 0 0 0 0 0 0 0 0 0 0 0 0 0 0 0 0 0 0 0 0 0 0 0 0 0 0 0 0 0 0 0 0 0 0 0 0 0 0 0 0 0 0 0 0 0 0 0 0 0 0 0 0 0 0 0 0 0 0 0 0 0 0 0 0 0 0 0 0 0 0 0 0 0 0 0 0 0 0 0 0 0 0 0 0 0 0 0 0 0 0 0 0 0 0 0 0 0 0 0 0 0 0 0 0 0 0 0 0 0 0 0 0 0 0 0 0 0 0 0 0 0 0 0 0 0 0 0 0 0 0 0 0 0 0 0 0 0 0 0 0 0 0 0 0 0 0 0 0 0 0 0 0 0 0 0 0 0 0 0 0 0 0 0 0 0 0 0 0 0 0 0 0 0 0 0 0 0 0 0 0 0 0 0 0 0 0 0 0 0 0 0 0 0 0 0 0 0 0 0 0 0 0 0 0 0 0 0 0 0 0 0 0 0 0 0 0 0 0 0 0 0 0 0 0 0 0 0 0 0 0 0 0 0 0 0 0 0 0 0 0 0 0 0 0 0 0 0 0 0 0 0 0 0 0 0 0 0 0 0 0 0 0 0 0 0 0 0 0 0 0 0 0 0 0 0 0 0 0 0 0 0 0 0 0 0 0 0 0 0 0 0 0 0 0 0 0 0 0 0 0 0 0 0 0 0 0 0 0 0 0 0 0 0 0 0 0 0 0 0 0 0 0 0 0 0 0 0 0 0 0 0 0 0 0 0 0 0 0 0 0 0 0 0 0 0 0 0 0 0 0 0 0 0 0 0 0 0 0 0 0 0 0 0 0 0 0 0 0 0 0 0 0 0 0 0 0 0 0 0 0 0 0 0 0 0 0 0 0 0 0 0 0 0 0 0 0 0 0 0 0 0 0 0 0 0 0 0 0 0 0 0 0 0 0 0 0 0 0 0 0 0 0 0 0 0 0 0 0 0 0 0 0 0 0 0 0 0 0 0 0 255
255 0 0 0 0 0 0 0 0 0 0 0 0 0 0 0 0 0 0 0 0 0 0 0 0 0 0 0 0 0 0 0 0 0 0 0 0 0 0 0 0 0 0 0 0 0 0 0 0 0 0 0 0 0 0 0 0 0 0 0 0 0 0 0 0 0 0 0 0 0 0 0 0 0 0 0 0 0 0 0 0 0 0 0 0 0 0 3 0 0 3 0 0 3 0 0 3 5 0 58 157 22 0 0 0 0 204 0 0 110 0 0 255 13 0 12 46 120 6 0 97 60 0 63 29 0 82 0 166 132 0 0 0 0 0 0 72 89 0 0 0 16 44 0 32 54 0 26 9 0 48 112 27 0 0 0 0 128 0 0 163 0 126 14 0 84 0 0 255 0 0 0 0 0 123 228 0 0 193 0 0 0 64 0 13 30 0 124 0 36 0 0 205 97 26 0 0 25 35 26 17 3 5 3 8 4 2 4 0 0 0 3 0 0 0 0 0 0 0 0 0 0 0 0 0 0 0 0 0 0 0 0 0 0 0 0 0 0 0 0 0 0 0 0 0 0 0 0 0 0 0 0 0 0 0 0 0 0 0 0 0 0 0 0 0 0 0 0 0 0 0 0 0 0 0 0 0 0 0 0 0 0 0 0 0 0 0 0 0 0 0 0 0 0 0 0 0 0 0 0 0 0 0 0 0 0 0 0 0 0 0 0 0 0 0 0 0 0 0 0 0 0 0 0 0 0 0 0 0 0 0 0 0 0 0 0 0 0 0 0 0 0 0 0 0 0 0 0 0 0 0 0 0 0 0 0 0 0 0 0 0 0 0 0 0 0 0 0 0 0 0 0 0 0 0 0 0 0 0 0 0 0 0 0 0 0 0 0 0 0 0 0 0 0 0 0 0 0 0 0 0 0 0 0 0 0 0 0 0 0 0 0 0 0 0 2 0 0 0 0 0 0 0 10 25 32 22 23 19 9 5 0 5 0 0 0 0 0 0 3 0 0 0 3 0 0 0 0 0 0 0 0 0 0 0 0 0 0 0 0 0 0 0 0 0 0 0 0 0 0 0 0 0 0 0 0 0 0 0 0 0 0 0 0 0 0 0 0 0 0 0 0 0 0 0 0 0 0 0 0 0 0 0 0 0 0 0 0 0 0 0 0 0 0 0 0 0 0 0 0 0 0 0 0 0 0 0 0 0 0 0 0 0 0 0 0 0 0 0 0 0 0 0 0 0 0 0 0 0 0 0 0 0 0 0 0 0 0 0 0 0 0 0 0 0 0 0 0 0 0 0 0 0 0 0 0 0 0 0 0 0 0 0 0 0 0 0 0 0 0 0 0 0 0 0 0 0 0 0 0 0 0 0 0 0 0 0 0 0 0 0 0 0 0 0 0 0 0 0 0 0 0 0 0 0 0 0 0 0 0 0 0 0 0 0 0 0 0 0 0 0 0 0 0 0 0 0 0 0 0 0 0 0 0 0 0 0 0 0 0 0 0 0 0 0 0 0 0 0 0 0 0 0 0 0 0 0 0 0 0 0 0 0 0 0 0 0 0 0 0 0 0 0 0 0 0 0 0 0 0 0 0 0 0 0 0 0 0 0 0 0 0 0 0 0 0 0 0 0 0 0 0 0 0 0 0 0 0 0 0 0 0 0 0 0 0 0 0 0 0 0 0 0 0 0 0 0 0 0 0 0 0 0 0 0 0 0 0 0 0 0 0 0 0 0 0 0 0 0 0 0 0 0 0 0 0 0 0 0 0 0 0 0 0 0 0 0 0 0 0 0 0 0 0 0 0 0 0 0 0 0 0 0 0 0 0 0 0 0 0 0 0 0 0 0 0 0 0 0 0 0 0 0 0 0 0 0 0 0 0 0 0 0 0 0 0 0 0 0 0 0 0 0 0 0 0 0 0 0 0 0 0 0 0 0 0 0 0 0 0 0 0 0 0 0 0 0 0 0 0 0 0 0 0 0 0 0 0 0 0 0 0 0 0 0 0 0 0 0 0 0 0 0 0 0 0 0 0 0 255
255 0 0 0 0 0 0 0 0 0 0 0 0 0 0 0 0 0 0 0 0 0 0 0 0 0 0 0 0 0 0 0 0 0 0 0 0 0 0 0 0 0 0 0 0 0 0 0 0 0 0 0 0 0 0 0 0 0 0 0 0 0 0 0 0 0 0 0 0 0 0 0 0 0 0 0 0 0 0 0 0 0 0 0 0 0 0 2 0 0 4 5 7 7 0 0 0 2 0 18 123 33 0 0 14 50 0 71 57 0 0 0 255 147 50 32 0 45 49 21 0 149 10 67 76 0 28 22 0 227 92 0 0 0 0 0 255 121 0 0 0 18 139 51 50 52 0 18 0 0 16 57 154 0 0 0 0 177 29 0 0 0 74 0 0 144 0 0 255 0 91 0 0 0 169 220 0 13 84 56 0 0 57 0 50 0 0 244 0 76 0 0 198 0 14 17 0 0 7 0 8 0 0 0 6 0 0 5 0 0 0 2 0 0 0 0 0 0 0 0 0 0 0 0 0 0 0 0 0 0 0 0 0 0 0 0 0 0 0 0 0 0 0 0 0 0 0 0 0 0 0 0 0 0 0 0 0 0 0 0 0 0 0 0 0 0 0 0 0 0 0 0 0 0 0 0 0 0 0 0 0 0 0 0 0 0 0 0 0 0 0 0 0 0 0 0 0 0 0 0 0 0 0 0 0 0 0 0 0 0 0 0 0 0 0 0 0 0 0 0 0 0 0 0 0 0 0 0 0 0 0 0 0 0 0 0 0 0 0 0 0 0 0 0 0 0 0 0 0 0 0 0 0 0 0 0 0 0 0 0 0 0 0 0 0 0 0 0 0 0 0 0 0 0 0 0 0 0 0 0 0 0 0 0 0 0 0 0 0 0 0 0 0 0 0 0 0 0 0 0 0 0 0 0 0 0 0 0 0 0 0 1 3 4 4 4 8 3 16 8 12 21 35 61 0 0 0 0 18 31 25 14 13 7 6 4 4 5 4 4 0 0 0 5 3 2 1 1 2 2 2 2 3 3 2 1 3 9 11 10 8 10 10 8 7 8 6 4 2 4 5 5 4 3 2 3 4 5 4 3 4 5 6 5 4 3 2 3 6 10 10 7 4 2 1 1 2 2 1 1 2 3 4 3 2 0 0 0 1 2 4 4 4 3 3 3 3 2 1 0 0 0 1 2 3 4 5 5 4 3 2 1 0 0 0 0 0 0 0 0 0 0 0 0 0 0 0 0 0 0 0 0 0 0 0 0 0 0 0 0 0 0 0 0 0 0 0 0 0 0 0 0 0 0 0 0 0 0 0 0 0 0 0 0 0 0 0 0 0 0 0 0 0 0 0 0 0 0 0 0 0 0 0 0 0 0 0 0 0 0 0 0 0 0 0 0 0 0 0 0 0 0 0 0 0 0 0 0 0 0 0 0 0 0 0 0 0 0 0 0 0 0 0 0 0 0 0 0 0 0 0 0 0 0 0 0 0 0 0 0 0 0 0 0 0 0 0 0 0 0 0 0 0 0 0 0 0 0 0 0 0 0 0 0 0 0 0 0 0 0 0 0 0 0 0 0 0 0 0 0 0 0 0 0 0 0 0 0 0 0 0 0 0 0 0 0 0 0 0 0 0 0 0 0 0 0 0 0 0 0 0 0 0 0 0 0 0 0 0 0 0 0 0 0 0 0 0 0 0 0 0 0 0 0 0 0 0 0 0 0 0 0 0 0 0 0 0 0 0 0 0 0 0 0 0 0 0 0 0 0 0 0 0 0 0 0 0 0 0 0 0 0 0 0 0 0 0 0 0 0 0 0 0 0 0 0 0 0 0 0 0 0 0 0 0 0 0 0 0 0 0 0 0 0 0 0 0 0 0 0 0 0 0 0 0 0 0 0 0 0 0 0 0 0 0 0 0 0 0 0 0 0 0 0 0 0 0 0 0 0 0 0 0 0 0 0 0 0 0 0 0 0 0 0 0 0 0 0 0 0 0 0 0 0 0 0 0 0 0 0 0 0 0 0 0 0 0 0 0 255
255 0 0 0 0 0 0 0 0 0 0 0 0 0 0 0 0 0 0 0 0 0 0 0 0 0 0 0 0 0 0 0 0 0 0 0 0 0 0 0 0 0 0 0 0 0 0 0 0 0 0 0 0 0 0 0 0 0 0 0 0 0 0 0 0 0 0 0 0 0 0 0 0 0 0 0 0 0 0 0 0 0 0 0 0 0 0 1 2 2 3 0 0 0 9 8 12 0 11 7 11 206 146 0 0 42 0 36 30 0 0 0 0 255 112 23 0 23 44 129 0 0 241 5 47 0 2 84 69 0 4 33 0 0 43 170 127 0 50 133 0 0 0 0 0 0 34 35 0 0 0 20 173 0 0 14 0 0 109 81 0 0 8 85 1 228 0 168 255 0 24 0 0 0 238 104 0 15 55 0 16 0 103 0 42 0 90 89 0 0 0 128 97 5 9 0 9 11 8 8 8 0 0 0 0 0 0 0 4 3 2 1 0 0 0 0 0 0 0 0 0 0 0 0 0 0 0 0 0 0 0 0 0 0 0 0 0 0 0 0 0 0 0 0 0 0 0 0 0 0 0 0 0 0 0 0 0 0 0 0 0 0 0 0 0 0 0 0 0 0 0 0 0 0 0 0 0 0 0 0 0 0 0 0 0 0 0 0 0 0 0 0 0 0 0 0 0 0 0 0 0 0 0 0 0 0 0 0 0 0 0 0 0 0 0 0 0 0 0 0 0 0 0 0 0 0 0 0 0 0 0 0 0 0 0 0 0 0 0 0 0 0 0 0 0 0 0 0 0 0 0 0 0 0 0 0 0 0 0 0 0 0 0 0 0 0 0 0 0 0 0 0 0 0 0 0 0 0 0 0 0 0 0 0 0 0 0 0 0 0 0 0 0 0 0 0 0 0 0 0 0 0 0 0 0 0 0 0 0 0 0 2 0 0 0 0 0 0 0 3 16 5 0 0 0 0 0 0 0 0 14 20 29 0 0 0 2 0 0 4 3 5 0 0 0 0 2 1 0 0 4 0 0 0 0 3 4 0 0 0 0 0 0 0 1 5 13 47 46 58 55 50 48 34 19 17 0 0 0 0 0 0 0 0 0 0 0 4 0 0 0 0 5 1 7 5 0 0 10 11 1 0 0 0 4 2 3 2 2 0 0 0 0 0 0 0 0 0 1 0 0 0 1 0 0 0 0 0 0 0 0 2 0 0 0 0 0 0 0 0 0 0 0 0 0 0 0 0 0 0 0 0 0 0 0 0 0 0 0 0 0 0 0 0 0 0 0 0 0 0 0 0 0 0 0 0 0 0 0 0 0 0 0 0 0 0 0 0 0 0 0 0 0 0 0 0 0 0 0 0 0 0 0 0 0 0 0 0 0 0 0 0 0 0 0 0 0 0 0 0 0 0 0 0 0 0 0 0 0 0 0 0 0 0 0 0 0 0 0 0 0 0 0 0 0 0 0 0 0 0 0 0 0 0 0 0 0 0 0 0 0 0 0 0 0 0 0 0 0 0 0 0 0 0 0 0 0 0 0 0 0 0 0 0 0 0 0 0 0 0 0 0 0 0 0 0 0 0 0 0 0 0 0 0 0 0 0 0 0 0 0 0 0 0 0 0 0 0 0 0 0 0 0 0 0 0 0 0 0 0 0 0 0 0 0 0 0 0 0 0 0 0 0 0 0 0 0 0 0 0 0 0 0 0 0 0 0 0 0 0 0 0 0 0 0 0 0 0 0 0 0 0 0 0 0 0 0 0 0 0 0 0 0 0 0 0 0 0 0 0 0 0 0 0 0 0 0 0 0 0 0 0 0 0 0 0 0 0 0 0 0 0 0 0 0 0 0 0 0 0 0 0 0 0 0 0 0 0 0 0 0 0 0 0 0 0 0 0 0 0 0 0 0 0 0 0 0 0 0 0 0 0 0 0 0 0 0 0 0 0 0 0 0 0 0 0 0 0 0 0 0 0 0 0 0 0 0 0 0 0 0 0 0 0 0 0 0 0 0 0 0 0 0 0 0 0 0 0 0 255
255 0 0 0 0 0 0 0 0 0 0 0 0 0 0 0 0 0 0 0 0 0 0 0 0 0 0 0 0 0 0 0 0 0 0 0 0 0 0 0 0 0 0 0 0 0 0 0 0 0 0 0 0 0 0 0 0 0 0 0 0 0 0 0 0 0 0 0 0 0 0 0 0 0 0 0 0 0 0 0 0 0 0 0 0 0 0 0 1 2 4 6 7 7 3 0 18 0 10 15 0 88 92 0 0 76 9 0 106 36 0 0 0 0 255 0 28 17 0 156 28 0 0 116 149 0 0 78 0 11 15 0 23 170 233 147 119 0 0 0 24 15 35 0 0 0 1 21 30 1 0 0 95 0 0 0 5 9 70 41 0 0 0 14 0 85 0 215 0 0 41 0 0 106 255 0 0 151 59 90 0 0 0 0 29 0 255 0 0 0 0 176 31 0 1 4 1 2 0 0 0 0 0 0 0 0 0 0 3 0 0 0 0 0 0 0 0 0 0 0 0 0 0 0 0 0 0 0 0 0 0 0 0 0 0 0 0 0 0 0 0 0 0 0 0 0 0 0 0 0 0 0 0 0 0 0 0 0 0 0 0 0 0 0 0 0 0 0 0 0 0 0 0 0 0 0 0 0 0 0 0 0 0 0 0 0 0 0 0 0 0 0 0 0 0 0 0 0 0 0 0 0 0 0 0 0 0 0 0 0 0 0 0 0 0 0 0 0 0 0 0 0 0 0 0 0 0 0 0 0 0 0 0 0 0 0 0 0 0 0 0 0 0 0 0 0 0 0 0 0 0 0 0 0 0 0 0 0 0 0 0 0 0 0 0 0 0 0 0 0 0 0 0 0 0 0 0 0 0 0 0 0 0 0 0 0 0 0 0 0 0 0 0 0 0 0 0 0 0 0 0 0 0 0 0 0 0 1 2 3 3 5 0 0 6 6 3 20 10 0 1 0 0 0 0 11 5 1 0 0 0 0 1 31 21 8 0 0 9 0 4 4 0 0 0 0 3 1 3 0 4 0 0 0 0 8 0 13 4 5 4 9 26 46 37 33 16 14 3 0 0 0 0 6 20 41 22 14 14 0 2 0 8 6 0 0 0 7 13 12 7 0 0 0 0 0 6 0 0 0 0 2 1 0 5 0 0 0 2 3 5 7 0 0 0 0 4 2 1 0 0 0 1 2 3 5 0 0 0 0 0 3 0 0 0 0 0 0 0 0 0 0 0 0 0 0 0 0 0 0 0 0 0 0 0 0 0 0 0 0 0 0 0 0 0 0 0 0 0 0 0 0 0 0 0 0 0 0 0 0 0 0 0 0 0 0 0 0 0 0 0 0 0 0 0 0 0 0 0 0 0 0 0 0 0 0 0 0 0 0 0 0 0 0 0 0 0 0 0 0 0 0 0 0 0 0 0 0 0 0 0 0 0 0 0 0 0 0 0 0 0 0 0 0 0 0 0 0 0 0 0 0 0 0 0 0 0 0 0 0 0 0 0 0 0 0 0 0 0 0 0 0 0 0 0 0 0 0 0 0 0 0 0 0 0 0 0 0 0 0 0 0 0 0 0 0 0 0 0 0 0 0 0 0 0 0 0 0 0 0 0 0 0 0 0 0 0 0 0 0 0 0 0 0 0 0 0 0 0 0 0 0 0 0 0 0 0 0 0 0 0 0 0 0 0 0 0 0 0 0 0 0 0 0 0 0 0 0 0 0 0 0 0 0 0 0 0 0 0 0 0 0 0 0 0 0 0 0 0 0 0 0 0 0 0 0 0 0 0 0 0 0 0 0 0 0 0 0 0 0 0 0 0 0 0 0 0 0 0 0 0 0 0 0 0 0 0 0 0 0 0 0 0 0 0 0 0 0 0 0 0 0 0 0 0 0 0 0 0 0 0 0 0 0 0 0 0 0 0 0 0 0 0 0 0 0 0 0 0 0 0 0 0 0 0 0 0 0 0 0 0 0 0 0 0 0 0 0 0 0 0 0 0 0 0 0 0 0 0 0 0 0 0 0 0 0 0 0 0 255
255 0 0 0 0 0 0 0 0 0 0 0 0 0 0 0 0 0 0 0 0 0 0 0 0 0 0 0 0 0 0 0 0 0 0 0 0 0 0 0 0 0 0 0 0 0 0 0 0 0 0 0 0 0 0 0 0 0 0 0 0 0 0 0 0 0 0 0 0 0 0 0 0 0 0 0 0 0 0 0 0 0 0 0 0 0 0 1 4 0 1 9 5 4 1 0 11 0 11 12 0 41 108 145 0 22 116 0 0 0 149 0 0 0 255 149 0 39 0 66 244 0 0 168 118 0 0 39 71 23 0 53 170 171 101 60 134 5 0 0 0 79 112 0 0 0 0 15 69 50 11 0 59 32 0 0 67 1 15 93 0 25 0 0 8 0 0 177 0 20 50 0 0 133 255 0 0 244 104 237 0 95 0 140 0 0 255 0 0 0 172 93 5 0 0 3 0 1 3 0 0 0 0 0 0 0 0 0 2 0 0 0 0 0 0 0 0 0 0 0 0 0 0 0 0 0 0 0 0 0 0 0 0 0 0 0 0 0 0 0 0 0 0 0 0 0 0 0 0 0 0 0 0 0 0 0 0 0 0 0 0 0 0 0 0 0 0 0 0 0 0 0 0 0 0 0 0 0 0 0 0 0 0 0 0 0 0 0 0 0 0 0 0 0 0 0 0 0 0 0 0 0 0 0 0 0 0 0 0 0 0 1 2 3 3 3 3 3 3 3 3 3 3 3 3 3 3 2 1 0 0 0 0 0 0 0 0 0 0 0 0 0 0 0 0 0 0 0 0 0 0 0 0 0 0 0 0 0 0 0 0 0 0 0 0 0 0 0 0 0 0 0 0 0 0 0 0 0 0 0 0 0 0 0 0 0 0 0 0 0 0 0 0 0 0 0 0 0 0 0 0 0 0 0 0 0 0 2 0 0 0 0 0 3 3 0 13 23 0 0 0 0 0 0 1 3 2 4 0 0 0 0 0 36 32 3 0 13 7 0 0 5 0 0 0 0 3 1 4 4 4 2 5 0 3 0 0 15 15 15 4 23 31 29 0 0 0 0 0 0 0 0 0 0 0 8 34 33 17 6 1 0 4 5 6 5 4 2 1 0 0 1 15 12 15 22 27 25 21 17 5 2 0 0 6 5 6 6 6 6 0 6 0 0 6 2 1 1 3 4 4 3 3 3 3 3 3 5 0 0 0 3 0 0 0 0 0 0 0 0 0 0 0 0 0 0 0 0 0 0 0 0 0 0 0 0 0 0 0 0 0 0 0 0 0 0 0 0 0 0 0 0 0 0 0 0 0 0 0 0 0 0 0 0 0 0 0 0 0 0 0 0 0 0 0 0 0 0 0 0 0 0 0 0 0 0 0 0 0 0 0 0 0 0 0 0 0 0 0 0 0 0 0 0 0 0 0 0 0 0 0 0 0 0 0 0 0 0 0 0 0 0 0 0 0 0 0 0 0 0 0 0 0 0 0 0 0 0 0 0 0 0 0 0 0 0 0 0 0 0 0 0 0 0 0 0 0 0 0 0 0 0 0 0 0 0 0 0 0 0 0 0 0 0 0 0 0 0 0 0 0 0 0 0 0 0 0 0 0 0 0 0 0 0 0 0 0 0 0 0 0 0 0 0 0 0 0 0 0 0 0 0 0 0 0 0 0 0 0 0 0 0 0 0 0 0 0 0 0 0 0 0 0 0 0 0 0 0 0 0 0 0 0 0 0 0 0 0 0 0 0 0 0 0 0 0 0 0 0 0 0 0 0 0 0 0 0 0 0 0 0 0 0 0 0 0 0 0 0 0 0 0 0 0 0 0 0 0 0 0 0 0 0 0 0 0 0 0 0 0 0 0 0 0 0 0 0 0 0 0 0 0 0 0 0 0 0 0 0 0 0 0 0 0 0 0 0 0 0 0 0 0 0 0 0 0 0 0 0 0 0 0 0 0 0 0 0 0 0 0 0 0 0 0 0 0 0 0 0 0 0 0 0 0 0 0 0 0 0 0 0 0 0 0 0 0 0 0 0 255
255 0 0 0 0 0 0 0 0 0 0 0 0 0 0 0 0 0 0 0 0 0 0 0 0 0 0 0 0 0 0 0 0 0 0 0 0 0 0 0 0 0 0 0 0 0 0 0 0 0 0 0 0 0 0 0 0 0 0 0 0 0 0 0 0 0 0 0 0 0 0 0 0 0 0 0 0 0 0 0 0 0 0 0 0 0 0 4 0 0 0 0 0 7 7 6 16 0 14 10 0 8 47 186 0 0 69 105 0 75 0 120 81 0 95 255 0 31 6 0 196 0 0 84 0 49 0 23 25 2 0 0 0 0 0 0 80 30 60 1 0 0 5 41 107 12 0 0 21 33 17 10 75 11 0 0 121 3 0 186 0 98 0 16 59 0 113 30 0 87 0 0 0 79 204 0 0 107 7 0 46 0 7 80 0 70 64 0 0 125 135 3 2 2 0 2 0 0 1 2 3 3 3 3 3 3 3 2 1 0 0 0 0 0 0 0 0 0 0 0 0 0 0 0 0 0 0 0 0 0 0 0 0 0 0 0 0 0 0 0 0 0 0 0 0 0 0 0 0 0 0 0 0 0 0 0 0 0 0 0 0 0 0 0 0 0 0 0 0 0 0 0 0 0 0 0 0 0 0 0 0 0 0 0 0 0 0 0 0 0 0 0 0 0 0 0 0 0 0 0 0 0 0 0 0 0 0 0 0 0 0 2 0 0 0 0 0 0 0 0 0 0 0 0 0 0 0 0 2 0 0 0 0 0 0 0 0 0 0 0 0 0 0 0 0 0 0 0 0 0 0 0 0 0 0 0 0 0 0 0 0 0 0 0 0 0 0 0 0 0 0 0 0 0 0 0 0 0 0 0 0 0 0 0 0 0 0 0 0 0 0 0 0 0 0 0 0 0 0 0 0 0 0 0 0 0 0 3 0 0 0 0 4 2 5 14 4 6 0 0 0 0 0 2 0 0 15 14 11 2 8 16 0 1 45 23 7 10 0 0 0 0 8 0 1 0 3 3 0 0 4 1 3 0 0 0 21 0 0 8 22 58 0 0 0 0 0 0 0 0 0 28 0 0 0 0 0 0 41 18 4 5 6 0 0 5 2 2 0 0 7 17 25 40 52 41 16 36 49 37 30 16 6 3 2 2 1 4 0 0 0 8 0 0 5 3 4 6 0 0 1 0 0 0 0 0 2 3 0 0 0 3 0 0 0 0 0 0 0 0 0 0 0 0 0 0 0 0 0 0 0 0 0 0 0 0 0 0 0 0 0 0 0 0 0 0 0 0 0 0 0 0 0 0 0 0 0 0 0 0 0 0 0 0 0 0 0 0 0 0 0 0 0 0 0 0 0 0 0 0 0 0 0 0 0 0 0 0 0 0 0 0 0 0 0 0 0 0 0 0 0 0 0 0 0 0 0 0 0 0 0 0 0 0 0 0 0 0 0 0 0 0 0 0 0 0 0 0 0 0 0 0 0 0 0 0 0 0 0 0 0 0 0 0 0 0 0 0 0 0 0 0 0 0 0 0 0 0 0 0 0 0 0 0 0 0 0 0 0 0 0 0 0 0 0 0 0 0 0 0 0 0 0 0 0 0 0 0 0 0 0 0 0 0 0 0 0 0 0 0 0 0 0 0 0 0 0 0 0 0 0 0 0 0 0 0 0 0 0 0 0 0 0 0 0 0 0 0 0 0 0 0 0 0 0 0 0 0 0 0 0 0 0 0 0 0 0 0 0 0 0 0 0 0 0 0 0 0 0 0 0 0 0 0 0 0 0 0 0 0 0 0 0 0 0 0 0 0 0 0 0 0 0 0 0 0 0 0 0 0 0 0 0 0 0 0 0 0 0 0 0 0 0 0 0 0 0 0 0 0 0 0 0 0 0 0 0 0 0 0 0 0 0 0 0 0 0 0 0 0 0 0 0 0 0 0 0 0 0 0 0 0 0 0 0 0 0 0 0 0 0 0 0 0 0 0 0 0 0 0 0 0 0 0 0 0 0 0 0 0 0 0 0 0 0 0 0 0 0 255
255 0 0 0 0 0 0 0 0 0 0 0 0 0 0 0 0 0 0 0 0 0 0 0 0 0 0 0 0 0 0 0 0 0 0 0 0 0 0 0 0 0 0 0 0 0 0 0 0 0 0 0 0 0 0 0 0 0 0 0 0 0 0 0 0 0 0 0 0 0 0 0 0 0 0 0 0 0 0 0 0 0 0 0 0 0 0 8 0 6 10 10 0 0 10 6 11 0 0 12 8 12 18 78 255 0 0 193 86 0 0 40 29 0 0 246 187 25 15 21 95 51 0 0 0 147 0 70 0 129 99 0 0 0 0 0 0 0 0 23 0 0 0 27 99 0 0 0 0 0 0 11 35 59 0 0 95 35 0 129 0 102 0 17 44 0 201 0 0 76 0 0 0 146 172 0 145 81 0 0 52 0 37 0 0 239 0 0 0 246 18 0 8 0 4 1 0 0 0 0 0 0 0 0 0 0 0 0 0 0 0 0 0 0 0 0 0 0 0 0 0 0 0 0 0 0 0 0 0 0 0 0 0 0 0 0 0 0 0 0 0 0 0 0 0 0 0 0 0 0 0 0 0 0 0 0 0 0 0 0 0 0 0 0 0 0 0 0 0 0 0 0 0 0 0 0 0 0 0 0 0 0 0 0 0 0 0 0 0 0 0 0 0 0 0 0 0 0 0 0 0 0 0 1 2 3 3 3 3 3 3 5 0 0 0 0 0 0 0 0 0 0 0 0 0 0 0 0 3 0 0 0 0 0 0 0 0 0 0 0 0 0 0 1 2 3 3 3 3 3 3 2 1 0 0 0 0 0 0 0 0 0 0 0 0 0 0 0 0 0 0 0 0 0 0 0 0 0 0 0 0 0 0 0 0 0 0 0 0 0 0 0 0 0 0 0 0 0 0 0 0 0 0 0 0 0 0 2 0 0 0 1 3 3 1 24 0 0 0 0 5 14 13 0 16 4 3 12 6 17 19 34 0 0 0 42 15 3 2 3 0 0 0 0 2 0 4 5 0 1 0 4 6 4 0 0 26 0 0 32 57 0 0 0 2 0 0 16 20 3 0 19 0 7 0 0 0 0 19 44 20 7 8 0 0 7 4 13 13 28 28 36 28 0 0 0 0 0 0 0 6 16 21 15 0 0 0 0 0 0 2 9 0 3 1 0 0 0 0 0 0 0 0 6 4 0 5 4 0 0 0 3 0 0 0 0 0 0 0 0 0 0 0 0 0 0 0 0 0 0 0 0 0 0 0 0 0 0 0 0 0 0 0 0 0 0 0 0 0 0 0 0 0 0 0 0 0 0 0 0 0 0 0 0 0 0 0 0 0 0 0 0 0 0 0 0 0 0 0 0 0 0 0 0 0 0 0 0 0 0 0 0 0 0 0 0 0 0 0 0 0 0 0 0 0 0 0 0 0 0 0 0 0 0 0 0 0 0 0 0 0 0 0 0 0 0 0 0 0 0 0 0 0 0 0 0 0 0 0 0 0 0 0 0 0 0 0 0 0 0 0 0 0 0 0 0 0 0 0 0 0 0 0 0 0 0 0 0 0 0 0 0 0 0 0 0 0 0 0 0 0 0 0 0 0 0 0 0 0 0 0 0 0 0 0 0 0 0 0 0 0 0 0 0 0 0 0 0 0 0 0 0 0 0 0 0 0 0 0 0 0 0 0 0 0 0 0 0 0 0 0 0 0 0 0 0 0 0 0 0 0 0 0 0 0 0 0 0 0 0 0 0 0 0 0 0 0 0 0 0 0 0 0 0 0 0 0 0 0 0 0 0 0 0 0 0 0 0 0 0 0 0 0 0 0 0 0 0 0 0 0 0 0 0 0 0 0 0 0 0 0 0 0 0 0 0 0 0 0 0 0 0 0 0 0 0 0 0 0 0 0 0 0 0 0 0 0 0 0 0 0 0 0 0 0 0 0 0 0 0 0 0 0 0 0 0 0 0 0 0 0 0 0 0 0 0 0 0 0 0 0 0 0 0 0 0 0 0 0 0 0 0 0 0 0 0 0 0 0 255
255 0 0 0 0 0 0 0 0 0 0 0 0 0 0 0 0 0 0 0 0 0 0 0 0 0 0 0 0 0 0 0 0 0 0 0 0 0 0 0 0 0 0 0 0 0 0 0 0 0 0 0 0 0 0 0 0 0 0 0 0 0 0 0 0 0 0 0 0 0 0 0 0 0 0 0 0 0 0 0 0 0 0 0 0 0 0 11 0 23 31 29 25 3 0 0 13 5 0 5 1 0 0 10 105 255 0 0 188 0 54 0 0 72 0 0 255 52 0 22 41 94 0 0 0 136 0 79 17 97 85 36 55 105 149 177 27 39 0 0 25 54 0 0 30 0 0 0 0 0 19 46 0 151 0 0 2 72 52 18 0 30 0 0 0 0 237 0 0 65 0 0 0 230 79 0 160 117 0 0 1 12 101 33 0 230 0 0 80 120 5 16 2 0 2 0 0 0 0 0 0 0 0 0 0 0 0 0 0 0 0 0 0 0 0 0 0 0 0 0 0 0 0 0 0 0 0 0 0 0 0 0 0 0 0 0 0 0 0 0 0 0 0 0 0 0 0 0 0 0 0 0 0 0 0 0 0 0 0 0 0 0 0 0 0 0 0 0 0 0 0 0 0 0 0 0 0 0 0 0 0 0 0 0 0 0 0 0 0 0 0 0 0 0 0 0 0 0 0 0 0 0 0 2 0 0 0 0 0 0 0 0 1 3 3 3 3 3 3 2 1 1 2 3 3 3 3 0 4 0 0 0 0 0 0 0 0 0 0 0 0 0 0 2 0 0 0 0 0 0 0 0 2 0 0 0 0 0 0 0 0 0 0 0 0 0 0 0 0 0 0 0 0 0 0 0 0 0 0 0 0 0 0 0 0 0 0 0 0 0 0 0 0 0 0 0 0 0 0 0 1 2 3 2 1 0 0 1 6 0 0 1 3 7 1 25 0 0 0 4 6 12 0 0 29 3 1 0 0 0 0 0 29 0 0 24 33 11 0 5 1 0 1 2 0 0 0 7 0 4 1 0 0 0 0 2 0 15 27 60 19 0 0 35 0 2 6 21 14 0 0 17 0 12 20 2 0 0 0 0 59 12 12 0 1 6 4 16 40 53 7 0 0 0 0 0 0 0 0 0 0 0 37 35 2 3 5 9 20 26 24 23 27 25 26 23 27 19 12 9 0 0 0 0 0 0 0 5 0 0 0 3 0 0 0 0 0 0 0 0 0 0 0 0 0 0 0 0 0 0 0 0 0 0 0 0 0 0 0 0 0 0 0 0 0 0 0 0 0 0 0 0 0 0 0 0 0 0 0 0 0 0 0 0 0 0 0 0 0 0 0 0 0 0 0 0 0 0 0 0 0 0 0 0 0 0 0 0 0 0 0 0 0 0 0 0 0 0 0 0 0 0 0 0 0 0 0 0 0 0 0 0 0 0 0 0 0 0 0 0 0 0 0 0 0 0 0 0 0 0 0 0 0 0 0 0 0 0 0 0 0 0 0 0 0 0 0 0 0 0 0 0 0 0 0 0 0 0 0 0 0 0 0 0 0 0 0 0 0 0 0 0 0 0 0 0 0 0 0 0 0 0 0 0 0 0 0 0 0 0 0 0 0 0 0 0 0 0 0 0 0 0 0 0 0 0 0 0 0 0 0 0 0 0 0 0 0 0 0 0 0 0 0 0 0 0 0 0 0 0 0 0 0 0 0 0 0 0 0 0 0 0 0 0 0 0 0 0 0 0 0 0 0 0 0 0 0 0 0 0 0 0 0 0 0 0 0 0 0 0 0 0 0 0 0 0 0 0 0 0 0 0 0 0 0 0 0 0 0 0 0 0 0 0 0 0 0 0 0 0 0 0 0 0 0 0 0 0 0 0 0 0 0 0 0 0 0 0 0 0 0 0 0 0 0 0 0 0 0 0 0 0 0 0 0 0 0 0 0 0 0 0 0 0 0 0 0 0 0 0 0 0 0 0 0 0 0 0 0 0 0 0 0 0 0 0 0 0 0 0 0 0 0 0 0 0 0 0 0 255
255 0 0 0 0 0 0 0 0 0 0 0 0 0 0 0 0 0 0 0 0 0 0 0 0 0 0 0 0 0 0 0 0 0 0 0 0 0 0 0 0 0 0 0 0 0 0 0 0 0 0 0 0 0 0 0 0 0 0 0 0 0 0 0 0 0 0 0 0 0 0 0 0 0 0 0 0 0 0 0 0 0 0 0 0 0 0 11 0 4 5 12 18 12 0 0 7 16 0 0 7 0 0 6 0 110 255 0 0 186 0 31 10 98 0 0 241 170 0 21 27 41 0 0 0 35 0 35 16 0 0 21 37 0 3 0 82 189 113 0 60 197 54 0 10 0 0 6 31 15 12 44 0 136 1 0 0 2 22 29 16 0 53 0 0 10 193 0 4 1 21 0 0 215 0 0 17 0 0 13 0 9 63 0 16 133 0 0 198 0 12 14 2 4 1 0 0 0 0 0 0 0 0 0 0 0 0 0 0 0 0 0 0 0 0 0 0 0 0 0 0 0 0 0 0 0 0 0 0 0 0 0 0 0 0 0 0 0 0 0 0 0 0 0 0 0 0 0 0 0 0 0 0 0 0 0 0 0 0 0 0 0 0 0 0 0 0 0 0 0 0 0 0 0 0 0 0 0 0 0 0 0 0 0 0 0 0 0 0 0 0 0 0 0 0 0 0 0 0 0 0 0 0 3 0 0 0 0 0 0 0 2 0 0 0 0 0 0 0 0 2 1 0 0 0 0 0 0 5 0 0 0 0 0 0 0 0 0 0 0 0 0 0 3 0 0 0 0 0 0 0 0 3 0 0 0 0 0 0 0 0 0 0 0 0 0 0 0 0 0 0 0 0 0 0 0 0 0 0 0 0 0 0 0 0 0 0 0 0 0 0 0 0 0 0 0 0 0 0 0 2 0 0 0 2 0 0 0 4 2 0 1 3 11 0 21 0 11 0 4 15 6 0 0 16 5 0 0 0 0 0 0 45 0 0 0 38 19 1 0 4 2 1 2 1 1 0 8 0 0 0 5 7 0 2 13 0 30 54 15 0 0 0 28 0 0 0 6 4 6 8 29 0 0 12 18 4 0 0 0 56 11 11 0 7 11 27 6 0 0 0 0 0 0 9 10 43 41 26 0 0 0 0 0 39 15 29 34 26 16 28 52 32 24 27 29 23 28 44 30 15 4 3 0 6 2 0 6 0 0 0 3 0 0 0 0 0 0 0 0 0 0 0 0 0 0 0 0 0 0 0 0 0 0 0 0 0 0 0 0 0 0 0 0 0 0 0 0 0 0 0 0 0 0 0 0 0 0 0 0 0 0 0 0 0 0 0 0 0 0 0 0 0 0 0 0 0 0 0 0 0 0 0 0 0 0 0 0 0 0 0 0 0 0 0 0 0 0 0 0 0 0 0 0 0 0 0 0 0 0 0 0 0 0 0 0 0 0 0 0 0 0 0 0 0 0 0 0 0 0 0 0 0 0 0 0 0 0 0 0 0 0 0 0 0 0 0 0 0 0 0 0 0 0 0 0 0 0 0 0 0 0 0 0 0 0 0 0 0 0 0 0 0 0 0 0 0 0 0 0 0 0 0 0 0 0 0 0 0 0 0 0 0 0 0 0 0 0 0 0 0 0 0 0 0 0 0 0 0 0 0 0 0 0 0 0 0 0 0 0 0 0 0 0 0 0 0 0 0 0 0 0 0 0 0 0 0 0 0 0 0 0 0 0 0 0 0 0 0 0 0 0 0 0 0 0 0 0 0 0 0 0 0 0 0 0 0 0 0 0 0 0 0 0 0 0 0 0 0 0 0 0 0 0 0 0 0 0 0 0 0 0 0 0 0 0 0 0 0 0 0 0 0 0 0 0 0 0 0 0 0 0 0 0 0 0 0 0 0 0 0 0 0 0 0 0 0 0 0 0 0 0 0 0 0 0 0 0 0 0 0 0 0 0 0 0 0 0 0 0 0 0 0 0 0 0 0 0 0 0 0 0 0 0 0 0 0 0 0 0 0 0 0 0 0 0 0 0 0 255
255 0 0 0 0 0 0 0 0 0 0 0 0 0 0 0 0 0 0 0 0 0 0 0 0 0 0 0 0 0 0 0 0 0 0 0 0 0 0 0 0 0 0 0 0 0 0 0 0 0 0 0 0 0 0 0 0 0 0 0 0 0 0 0 0 0 0 0 0 0 0 0 0 0 0 0 0 0 0 0 0 0 0 0 0 0 0 11 8 0 0 0 76 144 107 46 0 17 1 12 26 9 0 11 31 38 107 144 0 0 20 0 58 0 19 0 0 255 74 0 18 55 127 0 0 0 82 79 136 146 251 223 156 220 176 0 185 80 14 45 64 0 0 91 10 0 0 0 0 0 0 6 0 82 42 63 23 0 0 154 9 0 130 0 0 102 115 0 101 0 0 9 36 189 0 88 116 33 0 66 3 70 126 0 211 71 0 81 171 23 22 0 4 2 0 0 0 0 0 0 0 0 0 0 0 0 0 0 0 1 7 11 10 4 1 2 2 1 0 0 0 0 1 1 2 2 2 1 0 0 2 2 2 0 0 0 0 0 0 0 0 0 0 0 0 0 0 0 0 0 0 0 0 0 0 0 0 0 0 0 0 0 0 0 0 0 0 0 0 0 0 0 0 0 0 0 0 0 0 0 0 0 0 0 0 0 1 1 1 0 0 0 0 1 2 3 3 4 4 4 4 5 5 6 0 2 4 5 7 9 10 14 10 19 25 28 26 22 19 18 27 26 24 22 12 10 8 2 16 10 9 7 6 3 2 3 4 3 1 1 2 3 4 6 0 0 0 0 0 0 0 0 7 5 3 1 0 0 0 0 0 0 0 0 0 0 0 0 0 0 0 0 0 0 0 0 0 0 0 0 0 0 0 0 0 0 0 0 0 0 0 0 0 0 0 0 0 0 0 3 7 0 0 0 8 10 9 4 2 0 0 0 4 13 0 15 0 0 0 0 3 9 9 7 0 0 0 2 16 16 2 0 36 8 0 0 0 44 47 26 22 9 0 2 0 1 3 29 33 60 78 81 94 76 70 64 0 43 42 0 0 46 55 0 25 0 0 0 0 0 0 0 30 0 0 0 25 40 26 0 41 12 26 2 4 25 37 21 0 0 0 0 16 20 0 0 0 0 11 11 14 0 0 0 29 18 39 34 0 0 0 0 0 0 0 0 0 0 0 0 72 42 18 0 7 9 8 14 0 0 0 2 0 0 0 0 0 0 0 0 0 0 0 0 0 0 0 0 0 0 0 0 0 0 0 0 0 0 0 0 0 0 0 0 0 0 0 0 0 0 0 0 0 0 0 0 0 0 0 0 0 0 0 0 0 0 0 0 0 0 0 0 0 0 0 0 0 0 0 0 0 0 0 0 0 0 0 0 0 0 0 0 0 0 0 0 0 0 0 0 0 0 0 0 0 0 0 0 0 0 0 0 0 0 0 0 0 0 0 0 0 0 0 0 0 0 0 0 0 0 0 0 0 0 0 0 0 0 0 0 0 0 0 0 0 0 0 0 0 0 0 0 0 0 0 0 0 0 0 0 0 0 0 0 0 0 0 0 0 0 0 0 0 0 0 0 0 0 0 0 0 0 0 0 0 0 0 0 0 0 0 0 0 0 0 0 0 0 0 0 0 0 0 0 0 0 0 0 0 0 0 0 0 0 0 0 0 0 0 0 0 0 0 0 0 0 0 0 0 0 0 0 0 0 0 0 0 0 0 0 0 0 0 0 0 0 0 0 0 0 0 0 0 0 0 0 0 0 0 0 0 0 0 0 0 0 0 0 0 0 0 0 0 0 0 0 0 0 0 0 0 0 0 0 0 0 0 0 0 0 0 0 0 0 0 0 0 0 0 0 0 0 0 0 0 0 0 0 0 0 0 0 0 0 0 0 0 0 0 0 0 0 0 0 0 0 0 0 0 0 0 0 0 0 0 0 0 0 0 0 0 0 0 0 0 0 0 0 0 0 0 0 0 0 0 0 0 0 0 0 0 0 0 0 0 0 0 0 0 0 0 0 0 0 0 0 0 0 0 255
255 0 0 0 0 0 0 0 0 0 0 0 0 0 0 0 0 0 0 0 0 0 0 0 0 0 0 0 0 0 0 0 0 0 0 0 0 0 0 0 0 0 0 0 0 0 0 0 0 0 0 0 0 0 0 0 0 0 0 0 0 0 0 0 0 0 0 0 0 0 0 0 0 0 0 0 0 0 0 0 0 0 0 0 0 0 0 7 0 64 109 0 0 0 41 200 75 31 5 0 0 0 34 34 38 0 21 242 0 0 203 0 0 57 0 0 0 141 209 24 17 0 57 128 0 0 135 0 138 0 0 0 0 0 0 0 0 125 115 35 141 118 0 0 93 0 38 0 35 18 0 129 0 0 21 38 135 0 0 163 0 0 30 0 0 251 0 0 130 0 0 92 86 0 0 106 0 0 0 145 0 0 61 0 255 0 0 211 106 0 27 0 12 1 0 0 0 0 0 0 0 0 0 0 0 0 0 10 10 11 0 0 0 4 1 0 0 1 3 7 10 10 10 0 5 0 0 4 4 3 3 0 2 0 0 0 0 0 0 0 0 0 0 0 0 0 0 0 0 0 0 0 0 0 0 0 0 0 0 0 0 0 0 0 0 0 0 0 0 0 0 0 0 0 0 0 0 0 0 1 1 1 0 0 0 1 3 0 4 3 3 3 2 2 0 0 0 0 0 0 0 0 0 4 10 7 10 3 6 0 0 9 1 0 0 0 0 0 0 0 0 0 0 0 0 0 4 0 0 0 12 0 6 10 17 8 0 2 6 4 0 0 0 0 0 0 0 0 0 0 0 0 0 0 0 2 0 0 1 1 1 0 0 0 0 0 0 0 0 0 0 0 0 0 0 0 0 0 0 0 0 0 0 0 0 0 0 0 0 0 0 0 0 0 0 0 0 0 0 3 0 0 5 4 0 0 0 7 5 8 9 10 1 11 27 6 2 0 3 30 24 9 0 8 0 3 6 1 0 0 0 1 0 2 55 0 0 67 0 0 71 25 17 13 21 42 57 71 10 0 0 0 0 0 0 7 78 97 9 0 0 6 0 38 2 9 11 7 2 0 0 0 0 8 37 9 0 0 0 0 0 0 28 22 32 61 11 0 0 8 32 10 13 3 6 37 2 0 18 21 0 0 0 46 69 15 0 0 0 0 22 37 32 32 29 27 22 0 0 0 0 0 58 32 20 0 0 1 0 0 4 1 0 0 0 0 0 0 0 0 0 0 0 0 0 0 0 0 0 0 0 0 0 0 0 0 0 0 0 0 0 0 0 0 0 0 0 0 0 0 0 0 0 0 0 0 0 0 0 0 0 0 0 0 0 0 0 0 0 0 0 0 0 0 0 0 0 0 0 0 0 0 0 0 0 0 0 0 0 0 0 0 0 0 0 0 0 0 0 0 0 0 0 0 0 0 0 0 0 0 0 0 0 0 0 0 0 0 0 0 0 0 0 0 0 0 0 0 0 0 0 0 0 0 0 0 0 0 0 0 0 0 0 0 0 0 0 0 0 0 0 0 0 0 0 0 0 0 0 0 0 0 0 0 0 0 0 0 0 0 0 0 0 0 0 0 0 0 0 0 0 0 0 0 0 0 0 0 0 0 0 0 0 0 0 0 0 0 0 0 0 0 0 0 0 0 0 0 0 0 0 0 0 0 0 0 0 0 0 0 0 0 0 0 0 0 0 0 0 0 0 0 0 0 0 0 0 0 0 0 0 0 0 0 0 0 0 0 0 0 0 0 0 0 0 0 0 0 0 0 0 0 0 0 0 0 0 0 0 0 0 0 0 0 0 0 0 0 0 0 0 0 0 0 0 0 0 0 0 0 0 0 0 0 0 0 0 0 0 0 0 0 0 0 0 0 0 0 0 0 0 0 0 0 0 0 0 0 0 0 0 0 0 0 0 0 0 0 0 0 0 0 0 0 0 0 0 0 0 0 0 0 0 0 0 0 0 0 0 0 0 0 0 0 0 0 0 0 0 0 0 0 0 0 0 0 0 0 0 0 0 0 0 0 0 0 0 0 0 255
255 0 0 0 0 0 0 0 0 0 0 0 0 0 0 0 0 0 0 0 0 0 0 0 0 0 0 0 0 0 0 0 0 0 0 0 0 0 0 0 0 0 0 0 0 0 0 0 0 0 0 0 0 0 0 0 0 0 0 0 0 0 0 0 0 0 0 0 0 0 0 0 0 0 0 0 0 0 0 0 0 0 0 0 0 0 0 8 15 0 8 123 73 0 0 0 149 238 128 28 13 23 31 0 0 34 49 4 255 64 0 189 0 0 102 28 0 0 255 28 15 22 35 79 0 0 0 0 0 0 0 0 0 0 0 0 0 22 46 24 179 162 18 0 164 185 0 79 0 0 77 0 0 0 27 20 96 4 0 22 21 0 61 0 0 210 0 0 96 0 0 133 42 0 0 0 38 0 0 136 0 42 0 0 255 0 0 153 94 0 21 4 4 0 0 0 0 0 0 0 0 0 0 0 0 0 0 10 0 12 13 22 20 9 1 8 14 17 13 0 0 0 0 0 11 8 5 0 0 0 5 2 2 0 0 0 0 0 0 0 0 0 0 0 0 0 0 0 0 0 0 0 0 0 0 0 0 0 0 0 0 0 0 0 0 0 0 0 0 0 0 0 0 0 0 0 0 0 0 3 0 4 1 0 0 1 0 0 1 0 0 0 0 4 5 8 8 11 3 6 8 1 13 11 0 0 0 0 0 0 0 0 0 0 0 0 0 0 8 4 0 0 0 0 0 0 0 3 0 0 0 0 0 0 0 0 3 4 15 9 6 4 3 2 1 0 0 0 5 4 6 12 0 0 1 4 2 2 5 0 3 0 0 0 0 0 0 0 0 0 0 0 0 0 0 0 0 0 0 0 0 0 0 0 0 0 0 0 0 0 0 0 0 0 0 0 0 0 0 3 9 15 16 15 9 11 15 11 0 0 0 0 0 4 0 0 0 3 0 21 16 9 0 5 0 3 5 3 0 4 0 0 0 0 20 0 0 89 0 0 0 0 42 43 41 6 0 0 0 0 0 0 0 0 0 0 0 46 72 0 0 25 23 5 0 0 0 0 10 15 28 32 10 0 0 0 35 39 23 0 0 56 45 55 0 0 0 2 0 1 3 4 1 2 0 5 0 41 17 0 0 37 73 19 0 0 0 0 0 3 9 1 9 0 0 0 4 0 3 0 0 0 4 33 74 46 33 0 1 0 3 0 0 0 0 0 0 0 0 0 0 0 0 0 0 0 0 0 0 0 0 0 0 0 0 0 0 0 0 0 0 0 0 0 0 0 0 0 0 0 0 0 0 0 0 0 0 0 0 0 0 0 0 0 0 0 0 0 0 0 0 0 0 0 0 0 0 0 0 0 0 0 0 0 0 0 0 0 0 0 0 0 0 0 0 0 0 0 0 0 0 0 0 0 0 0 0 0 0 0 0 0 0 0 0 0 0 0 0 0 0 0 0 0 0 0 0 0 0 0 0 0 0 0 0 0 0 0 0 0 0 0 0 0 0 0 0 0 0 0 0 0 0 0 0 0 0 0 0 0 0 0 0 0 0 0 0 0 0 0 0 0 0 0 0 0 0 0 0 0 0 0 0 0 0 0 0 0 0 0 0 0 0 0 0 0 0 0 0 0 0 0 0 0 0 0 0 0 0 0 0 0 0 0 0 0 0 0 0 0 0 0 0 0 0 0 0 0 0 0 0 0 0 0 0 0 0 0 0 0 0 0 0 0 0 0 0 0 0 0 0 0 0 0 0 0 0 0 0 0 0 0 0 0 0 0 0 0 0 0 0 0 0 0 0 0 0 0 0 0 0 0 0 0 0 0 0 0 0 0 0 0 0 0 0 0 0 0 0 0 0 0 0 0 0 0 0 0 0 0 0 0 0 0 0 0 0 0 0 0 0 0 0 0 0 0 0 0 0 0 0 0 0 0 0 0 0 0 0 0 0 0 0 0 0 0 0 0 0 0 0 0 0 0 0 0 0 0 0 0 0 0 0 0 0 0 0 0 0 0 0 0 0 0 0 0 0 0 0 255
255 0 0 0 0 0 0 0 0 0 0 0 0 0 0 0 0 0 0 0 0 0 0 0 0 0 0 0 0 0 0 0 0 0 0 0 0 0 0 0 0 0 0 0 0 0 0 0 0 0 0 0 0 0 0 0 0 0 0 0 0 0 0 0 0 0 0 0 0 0 0 0 0 0 0 0 0 0 0 0 0 0 0 0 0 0 0 9 0 20 22 44 94 83 0 0 0 0 127 255 177 44 74 46 0 0 44 0 101 255 0 0 161 0 0 0 13 0 153 217 0 28 15 33 197 0 0 0 34 136 23 0 100 173 87 67 0 0 0 0 0 0 0 0 46 170 0 0 61 0 181 0 0 55 2 14 48 140 3 0 36 0 64 0 0 186 0 17 0 0 83 153 0 10 147 0 113 0 5 132 0 116 0 255 0 0 0 89 109 0 15 3 0 0 0 0 0 0 0 0 0 0 0 0 0 0 0 11 12 14 0 0 0 8 9 15 0 0 0 22 30 41 54 65 25 22 17 7 0 0 5 1 0 0 0 0 0 0 0 0 0 0 0 0 0 0 0 0 0 0 0 0 0 0 0 0 0 0 0 0 0 0 0 0 0 0 0 0 0 0 0 0 0 0 0 0 0 1 2 7 0 0 5 3 3 3 4 0 0 0 0 0 5 0 0 6 0 17 9 4 7 9 5 3 0 0 0 0 0 0 0 0 0 0 0 0 0 3 5 9 0 0 0 0 0 0 0 0 0 0 0 0 0 0 0 0 0 0 0 0 11 12 5 8 4 1 0 0 3 5 3 0 0 0 1 0 5 0 1 0 7 2 1 0 0 0 0 0 0 0 0 0 0 0 0 0 0 0 0 0 0 0 0 0 0 0 0 0 0 0 0 0 0 0 0 0 0 0 0 2 7 0 0 0 0 0 0 12 0 14 11 3 6 11 29 21 0 0 0 17 20 7 0 0 0 0 0 4 0 0 0 0 21 0 23 0 0 89 10 0 0 0 18 30 0 0 0 0 0 12 28 38 39 34 0 0 0 0 39 92 1 0 10 14 0 4 3 0 4 0 7 0 81 43 16 0 18 15 0 0 0 65 76 71 0 0 0 31 0 0 0 0 5 7 0 0 0 15 0 0 0 93 75 0 0 0 0 0 14 10 0 0 13 12 0 3 9 0 0 0 0 0 0 0 0 67 56 3 0 0 3 0 0 0 0 0 0 0 0 0 0 0 0 0 0 0 0 0 0 0 0 0 0 0 0 0 0 0 0 0 0 0 0 0 0 0 0 0 0 0 0 0 0 0 0 0 0 0 0 0 0 0 0 0 0 0 0 0 0 0 0 0 0 0 0 0 0 0 0 0 0 0 0 0 0 0 0 0 0 0 0 0 0 0 0 0 0 0 0 0 0 0 0 0 0 0 0 0 0 0 0 0 0 0 0 0 0 0 0 0 0 0 0 0 0 0 0 0 0 0 0 0 0 0 0 0 0 0 0 0 0 0 0 0 0 0 0 0 0 0 0 0 0 0 0 0 0 0 0 0 0 0 0 0 0 0 0 0 0 0 0 0 0 0 0 0 0 0 0 0 0 0 0 0 0 0 0 0 0 0 0 0 0 0 0 0 0 0 0 0 0 0 0 0 0 0 0 0 0 0 0 0 0 0 0 0 0 0 0 0 0 0 0 0 0 0 0 0 0 0 0 0 0 0 0 0 0 0 0 0 0 0 0 0 0 0 0 0 0 0 0 0 0 0 0 0 0 0 0 0 0 0 0 0 0 0 0 0 0 0 0 0 0 0 0 0 0 0 0 0 0 0 0 0 0 0 0 0 0 0 0 0 0 0 0 0 0 0 0 0 0 0 0 0 0 0 0 0 0 0 0 0 0 0 0 0 0 0 0 0 0 0 0 0 0 0 0 0 0 0 0 0 0 0 0 0 0 0 0 0 0 0 0 0 0 0 0 0 0 0 0 0 0 0 0 0 0 0 0 0 0 0 0 0 0 0 0 0 0 0 0 0 0 0 0 0 0 0 0 255
255 0 0 0 0 0 0 0 0 0 0 0 0 0 0 0 0 0 0 0 0 0 0 0 0 0 0 0 0 0 0 0 0 0 0 0 0 0 0 0 0 0 0 0 0 0 0 0 0 0 0 0 0 0 0 0 0 0 0 0 0 0 0 0 0 0 0 0 0 0 0 0 0 0 0 0 0 0 0 0 0 0 0 0 0 0 0 9 0 15 19 0 0 83 152 170 88 0 0 0 59 183 165 121 79 2 0 13 0 168 174 0 56 66 0 0 38 0 0 255 0 26 15 0 223 0 0 189 110 0 31 0 0 0 24 0 0 81 28 0 0 0 0 0 32 124 120 0 21 16 13 81 79 80 0 0 0 126 5 77 35 0 77 0 23 152 0 22 0 0 164 118 0 0 119 0 101 0 44 54 73 143 0 255 0 0 0 29 131 0 0 5 1 0 0 0 0 0 0 0 0 0 0 0 0 0 0 6 0 2 2 7 17 14 0 0 26 43 57 49 43 16 0 0 0 0 12 6 6 0 0 2 0 0 0 0 0 0 0 0 0 0 0 0 0 0 0 0 0 0 0 0 0 0 0 0 0 0 0 0 0 0 0 0 0 0 0 0 0 0 0 0 0 0 0 0 0 2 0 0 0 0 0 0 0 0 2 6 0 1 7 6 11 7 15 17 0 0 0 0 0 0 0 0 11 0 5 3 2 3 2 3 16 9 9 10 2 3 0 0 5 5 5 4 12 10 1 2 3 2 2 3 5 0 0 0 0 0 0 0 0 0 16 5 15 15 8 10 5 0 0 0 0 2 0 0 0 0 0 0 0 0 2 0 0 0 0 0 0 0 0 0 0 0 0 0 0 0 0 0 0 0 0 0 0 0 0 0 0 0 0 0 0 0 0 0 0 0 0 3 0 6 16 13 12 13 4 5 0 1 2 9 7 16 15 0 0 4 0 1 3 9 0 0 0 1 7 0 3 0 0 0 21 16 29 0 0 61 54 0 0 4 8 0 0 0 0 0 16 7 0 0 0 0 0 16 14 0 0 63 92 0 0 56 20 22 12 0 0 0 0 0 0 0 0 0 0 0 46 112 0 23 52 0 0 0 1 1 14 0 0 0 9 2 0 0 21 0 0 24 60 18 0 0 0 0 18 18 14 6 0 0 5 0 0 0 0 0 0 0 0 21 13 0 0 0 41 40 7 0 3 0 0 0 0 0 0 0 0 0 0 0 0 0 0 0 0 0 0 0 0 0 0 0 0 0 0 0 0 0 0 0 0 0 0 0 0 0 0 0 0 0 0 0 0 0 0 0 0 0 0 0 0 0 0 0 0 0 0 0 0 0 0 0 0 0 0 0 0 0 0 0 0 0 0 0 0 0 0 0 0 0 0 0 0 0 0 0 0 0 0 0 0 0 0 0 0 0 0 0 0 0 0 0 0 0 0 0 0 0 0 0 0 0 0 0 0 0 0 0 0 0 0 0 0 0 0 0 0 0 0 0 0 0 0 0 0 0 0 0 0 0 0 0 0 0 0 0 0 0 0 0 0 0 0 0 0 0 0 0 0 0 0 0 0 0 0 0 0 0 0 0 0 0 0 0 0 0 0 0 0 0 0 0 0 0 0 0 0 0 0 0 0 0 0 0 0 0 0 0 0 0 0 0 0 0 0 0 0 0 0 0 0 0 0 0 0 0 0 0 0 0 0 0 0 0 0 0 0 0 0 0 0 0 0 0 0 0 0 0 0 0 0 0 0 0 0 0 0 0 0 0 0 0 0 0 0 0 0 0 0 0 0 0 0 0 0 0 0 0 0 0 0 0 0 0 0 0 0 0 0 0 0 0 0 0 0 0 0 0 0 0 0 0 0 0 0 0 0 0 0 0 0 0 0 0 0 0 0 0 0 0 0 0 0 0 0 0 0 0 0 0 0 0 0 0 0 0 0 0 0 0 0 0 0 0 0 0 0 0 0 0 0 0 0 0 0 0 0 0 0 0 0 0 0 0 0 0 0 0 0 0 0 0 0 0 0 0 0 255
255 0 0 0 0 0 0 0 0 0 0 0 0 0 0 0 0 0 0 0 0 0 0 0 0 0 0 0 0 0 0 0 0 0 0 0 0 0 0 0 0 0 0 0 0 0 0 0 0 0 0 0 0 0 0 0 0 0 0 0 0 0 0 0 0 0 0 0 0 0 0 0 0 0 0 0 0 0 0 0 0 0 0 0 0 0 0 5 8 0 0 16 0 0 5 79 156 239 74 0 0 0 0 135 134 134 37 0 0 35 214 37 0 127 70 0 0 23 0 160 171 11 15 0 172 0 0 255 119 0 67 149 0 0 0 24 0 60 88 67 55 30 0 0 0 40 255 0 0 194 71 12 93 0 0 0 0 34 0 211 16 0 78 0 47 125 0 0 0 95 143 12 0 0 0 29 14 0 56 0 107 58 0 255 0 136 0 19 147 0 6 0 2 0 0 0 0 0 0 0 0 0 0 0 0 0 0 6 0 0 8 8 0 0 39 84 122 79 0 0 0 0 0 0 0 0 12 6 6 0 0 2 0 0 0 0 0 0 0 0 0 0 0 0 0 0 0 0 0 0 0 0 0 0 0 0 0 0 0 0 0 0 0 0 0 0 0 0 0 0 0 0 0 0 0 0 0 3 0 1 2 1 0 0 4 3 3 7 1 14 6 12 13 0 6 0 0 0 0 0 0 0 0 0 5 8 6 13 11 10 8 18 22 21 7 5 7 2 2 0 6 7 9 1 1 0 10 0 8 7 8 10 3 5 6 5 10 0 3 0 0 0 0 0 6 4 7 9 6 11 14 6 5 9 6 4 4 0 0 1 1 0 3 0 0 0 0 0 0 0 0 0 0 0 0 0 0 0 0 0 0 0 0 0 0 0 0 0 0 0 0 0 0 0 0 0 0 0 0 7 2 3 8 7 8 0 0 0 6 0 0 0 8 18 0 0 0 3 0 0 4 9 0 0 4 0 5 0 0 0 7 10 0 1 15 0 0 3 77 0 36 26 0 0 0 0 24 28 9 0 0 0 0 0 0 18 24 33 0 0 139 47 0 0 0 0 0 0 3 11 19 29 0 1 23 0 0 0 0 0 0 0 0 0 0 28 21 0 26 4 0 0 4 8 3 0 0 0 3 60 35 0 0 0 14 7 16 16 3 9 0 0 11 0 0 2 6 16 5 7 26 16 15 7 0 0 0 76 24 0 3 0 0 0 0 0 0 0 0 0 0 0 0 0 0 0 0 0 0 0 0 0 0 0 0 0 0 0 0 0 0 0 0 0 0 0 0 0 0 0 0 0 0 0 0 0 0 0 0 0 0 0 0 0 0 0 0 0 0 0 0 0 0 0 0 0 0 0 0 0 0 0 0 0 0 0 0 0 0 0 0 0 0 0 0 0 0 0 0 0 0 0 0 0 0 0 0 0 0 0 0 0 0 0 0 0 0 0 0 0 0 0 0 0 0 0 0 0 0 0 0 0 0 0 0 0 0 0 0 0 0 0 0 0 0 0 0 0 0 0 0 0 0 0 0 0 0 0 0 0 0 0 0 0 0 0 0 0 0 0 0 0 0 0 0 0 0 0 0 0 0 0 0 0 0 0 0 0 0 0 0 0 0 0 0 0 0 0 0 0 0 0 0 0 0 0 0 0 0 0 0 0 0 0 0 0 0 0 0 0 0 0 0 0 0 0 0 0 0 0 0 0 0 0 0 0 0 0 0 0 0 0 0 0 0 0 0 0 0 0 0 0 0 0 0 0 0 0 0 0 0 0 0 0 0 0 0 0 0 0 0 0 0 0 0 0 0 0 0 0 0 0 0 0 0 0 0 0 0 0 0 0 0 0 0 0 0 0 0 0 0 0 0 0 0 0 0 0 0 0 0 0 0 0 0 0 0 0 0 0 0 0 0 0 0 0 0 0 0 0 0 0 0 0 0 0 0 0 0 0 0 0 0 0 0 0 0 0 0 0 0 0 0 0 0 0 0 0 0 0 0 0 0 0 0 0 0 0 0 0 0 0 0 0 0 0 0 0 0 255
255 0 0 0 0 0 0 0 0 0 0 0 0 0 0 0 0 0 0 0 0 0 0 0 0 0 0 0 0 0 0 0 0 0 0 0 0 0 0 0 0 0 0 0 0 0 0 0 0 0 0 0 0 0 0 0 0 0 0 0 0 0 0 0 0 0 0 0 0 0 0 0 0 0 0 0 0 0 0 0 0 0 0 0 0 0 0 4 7 5 0 6 17 8 0 0 0 69 182 165 0 0 0 0 8 105 190 88 36 24 58 247 0 0 55 0 0 0 0 0 255 48 2 0 109 0 0 101 0 0 0 31 163 0 0 0 0 0 0 0 0 0 32 68 0 0 130 191 0 127 45 0 135 0 0 47 68 0 0 124 34 0 45 0 15 118 0 0 72 150 41 0 16 0 0 47 0 0 63 0 189 0 65 181 0 207 0 42 156 0 13 0 4 0 0 0 0 0 0 0 0 0 0 0 0 0 0 8 13 16 0 7 31 92 82 81 0 0 0 0 0 38 60 70 29 22 17 7 0 0 5 1 0 0 0 0 0 0 0 0 0 0 0 0 0 0 0 0 0 0 0 0 0 0 0 0 0 0 0 0 0 0 0 0 0 0 0 0 0 0 0 0 0 0 0 0 0 3 0 0 0 0 4 3 3 5 0 7 0 6 2 3 0 0 0 0 12 6 6 8 0 11 1 1 0 0 0 0 0 4 2 4 0 0 0 0 4 5 5 11 0 2 0 0 0 0 0 0 5 4 0 0 0 0 0 0 6 0 0 0 0 0 0 0 0 0 0 2 12 10 14 10 9 0 1 5 3 3 4 0 0 0 3 0 0 0 0 0 0 0 0 0 0 0 0 0 0 0 0 0 0 0 0 0 0 0 0 0 0 0 0 0 0 0 0 0 0 0 1 6 0 0 1 0 0 13 17 44 70 91 78 79 69 58 60 14 0 8 0 0 0 14 6 0 7 0 8 5 0 7 4 11 0 10 7 8 0 0 104 0 0 0 0 0 0 11 20 0 15 25 33 35 31 32 17 32 0 104 0 0 56 171 20 0 29 1 7 4 10 12 22 16 73 57 49 62 67 31 0 0 0 10 7 0 0 11 10 0 9 14 0 7 3 0 4 7 0 50 74 0 0 0 27 1 3 0 1 0 0 0 5 8 0 0 0 0 11 11 6 16 32 0 0 46 23 0 0 0 47 0 3 0 0 0 0 0 0 0 0 0 0 0 0 0 0 0 0 0 0 0 0 0 0 0 0 0 0 0 0 0 0 0 0 0 0 0 0 0 0 0 0 0 0 0 0 0 0 0 0 0 0 0 0 0 0 0 0 0 0 0 0 0 0 0 0 0 0 0 0 0 0 0 0 0 0 0 0 0 0 0 0 0 0 0 0 0 0 0 0 0 0 0 0 0 0 0 0 0 0 0 0 0 0 0 0 0 0 0 0 0 0 0 0 0 0 0 0 0 0 0 0 0 0 0 0 0 0 0 0 0 0 0 0 0 0 0 0 0 0 0 0 0 0 0 0 0 0 0 0 0 0 0 0 0 0 0 0 0 0 0 0 0 0 0 0 0 0 0 0 0 0 0 0 0 0 0 0 0 0 0 0 0 0 0 0 0 0 0 0 0 0 0 0 0 0 0 0 0 0 0 0 0 0 0 0 0 0 0 0 0 0 0 0 0 0 0 0 0 0 0 0 0 0 0 0 0 0 0 0 0 0 0 0 0 0 0 0 0 0 0 0 0 0 0 0 0 0 0 0 0 0 0 0 0 0 0 0 0 0 0 0 0 0 0 0 0 0 0 0 0 0 0 0 0 0 0 0 0 0 0 0 0 0 0 0 0 0 0 0 0 0 0 0 0 0 0 0 0 0 0 0 0 0 0 0 0 0 0 0 0 0 0 0 0 0 0 0 0 0 0 0 0 0 0 0 0 0 0 0 0 0 0 0 0 0 0 0 0 0 0 0 0 0 0 0 0 0 0 0 0 0 0 0 0 0 0 0 0 0 0 0 0 0 0 0 0 0 0 0 255
255 0 0 0 0 0 0 0 0 0 0 0 0 0 0 0 0 0 0 0 0 0 0 0 0 0 0 0 0 0 0 0 0 0 0 0 0 0 0 0 0 0 0 0 0 0 0 0 0 0 0 0 0 0 0 0 0 0 0 0 0 0 0 0 0 0 0 0 0 0 0 0 0 0 0 0 0 0 0 0 0 0 0 0 0 0 0 4 0 16 20 0 4 28 40 9 34 0 28 132 154 0 0 0 0 0 101 180 79 56 0 92 255 0 0 10 104 0 0 0 215 130 13 0 65 70 0 0 47 90 0 4 193 129 0 5 0 0 49 115 99 64 29 0 123 0 0 255 0 0 0 0 111 7 27 19 106 0 0 0 114 0 0 0 0 132 0 58 91 40 0 0 26 8 0 69 0 0 63 0 255 0 255 0 0 228 0 49 162 0 4 0 4 0 0 0 0 0 0 0 0 0 0 0 0 0 0 7 0 0 34 100 200 95 0 0 0 0 34 84 50 33 4 0 12 8 5 0 0 0 5 2 2 0 0 0 0 0 0 0 0 0 0 0 0 0 0 0 0 0 0 0 0 0 0 0 0 0 0 0 0 0 0 0 0 0 0 0 0 0 0 0 0 0 0 0 0 2 0 0 6 5 4 5 0 4 0 12 0 0 0 0 0 0 0 0 9 3 3 4 4 5 4 13 0 3 0 0 0 0 0 0 0 0 0 0 4 6 7 6 0 0 0 1 1 2 0 0 0 0 0 0 1 0 0 0 10 6 0 0 0 1 0 7 0 0 0 0 4 4 9 4 13 0 4 4 0 4 4 4 5 0 2 0 0 0 0 0 0 0 0 0 0 0 0 0 0 0 0 0 0 0 0 0 0 0 0 0 0 0 0 0 0 0 0 0 0 0 1 0 15 16 24 28 36 69 122 118 56 84 69 62 80 101 87 61 0 16 0 0 0 13 11 0 11 0 0 3 0 3 0 7 5 24 0 36 0 0 137 0 0 0 0 0 9 3 0 0 0 0 0 0 0 0 0 0 0 21 42 0 0 112 128 0 33 31 21 13 4 0 0 0 0 0 0 5 88 143 147 139 0 6 9 0 0 3 4 0 0 4 0 1 0 0 0 13 0 36 47 0 0 9 45 10 0 0 0 0 0 0 0 4 1 2 0 1 0 0 0 10 0 0 0 33 37 0 0 0 77 0 3 0 0 0 0 0 0 0 0 0 0 0 0 0 0 0 0 0 0 0 0 0 0 0 0 0 0 0 0 0 0 0 0 0 0 0 0 0 0 0 0 0 0 0 0 0 0 0 0 0 0 0 0 0 0 0 0 0 0 0 0 0 0 0 0 0 0 0 0 0 0 0 0 0 0 0 0 0 0 0 0 0 0 0 0 0 0 0 0 0 0 0 0 0 0 0 0 0 0 0 0 0 0 0 0 0 0 0 0 0 0 0 0 0 0 0 0 0 0 0 0 0 0 0 0 0 0 0 0 0 0 0 0 0 0 0 0 0 0 0 0 0 0 0 0 0 0 0 0 0 0 0 0 0 0 0 0 0 0 0 0 0 0 0 0 0 0 0 0 0 0 0 0 0 0 0 0 0 0 0 0 0 0 0 0 0 0 0 0 0 0 0 0 0 0 0 0 0 0 0 0 0 0 0 0 0 0 0 0 0 0 0 0 0 0 0 0 0 0 0 0 0 0 0 0 0 0 0 0 0 0 0 0 0 0 0 0 0 0 0 0 0 0 0 0 0 0 0 0 0 0 0 0 0 0 0 0 0 0 0 0 0 0 0 0 0 0 0 0 0 0 0 0 0 0 0 0 0 0 0 0 0 0 0 0 0 0 0 0 0 0 0 0 0 0 0 0 0 0 0 0 0 0 0 0 0 0 0 0 0 0 0 0 0 0 0 0 0 0 0 0 0 0 0 0 0 0 0 0 0 0 0 0 0 0 0 0 0 0 0 0 0 0 0 0 0 0 0 0 0 0 0 0 0 0 0 0 0 0 0 0 0 0 0 0 0 0 0 0 255
255 0 0 0 0 0 0 0 0 0 0 0 0 0 0 0 0 0 0 0 0 0 0 0 0 0 0 0 0 0 0 0 0 0 0 0 0 0 0 0 0 0 0 0 0 0 0 0 0 0 0 0 0 0 0 0 0 0 0 0 0 0 0 0 0 0 0 0 0 0 0 0 0 0 0 0 0 0 0 0 0 0 0 0 0 0 0 4 9 0 0 11 17 0 0 12 0 0 0 24 125 187 0 0 0 0 0 0 158 191 47 35 89 224 0 0 56 0 0 0 0 255 39 0 37 100 0 22 60 0 0 0 0 187 192 0 0 0 0 0 0 0 49 0 0 60 0 0 68 212 0 0 0 0 29 0 43 0 52 0 142 0 0 0 0 105 0 133 40 0 29 64 0 0 18 38 0 0 0 0 255 0 255 0 0 200 0 54 161 0 3 0 4 0 0 0 0 0 0 0 6 10 10 4 3 5 12 17 0 80 191 86 0 0 0 0 115 74 43 14 0 0 2 7 5 0 0 4 4 3 3 0 2 0 0 0 0 0 0 0 0 0 0 0 0 0 0 0 0 0 0 0 0 0 0 1 2 3 2 2 2 4 5 4 2 1 2 3 3 3 2 2 3 4 5 5 6 7 8 8 0 0 0 2 2 18 16 30 11 18 5 1 3 4 13 10 0 0 0 0 0 0 0 0 9 12 4 7 8 10 2 0 23 19 7 8 8 3 0 0 0 13 4 6 0 6 8 9 8 7 0 0 4 11 1 7 13 15 13 11 5 7 8 5 9 3 0 0 0 0 0 0 37 21 18 10 16 7 5 2 13 10 8 3 1 1 2 4 5 5 3 1 0 1 2 2 1 0 0 0 1 2 3 2 2 2 3 3 3 3 2 2 2 4 4 4 3 3 7 24 40 65 76 76 121 123 42 0 0 0 0 0 0 0 18 29 64 50 4 0 0 21 10 0 0 0 0 0 0 3 0 0 0 3 0 29 0 0 158 0 0 7 17 4 0 0 18 56 40 37 16 1 0 0 16 31 73 0 66 83 0 0 235 37 0 0 0 0 0 0 2 0 46 39 3 0 0 0 0 68 67 0 0 0 0 1 0 0 0 0 0 15 6 11 3 5 13 0 0 43 42 0 0 0 0 13 25 19 12 0 0 0 20 12 6 5 0 5 0 0 0 18 26 0 0 0 2 0 105 9 8 2 3 3 3 2 2 2 1 0 0 0 0 0 0 0 0 0 0 0 0 0 0 0 0 0 0 0 0 0 0 0 0 0 0 0 0 0 0 0 0 0 0 0 0 0 0 0 0 0 0 0 0 0 0 0 0 0 0 0 0 0 0 0 0 0 0 0 0 0 0 0 0 0 0 0 0 0 0 0 0 0 0 0 0 0 0 0 0 0 0 0 0 0 0 0 0 0 0 0 0 0 0 0 0 0 0 0 0 0 0 0 0 0 0 0 0 0 0 0 0 0 0 0 0 0 0 0 0 0 0 0 0 0 0 0 0 0 0 0 0 0 0 0 0 0 0 0 0 0 0 0 0 0 0 0 0 0 0 0 0 0 0 0 0 0 0 0 0 0 0 0 0 0 0 0 0 0 0 0 0 0 0 0 0 0 0 0 0 0 0 0 0 0 0 0 0 0 0 0 0 0 0 0 0 0 0 0 0 0 0 0 0 0 0 0 0 0 0 0 0 0 0 0 0 0 0 0 0 0 0 0 0 0 0 0 0 0 0 0 0 0 0 0 0 0 0 0 0 0 0 0 0 0 0 0 0 0 0 0 0 0 0 0 0 0 0 0 0 0 0 0 0 0 0 0 0 0 0 0 0 0 0 0 0 0 0 0 0 0 0 0 0 0 0 0 0 0 0 0 0 0 0 0 0 0 0 0 0 0 0 0 0 0 0 0 0 0 0 0 0 0 0 0 0 0 0 0 0 0 0 0 0 0 0 0 0 0 0 0 0 0 0 0 0 0 0 0 0 0 0 0 0 0 0 0 0 0 0 0 0 0 0 0 0 0 0 0 0 255
255 0 0 0 0 0 0 0 0 0 0 0 0 0 0 0 0 0 0 0 0 0 0 0 0 0 0 0 0 0 0 0 0 0 0 0 0 0 0 0 0 0 0 0 0 0 0 0 0 0 0 0 0 0 0 0 0 0 0 0 0 0 0 0 0 0 0 0 0 0 0 0 0 0 0 0 0 0 0 0 0 0 0 0 0 0 0 0 5 8 8 3 9 17 18 16 0 13 11 3 37 74 67 133 0 0 0 0 0 69 148 95 0 144 214 0 0 174 0 0 0 255 61 31 0 86 13 0 103 153 0 0 0 0 84 177 89 54 0 0 53 0 62 13 107 0 44 0 20 77 0 0 24 0 9 0 0 0 0 38 41 228 0 0 0 0 197 66 0 138 0 52 0 0 50 38 0 0 0 19 231 0 255 0 0 156 0 88 134 3 8 0 3 0 0 0 0 0 0 3 9 0 0 20 19 0 0 0 121 145 0 0 0 0 116 155 64 10 2 2 6 7 5 1 1 2 2 1 0 0 2 2 2 0 0 0 0 0 0 0 0 0 0 0 0 0 0 0 0 0 0 0 0 0 0 2 0 0 0 2 0 0 0 0 3 1 0 0 0 0 0 2 0 0 0 0 0 0 0 0 0 11 8 11 17 0 0 0 0 0 0 0 0 0 0 0 5 2 1 0 10 12 15 17 0 0 0 0 0 0 0 0 1 0 0 2 0 3 3 9 0 1 0 0 3 2 0 0 6 3 3 2 0 0 0 0 0 0 0 0 0 0 0 2 0 8 9 13 2 1 0 0 0 0 0 0 10 0 15 0 0 0 0 0 2 2 0 0 0 0 0 2 1 3 0 0 3 0 0 0 1 0 0 0 4 0 0 0 0 0 0 6 0 1 0 0 0 4 28 48 28 0 0 0 112 8 0 0 0 50 64 9 0 0 0 0 77 100 0 56 0 102 0 0 0 25 37 22 0 0 14 61 7 0 0 0 0 25 45 0 36 0 0 12 44 0 0 0 0 0 4 0 14 41 35 0 0 10 13 9 0 0 0 5 0 2 0 0 0 0 1 0 0 3 12 15 11 0 0 0 0 0 69 142 130 107 124 152 138 30 0 0 0 0 0 53 0 0 0 0 0 0 0 0 18 10 4 0 0 0 6 0 0 0 0 0 12 16 0 0 0 19 0 0 43 49 0 0 73 0 4 0 6 0 0 4 0 0 2 0 0 0 0 0 0 0 0 0 0 0 0 0 0 0 0 0 0 0 0 0 0 0 0 0 0 0 0 0 0 0 0 0 0 0 0 0 0 0 0 0 0 0 0 0 0 0 0 0 0 0 0 0 0 0 0 0 0 0 0 0 0 0 0 0 0 0 0 0 0 0 0 0 0 0 0 0 0 0 0 0 0 0 0 0 0 0 0 0 0 0 0 0 0 0 0 0 0 0 0 0 0 0 0 0 0 0 0 0 0 0 0 0 0 0 0 0 0 0 0 0 0 0 0 0 0 0 0 0 0 0 0 0 0 0 0 0 0 0 0 0 0 0 0 0 0 0 0 0 0 0 0 0 0 0 0 0 0 0 0 0 0 0 0 0 0 0 0 0 0 0 0 0 0 0 0 0 0 0 0 0 0 0 0 0 0 0 0 0 0 0 0 0 0 0 0 0 0 0 0 0 0 0 0 0 0 0 0 0 0 0 0 0 0 0 0 0 0 0 0 0 0 0 0 0 0 0 0 0 0 0 0 0 0 0 0 0 0 0 0 0 0 0 0 0 0 0 0 0 0 0 0 0 0 0 0 0 0 0 0 0 0 0 0 0 0 0 0 0 0 0 0 0 0 0 0 0 0 0 0 0 0 0 0 0 0 0 0 0 0 0 0 0 0 0 0 0 0 0 0 0 0 0 0 0 0 0 0 0 0 0 0 0 0 0 0 0 0 0 0 0 0 0 0 0 0 0 0 0 0 0 0 0 0 0 0 0 0 0 0 0 0 0 0 0 0 0 0 0 0 0 0 0 0 0 0 0 0 0 0 255
255 0 0 0 0 0 0 0 0 0 0 0 0 0 0 0 0 0 0 0 0 0 0 0 0 0 0 0 0 0 0 0 0 0 0 0 0 0 0 0 0 0 0 0 0 0 0 0 0 0 0 0 0 0 0 0 0 0 0 0 0 0 0 0 0 0 0 0 0 0 0 0 0 0 0 0 0 0 0 0 0 0 0 0 0 0 0 0 0 0 0 0 0 0 0 3 3 3 8 0 8 45 31 86 31 0 0 0 0 0 23 248 140 0 168 202 0 0 74 0 0 14 255 13 0 45 123 0 20 96 0 72 0 0 56 93 66 1 0 0 0 50 0 0 62 9 16 0 35 58 0 0 121 59 6 0 12 36 10 9 0 146 52 0 0 74 159 0 0 77 0 28 0 11 15 38 0 0 0 0 195 0 255 0 0 112 0 85 122 2 6 0 3 0 0 0 0 0 0 13 0 23 31 0 0 30 81 192 80 0 0 0 66 199 86 0 14 0 0 0 0 0 0 0 0 0 0 0 0 0 0 0 0 0 0 0 0 0 0 0 0 0 0 0 0 0 0 0 0 0 0 0 0 0 0 3 0 0 4 2 2 5 0 0 3 1 2 3 3 3 2 2 4 6 8 8 9 11 4 5 7 16 6 8 1 3 3 0 10 1 0 7 6 8 0 0 8 4 11 10 5 4 4 0 1 0 6 3 0 6 5 0 0 0 2 6 0 5 2 6 0 4 0 0 5 3 8 0 3 0 6 4 3 3 3 0 11 6 6 6 6 6 6 8 0 0 0 0 7 0 1 1 0 0 1 0 4 11 14 3 19 4 7 0 3 3 0 3 0 2 0 2 2 0 2 0 5 0 0 0 1 2 4 0 0 5 6 0 0 0 0 12 0 0 1 0 13 37 35 21 51 0 0 110 5 0 0 13 0 25 25 0 0 0 0 0 0 18 75 5 0 0 0 129 14 0 0 0 69 85 0 0 63 42 70 56 0 0 0 39 0 51 58 5 0 24 39 19 41 32 14 7 0 0 0 0 0 0 2 0 0 0 4 23 0 0 4 0 0 0 4 2 0 0 1 0 0 0 0 22 124 74 63 35 0 0 0 0 24 63 126 112 42 0 0 5 28 29 26 13 21 40 56 57 0 4 3 1 5 0 5 8 6 3 0 0 9 12 1 0 0 10 0 0 16 15 0 0 82 0 7 0 7 0 0 5 0 0 3 0 0 0 0 0 0 0 0 0 0 0 0 0 0 0 0 0 0 0 0 0 0 0 0 0 0 0 0 0 0 0 0 0 0 0 0 0 0 0 0 0 0 0 0 0 0 0 0 0 0 0 0 0 0 0 0 0 0 0 0 0 0 0 0 0 0 0 0 0 0 0 0 0 0 0 0 0 0 0 0 0 0 0 0 0 0 0 0 0 0 0 0 0 0 0 0 0 0 0 0 0 0 0 0 0 0 0 0 0 0 0 0 0 0 0 0 0 0 0 0 0 0 0 0 0 0 0 0 0 0 0 0 0 0 0 0 0 0 0 0 0 0 0 0 0 0 0 0 0 0 0 0 0 0 0 0 0 0 0 0 0 0 0 0 0 0 0 0 0 0 0 0 0 0 0 0 0 0 0 0 0 0 0 0 0 0 0 0 0 0 0 0 0 0 0 0 0 0 0 0 0 0 0 0 0 0 0 0 0 0 0 0 0 0 0 0 0 0 0 0 0 0 0 0 0 0 0 0 0 0 0 0 0 0 0 0 0 0 0 0 0 0 0 0 0 0 0 0 0 0 0 0 0 0 0 0 0 0 0 0 0 0 0 0 0 0 0 0 0 0 0 0 0 0 0 0 0 0 0 0 0 0 0 0 0 0 0 0 0 0 0 0 0 0 0 0 0 0 0 0 0 0 0 0 0 0 0 0 0 0 0 0 0 0 0 0 0 0 0 0 0 0 0 0 0 0 0 0 0 0 0 0 0 0 0 0 0 0 0 0 0 0 0 0 0 0 0 0 0 0 0 0 0 0 0 0 0 0 0 0 255
255 0 0 0 0 0 0 0 0 0 0 0 0 0 0 0 0 0 0 0 0 0 0 0 0 0 0 0 0 0 0 0 0 0 0 0 0 0 0 0 0 0 0 0 0 0 0 0 0 0 0 0 0 0 0 0 0 0 0 0 0 0 0 0 0 0 0 0 0 0 0 0 0 0 0 0 0 0 0 0 0 0 0 0 0 0 0 0 0 0 0 0 0 0 0 4 4 4 8 0 7 26 62 76 193 81 0 0 0 0 0 0 255 0 31 162 179 0 0 0 0 0 255 97 31 0 60 0 0 32 0 9 0 0 0 0 93 64 105 0 0 54 0 0 0 56 0 0 46 54 4 0 92 64 17 0 9 35 12 1 0 42 152 0 0 249 129 0 0 8 0 0 0 74 0 55 0 0 13 0 157 0 220 0 0 86 0 116 126 2 9 0 5 0 0 0 0 0 0 13 0 15 23 0 52 121 110 17 0 0 0 36 82 38 20 19 14 0 0 0 0 0 0 0 0 0 0 0 0 0 0 0 0 0 0 0 0 0 0 0 0 0 0 0 0 0 0 0 0 0 0 0 0 0 0 3 0 0 3 0 0 1 2 2 1 0 0 1 2 3 4 7 11 6 8 9 10 14 8 10 15 0 0 0 0 0 0 0 10 5 4 5 0 0 2 5 0 0 1 1 1 0 0 0 4 0 0 0 0 0 0 0 7 1 0 0 0 0 5 0 6 0 0 0 0 0 0 0 0 0 0 0 0 0 0 0 7 0 0 0 0 0 0 0 7 6 4 5 1 0 0 3 4 0 0 0 0 0 0 0 25 11 16 3 6 5 0 0 3 0 4 1 3 0 0 0 6 0 0 0 0 0 1 4 0 0 5 0 0 0 4 10 0 4 7 3 31 60 0 0 0 0 102 123 0 0 0 21 25 49 38 0 15 10 0 3 0 46 207 0 23 0 17 0 24 89 125 119 128 175 170 107 0 0 0 65 59 0 0 0 0 0 38 91 87 44 24 45 50 9 1 24 35 11 10 45 0 3 0 0 2 6 1 0 0 5 2 12 1 2 6 4 14 9 0 0 0 0 59 115 117 48 0 0 0 0 0 0 0 0 4 54 116 116 28 0 14 13 13 0 18 41 53 52 0 6 1 4 3 4 4 6 0 0 0 0 0 1 0 0 0 28 0 0 7 9 0 0 94 2 5 3 5 0 5 3 0 0 2 0 0 0 0 0 0 0 0 0 0 0 0 0 0 0 0 0 0 0 0 0 0 0 0 0 0 0 0 0 0 0 0 0 0 0 0 0 0 0 0 0 0 0 0 0 0 0 0 0 0 0 0 0 0 0 0 0 0 0 0 0 0 0 0 0 0 0 0 0 0 0 0 0 0 0 0 0 0 0 0 0 0 0 0 0 0 0 0 0 0 0 0 0 0 0 0 0 0 0 0 0 0 0 0 0 0 0 0 0 0 0 0 0 0 0 0 0 0 0 0 0 0 0 0 0 0 0 0 0 0 0 0 0 0 0 0 0 0 0 0 0 0 0 0 0 0 0 0 0 0 0 0 0 0 0 0 0 0 0 0 0 0 0 0 0 0 0 0 0 0 0 0 0 0 0 0 0 0 0 0 0 0 0 0 0 0 0 0 0 0 0 0 0 0 0 0 0 0 0 0 0 0 0 0 0 0 0 0 0 0 0 0 0 0 0 0 0 0 0 0 0 0 0 0 0 0 0 0 0 0 0 0 0 0 0 0 0 0 0 0 0 0 0 0 0 0 0 0 0 0 0 0 0 0 0 0 0 0 0 0 0 0 0 0 0 0 0 0 0 0 0 0 0 0 0 0 0 0 0 0 0 0 0 0 0 0 0 0 0 0 0 0 0 0 0 0 0 0 0 0 0 0 0 0 0 0 0 0 0 0 0 0 0 0 0 0 0 0 0 0 0 0 0 0 0 0 0 0 0 0 0 0 0 0 0 0 0 0 0 0 0 0 0 0 0 0 0 0 0 0 0 0 0 0 0 0 0 0 0 0 255
255 0 0 0 0 0 0 0 0 0 0 0 0 0 0 0 0 0 0 0 0 0 0 0 0 0 0 0 0 0 0 0 0 0 0 0 0 0 0 0 0 0 0 0 0 0 0 0 0 0 0 0 0 0 0 0 0 0 0 0 0 0 0 0 0 0 0 0 0 0 0 0 0 0 0 0 0 0 0 0 0 0 0 0 0 0 0 0 0 0 0 0 0 0 0 8 0 9 6 0 3 4 23 0 72 177 215 0 0 26 0 0 0 255 100 0 154 187 0 0 0 0 131 183 0 47 23 20 0 98 20 31 37 0 0 31 10 141 207 0 0 0 0 185 0 81 0 0 67 44 85 0 0 0 20 5 23 0 0 44 0 0 195 0 0 255 53 19 0 0 54 0 0 96 0 65 0 0 21 0 119 129 41 0 10 51 0 119 126 2 4 0 8 0 0 0 0 0 0 10 22 16 22 76 190 174 0 0 0 0 35 98 76 22 1 6 4 0 0 0 0 0 0 0 0 0 0 0 0 0 0 0 0 0 0 0 0 0 0 0 0 0 0 0 0 0 0 0 0 0 0 0 0 0 0 3 0 0 3 0 0 0 1 1 1 1 3 6 0 4 8 6 0 0 0 0 0 0 0 3 9 4 0 0 0 0 0 4 0 7 0 2 6 1 4 9 0 2 6 0 2 0 0 0 5 0 0 0 0 0 0 0 0 1 0 1 0 0 0 0 0 0 0 0 3 0 0 0 0 0 0 0 0 0 0 0 4 0 0 0 0 0 6 3 0 0 3 4 0 3 7 2 11 0 0 0 0 0 0 0 7 2 16 21 15 7 4 3 0 0 4 1 3 0 0 0 6 0 0 0 0 0 0 3 0 0 0 4 4 0 2 6 8 9 8 18 29 7 0 0 0 93 98 0 0 0 0 0 77 67 48 19 30 23 0 0 0 0 149 57 137 30 123 0 57 56 36 0 0 0 104 192 255 165 0 0 0 0 0 21 0 15 9 1 9 10 0 0 0 0 2 10 25 50 34 11 0 3 0 0 0 11 0 2 0 0 3 6 10 5 6 5 0 25 0 0 0 126 110 3 0 0 0 0 0 7 3 0 0 0 0 0 3 102 62 0 0 0 0 0 0 0 0 0 0 4 0 0 0 0 9 0 0 0 0 2 0 2 0 0 0 24 2 0 21 0 0 0 92 0 12 2 2 0 2 1 2 2 1 0 0 0 0 0 0 0 0 0 0 0 0 0 0 0 0 0 0 0 0 0 0 0 0 0 0 0 0 0 0 0 0 0 0 0 0 0 0 0 0 0 0 0 0 0 0 0 0 0 0 0 0 0 0 0 0 0 0 0 0 0 0 0 0 0 0 0 0 0 0 0 0 0 0 0 0 0 0 0 0 0 0 0 0 0 0 0 0 0 0 0 0 0 0 0 0 0 0 0 0 0 0 0 0 0 0 0 0 0 0 0 0 0 0 0 0 0 0 0 0 0 0 0 0 0 0 0 0 0 0 0 0 0 0 0 0 0 0 0 0 0 0 0 0 0 0 0 0 0 0 0 0 0 0 0 0 0 0 0 0 0 0 0 0 0 0 0 0 0 0 0 0 0 0 0 0 0 0 0 0 0 0 0 0 0 0 0 0 0 0 0 0 0 0 0 0 0 0 0 0 0 0 0 0 0 0 0 0 0 0 0 0 0 0 0 0 0 0 0 0 0 0 0 0 0 0 0 0 0 0 0 0 0 0 0 0 0 0 0 0 0 0 0 0 0 0 0 0 0 0 0 0 0 0 0 0 0 0 0 0 0 0 0 0 0 0 0 0 0 0 0 0 0 0 0 0 0 0 0 0 0 0 0 0 0 0 0 0 0 0 0 0 0 0 0 0 0 0 0 0 0 0 0 0 0 0 0 0 0 0 0 0 0 0 0 0 0 0 0 0 0 0 0 0 0 0 0 0 0 0 0 0 0 0 0 0 0 0 0 0 0 0 0 0 0 0 0 0 0 0 0 0 0 0 0 0 0 0 0 0 255
255 0 0 0 0 0 0 0 0 0 0 0 0 0 0 0 0 0 0 0 0 0 0 0 0 0 0 0 0 0 0 0 0 0 0 0 0 0 0 0 0 0 0 0 0 0 0 0 0 0 0 0 0 0 0 0 0 0 0 0 0 0 0 0 0 0 0 0 0 0 0 0 0 0 0 0 0 0 0 0 0 0 0 0 0 0 0 0 0 0 0 0 0 0 0 8 0 0 3 6 3 0 0 0 13 39 255 0 0 0 0 92 0 1 238 54 21 160 140 50 0 0 0 255 0 53 0 100 0 33 65 0 64 73 38 0 0 146 113 0 0 0 0 148 0 76 0 0 58 8 86 27 0 0 0 0 33 0 0 74 54 0 194 0 0 255 0 72 0 0 85 0 0 46 0 47 0 0 5 12 63 255 0 0 77 15 0 124 128 3 8 0 11 0 0 0 0 0 0 8 21 0 75 227 0 0 0 0 0 0 48 31 32 12 9 0 4 0 0 0 0 0 0 0 0 0 0 0 0 0 0 0 0 0 0 0 0 0 0 0 0 0 0 0 0 0 0 0 0 0 0 0 0 0 0 3 0 0 3 1 2 4 6 0 5 5 1 0 7 6 0 3 0 1 0 0 0 0 0 0 0 0 4 5 5 3 0 1 0 2 0 1 0 0 0 0 0 0 2 8 11 8 7 0 0 0 5 0 8 1 4 8 6 0 9 3 7 4 11 10 11 6 0 2 10 14 9 7 2 2 9 6 4 2 9 8 0 0 4 3 3 3 0 0 6 2 12 5 7 6 6 0 4 3 7 0 3 0 0 0 0 0 0 5 8 9 13 13 7 3 0 3 3 0 1 0 5 0 0 0 0 0 0 3 0 0 0 3 3 3 2 0 6 1 8 22 34 0 0 0 37 69 0 0 0 11 0 0 56 39 27 0 15 8 0 0 56 0 0 209 52 0 0 78 193 16 0 0 0 0 0 0 179 221 164 9 33 107 110 123 55 159 117 0 0 0 20 0 0 17 9 0 0 9 9 0 0 2 19 16 5 0 4 10 0 0 2 8 10 0 3 11 0 0 0 0 52 94 23 0 0 0 2 26 39 30 28 31 0 43 23 0 0 0 1 22 19 16 14 0 0 4 0 0 0 0 0 0 0 0 9 0 4 0 4 0 4 7 0 11 0 18 15 4 29 0 0 0 90 0 2 2 1 1 1 0 0 0 0 0 0 0 0 0 0 0 0 0 0 0 0 0 0 0 0 0 0 0 0 0 0 0 0 0 0 0 0 0 0 0 0 0 0 0 0 0 0 0 0 0 0 0 0 0 0 0 0 0 0 0 0 0 0 0 0 0 0 0 0 0 0 0 0 0 0 0 0 0 0 0 0 0 0 0 0 0 0 0 0 0 0 0 0 0 0 0 0 0 0 0 0 0 0 0 0 0 0 0 0 0 0 0 0 0 0 0 0 0 0 0 0 0 0 0 0 0 0 0 0 0 0 0 0 0 0 0 0 0 0 0 0 0 0 0 0 0 0 0 0 0 0 0 0 0 0 0 0 0 0 0 0 0 0 0 0 0 0 0 0 0 0 0 0 0 0 0 0 0 0 0 0 0 0 0 0 0 0 0 0 0 0 0 0 0 0 0 0 0 0 0 0 0 0 0 0 0 0 0 0 0 0 0 0 0 0 0 0 0 0 0 0 0 0 0 0 0 0 0 0 0 0 0 0 0 0 0 0 0 0 0 0 0 0 0 0 0 0 0 0 0 0 0 0 0 0 0 0 0 0 0 0 0 0 0 0 0 0 0 0 0 0 0 0 0 0 0 0 0 0 0 0 0 0 0 0 0 0 0 0 0 0 0 0 0 0 0 0 0 0 0 0 0 0 0 0 0 0 0 0 0 0 0 0 0 0 0 0 0 0 0 0 0 0 0 0 0 0 0 0 0 0 0 0 0 0 0 0 0 0 0 0 0 0 0 0 0 0 0 0 0 0 0 0 0 0 0 0 0 0 0 0 0 0 0 0 0 0 0 0 255
255 0 0 0 0 0 0 0 0 0 0 0 0 0 0 0 0 0 0 0 0 0 0 0 0 0 0 0 0 0 0 0 0 0 0 0 0 0 0 0 0 0 0 0 0 0 0 0 0 0 0 0 0 0 0 0 0 0 0 0 0 0 0 0 0 0 0 0 0 0 0 0 0 0 0 0 0 0 0 0 0 0 0 0 0 0 0 0 0 0 0 0 0 0 0 5 6 6 3 0 0 2 14 11 39 0 240 0 0 26 0 32 12 0 69 183 55 0 0 197 221 0 0 90 143 37 0 121 0 0 76 0 0 8 0 0 0 132 13 44 0 0 0 0 55 53 0 0 21 0 35 46 84 0 0 0 16 0 0 28 66 0 110 0 150 153 0 21 0 0 67 0 0 0 0 0 0 6 0 87 0 255 0 0 103 0 0 142 121 5 8 0 11 1 0 0 0 0 0 19 0 79 213 0 0 0 8 0 0 43 120 35 0 0 12 8 8 0 0 0 0 0 0 0 0 0 0 0 0 0 0 0 0 0 0 0 0 0 0 0 0 0 0 0 0 0 0 0 0 0 0 0 0 0 0 3 0 0 5 4 0 1 0 0 9 10 8 0 0 0 0 0 0 10 0 0 0 0 0 10 0 0 5 7 4 5 0 0 0 0 0 0 0 0 0 3 0 0 0 7 0 3 1 8 7 3 0 1 5 0 2 0 0 1 0 3 7 4 0 0 6 6 0 0 6 9 3 0 3 2 0 6 4 2 0 10 0 3 1 0 0 1 2 0 5 3 0 0 0 0 3 1 2 2 6 12 16 2 0 0 0 0 0 1 2 3 5 8 0 0 1 0 3 2 5 0 4 2 3 3 3 2 1 2 0 5 4 5 0 0 2 0 10 0 0 41 28 0 0 75 50 68 98 32 0 255 255 0 42 40 36 0 16 10 0 0 85 0 0 18 70 81 154 139 33 0 0 0 17 0 0 0 0 0 161 121 81 53 0 8 0 0 75 120 40 0 0 70 0 39 12 0 0 8 66 70 0 8 24 20 0 0 0 18 0 0 4 9 11 8 0 13 0 0 0 118 119 0 0 0 22 30 25 13 0 0 0 17 0 37 44 17 0 0 0 0 0 0 9 0 0 11 14 0 7 0 0 0 6 0 8 0 3 0 10 12 6 0 2 11 0 24 13 15 15 0 0 0 62 0 1 4 1 0 0 0 0 0 0 0 0 0 0 0 0 0 0 0 0 0 0 0 0 0 0 0 0 0 0 0 0 0 0 0 0 0 0 0 0 0 0 0 0 0 0 0 0 0 0 0 0 0 0 0 0 0 0 0 0 0 0 0 0 0 0 0 0 0 0 0 0 0 0 0 0 0 0 0 0 0 0 0 0 0 0 0 0 0 0 0 0 0 0 0 0 0 0 0 0 0 0 0 0 0 0 0 0 0 0 0 0 0 0 0 0 0 0 0 0 0 0 0 0 0 0 0 0 0 0 0 0 0 0 0 0 0 0 0 0 0 0 0 0 0 0 0 0 0 0 0 0 0 0 0 0 0 0 0 0 0 0 0 0 0 0 0 0 0 0 0 0 0 0 0 0 0 0 0 0 0 0 0 0 0 0 0 0 0 0 0 0 0 0 0 0 0 0 0 0 0 0 0 0 0 0 0 0 0 0 0 0 0 0 0 0 0 0 0 0 0 0 0 0 0 0 0 0 0 0 0 0 0 0 0 0 0 0 0 0 0 0 0 0 0 0 0 0 0 0 0 0 0 0 0 0 0 0 0 0 0 0 0 0 0 0 0 0 0 0 0 0 0 0 0 0 0 0 0 0 0 0 0 0 0 0 0 0 0 0 0 0 0 0 0 0 0 0 0 0 0 0 0 0 0 0 0 0 0 0 0 0 0 0 0 0 0 0 0 0 0 0 0 0 0 0 0 0 0 0 0 0 0 0 0 0 0 0 0 0 0 0 0 0 0 0 0 0 0 0 0 0 0 0 0 0 0 0 0 0 0 0 0 0 0 0 0 0 0 0 255
255 0 0 0 0 0 0 0 0 0 0 0 0 0 0 0 0 0 0 0 0 0 0 0 0 0 0 0 0 0 0 0 0 0 0 0 0 0 0 0 0 0 0 0 0 0 0 0 0 0 0 0 0 0 0 0 0 0 0 0 0 0 0 0 0 0 0 0 0 0 0 0 0 0 0 0 0 0 0 0 0 0 0 0 0 0 0 0 0 0 0 0 0 0 0 3 0 7 6 0 0 0 14 29 48 8 135 66 0 39 60 0 0 0 0 19 118 39 2 0 204 104 0 0 12 135 73 51 11 0 166 59 40 48 19 0 0 50 36 44 96 45 0 0 16 16 38 0 0 48 0 0 102 62 0 0 0 0 0 0 41 0 0 46 171 36 0 0 0 0 0 0 47 0 34 0 0 42 0 162 0 245 0 0 103 0 0 206 96 0 16 0 0 2 0 0 0 0 0 19 0 196 90 0 0 71 50 0 128 64 41 12 17 15 10 0 4 0 0 0 0 0 0 0 0 0 0 0 0 0 0 0 0 0 0 0 0 0 0 0 0 0 0 0 0 0 0 0 0 0 0 0 0 0 0 2 0 0 0 0 3 2 0 0 2 0 1 0 0 0 0 0 3 3 0 7 5 1 5 3 0 4 3 3 7 5 0 4 5 0 0 0 7 0 0 0 0 0 0 0 0 0 6 6 1 0 4 0 0 1 6 6 0 4 0 0 0 2 2 0 9 0 0 0 4 7 0 0 3 1 0 0 3 1 0 0 0 0 0 0 0 0 0 0 4 0 0 0 0 1 3 0 3 1 10 4 4 0 6 0 0 0 0 0 0 0 1 0 19 1 4 0 3 0 1 1 3 0 0 0 0 0 4 4 4 5 0 0 0 0 3 1 10 0 9 44 16 0 0 63 11 117 156 35 0 255 255 0 35 54 35 0 2 0 0 0 0 0 0 0 255 255 255 98 0 0 0 0 4 0 0 0 0 1 54 0 0 0 0 0 0 0 0 130 160 7 0 25 20 0 0 0 0 0 42 120 1 2 1 0 0 0 0 0 0 0 0 3 4 0 2 12 0 0 47 107 52 0 0 46 4 0 0 0 0 0 0 3 12 0 0 2 48 46 0 0 0 0 0 0 0 6 1 0 4 1 0 0 0 0 2 0 0 0 11 5 0 0 4 16 0 19 1 1 2 0 0 71 27 1 1 0 2 0 0 0 0 0 0 0 0 0 0 0 0 0 0 0 0 0 0 0 0 0 0 0 0 0 0 0 0 0 0 0 0 0 0 0 0 0 0 0 0 0 0 0 0 0 0 0 0 0 0 0 0 0 0 0 0 0 0 0 0 0 0 0 0 0 0 0 0 0 0 0 0 0 0 0 0 0 0 0 0 0 0 0 0 0 0 0 0 0 0 0 0 0 0 0 0 0 0 0 0 0 0 0 0 0 0 0 0 0 0 0 0 0 0 0 0 0 0 0 0 0 0 0 0 0 0 0 0 0 0 0 0 0 0 0 0 0 0 0 0 0 0 0 0 0 0 0 0 0 0 0 0 0 0 0 0 0 0 0 0 0 0 0 0 0 0 0 0 0 0 0 0 0 0 0 0 0 0 0 0 0 0 0 0 0 0 0 0 0 0 0 0 0 0 0 0 0 0 0 0 0 0 0 0 0 0 0 0 0 0 0 0 0 0 0 0 0 0 0 0 0 0 0 0 0 0 0 0 0 0 0 0 0 0 0 0 0 0 0 0 0 0 0 0 0 0 0 0 0 0 0 0 0 0 0 0 0 0 0 0 0 0 0 0 0 0 0 0 0 0 0 0 0 0 0 0 0 0 0 0 0 0 0 0 0 0 0 0 0 0 0 0 0 0 0 0 0 0 0 0 0 0 0 0 0 0 0 0 0 0 0 0 0 0 0 0 0 0 0 0 0 0 0 0 0 0 0 0 0 0 0 0 0 0 0 0 0 0 0 0 0 0 0 0 0 0 0 0 0 0 0 0 0 0 0 0 0 0 0 0 0 0 0 0 0 0 255
255 0 0 0 0 0 0 0 0 0 0 0 0 0 0 0 0 0 0 0 0 0 0 0 0 0 0 0 0 0 0 0 0 0 0 0 0 0 0 0 0 0 0 0 0 0 0 0 0 0 0 0 0 0 0 0 0 0 0 0 0 0 0 0 0 0 0 0 0 0 0 0 0 0 0 0 0 0 0 0 0 0 0 0 0 0 0 0 0 0 0 0 0 0 0 4 0 0 0 7 13 0 0 0 0 96 160 255 0 0 186 0 0 0 0 74 226 3 58 0 0 19 170 0 0 0 35 141 0 0 117 43 0 3 96 11 0 0 51 0 88 240 38 31 0 7 130 0 0 131 0 0 0 108 60 0 0 0 8 0 48 0 0 196 43 0 67 0 0 45 2 0 126 0 104 0 0 84 0 208 0 197 0 0 86 0 0 209 54 0 15 1 3 8 6 5 6 5 7 26 122 205 0 0 103 0 0 104 145 27 7 0 0 0 8 6 7 3 1 0 0 1 4 5 5 3 2 1 0 0 0 0 0 0 0 0 0 0 0 0 0 0 0 0 0 0 0 0 0 0 0 1 2 3 3 5 10 6 10 10 4 2 0 4 0 0 0 4 6 9 11 13 15 8 11 0 1 0 0 0 0 0 0 0 0 1 1 12 13 11 17 15 6 7 7 4 0 0 0 0 0 0 0 6 16 18 24 18 12 7 14 18 6 13 16 14 16 6 0 0 11 0 0 0 0 13 6 8 6 9 5 3 3 10 9 8 18 17 14 10 7 5 4 1 1 0 0 0 0 0 0 8 2 6 0 0 0 0 0 3 1 0 0 0 0 0 3 0 59 18 19 4 6 5 7 7 7 0 1 0 0 0 0 0 0 0 0 2 1 0 2 2 0 14 17 39 1 0 0 51 124 104 17 81 0 0 0 0 51 65 51 0 0 0 0 15 81 78 0 0 255 0 0 0 0 41 43 0 0 13 5 0 252 220 45 0 35 88 0 23 0 32 0 0 8 245 122 0 71 0 0 38 0 0 0 52 71 0 0 0 9 19 6 0 0 0 0 7 10 5 8 26 0 56 80 0 0 0 27 0 8 0 0 1 19 14 0 0 4 0 8 17 0 0 0 57 0 2 10 3 0 14 10 0 11 2 3 10 11 17 23 25 23 22 34 26 17 1 6 16 2 21 0 0 0 0 0 59 16 0 6 3 6 1 1 2 3 3 3 3 2 1 0 0 0 0 0 0 0 0 0 0 0 0 0 0 0 0 0 0 0 0 0 0 0 0 0 0 0 0 0 0 0 0 0 0 0 0 0 0 0 0 0 0 0 0 0 0 0 0 0 0 0 0 0 0 0 0 0 0 0 0 0 0 0 0 0 0 0 0 0 0 0 0 0 0 0 0 0 0 0 0 0 0 0 0 0 0 0 0 0 0 0 0 0 0 0 0 0 0 0 0 0 0 0 0 0 0 0 0 0 0 0 0 0 0 0 0 0 0 0 0 0 0 0 0 0 0 0 0 0 0 0 0 0 0 0 0 0 0 0 0 0 0 0 0 0 0 0 0 0 0 0 0 0 0 0 0 0 0 0 0 0 0 0 0 0 0 0 0 0 0 0 0 0 0 0 0 0 0 0 0 0 0 0 0 0 0 0 0 0 0 0 0 0 0 0 0 0 0 0 0 0 0 0 0 0 0 0 0 0 0 0 0 0 0 0 0 0 0 0 0 0 0 0 0 0 0 0 0 0 0 0 0 0 0 0 0 0 0 0 0 0 0 0 0 0 0 0 0 0 0 0 0 0 0 0 0 0 0 0 0 0 0 0 0 0 0 0 0 0 0 0 0 0 0 0 0 0 0 0 0 0 0 0 0 0 0 0 0 0 0 0 0 0 0 0 0 0 0 0 0 0 0 0 0 0 0 0 0 0 0 0 0 0 0 0 0 0 0 0 0 0 0 0 0 0 0 0 0 0 0 0 0 0 0 0 0 0 0 0 0 0 0 0 0 0 0 0 0 0 0 0 0 0 0 0 0 0 255
255 0 0 0 0 0 0 0 0 0 0 0 0 0 0 0 0 0 0 0 0 0 0 0 0 0 0 0 0 0 0 0 0 0 0 0 0 0 0 0 0 0 0 0 0 0 0 0 0 0 0 0 0 0 0 0 0 0 0 0 0 0 0 0 0 0 0 0 0 0 0 0 0 0 0 0 0 0 0 0 0 0 0 0 0 0 0 0 0 0 0 0 0 0 0 4 0 3 1 0 1 9 19 46 0 0 0 234 255 0 0 222 44 0 46 0 192 107 1 10 0 0 0 90 62 0 0 152 226 0 0 194 6 32 132 50 0 2 64 135 66 0 0 0 43 0 36 0 0 7 0 36 0 35 62 0 0 0 0 0 93 0 0 83 22 101 0 74 0 88 0 0 72 0 21 7 0 0 26 159 0 0 0 0 67 0 0 255 36 7 0 7 6 0 13 3 0 8 20 7 196 0 0 0 0 0 154 106 0 23 18 14 0 0 4 2 0 0 3 4 6 7 0 0 0 0 0 2 0 0 0 0 0 0 0 0 0 0 0 0 0 0 0 0 0 0 0 1 2 3 2 2 0 0 0 0 0 0 0 0 9 4 0 7 0 4 0 0 0 0 0 0 0 0 0 0 1 1 9 8 12 8 16 5 0 0 0 8 0 2 0 0 2 0 0 0 11 18 10 12 9 2 0 1 0 0 0 0 0 0 0 0 0 0 0 0 0 0 15 18 10 5 16 14 17 2 0 0 0 0 7 5 0 0 0 0 0 0 0 0 0 0 0 0 4 5 14 15 7 2 0 0 0 0 7 4 4 8 13 14 8 16 26 18 0 0 0 0 0 0 10 20 10 1 0 0 0 0 0 0 7 0 0 0 26 48 56 39 0 6 10 14 10 0 16 50 32 0 0 0 88 130 0 0 0 25 0 19 81 20 87 0 0 20 0 0 0 0 0 0 0 0 0 0 0 0 17 84 0 47 0 87 196 0 0 10 29 3 8 70 0 6 53 0 0 0 255 0 0 19 2 0 0 0 0 0 59 89 8 17 47 0 27 0 71 38 3 0 0 0 0 0 0 0 0 0 20 32 15 0 0 7 23 0 0 17 16 0 25 10 5 14 18 41 20 0 29 7 0 0 10 10 9 0 23 10 0 0 0 0 0 0 0 0 0 0 0 5 17 14 0 48 24 0 0 64 90 20 19 12 0 0 0 2 2 0 0 0 0 0 0 1 0 0 0 0 0 0 0 0 0 0 0 0 0 0 0 0 0 0 0 0 0 0 0 0 0 0 0 0 0 0 0 0 0 0 0 0 0 0 0 0 0 0 0 0 0 0 0 0 0 0 0 0 0 0 0 0 0 0 0 0 0 0 0 0 0 0 0 0 0 0 0 0 0 0 0 0 0 0 0 0 0 0 0 0 0 0 0 0 0 0 0 0 0 0 0 0 0 0 0 0 0 0 0 0 0 0 0 0 0 0 0 0 0 0 0 0 0 0 0 0 0 0 0 0 0 0 0 0 0 0 0 0 0 0 0 0 0 0 0 0 0 0 0 0 0 0 0 0 0 0 0 0 0 0 0 0 0 0 0 0 0 0 0 0 0 0 0 0 0 0 0 0 0 0 0 0 0 0 0 0 0 0 0 0 0 0 0 0 0 0 0 0 0 0 0 0 0 0 0 0 0 0 0 0 0 0 0 0 0 0 0 0 0 0 0 0 0 0 0 0 0 0 0 0 0 0 0 0 0 0 0 0 0 0 0 0 0 0 0 0 0 0 0 0 0 0 0 0 0 0 0 0 0 0 0 0 0 0 0 0 0 0 0 0 0 0 0 0 0 0 0 0 0 0 0 0 0 0 0 0 0 0 0 0 0 0 0 0 0 0 0 0 0 0 0 0 0 0 0 0 0 0 0 0 0 0 0 0 0 0 0 0 0 0 0 0 0 0 0 0 0 0 0 0 0 0 0 0 0 0 0 0 0 0 0 0 0 0 0 0 0 0 0 0 0 0 0 0 0 0 0 0 0 0 0 0 0 255
255 0 0 0 0 0 0 0 0 0 0 0 0 0 0 0 0 0 0 0 0 0 0 0 0 0 0 0 0 0 0 0 0 0 0 0 0 0 0 0 0 0 0 0 0 0 0 0 0 0 0 0 0 0 0 0 0 0 0 0 0 0 0 0 0 0 0 0 0 0 0 0 0 0 0 0 0 0 0 0 0 0 0 0 0 0 0 0 0 0 0 0 0 0 0 3 0 0 0 0 0 0 0 18 55 99 0 0 0 0 0 0 68 0 0 0 0 255 44 47 0 94 45 0 0 13 0 0 246 0 0 193 77 0 83 0 0 0 0 31 51 132 111 0 26 0 63 15 0 63 4 0 0 7 31 27 0 0 0 9 35 0 173 93 48 93 0 32 0 79 0 0 27 11 29 0 49 5 24 143 0 0 0 0 100 0 0 255 6 12 0 10 0 31 0 23 27 0 35 178 124 0 0 0 0 23 160 0 29 0 0 13 22 27 19 20 22 27 17 0 0 0 0 1 1 0 0 3 0 0 0 0 0 0 0 0 0 0 0 0 0 0 0 0 0 1 2 6 0 0 0 2 3 7 2 10 4 0 0 0 8 0 8 0 0 0 0 2 4 0 0 6 0 0 0 0 1 2 0 8 9 4 3 3 1 4 1 7 0 0 1 0 6 4 1 6 11 1 7 7 0 3 0 5 0 1 0 3 0 4 4 0 9 10 1 0 0 1 11 0 24 5 1 0 0 0 8 13 0 10 0 4 4 2 8 16 0 4 2 7 5 6 11 10 2 1 0 6 0 5 0 0 0 0 2 6 5 6 1 7 0 0 3 9 6 7 5 5 6 3 0 9 19 20 16 11 4 6 6 2 0 24 53 132 140 111 66 96 178 113 58 0 6 7 0 18 33 0 0 59 73 57 88 0 0 0 0 0 78 0 34 0 66 255 0 0 0 0 218 255 255 255 255 255 239 88 0 0 100 0 0 177 18 0 1 22 41 20 0 0 69 0 0 0 0 0 205 169 0 4 19 0 28 61 0 0 41 81 14 0 13 0 16 0 0 0 0 0 14 25 36 18 0 0 17 0 0 15 7 0 0 19 26 0 0 7 17 0 1 0 0 0 0 0 0 0 0 0 7 12 15 0 0 0 5 0 0 0 0 1 0 0 0 0 0 0 0 0 0 0 0 0 0 0 25 86 29 0 0 0 18 12 10 0 5 4 0 0 0 0 3 1 0 0 0 0 0 0 0 0 0 0 0 0 0 0 0 0 0 0 0 0 0 0 0 0 0 0 0 0 0 0 0 0 0 0 0 0 0 0 0 0 0 0 0 0 0 0 0 0 0 0 0 0 0 0 0 0 0 0 0 0 0 0 0 0 0 0 0 0 0 0 0 0 0 0 0 0 0 0 0 0 0 0 0 0 0 0 0 0 0 0 0 0 0 0 0 0 0 0 0 0 0 0 0 0 0 0 0 0 0 0 0 0 0 0 0 0 0 0 0 0 0 0 0 0 0 0 0 0 0 0 0 0 0 0 0 0 0 0 0 0 0 0 0 0 0 0 0 0 0 0 0 0 0 0 0 0 0 0 0 0 0 0 0 0 0 0 0 0 0 0 0 0 0 0 0 0 0 0 0 0 0 0 0 0 0 0 0 0 0 0 0 0 0 0 0 0 0 0 0 0 0 0 0 0 0 0 0 0 0 0 0 0 0 0 0 0 0 0 0 0 0 0 0 0 0 0 0 0 0 0 0 0 0 0 0 0 0 0 0 0 0 0 0 0 0 0 0 0 0 0 0 0 0 0 0 0 0 0 0 0 0 0 0 0 0 0 0 0 0 0 0 0 0 0 0 0 0 0 0 0 0 0 0 0 0 0 0 0 0 0 0 0 0 0 0 0 0 0 0 0 0 0 0 0 0 0 0 0 0 0 0 0 0 0 0 0 0 0 0 0 0 0 0 0 0 0 0 0 0 0 0 0 0 0 0 0 0 0 0 0 0 0 0 0 0 0 0 0 0 0 0 0 0 0 0 0 0 255
255 0 0 0 0 0 0 0 0 0 0 0 0 0 0 0 0 0 0 0 0 0 0 0 0 0 0 0 0 0 0 0 0 0 0 0 0 0 0 0 0 0 0 0 0 0 0 0 0 0 0 0 0 0 0 0 0 0 0 0 0 0 0 0 0 0 0 0 0 0 0 0 0 0 0 0 0 0 0 0 0 0 0 0 0 0 0 0 0 0 0 0 0 0 0 2 0 0 0 0 0 0 0 1 0 41 106 120 154 85 0 0 35 119 0 0 0 163 51 9 0 0 0 0 55 6 0 0 162 6 0 103 206 0 113 0 54 0 0 80 22 35 45 0 0 0 65 2 0 72 7 0 19 0 15 88 32 0 0 1 0 0 180 0 71 17 0 0 0 37 0 0 54 44 55 0 68 0 0 103 0 26 9 0 116 0 0 214 7 14 0 7 0 35 0 30 27 0 125 199 0 0 0 0 214 162 27 16 28 31 23 18 0 0 0 24 0 0 0 8 17 15 11 9 0 0 0 3 0 0 0 0 0 0 0 0 0 0 0 0 0 0 0 0 0 2 0 0 0 0 5 1 4 2 2 4 0 0 0 0 0 3 0 0 4 3 4 0 0 2 3 9 0 0 5 0 0 6 0 0 0 0 0 0 0 2 0 9 0 0 3 0 4 0 0 0 5 1 3 0 0 0 1 0 5 0 0 2 0 0 0 0 10 7 0 2 0 0 0 0 30 5 0 0 0 0 13 8 0 3 9 1 6 1 0 2 0 5 11 6 11 10 5 4 0 0 1 0 0 2 0 0 4 3 0 0 3 0 1 0 9 0 3 0 4 5 9 14 0 0 0 0 3 16 32 12 10 0 0 6 25 72 37 76 0 0 0 0 0 12 106 117 65 0 22 50 4 0 5 80 70 0 61 102 6 0 8 63 65 0 76 0 59 0 0 0 255 255 227 0 0 0 0 0 218 255 25 0 0 0 0 255 0 0 39 23 21 18 0 0 40 0 0 0 80 0 0 255 0 20 0 23 0 0 0 0 31 86 24 0 0 0 21 0 32 0 0 0 0 0 0 24 0 0 35 14 0 0 11 3 10 35 34 0 0 0 0 3 12 12 9 5 1 0 0 0 0 0 2 5 8 0 0 9 0 0 0 0 0 0 0 0 0 0 0 0 0 0 0 0 18 0 0 0 72 98 45 36 0 0 12 7 0 0 0 5 5 3 3 2 1 0 0 0 0 0 0 0 0 0 0 0 0 0 0 0 0 0 0 0 0 0 0 0 0 0 0 0 0 0 0 0 0 0 0 0 0 0 0 0 0 0 0 0 0 0 0 0 0 0 0 0 0 0 0 0 0 0 0 0 0 0 0 0 0 0 0 0 0 0 0 0 0 0 0 0 0 0 0 0 0 0 0 0 0 0 0 0 0 0 0 0 0 0 0 0 0 0 0 0 0 0 0 0 0 0 0 0 0 0 0 0 0 0 0 0 0 0 0 0 0 0 0 0 0 0 0 0 0 0 0 0 0 0 0 0 0 0 0 0 0 0 0 0 0 0 0 0 0 0 0 0 0 0 0 0 0 0 0 0 0 0 0 0 0 0 0 0 0 0 0 0 0 0 0 0 0 0 0 0 0 0 0 0 0 0 0 0 0 0 0 0 0 0 0 0 0 0 0 0 0 0 0 0 0 0 0 0 0 0 0 0 0 0 0 0 0 0 0 0 0 0 0 0 0 0 0 0 0 0 0 0 0 0 0 0 0 0 0 0 0 0 0 0 0 0 0 0 0 0 0 0 0 0 0 0 0 0 0 0 0 0 0 0 0 0 0 0 0 0 0 0 0 0 0 0 0 0 0 0 0 0 0 0 0 0 0 0 0 0 0 0 0 0 0 0 0 0 0 0 0 0 0 0 0 0 0 0 0 0 0 0 0 0 0 0 0 0 0 0 0 0 0 0 0 0 0 0 0 0 0 0 0 0 0 0 0 0 0 0 0 0 0 0 0 0 0 0 0 0 0 0 0 0 0 0 0 0 0 255
255 0 0 0 0 0 0 0 0 0 0 0 0 0 0 0 0 0 0 0 0 0 0 0 0 0 0 0 0 0 0 0 0 0 0 0 0 0 0 0 0 0 0 0 0 0 0 0 0 0 0 0 0 0 0 0 0 0 0 0 0 0 0 0 0 0 0 0 0 0 0 0 0 0 0 0 0 0 0 0 0 0 0 0 0 0 0 0 0 0 0 0 0 0 0 1 2 3 3 3 3 3 3 7 0 0 30 59 148 85 0 0 0 0 0 0 0 1 241 61 39 34 0 6 45 0 0 0 104 83 0 0 243 0 98 19 20 0 0 115 40 0 0 118 0 0 60 0 0 32 6 3 18 0 0 77 57 0 0 0 0 0 58 0 111 0 4 0 137 0 0 3 63 0 0 0 28 0 0 68 0 41 19 0 61 0 142 154 9 0 0 7 12 5 0 29 0 64 255 0 0 32 0 51 212 65 0 28 0 0 13 12 35 39 33 0 79 115 124 98 71 44 15 3 0 0 0 3 0 0 0 0 0 0 0 0 0 0 0 0 0 0 0 0 1 4 0 1 1 0 6 6 13 0 1 2 0 0 0 0 0 2 0 0 0 0 1 3 0 0 0 4 0 6 2 0 5 3 0 0 1 4 0 3 0 2 0 7 19 8 16 0 0 0 0 0 0 0 3 0 10 1 6 0 5 3 0 0 5 0 0 0 0 0 6 0 0 0 0 0 0 1 3 24 25 6 0 0 0 0 5 3 0 0 10 6 0 0 0 0 0 0 0 0 3 9 0 2 0 1 3 0 11 2 8 4 4 0 1 0 13 1 0 0 2 0 0 0 0 0 0 0 0 0 7 2 27 0 0 51 93 58 0 0 0 0 0 0 0 0 0 103 202 60 50 31 110 0 0 51 0 0 0 0 0 0 0 90 0 0 0 0 21 0 90 155 204 47 0 0 30 83 69 3 0 118 255 95 0 0 158 157 0 46 58 0 0 6 13 0 0 29 13 0 87 0 0 215 0 0 0 0 21 77 22 0 24 91 21 0 0 0 24 0 119 62 49 12 0 0 0 0 0 15 49 20 0 0 9 8 8 33 55 23 0 0 0 1 8 2 5 9 13 10 8 0 45 19 0 0 0 25 27 42 0 0 10 3 1 0 9 0 25 10 16 7 7 4 11 22 4 0 15 9 0 5 53 71 35 24 0 0 0 9 8 0 5 2 3 2 1 1 1 1 0 0 0 0 0 0 0 0 0 0 0 0 0 0 0 0 0 0 0 0 0 0 0 0 0 0 0 0 0 0 0 0 0 0 0 0 0 0 0 0 0 0 0 0 0 0 0 0 0 0 0 0 0 0 0 0 0 0 0 0 0 0 0 0 0 0 0 0 0 0 0 0 0 0 0 0 0 0 0 0 0 0 0 0 0 0 0 0 0 0 0 0 0 0 0 0 0 0 0 0 0 0 0 0 0 0 0 0 0 0 0 0 0 0 0 0 0 0 0 0 0 0 0 0 0 0 0 0 0 0 0 0 0 0 0 0 0 0 0 0 0 0 0 0 0 0 0 0 0 0 0 0 0 0 0 0 0 0 0 0 0 0 0 0 0 0 0 0 0 0 0 0 0 0 0 0 0 0 0 0 0 0 0 0 0 0 0 0 0 0 0 0 0 0 0 0 0 0 0 0 0 0 0 0 0 0 0 0 0 0 0 0 0 0 0 0 0 0 0 0 0 0 0 0 0 0 0 0 0 0 0 0 0 0 0 0 0 0 0 0 0 0 0 0 0 0 0 0 0 0 0 0 0 0 0 0 0 0 0 0 0 0 0 0 0 0 0 0 0 0 0 0 0 0 0 0 0 0 0 0 0 0 0 0 0 0 0 0 0 0 0 0 0 0 0 0 0 0 0 0 0 0 0 0 0 0 0 0 0 0 0 0 0 0 0 0 0 0 0 0 0 0 0 0 0 0 0 0 0 0 0 0 0 0 0 0 0 0 0 0 0 0 0 0 0 0 0 0 0 0 0 0 0 0 0 255
255 0 0 0 0 0 0 0 0 0 0 0 0 0 0 0 0 0 0 0 0 0 0 0 0 0 0 0 0 0 0 0 0 0 0 0 0 0 0 0 0 0 0 0 0 0 0 0 0 0 0 0 0 0 0 0 0 0 0 0 0 0 0 0 0 0 0 0 0 0 0 0 0 0 0 0 0 0 0 0 0 0 0 0 0 0 0 0 0 0 0 0 0 0 0 0 0 0 0 0 0 0 0 7 9 15 0 0 20 166 98 0 0 0 87 0 0 0 200 177 164 192 172 0 0 26 23 0 133 154 0 0 147 128 7 0 0 30 0 37 68 0 0 71 3 0 44 0 0 6 0 39 3 0 0 9 41 38 18 0 0 0 124 0 126 19 44 0 71 0 0 26 7 0 0 0 2 0 17 84 0 31 24 0 0 0 228 103 11 0 15 10 17 0 0 16 40 196 75 0 0 0 0 255 1 0 23 23 24 27 5 0 0 61 182 255 87 50 0 0 0 6 71 63 20 0 0 3 0 0 0 0 0 0 0 0 0 0 0 0 0 0 0 0 1 0 0 0 5 7 2 0 2 7 0 0 9 2 0 0 0 0 0 0 3 0 0 0 2 4 0 0 3 0 0 0 0 0 0 2 0 0 0 0 4 3 0 13 0 8 1 3 4 4 5 10 0 2 4 0 7 0 1 0 7 4 4 2 1 5 5 8 0 0 0 0 0 0 0 0 0 0 0 4 0 3 7 0 6 3 7 3 5 5 6 7 3 0 0 0 0 2 3 0 1 0 0 6 2 2 3 0 5 0 2 0 5 5 0 0 11 0 0 0 0 4 1 31 0 0 13 2 0 0 0 0 42 20 41 67 11 0 0 0 106 48 32 69 44 0 0 0 0 201 90 0 82 80 0 0 0 63 141 43 0 0 0 134 17 63 0 0 0 0 255 215 0 0 0 36 31 0 0 0 0 0 101 244 50 0 12 83 49 89 89 0 0 8 10 0 0 0 66 0 21 118 0 25 195 9 0 0 0 0 0 0 107 100 2 0 0 0 51 0 0 0 49 98 122 69 0 0 0 21 60 35 0 0 2 0 0 7 39 32 0 0 0 7 0 0 0 0 0 0 3 0 54 22 0 0 18 34 18 0 0 0 0 2 4 0 0 0 13 0 6 0 3 2 0 0 0 0 0 0 0 0 0 13 96 40 30 15 6 0 10 0 7 0 0 0 3 3 0 2 0 0 0 0 0 0 0 0 0 0 0 0 0 0 0 0 0 0 0 0 0 0 0 0 0 0 0 0 0 0 0 0 0 0 0 0 0 0 0 0 0 0 0 0 0 0 0 0 0 0 0 0 0 0 0 0 0 0 0 0 0 0 0 0 0 0 0 0 0 0 0 0 0 0 0 0 0 0 0 0 0 0 0 0 0 0 0 0 0 0 0 0 0 0 0 0 0 0 0 0 0 0 0 0 0 0 0 0 0 0 0 0 0 0 0 0 0 0 0 0 0 0 0 0 0 0 0 0 0 0 0 0 0 0 0 0 0 0 0 0 0 0 0 0 0 0 0 0 0 0 0 0 0 0 0 0 0 0 0 0 0 0 0 0 0 0 0 0 0 0 0 0 0 0 0 0 0 0 0 0 0 0 0 0 0 0 0 0 0 0 0 0 0 0 0 0 0 0 0 0 0 0 0 0 0 0 0 0 0 0 0 0 0 0 0 0 0 0 0 0 0 0 0 0 0 0 0 0 0 0 0 0 0 0 0 0 0 0 0 0 0 0 0 0 0 0 0 0 0 0 0 0 0 0 0 0 0 0 0 0 0 0 0 0 0 0 0 0 0 0 0 0 0 0 0 0 0 0 0 0 0 0 0 0 0 0 0 0 0 0 0 0 0 0 0 0 0 0 0 0 0 0 0 0 0 0 0 0 0 0 0 0 0 0 0 0 0 0 0 0 0 0 0 0 0 0 0 0 0 0 0 0 0 0 0 0 0 0 0 0 0 0 0 0 0 0 0 0 0 0 0 0 0 0 0 255
255 0 0 0 0 0 0 0 0 0 0 0 0 0 0 0 0 0 0 0 0 0 0 0 0 0 0 0 0 0 0 0 0 0 0 0 0 0 0 0 0 0 0 0 0 0 0 0 0 0 0 0 0 0 0 0 0 0 0 0 0 0 0 0 0 0 0 0 0 0 0 0 0 0 0 0 0 0 0 0 0 0 0 0 0 0 0 0 0 0 0 0 0 0 0 0 0 0 0 0 0 0 0 5 0 19 31 19 41 80 135 0 0 0 21 26 0 0 0 79 0 0 45 71 105 61 0 0 81 114 0 0 0 227 0 47 0 105 0 0 110 85 0 0 12 0 41 42 1 13 0 24 0 16 0 0 11 85 59 0 0 157 252 0 62 17 25 0 0 0 22 65 12 26 12 53 0 42 51 98 0 39 20 0 0 0 250 51 11 0 13 6 0 23 9 14 170 101 0 0 0 0 189 128 0 41 27 23 9 0 11 185 255 114 0 0 0 0 0 0 0 0 0 0 24 0 0 3 0 0 0 0 0 0 0 0 0 0 0 0 0 0 0 0 1 3 0 5 7 5 0 10 0 0 0 0 12 4 1 1 8 9 6 7 0 2 4 0 0 0 0 2 0 4 3 4 0 1 0 5 0 0 0 0 0 0 0 10 0 0 0 0 10 15 22 50 0 0 0 0 6 3 0 1 6 3 2 7 14 17 8 11 0 0 4 1 3 7 0 8 0 0 0 0 0 0 8 22 0 0 1 0 9 0 2 0 9 0 15 2 9 10 9 2 6 7 1 5 1 9 0 0 3 0 0 0 0 0 3 5 0 0 8 10 12 12 21 48 0 19 35 19 0 0 0 0 20 27 51 8 0 0 0 50 0 0 0 0 42 22 0 0 0 0 181 108 12 152 92 0 0 9 46 0 3 0 0 20 0 34 36 0 0 255 76 0 0 38 13 0 0 36 69 84 41 4 0 67 229 0 0 180 41 69 74 25 0 11 2 0 72 0 0 21 0 113 0 0 138 8 210 255 254 9 0 0 140 86 0 0 19 9 49 0 0 0 0 27 70 77 50 3 0 17 48 25 0 0 0 0 0 0 32 34 8 1 0 10 6 3 10 9 16 18 11 9 0 2 0 11 36 29 0 0 0 0 3 0 0 0 0 0 3 2 0 0 1 0 0 1 15 0 0 0 0 0 0 0 0 0 64 26 10 0 0 0 0 6 0 0 0 5 0 4 1 0 0 0 0 0 0 0 0 0 0 0 0 0 0 0 0 0 0 0 0 0 0 0 0 0 0 0 0 0 0 0 0 0 0 0 0 0 0 0 0 0 0 0 0 0 0 0 0 0 0 0 0 0 0 0 0 0 0 0 0 0 0 0 0 0 0 0 0 0 0 0 0 0 0 0 0 0 0 0 0 0 0 0 0 0 0 0 0 0 0 0 0 0 0 0 0 0 0 0 0 0 0 0 0 0 0 0 0 0 0 0 0 0 0 0 0 0 0 0 0 0 0 0 0 0 0 0 0 0 0 0 0 0 0 0 0 0 0 0 0 0 0 0 0 0 0 0 0 0 0 0 0 0 0 0 0 0 0 0 0 0 0 0 0 0 0 0 0 0 0 0 0 0 0 0 0 0 0 0 0 0 0 0 0 0 0 0 0 0 0 0 0 0 0 0 0 0 0 0 0 0 0 0 0 0 0 0 0 0 0 0 0 0 0 0 0 0 0 0 0 0 0 0 0 0 0 0 0 0 0 0 0 0 0 0 0 0 0 0 0 0 0 0 0 0 0 0 0 0 0 0 0 0 0 0 0 0 0 0 0 0 0 0 0 0 0 0 0 0 0 0 0 0 0 0 0 0 0 0 0 0 0 0 0 0 0 0 0 0 0 0 0 0 0 0 0 0 0 0 0 0 0 0 0 0 0 0 0 0 0 0 0 0 0 0 0 0 0 0 0 0 0 0 0 0 0 0 0 0 0 0 0 0 0 0 0 0 0 0 0 0 0 0 0 0 0 0 0 0 0 0 0 0 0 255
255 0 0 0 0 0 0 0 0 0 0 0 0 0 0 0 0 0 0 0 0 0 0 0 0 0 0 0 0 0 0 0 0 0 0 0 0 0 0 0 0 0 0 0 0 0 0 0 0 0 0 0 0 0 0 0 0 0 0 0 0 0 0 0 0 0 0 0 0 0 0 0 0 0 0 0 0 0 0 0 0 0 0 0 0 0 0 0 0 0 0 0 0 0 0 0 0 0 0 0 0 0 0 5 21 0 6 17 0 0 66 212 0 0 0 42 31 61 0 106 0 0 0 39 186 59 0 0 19 89 44 0 0 154 56 93 0 0 0 0 41 226 213 39 75 0 0 21 24 15 0 27 0 20 5 0 1 69 41 0 0 183 156 0 42 0 0 13 0 0 112 111 25 90 83 163 0 48 41 77 0 35 25 0 0 0 235 38 0 0 12 0 0 27 18 129 123 0 0 27 0 94 170 0 24 41 0 49 29 183 255 26 0 0 0 143 206 194 220 195 165 127 86 17 24 0 0 3 0 0 0 0 0 0 0 0 0 0 0 0 0 0 0 0 0 1 2 7 0 1 5 0 0 0 2 0 5 0 0 0 5 4 0 1 0 0 0 0 3 0 4 7 3 2 0 0 0 0 0 2 0 1 5 1 0 1 1 6 0 0 0 0 4 8 11 25 0 0 10 8 5 0 3 0 0 0 0 0 12 0 0 0 3 0 4 1 2 3 5 14 5 0 0 0 0 0 0 0 0 0 2 0 0 0 0 0 2 0 3 5 1 9 7 0 6 0 6 0 0 3 3 0 0 0 0 0 3 0 0 0 0 3 11 10 0 0 20 28 3 5 15 14 8 1 3 0 0 0 10 18 0 0 0 2 76 52 16 0 0 0 0 28 0 0 59 231 0 91 255 0 0 0 0 0 0 0 0 0 0 0 0 0 0 255 19 66 0 0 8 0 40 72 0 0 0 74 0 0 89 0 0 142 40 12 35 12 0 5 0 0 61 0 0 30 0 30 0 39 0 0 0 0 0 255 255 0 26 48 0 9 47 0 13 0 58 7 0 0 0 0 24 46 0 5 30 1 0 0 9 0 0 0 0 4 0 0 0 5 21 23 11 19 18 22 4 13 0 0 0 0 0 0 0 0 0 0 5 0 0 0 0 8 13 11 11 8 14 10 8 13 23 15 16 5 28 34 7 0 0 0 31 51 34 8 8 8 6 0 4 5 0 6 0 0 2 0 0 0 0 0 0 0 0 0 0 0 0 0 0 0 0 0 0 0 0 0 0 0 0 0 0 0 0 0 0 0 0 0 0 0 0 0 0 0 0 0 0 0 0 0 0 0 0 0 0 0 0 0 0 0 0 0 0 0 0 0 0 0 0 0 0 0 0 0 0 0 0 0 0 0 0 0 0 0 0 0 0 0 0 0 0 0 0 0 0 0 0 0 0 0 0 0 0 0 0 0 0 0 0 0 0 0 0 0 0 0 0 0 0 0 0 0 0 0 0 0 0 0 0 0 0 0 0 0 0 0 0 0 0 0 0 0 0 0 0 0 0 0 0 0 0 0 0 0 0 0 0 0 0 0 0 0 0 0 0 0 0 0 0 0 0 0 0 0 0 0 0 0 0 0 0 0 0 0 0 0 0 0 0 0 0 0 0 0 0 0 0 0 0 0 0 0 0 0 0 0 0 0 0 0 0 0 0 0 0 0 0 0 0 0 0 0 0 0 0 0 0 0 0 0 0 0 0 0 0 0 0 0 0 0 0 0 0 0 0 0 0 0 0 0 0 0 0 0 0 0 0 0 0 0 0 0 0 0 0 0 0 0 0 0 0 0 0 0 0 0 0 0 0 0 0 0 0 0 0 0 0 0 0 0 0 0 0 0 0 0 0 0 0 0 0 0 0 0 0 0 0 0 0 0 0 0 0 0 0 0 0 0 0 0 0 0 0 0 0 0 0 0 0 0 0 0 0 0 0 0 0 0 0 0 0 0 0 0 0 0 0 0 0 0 0 0 0 0 0 0 0 0 0 255
255 0 0 0 0 0 0 0 0 0 0 0 0 0 0 0 0 0 0 0 0 0 0 0 0 0 0 0 0 0 0 0 0 0 0 0 0 0 0 0 0 0 0 0 0 0 0 0 0 0 0 0 0 0 0 0 0 0 0 0 0 0 0 0 0 0 0 0 0 0 0 0 0 0 0 0 0 0 0 0 0 0 0 0 0 0 0 0 0 0 0 0 0 0 0 0 0 0 0 0 0 0 0 0 17 0 0 16 21 7 26 87 241 0 0 0 75 76 0 59 255 5 0 0 90 157 41 3 83 255 202 0 0 88 173 126 88 0 0 9 0 0 145 0 64 0 0 37 58 27 0 48 0 24 28 0 7 28 0 0 55 91 0 0 109 0 0 104 140 0 33 45 0 0 0 86 0 0 10 70 0 53 41 0 0 57 161 24 0 9 25 8 33 0 66 255 0 0 47 0 0 255 38 36 0 61 75 196 142 104 0 0 0 136 253 82 41 10 4 0 0 0 3 10 0 0 0 2 0 0 0 0 0 0 0 0 0 0 0 1 2 6 7 6 3 2 8 12 11 7 0 0 0 2 25 22 0 0 0 0 0 0 5 0 0 0 0 2 0 0 1 6 0 1 0 9 4 10 3 15 8 1 4 0 0 0 0 0 29 25 14 2 0 0 0 0 0 0 0 4 12 6 16 5 16 8 0 0 0 0 0 0 24 15 11 0 5 0 9 4 0 6 29 27 9 0 0 0 8 28 27 15 0 0 0 0 0 0 0 0 0 6 13 0 14 0 11 3 8 1 0 0 13 0 9 0 8 2 8 9 0 10 13 0 0 0 0 0 41 1 0 0 0 20 13 0 0 0 27 153 200 45 0 0 0 12 14 29 51 58 15 0 32 0 0 161 87 0 0 255 59 0 0 255 216 184 174 148 64 0 0 0 247 197 19 24 29 10 11 30 1 0 0 66 23 0 2 123 3 3 0 0 131 24 24 5 11 11 2 1 0 41 0 0 0 0 0 88 31 0 0 19 0 0 178 255 0 2 0 26 59 0 0 8 0 0 2 8 20 0 0 0 0 0 9 15 13 16 24 0 8 0 0 0 1 0 7 29 10 11 0 0 0 0 0 0 40 24 33 17 0 0 8 31 7 11 28 18 10 0 17 24 0 0 0 0 0 0 0 0 0 0 15 0 0 4 17 4 6 0 0 0 70 48 11 0 10 1 6 4 0 6 0 0 4 0 0 0 0 0 0 0 0 0 0 0 0 0 0 0 0 0 0 0 0 0 0 0 0 0 0 0 0 0 0 0 0 0 0 0 0 0 0 0 0 0 0 0 0 0 0 0 0 0 0 0 0 0 0 0 0 0 0 0 0 0 0 0 0 0 0 0 0 0 0 0 0 0 0 0 0 0 0 1 1 1 0 0 0 0 0 0 0 0 0 0 0 0 0 0 0 0 0 0 0 0 0 0 0 0 0 0 1 3 5 4 2 0 0 0 0 0 0 0 0 0 0 0 0 0 0 0 0 0 0 0 0 0 0 0 0 0 0 0 0 0 0 0 0 0 0 0 0 0 0 0 0 0 0 0 0 0 0 0 0 0 0 0 0 0 0 0 0 0 0 0 0 0 0 0 0 0 0 0 0 0 0 0 0 0 0 0 0 0 0 0 0 0 0 0 0 0 0 0 0 0 0 0 0 0 0 0 0 0 0 0 0 0 0 0 0 0 0 0 0 0 0 0 0 0 0 0 0 0 0 0 0 0 0 0 0 0 0 0 0 0 0 0 0 0 0 0 0 0 0 0 0 0 0 0 0 0 0 0 0 0 0 0 0 0 0 0 0 0 0 0 0 0 0 0 0 0 0 0 0 0 0 0 0 0 0 0 0 0 0 0 0 0 0 0 0 0 0 0 0 0 0 0 0 0 0 0 0 0 0 0 0 0 0 0 0 0 0 0 0 0 0 0 0 0 0 0 0 0 0 0 0 0 0 0 0 0 0 0 0 0 0 0 0 0 0 0 0 0 0 0 0 0 0 255
255 0 0 0 0 0 0 0 0 0 0 0 0 0 0 0 0 0 0 0 0 0 0 0 0 0 0 0 0 0 0 0 0 0 0 0 0 0 0 0 0 0 0 0 0 0 0 0 0 0 0 0 0 0 0 0 0 0 0 0 0 0 0 0 0 0 0 0 0 0 0 0 0 0 0 0 0 0 0 0 0 0 0 0 0 0 0 0 0 0 0 0 0 0 0 0 0 0 0 0 0 0 0 0 11 8 8 6 2 2 7 7 93 164 10 0 0 9 22 0 0 255 57 0 0 178 84 255 75 0 0 0 0 0 0 80 255 175 178 74 0 0 15 31 135 205 0 0 0 24 0 0 0 9 3 0 31 1 0 0 225 154 89 212 95 0 16 41 0 43 98 105 0 141 0 0 255 205 0 50 0 175 0 0 0 255 95 0 38 0 36 0 0 92 255 0 0 66 0 0 202 23 0 18 95 212 155 0 0 0 0 0 189 168 60 0 12 3 5 8 10 8 4 2 2 3 2 1 0 0 0 0 0 0 0 0 0 0 0 2 0 1 0 0 4 0 10 0 0 0 0 3 0 0 0 0 3 8 2 3 4 5 0 2 8 5 3 0 10 5 2 1 0 0 0 0 0 0 0 0 0 0 6 0 9 0 2 3 0 0 5 12 0 0 0 19 32 16 3 0 0 0 0 2 0 0 0 2 13 2 1 0 13 0 3 6 20 9 6 0 26 4 0 5 25 41 34 31 0 0 0 18 25 0 18 30 35 0 0 45 22 0 0 8 0 0 0 0 2 0 13 6 13 0 11 7 5 13 0 2 7 0 0 8 9 3 0 0 14 9 13 13 10 0 0 0 0 17 0 0 43 182 126 0 0 19 27 0 13 31 13 23 18 0 0 201 155 32 0 127 255 255 100 17 28 32 28 61 194 95 142 0 255 119 0 69 44 29 3 0 0 25 15 15 0 31 0 0 16 0 0 0 115 111 0 2 31 0 32 18 0 0 51 145 96 0 0 48 1 129 34 0 2 0 0 202 225 0 0 13 6 25 0 42 0 19 54 27 0 0 0 4 0 70 54 0 0 91 0 10 24 3 5 18 22 33 21 29 0 0 1 17 20 9 0 0 14 0 72 0 0 0 77 0 0 0 0 0 4 9 6 0 26 30 14 19 13 6 16 13 11 6 1 9 0 0 0 2 0 39 0 0 0 66 26 16 3 0 0 4 0 6 0 0 5 0 0 0 0 0 0 0 0 0 0 0 0 0 0 0 0 0 0 0 0 0 0 0 0 0 0 0 0 0 0 0 0 0 0 0 0 0 0 0 0 0 0 0 0 0 0 0 0 0 0 0 0 0 0 0 0 0 0 0 0 0 0 0 0 0 0 0 0 0 0 0 0 0 0 0 0 0 0 1 0 1 0 1 3 6 8 6 3 0 0 0 0 0 0 0 0 0 0 0 0 0 0 5 9 11 7 3 2 0 0 0 2 0 0 0 0 0 0 0 0 0 0 0 0 0 0 0 0 0 0 0 0 0 0 0 0 0 0 0 0 0 0 0 0 0 0 0 0 0 0 0 0 0 0 0 0 0 0 0 0 0 0 0 0 0 0 0 0 0 0 0 0 0 0 0 0 0 0 0 0 0 0 0 0 0 0 0 0 0 0 0 0 0 0 0 0 0 0 0 0 0 0 0 0 0 0 0 0 0 0 0 0 0 0 0 0 0 0 0 0 0 0 0 0 0 0 0 0 0 0 0 0 0 0 0 0 0 0 0 0 0 0 0 0 0 0 0 0 0 0 0 0 0 0 0 0 0 0 0 0 0 0 0 0 0 0 0 0 0 0 0 0 0 0 0 0 0 0 0 0 0 0 0 0 0 0 0 0 0 0 0 0 0 0 0 0 0 0 0 0 0 0 0 0 0 0 0 0 0 0 0 0 0 0 0 0 0 0 0 0 0 0 0 0 0 0 0 0 0 0 0 0 0 0 0 0 0 0 0 0 0 0 0 0 0 0 0 0 0 0 0 0 0 0 255
255 0 0 0 0 0 0 0 0 0 0 0 0 0 0 0 0 0 0 0 0 0 0 0 0 0 0 0 0 0 0 0 0 0 0 0 0 0 0 0 0 0 0 0 0 0 0 0 0 0 0 0 0 0 0 0 0 0 0 0 0 0 0 0 0 0 0 0 0 0 0 0 0 0 0 0 0 0 0 0 0 0 0 0 0 0 0 0 0 0 0 0 0 0 0 0 0 0 0 0 0 0 0 0 3 0 0 3 0 0 6 4 0 80 194 130 0 0 0 0 0 0 226 113 0 0 231 39 0 0 0 130 135 0 0 0 0 0 44 85 48 45 40 11 0 99 0 0 17 40 0 48 0 22 3 0 34 0 0 0 60 0 0 0 0 0 0 0 0 8 41 2 0 96 0 0 255 73 0 170 0 10 14 0 0 205 23 22 39 0 39 9 18 226 44 0 6 0 0 255 127 41 61 145 187 0 0 0 0 0 0 125 123 0 0 17 9 0 0 0 0 0 0 0 0 0 0 0 0 0 0 0 0 0 0 0 0 0 0 4 0 4 0 9 9 8 10 0 0 3 0 3 3 0 6 6 0 0 0 2 4 0 0 1 6 0 0 0 0 4 0 0 0 4 9 8 9 13 7 18 0 2 11 0 4 2 0 3 3 0 0 0 6 0 0 4 2 0 0 0 0 1 0 10 0 7 7 11 3 0 0 0 7 0 0 0 0 5 0 0 17 4 3 0 18 5 3 12 66 14 0 0 0 38 37 20 0 7 4 0 0 10 15 0 10 8 11 9 1 0 0 0 17 0 0 2 4 0 8 7 7 11 4 13 6 6 4 5 6 5 0 0 2 0 0 0 7 24 0 0 0 49 109 211 0 0 0 93 0 0 30 0 7 0 0 141 207 0 83 223 82 0 0 53 52 0 35 16 33 25 0 0 255 49 0 51 5 5 13 39 37 0 0 0 0 10 48 41 140 59 0 0 0 25 0 32 73 0 55 30 37 0 0 0 8 25 35 29 0 0 124 57 0 0 0 0 52 0 151 89 0 9 0 0 73 0 0 0 44 89 30 0 87 0 27 84 81 43 0 65 0 0 7 28 19 0 0 0 9 7 0 0 0 0 19 17 15 114 0 0 91 38 0 0 3 0 2 8 10 7 2 0 10 4 0 0 0 0 0 0 9 4 10 0 0 0 4 18 0 20 0 0 0 45 26 39 0 0 3 4 1 6 0 0 6 0 0 0 0 0 0 0 0 0 0 0 0 0 0 0 0 0 0 0 0 0 0 0 0 0 0 0 0 0 0 0 0 0 0 0 0 0 0 0 0 0 0 0 0 0 0 0 0 0 0 0 0 0 0 0 0 0 0 0 0 0 0 0 0 0 0 0 0 0 0 0 0 0 0 0 0 0 0 1 1 1 0 1 0 0 0 0 7 7 8 9 8 6 4 4 5 5 4 3 3 3 3 8 0 0 0 0 5 6 8 6 3 0 0 0 0 0 0 0 0 0 0 0 0 0 0 0 0 0 0 0 0 0 0 0 0 0 0 0 0 0 0 0 0 0 0 0 0 0 0 0 0 0 0 0 0 0 0 0 0 0 0 0 0 0 0 0 0 0 0 0 0 0 0 0 0 0 0 0 0 0 0 0 0 0 0 0 0 0 0 0 0 0 0 0 0 0 0 0 0 0 0 0 0 0 0 0 0 0 0 0 0 0 0 0 0 0 0 0 0 0 0 0 0 0 0 0 0 0 0 0 0 0 0 0 0 0 0 0 0 0 0 0 0 0 0 0 0 0 0 0 0 0 0 0 0 0 0 0 0 0 0 0 0 0 0 0 0 0 0 0 0 0 0 0 0 0 0 0 0 0 0 0 0 0 0 0 0 0 0 0 0 0 0 0 0 0 0 0 0 0 0 0 0 0 0 0 0 0 0 0 0 0 0 0 0 0 0 0 0 0 0 0 0 0 0 0 0 0 0 0 0 0 0 0 0 0 0 0 0 0 0 0 0 0 0 0 0 0 0 0 0 0 0 255
255 0 0 0 0 0 0 0 0 0 0 0 0 0 0 0 0 0 0 0 0 0 0 0 0 0 0 0 0 0 0 0 0 0 0 0 0 0 0 0 0 0 0 0 0 0 0 0 0 0 0 0 0 0 0 0 0 0 0 0 0 0 0 0 0 0 0 0 0 0 0 0 0 0 0 0 0 0 0 0 0 0 0 0 0 0 0 0 0 0 0 0 0 0 0 0 0 0 0 0 0 0 0 0 3 0 0 3 0 0 6 3 28 10 0 84 187 123 0 0 0 0 0 72 20 0 255 0 0 0 0 0 0 0 13 3 0 0 0 0 17 39 28 66 0 96 92 0 0 22 0 4 13 17 0 10 41 0 0 0 126 0 4 0 0 131 45 0 30 35 57 0 81 64 0 0 194 32 0 183 0 0 4 0 216 165 13 29 0 57 41 0 185 86 0 0 0 0 127 113 62 88 241 120 0 0 0 0 0 0 187 108 33 7 17 0 13 3 3 2 1 0 0 0 0 0 0 0 0 0 0 0 0 0 0 0 0 0 0 4 0 0 6 10 12 0 0 0 0 0 1 0 0 9 0 4 0 3 4 0 0 2 3 4 0 1 0 0 0 5 0 0 0 2 0 4 4 6 8 20 0 0 7 0 1 0 0 0 18 0 0 0 21 10 3 1 9 5 0 3 3 8 1 1 0 3 0 0 3 5 5 0 16 0 0 0 2 2 6 0 4 0 8 0 11 16 15 7 27 37 17 0 0 0 0 31 0 25 36 0 0 24 20 0 0 0 0 0 0 0 0 0 6 0 0 0 3 3 0 0 10 8 13 14 8 10 7 25 0 0 0 3 0 0 0 1 0 0 27 23 0 0 12 169 228 0 0 15 0 0 103 96 32 101 0 135 240 0 229 42 0 0 0 148 28 0 51 0 0 77 0 0 255 0 3 10 0 0 0 39 23 0 0 7 18 0 0 0 20 14 0 0 53 144 58 0 0 0 27 28 0 6 20 0 0 4 0 0 11 38 65 0 83 120 0 0 0 0 69 7 0 33 47 30 0 17 75 69 5 0 0 78 0 0 34 0 0 6 27 10 0 8 7 0 0 0 0 19 0 0 0 0 0 0 18 28 0 107 0 0 100 28 0 61 0 0 7 23 23 12 0 0 16 0 0 0 0 0 0 0 8 2 7 10 0 0 0 16 0 22 3 0 0 0 0 60 0 0 2 3 0 6 0 0 6 0 0 0 0 0 0 0 0 0 0 0 0 0 0 0 0 0 0 0 0 0 0 0 0 0 0 0 0 0 0 0 0 0 0 0 0 0 0 0 0 0 0 0 0 0 0 0 0 0 0 0 0 0 0 0 0 0 0 0 0 0 0 0 0 0 0 0 0 0 0 0 0 0 0 0 0 0 0 1 2 3 3 4 6 9 11 11 0 0 0 0 0 0 0 0 0 0 0 0 0 0 0 2 6 8 4 0 0 0 0 0 4 0 0 0 0 0 0 0 0 0 0 0 0 0 0 0 0 0 0 0 0 0 0 0 0 0 0 0 0 0 0 0 0 0 0 0 0 0 0 0 0 0 0 0 0 0 0 0 0 0 0 0 0 0 0 0 0 0 0 0 0 0 0 0 0 0 0 0 0 0 0 0 0 0 0 0 0 0 0 0 0 0 0 0 0 0 0 0 0 0 0 0 0 0 0 0 0 0 0 0 0 0 0 0 0 0 0 0 0 0 0 0 0 0 0 0 0 0 0 0 0 0 0 0 0 0 0 0 0 0 0 0 0 0 0 0 0 0 0 0 0 0 0 0 0 0 0 0 0 0 0 0 0 0 0 0 0 0 0 0 0 0 0 0 0 0 0 0 0 0 0 0 0 0 0 0 0 0 0 0 0 0 0 0 0 0 0 0 0 0 0 0 0 0 0 0 0 0 0 0 0 0 0 0 0 0 0 0 0 0 0 0 0 0 0 0 0 0 0 0 0 0 0 0 0 0 0 0 0 0 0 0 0 0 0 0 0 0 0 0 0 0 0 255
255 0 0 0 0 0 0 0 0 0 0 0 0 0 0 0 0 0 0 0 0 0 0 0 0 0 0 0 0 0 0 0 0 0 0 0 0 0 0 0 0 0 0 0 0 0 0 0 0 0 0 0 0 0 0 0 0 0 0 0 0 0 0 0 0 0 0 0 0 0 0 0 0 0 0 0 0 0 0 0 0 0 0 0 0 0 0 0 0 0 0 0 0 0 0 0 0 0 0 0 0 0 0 0 3 0 0 3 0 0 6 0 21 2 0 27 51 21 33 148 0 0 0 0 185 184 7 0 108 96 29 0 0 47 89 65 14 51 0 0 0 0 0 69 93 79 168 0 0 36 0 4 0 0 0 16 52 0 0 57 27 0 35 53 0 41 9 0 59 41 75 0 130 4 0 0 100 51 0 128 0 0 0 0 255 72 28 0 0 40 0 136 255 0 0 20 0 0 190 159 202 229 0 0 0 0 0 0 0 94 110 14 0 17 19 0 6 0 0 0 2 0 0 0 0 0 0 0 0 0 0 0 0 0 0 0 0 0 0 4 0 7 12 9 2 0 0 6 0 0 3 5 0 4 5 9 0 0 1 3 0 0 0 0 4 4 0 0 2 0 0 0 0 0 0 0 0 0 0 4 0 1 2 0 5 0 3 0 23 0 0 0 18 15 0 12 0 0 0 0 1 8 5 0 0 1 2 0 0 0 0 0 14 0 1 0 0 0 0 13 0 0 0 0 9 0 8 7 0 20 66 21 0 0 0 0 0 13 18 0 0 10 16 0 0 0 0 6 2 0 0 0 0 0 0 0 2 2 8 0 5 0 0 0 2 1 7 6 0 0 0 3 0 0 0 0 0 0 0 34 28 0 0 0 140 173 0 0 7 45 0 0 0 56 0 68 239 139 220 0 0 0 84 142 0 0 59 0 0 39 0 0 129 32 15 0 14 0 0 5 1 5 0 19 0 0 35 21 101 76 0 0 0 9 55 30 37 4 0 0 10 20 0 0 0 0 0 0 0 0 37 20 0 94 141 0 115 22 84 19 0 0 0 0 0 0 0 0 7 6 0 28 0 44 0 0 96 0 0 38 0 5 0 0 0 8 30 43 0 0 0 1 15 7 3 0 12 28 15 24 0 0 65 1 8 0 11 14 15 4 0 0 30 2 7 1 11 1 0 6 0 0 9 0 0 0 2 4 0 16 0 0 0 0 0 98 19 0 1 3 0 5 0 0 5 0 0 0 0 0 0 0 0 0 0 0 0 0 0 0 0 0 0 0 0 0 0 0 0 0 0 0 0 0 0 0 0 0 0 0 0 0 0 0 0 0 0 0 0 0 0 0 0 0 0 0 0 0 0 0 0 0 0 0 0 0 0 0 0 0 0 0 0 0 0 0 0 0 0 0 0 0 0 1 0 0 0 0 0 0 2 2 3 6 10 10 6 2 1 2 12 12 3 3 3 3 3 4 5 5 3 1 0 1 0 0 5 0 0 0 0 0 0 0 0 0 0 0 0 0 0 0 0 0 0 0 0 0 0 0 0 0 0 0 0 0 0 0 0 0 0 0 0 0 0 0 0 0 0 0 0 0 0 0 0 0 0 0 0 0 0 0 0 0 0 0 0 0 0 0 0 0 0 0 0 0 0 0 0 0 0 0 0 0 0 0 0 0 0 0 0 0 0 0 0 0 0 0 0 0 0 0 0 0 0 0 0 0 0 0 0 0 0 0 0 0 0 0 0 0 0 0 0 0 0 0 0 0 0 0 0 0 0 0 0 0 0 0 0 0 0 0 0 0 0 0 0 0 0 0 0 0 0 0 0 0 0 0 0 0 0 0 0 0 0 0 0 0 0 0 0 0 0 0 0 0 0 0 0 0 0 0 0 0 0 0 0 0 0 0 0 0 0 0 0 0 0 0 0 0 0 0 0 0 0 0 0 0 0 0 0 0 0 0 0 0 0 0 0 0 0 0 0 0 0 0 0 0 0 0 0 0 0 0 0 0 0 0 0 0 0 0 0 0 0 0 0 0 0 255
255 0 0 0 0 0 0 0 0 0 0 0 0 0 0 0 0 0 0 0 0 0 0 0 0 0 0 0 0 0 0 0 0 0 0 0 0 0 0 0 0 0 0 0 0 0 0 0 0 0 0 0 0 0 0 0 0 0 0 0 0 0 0 0 0 0 0 0 0 0 0 0 0 0 0 0 0 0 0 0 0 0 0 0 0 0 0 0 0 0 0 0 0 0 0 1 2 3 3 3 3 3 3 2 4 0 0 3 0 0 6 0 0 24 21 31 0 0 0 100 198 51 233 255 92 0 0 55 0 0 6 49 82 65 0 0 0 81 66 39 70 3 0 0 7 0 159 0 0 21 23 63 0 0 0 17 53 0 0 50 0 32 82 75 0 0 118 2 47 28 67 0 146 0 0 0 129 48 0 61 0 15 0 36 255 0 41 26 44 0 88 255 0 0 0 0 0 126 255 255 98 0 0 73 10 0 0 0 249 29 0 22 15 0 0 15 3 0 0 0 2 0 0 0 0 0 0 0 0 0 0 0 0 0 0 0 0 0 0 2 0 13 12 0 0 0 1 1 6 5 8 6 0 0 0 1 3 0 0 0 2 3 0 0 9 1 3 0 4 1 3 0 6 2 0 0 0 0 0 0 1 0 1 0 0 6 0 0 9 0 0 9 9 0 0 25 0 0 2 2 4 5 6 0 9 6 0 0 0 0 0 0 7 0 0 0 0 6 0 21 0 0 0 0 0 7 1 4 0 0 0 0 56 72 0 0 0 0 0 15 25 3 0 9 0 2 4 1 6 6 9 0 2 0 0 7 1 0 12 0 6 2 8 0 5 0 0 0 6 3 4 6 7 8 7 8 41 4 0 0 0 36 33 3 0 228 142 0 0 51 49 29 81 51 0 162 176 255 0 0 0 63 116 19 0 30 16 36 4 0 44 0 0 176 20 0 0 20 16 0 5 55 25 0 68 23 27 0 0 22 0 0 0 59 94 0 9 27 0 0 0 0 0 0 0 53 75 62 152 0 0 0 77 0 0 149 65 0 0 91 141 196 182 255 249 173 105 59 33 0 0 2 0 57 0 0 255 120 0 0 0 0 15 24 36 36 0 0 0 0 4 20 22 22 0 2 24 81 16 112 45 0 45 0 14 0 0 8 8 11 0 0 17 15 9 2 10 16 4 15 0 0 7 5 0 0 2 0 23 8 0 9 10 0 0 44 44 0 0 3 0 4 0 0 4 0 0 0 0 0 0 0 0 0 0 0 0 0 0 0 0 0 0 0 0 0 0 0 0 0 0 0 0 0 0 0 0 0 0 0 0 0 0 0 0 0 0 0 0 0 0 0 0 0 0 0 0 0 0 0 0 0 0 0 0 0 0 0 0 0 0 0 0 0 0 1 2 3 3 3 3 3 3 4 5 6 7 0 1 0 0 0 11 0 0 0 1 8 0 0 0 0 0 0 0 0 0 0 0 0 0 0 0 0 1 0 7 3 3 3 3 3 3 2 1 0 0 0 0 0 0 0 0 0 0 0 0 0 0 0 0 0 0 0 0 0 0 0 0 0 0 0 0 0 0 0 0 0 0 0 0 0 0 0 0 0 0 0 0 0 0 0 0 0 0 0 0 0 0 0 0 0 0 0 0 0 0 0 0 0 0 0 0 0 0 0 0 0 0 0 0 0 0 0 0 0 0 0 0 0 0 0 0 0 0 0 0 0 0 0 0 0 0 0 0 0 0 0 0 0 0 0 0 0 0 0 0 0 0 0 0 0 0 0 0 0 0 0 0 0 0 0 0 0 0 0 0 0 0 0 0 0 0 0 0 0 0 0 0 0 0 0 0 0 0 0 0 0 0 0 0 0 0 0 0 0 0 0 0 0 0 0 0 0 0 0 0 0 0 0 0 0 0 0 0 0 0 0 0 0 0 0 0 0 0 0 0 0 0 0 0 0 0 0 0 0 0 0 0 0 0 0 0 0 0 0 0 0 0 0 0 0 0 0 0 0 0 0 0 0 0 0 0 0 0 0 0 0 0 255
255 0 0 0 0 0 0 0 0 0 0 0 0 0 0 0 0 0 0 0 0 0 0 0 0 0 0 0 0 0 0 0 0 0 0 0 0 0 0 0 0 0 0 0 0 0 0 0 0 0 0 0 0 0 0 0 0 0 0 0 0 0 0 0 0 0 0 0 0 0 0 0 0 0 0 0 0 0 0 0 0 0 0 0 0 0 0 0 0 0 0 0 0 0 0 2 0 0 0 0 0 0 0 0 5 0 0 3 0 0 6 0 12 2 0 0 41 57 47 0 119 0 128 0 0 0 0 0 51 0 0 0 0 10 0 0 0 0 27 54 63 0 0 0 0 0 149 0 0 0 0 0 25 0 0 15 47 0 0 0 0 255 199 0 0 0 209 66 17 0 43 0 97 5 0 34 202 0 0 43 82 0 0 255 122 0 0 21 17 15 255 0 0 0 59 0 0 255 255 0 0 0 0 18 0 0 0 255 121 6 0 21 15 0 0 13 9 3 3 2 1 0 0 0 0 0 0 0 0 0 0 0 0 0 0 0 0 0 0 2 9 10 0 0 0 0 3 2 16 5 3 3 0 0 0 0 1 2 4 0 0 0 7 12 4 9 0 3 12 5 5 0 15 10 11 5 0 4 1 0 6 0 6 3 0 0 0 0 0 4 7 20 4 0 0 19 0 0 0 0 9 5 0 0 18 9 11 13 8 13 10 8 10 4 0 0 0 0 0 11 0 3 3 10 8 0 10 8 62 30 0 0 20 62 56 49 0 0 0 5 23 0 0 36 0 3 7 14 8 0 1 0 4 0 2 1 0 0 1 0 7 0 4 0 1 0 1 0 7 5 7 0 0 9 1 9 0 35 29 0 0 23 24 0 12 8 154 138 0 0 0 73 59 0 0 255 216 255 0 0 0 92 19 0 81 47 0 74 0 0 94 0 0 222 23 4 0 18 18 0 19 32 0 0 0 0 0 0 0 0 0 0 27 50 62 0 0 0 0 0 0 0 0 30 54 89 218 255 197 255 218 0 0 67 148 0 81 0 82 140 65 0 0 0 4 171 255 216 66 0 0 24 0 0 154 0 255 255 0 40 4 39 17 0 0 14 23 0 20 6 0 0 0 12 19 65 0 176 0 0 161 95 0 14 14 0 0 0 0 2 13 12 0 3 0 0 0 0 3 5 0 0 6 2 0 0 6 0 16 0 0 4 27 0 0 0 68 0 0 4 2 5 0 0 3 0 0 0 0 0 0 0 0 0 0 0 0 0 0 0 0 0 0 0 0 0 0 0 0 0 0 0 0 0 0 0 0 0 0 0 0 0 0 0 0 0 0 0 0 0 0 0 0 0 0 0 0 0 0 0 0 0 0 0 0 0 0 0 0 0 0 0 0 0 0 2 0 0 0 0 0 0 0 0 0 2 4 6 9 12 14 10 10 14 23 23 17 14 19 28 25 25 20 22 15 10 7 8 19 20 17 13 10 9 11 1 0 0 0 0 0 0 0 0 2 0 0 0 0 0 0 0 0 0 0 0 0 0 0 0 0 0 0 0 0 0 0 0 0 0 0 0 0 0 0 0 0 0 0 0 0 0 0 0 0 0 0 0 0 0 0 0 0 0 0 0 0 0 0 0 0 0 0 0 0 0 0 0 0 0 0 0 0 0 0 0 0 0 0 0 0 0 0 0 0 0 0 0 0 0 0 0 0 0 0 0 0 0 0 0 0 0 0 0 0 0 0 0 0 0 0 0 0 0 0 0 0 0 0 0 0 0 0 0 0 0 0 0 0 0 0 0 0 0 0 0 0 0 0 0 0 0 0 0 0 0 0 0 0 0 0 0 0 0 0 0 0 0 0 0 0 0 0 0 0 0 0 0 0 0 0 0 0 0 0 0 0 0 0 0 0 0 0 0 0 0 0 0 0 0 0 0 0 0 0 0 0 0 0 0 0 0 0 0 0 0 0 0 0 0 0 0 0 0 0 0 0 0 0 0 0 0 0 0 0 0 0 0 0 0 0 0 0 0 0 0 0 0 0 255
255 0 0 0 0 0 0 0 0 0 0 0 0 0 0 0 0 0 0 0 0 0 0 0 0 0 0 0 0 0 0 0 0 0 0 0 0 0 0 0 0 0 0 0 0 0 0 0 0 0 0 0 0 0 0 0 0 0 0 0 0 0 0 0 0 0 0 0 0 0 0 0 0 0 0 0 0 0 0 0 0 0 0 0 0 0 0 0 0 0 0 0 0 0 0 3 0 0 0 0 0 0 0 0 6 0 0 3 0 0 6 0 0 6 11 0 0 14 34 67 200 0 0 0 0 145 31 20 46 0 0 0 24 38 26 14 0 0 0 0 0 0 0 0 0 26 32 127 0 0 0 0 72 16 0 0 28 0 0 0 0 171 111 0 0 0 0 15 0 0 0 22 0 0 0 90 184 0 0 5 162 0 0 255 34 28 0 0 33 248 255 0 0 19 0 0 255 255 0 0 123 47 26 0 0 0 142 46 0 22 13 0 0 13 14 0 7 0 0 0 0 0 0 0 0 0 0 0 0 0 0 0 0 0 0 0 0 0 0 4 10 2 0 0 0 8 6 0 11 0 7 0 1 0 0 1 0 0 0 0 1 0 0 12 0 0 0 0 0 4 1 0 7 4 1 8 6 6 8 3 0 0 11 0 4 0 0 7 4 0 0 6 14 0 0 0 0 2 0 11 0 3 1 0 10 0 11 5 14 11 1 8 0 8 0 0 10 3 11 1 2 11 6 5 7 0 2 1 0 48 62 0 0 0 52 90 0 0 0 0 0 0 4 14 0 0 0 0 0 0 7 0 4 1 0 0 0 0 0 0 11 1 1 6 3 3 5 9 1 0 0 0 0 0 8 10 0 6 41 14 1 0 0 0 69 0 81 255 165 0 0 0 0 0 0 255 221 171 0 0 118 52 0 0 33 3 0 31 0 0 63 0 0 52 20 14 0 0 0 24 17 0 0 0 0 0 0 32 3 0 0 0 0 0 0 0 14 18 0 0 0 61 186 124 0 0 0 0 0 0 242 255 0 0 0 44 0 0 42 1 0 0 0 0 0 0 0 0 19 154 106 0 114 0 11 0 255 112 0 245 0 65 16 0 0 0 42 45 23 0 0 0 0 2 2 31 0 167 0 0 44 91 43 59 11 0 0 0 4 5 7 4 0 0 0 0 0 0 0 0 0 0 4 0 0 0 0 0 0 0 0 0 25 0 0 0 90 4 0 5 0 0 0 0 3 0 0 0 0 0 0 0 0 0 0 0 0 0 0 0 0 0 0 0 0 0 0 0 0 0 0 0 0 0 0 0 0 0 0 0 0 0 0 0 0 0 0 0 0 0 0 0 0 0 0 0 0 0 0 0 0 0 0 0 0 0 0 0 0 0 0 0 0 0 0 3 0 0 0 0 0 0 0 2 0 0 8 25 35 52 64 80 117 114 101 104 116 124 115 103 103 101 107 108 109 112 111 99 71 57 43 33 23 7 0 0 2 0 0 0 0 0 0 0 3 0 0 0 0 0 0 0 0 0 0 0 0 0 0 0 0 0 0 0 0 0 0 0 0 0 0 0 0 0 0 0 0 0 0 0 0 0 0 0 0 0 0 0 0 0 0 0 0 0 0 0 0 0 0 0 0 0 0 0 0 0 0 0 0 0 0 0 0 0 0 0 0 0 0 0 0 0 0 0 0 0 0 0 0 0 0 0 0 0 0 0 0 0 0 0 0 0 0 0 0 0 0 0 0 0 0 0 0 0 0 0 0 0 0 0 0 0 0 0 0 0 0 0 0 0 0 0 0 0 0 0 0 0 0 0 0 0 0 0 0 0 0 0 0 0 0 0 0 0 0 0 0 0 0 0 0 0 0 0 0 0 0 0 0 0 0 0 0 0 0 0 0 0 0 0 0 0 0 0 0 0 0 0 0 0 0 0 0 0 0 0 0 0 0 0 0 0 0 0 0 0 0 0 0 0 0 0 0 0 0 0 0 0 0 0 0 0 0 0 0 0 0 0 0 0 0 0 0 0 0 0 0 0 0 255
255 0 0 0 0 0 0 0 0 0 0 0 0 0 0 0 0 0 0 0 0 0 0 0 0 0 0 0 0 0 0 0 0 0 0 0 0 0 0 0 0 0 0 0 0 0 0 0 0 0 0 0 0 0 0 0 0 0 0 0 0 0 0 0 0 0 0 0 0 0 0 0 0 0 0 0 0 0 0 0 0 0 0 0 0 0 0 1 3 5 6 5 4 5 8 15 6 7 7 8 6 3 2 3 11 2 0 6 12 16 19 0 2 0 0 1 7 6 0 0 197 0 0 173 0 0 0 29 81 42 0 0 0 7 36 0 51 0 0 50 1 16 43 0 31 27 0 163 49 0 0 0 84 26 0 0 54 40 0 0 0 0 18 0 88 73 0 115 57 31 45 118 0 0 0 115 105 0 0 0 157 0 237 160 0 15 35 0 220 255 0 0 18 0 0 255 211 0 0 158 99 0 0 0 9 125 111 43 30 5 5 10 12 0 9 7 7 0 0 0 0 0 0 1 2 3 3 3 3 3 3 3 3 3 5 4 3 1 6 26 22 1 0 0 9 16 1 0 0 0 0 0 11 9 19 2 7 3 7 9 11 13 16 32 0 0 0 4 0 5 12 26 16 16 0 0 3 1 7 7 0 5 0 0 2 0 2 0 10 0 0 0 28 30 1 0 0 0 0 2 18 4 6 0 0 0 3 4 0 0 0 0 3 0 0 0 0 3 5 3 0 0 0 0 0 0 0 0 0 0 0 0 29 54 0 0 98 66 0 0 0 3 26 0 0 8 8 0 0 0 11 9 29 7 2 7 3 0 0 0 4 4 13 8 6 3 5 12 0 0 0 0 0 0 0 0 46 5 0 0 10 2 4 20 4 69 0 0 255 209 32 182 235 0 0 255 205 0 0 83 42 0 54 27 0 0 60 24 0 5 0 0 0 0 143 169 104 0 0 70 33 0 0 0 255 158 255 229 215 255 255 255 60 77 126 0 0 0 0 0 129 72 70 37 101 197 84 0 0 2 0 0 255 219 0 78 0 91 227 5 0 43 32 0 82 105 0 0 0 37 134 90 0 93 69 0 12 0 0 0 0 198 153 74 0 0 0 0 19 8 19 64 140 174 185 127 255 197 0 0 0 0 159 3 25 11 15 0 9 0 6 0 27 0 0 0 4 11 6 19 0 0 5 12 0 0 8 1 2 30 26 23 31 0 0 0 110 5 0 5 0 0 0 0 2 1 2 3 3 3 3 3 3 3 3 3 3 3 3 3 2 1 0 0 0 0 0 0 0 0 0 0 0 0 0 0 0 0 0 0 0 0 0 0 0 0 0 0 0 0 1 2 3 2 2 1 1 1 2 4 4 4 3 3 3 3 6 6 7 6 7 6 3 1 0 3 0 1 2 3 8 25 52 89 106 121 104 77 46 3 0 0 0 0 0 0 0 0 0 0 0 0 0 0 0 0 0 0 1 0 21 52 78 89 100 93 72 46 25 13 7 0 0 3 13 9 3 0 0 1 1 3 4 5 4 2 2 2 3 2 1 0 0 0 0 0 0 0 0 0 0 0 0 0 0 0 0 0 0 0 0 0 0 0 0 0 0 0 0 0 0 0 0 0 0 0 0 0 0 0 0 0 0 0 0 0 0 0 0 0 0 0 0 0 0 0 0 0 0 0 0 0 0 0 0 0 0 0 0 0 0 0 0 0 0 0 0 0 0 0 0 0 0 0 0 0 0 0 0 0 0 0 0 0 0 0 0 0 0 0 0 0 0 0 0 0 0 0 0 0 0 0 0 0 0 0 0 0 0 0 0 0 0 0 0 0 0 0 0 0 0 0 0 0 0 0 0 0 0 0 0 0 0 0 0 0 0 0 0 0 0 0 0 0 0 0 0 0 0 0 0 0 0 0 0 0 0 0 0 0 0 0 0 0 0 0 0 0 0 0 0 0 0 0 0 0 0 0 0 0 0 0 0 0 0 0 0 0 0 0 0 0 0 0 0 0 0 0 0 0 0 0 0 0 0 0 0 0 0 255
255 0 0 0 0 0 0 0 0 0 0 0 0 0 0 0 0 0 0 0 0 0 0 0 0 0 0 0 0 0 0 0 0 0 0 0 0 0 0 0 0 0 0 0 0 0 0 0 0 0 0 0 0 0 0 0 0 0 0 0 0 0 0 0 0 0 0 0 0 0 0 0 0 0 0 0 0 0 0 0 0 0 0 0 0 0 0 2 0 0 0 0 0 0 0 0 9 89 69 2 1 10 0 12 0 0 5 5 0 0 0 4 0 7 12 19 22 21 16 24 115 0 94 255 242 248 0 0 32 0 92 141 0 0 0 55 71 6 0 40 0 37 0 9 73 4 0 11 67 48 1 0 27 77 31 0 75 0 33 15 0 164 16 0 21 100 59 44 37 0 0 0 0 17 0 152 0 0 0 0 69 0 255 67 30 0 37 53 255 0 0 21 14 0 3 0 0 0 84 0 0 0 0 0 101 127 28 0 8 1 1 0 2 2 2 0 0 0 0 0 0 0 0 1 0 0 0 0 0 0 0 0 0 0 0 0 5 5 13 14 0 0 17 19 0 0 0 13 0 0 0 0 0 0 0 0 0 0 0 0 0 0 0 0 0 0 0 0 11 31 13 0 0 0 0 8 5 0 1 24 7 2 12 8 2 0 0 0 13 25 28 12 0 0 0 0 7 0 3 0 0 0 0 8 0 0 0 5 7 0 0 22 15 2 3 0 2 0 0 0 0 11 0 5 4 4 0 0 3 9 0 0 0 0 15 41 0 11 89 99 0 0 0 73 62 0 0 35 54 0 0 9 2 3 2 3 0 1 6 0 0 0 0 6 10 3 4 0 0 5 12 3 3 0 7 0 3 0 0 0 3 6 2 17 0 0 0 0 61 138 100 25 125 255 105 0 255 195 0 71 26 13 8 11 27 9 0 0 1 51 33 10 0 0 0 16 0 69 13 0 0 0 175 247 99 19 0 0 0 0 0 61 96 94 49 0 0 7 0 122 177 39 78 52 0 119 0 16 138 0 67 0 0 84 0 0 0 0 0 38 0 23 0 0 0 0 93 0 0 0 17 171 0 121 0 116 0 0 255 0 0 0 0 111 106 64 60 84 35 66 98 22 0 0 0 0 0 0 0 194 249 0 0 125 5 0 0 0 24 33 0 0 15 14 16 12 0 0 0 0 7 0 0 0 0 0 1 1 0 0 0 0 33 5 0 0 110 0 0 4 2 4 5 6 5 4 0 0 0 0 2 2 0 0 0 0 0 0 0 0 0 1 0 0 0 0 0 0 0 0 0 0 0 0 0 0 0 0 0 0 0 0 0 0 0 0 0 0 0 0 2 0 0 0 4 0 2 2 0 0 0 0 2 3 0 0 0 0 2 0 0 0 0 4 8 19 18 29 38 74 122 125 56 0 0 0 0 0 0 0 0 6 0 19 34 18 16 39 33 0 0 4 12 0 0 0 0 0 0 0 0 0 0 0 13 0 0 93 124 87 115 73 51 11 0 0 10 10 8 7 0 8 0 0 0 0 3 0 0 0 2 0 0 0 0 0 0 0 0 0 0 0 0 0 0 0 0 0 0 0 0 0 0 0 0 0 0 0 0 0 0 0 0 0 0 0 0 0 0 0 0 0 0 0 0 0 0 0 0 0 0 0 0 0 0 0 0 0 0 0 0 0 0 0 0 0 0 0 0 0 0 0 0 0 0 0 0 0 0 0 0 0 0 0 0 0 0 0 0 0 0 0 0 0 0 0 0 0 0 0 0 0 0 0 0 0 0 0 0 0 0 0 0 0 0 0 0 0 0 0 0 0 0 0 0 0 0 0 0 0 0 0 0 0 0 0 0 0 0 0 0 0 0 0 0 0 0 0 0 0 0 0 0 0 0 0 0 0 0 0 0 0 0 0 0 0 0 0 0 0 0 0 0 0 0 0 0 0 0 0 0 0 0 0 0 0 0 0 0 0 0 0 0 0 0 0 0 0 0 0 0 0 0 0 0 0 0 0 0 0 0 0 0 0 0 0 0 0 0 255
255 0 0 0 0 0 0 0 0 0 0 0 0 0 0 0 0 0 0 0 0 0 0 0 0 0 0 0 0 0 0 0 0 0 0 0 0 0 0 0 0 0 0 0 0 0 0 0 0 0 0 0 0 0 0 0 0 0 0 0 0 0 0 0 0 0 0 0 0 0 0 0 0 0 0 0 0 0 0 0 0 0 0 0 0 0 0 3 0 0 0 0 1 3 4 1 47 0 0 255 255 139 25 0 20 20 0 3 26 21 17 4 15 13 0 0 0 0 0 18 0 102 33 0 193 0 0 0 0 0 0 29 7 0 0 32 7 6 67 74 0 0 0 58 0 11 21 0 0 20 0 0 0 0 63 0 0 0 95 0 0 84 0 0 36 0 0 22 0 0 64 50 32 36 0 37 8 26 0 0 0 0 255 17 0 31 6 255 0 0 10 0 0 0 29 0 44 88 0 45 0 0 0 51 119 37 0 18 6 0 0 0 0 0 0 0 0 0 0 0 0 0 0 1 3 0 5 0 4 5 0 0 0 6 0 0 6 17 18 0 0 0 6 4 8 0 3 2 3 0 3 0 0 0 4 10 13 14 6 11 14 10 12 8 0 13 17 28 45 24 0 0 8 0 16 14 8 0 0 4 0 0 6 8 8 2 7 0 7 7 6 0 0 0 2 0 0 0 2 0 0 0 0 0 15 0 0 16 11 2 0 15 9 0 0 0 5 1 5 1 0 0 0 8 0 0 3 0 0 0 3 0 0 0 1 19 0 0 32 43 62 20 0 0 0 37 42 0 0 0 24 0 10 5 4 6 3 0 6 3 0 0 7 4 6 2 7 0 2 2 5 4 0 0 5 11 9 7 0 2 7 0 0 12 0 11 0 0 7 49 19 42 0 0 0 0 120 133 0 127 7 0 0 0 0 0 0 0 0 13 8 0 0 0 0 0 54 47 32 0 0 215 115 16 9 8 3 13 23 17 0 13 23 36 98 0 0 0 0 71 70 0 16 30 0 74 0 60 14 0 0 0 0 0 214 255 255 13 0 0 0 0 92 0 0 0 13 19 46 0 0 83 93 0 0 0 79 0 255 199 12 65 11 0 0 0 0 0 0 0 0 17 58 59 39 26 0 0 0 0 0 0 0 104 0 22 74 31 0 0 0 89 0 0 0 4 0 2 12 10 6 0 3 0 0 1 2 6 0 15 0 0 12 0 0 0 113 0 1 5 3 5 0 0 0 0 4 4 0 0 0 0 5 0 5 3 3 4 0 0 3 1 0 0 0 0 0 0 0 0 0 0 0 0 0 0 0 0 0 0 0 0 0 0 0 0 0 0 0 0 2 0 5 0 4 0 2 2 0 1 3 6 0 0 0 9 12 17 2 0 5 10 7 17 8 26 30 88 119 72 0 0 0 0 29 0 0 0 11 8 20 52 15 72 117 91 17 0 0 0 42 7 0 0 40 78 47 2 3 35 28 0 0 0 9 2 49 37 0 0 14 19 44 89 58 27 0 0 0 3 0 0 7 5 5 4 6 0 0 0 2 0 0 0 0 0 0 0 0 0 0 0 0 0 0 0 0 0 0 0 0 0 0 0 0 0 0 0 0 0 0 0 0 0 0 0 0 0 0 0 0 0 0 0 0 0 0 0 0 0 0 0 0 0 0 0 0 0 0 0 0 0 0 0 0 0 0 0 0 0 0 0 0 0 0 0 0 0 0 0 0 0 0 0 0 0 0 0 0 0 0 0 0 0 0 0 0 0 0 0 0 0 0 0 0 0 0 0 0 0 0 0 0 0 0 0 0 0 0 0 0 0 0 0 0 0 0 0 0 0 0 0 0 0 0 0 0 0 0 0 0 0 0 0 0 0 0 0 0 0 0 0 0 0 0 0 0 0 0 0 0 0 0 0 0 0 0 0 0 0 0 0 0 0 0 0 0 0 0 0 0 0 0 0 0 0 0 0 0 0 0 0 0 0 0 0 0 0 0 0 0 0 0 0 0 0 0 0 0 0 0 0 0 0 0 0 0 0 0 255
255 0 0 0 0 0 0 0 0 0 0 0 0 0 0 0 0 0 0 0 0 0 0 0 0 0 0 0 0 0 0 0 0 0 0 0 0 0 0 0 0 0 0 0 0 0 0 0 0 0 0 0 0 0 0 0 0 0 0 0 0 0 0 0 0 0 0 0 0 0 0 0 0 0 0 0 0 0 0 0 0 0 0 0 0 0 0 2 0 3 0 2 7 0 1 0 23 20 0 0 0 255 255 255 138 87 37 0 0 6 0 14 0 0 24 33 35 26 13 16 12 47 0 0 210 0 0 240 0 0 56 0 0 8 0 58 7 0 55 107 0 85 0 0 14 48 39 0 13 119 108 55 0 0 65 22 0 0 185 0 38 41 0 22 67 0 0 0 0 0 51 0 0 3 0 21 5 106 0 33 0 255 141 0 0 85 255 31 0 0 25 0 0 82 158 19 68 35 0 82 0 0 76 132 45 0 0 14 2 0 0 0 0 0 0 0 0 0 0 0 0 0 0 0 1 1 2 1 1 2 0 0 4 6 0 8 8 24 0 0 0 1 2 6 0 0 0 0 12 4 10 6 10 10 7 7 14 9 2 6 19 5 18 12 9 13 17 19 26 4 0 0 24 13 24 11 6 0 0 8 0 2 0 0 2 1 3 0 4 0 1 1 4 0 3 7 1 4 0 0 5 3 3 4 2 23 14 1 0 12 14 0 13 0 0 0 6 3 0 0 7 1 6 9 7 8 5 7 0 3 4 3 5 0 0 11 3 15 0 0 57 102 36 0 0 1 21 0 0 7 23 0 0 0 0 3 3 0 5 2 13 7 0 0 0 0 9 7 1 1 9 5 0 0 0 5 0 0 0 0 2 7 1 7 0 20 19 0 0 9 31 128 1 0 21 0 0 54 0 0 30 0 0 0 0 0 4 13 0 19 0 0 22 0 0 0 147 0 0 0 199 232 24 0 19 8 0 15 18 11 0 6 13 36 166 43 0 0 0 82 100 32 9 5 81 0 29 142 59 0 0 0 255 255 255 14 68 255 255 255 158 0 0 0 55 2 0 15 0 0 0 5 102 0 30 92 143 0 0 0 255 113 25 0 0 0 0 0 0 0 0 0 52 86 74 76 117 110 191 0 0 0 0 194 133 3 0 0 40 69 15 0 0 0 0 0 0 0 8 8 5 6 0 0 2 0 1 0 14 13 0 2 22 0 0 0 90 0 1 0 0 0 0 0 9 0 7 7 7 10 6 0 6 0 3 0 0 1 2 2 1 0 0 0 0 0 0 0 0 0 0 0 0 0 0 0 0 0 0 0 0 0 0 0 0 0 0 0 0 0 1 1 2 1 2 1 1 1 2 9 0 2 10 8 3 2 0 0 0 0 9 22 51 90 73 108 64 7 0 0 0 0 0 32 0 0 0 44 50 0 0 0 0 0 0 4 0 0 0 0 31 26 41 7 0 0 0 37 75 101 85 14 0 0 0 0 0 0 0 0 0 0 0 0 77 25 15 7 0 0 8 12 10 9 10 1 0 0 4 2 1 0 0 0 0 0 0 0 0 0 0 0 0 0 0 0 0 0 0 0 0 0 0 0 0 0 0 0 0 0 0 0 0 0 0 0 0 0 0 0 0 0 0 0 0 0 0 0 0 0 0 0 0 0 0 0 0 0 0 0 0 0 0 0 0 0 0 0 0 0 0 0 0 0 0 0 0 0 0 0 0 0 0 0 0 0 0 0 0 0 0 0 0 0 0 0 0 0 0 0 0 0 0 0 0 0 0 0 0 0 0 0 0 0 0 0 0 0 0 0 0 0 0 0 0 0 0 0 0 0 0 0 0 0 0 0 0 0 0 0 0 0 0 0 0 0 0 0 0 0 0 0 0 0 0 0 0 0 0 0 0 0 0 0 0 0 0 0 0 0 0 0 0 0 0 0 0 0 0 0 0 0 0 0 0 0 0 0 0 0 0 0 0 0 0 0 0 0 0 0 0 0 0 0 0 0 0 0 0 0 0 0 0 0 0 0 0 0 0 255
255 0 0 0 0 0 0 0 0 0 0 0 0 0 0 0 0 0 0 0 0 0 0 0 0 0 0 0 0 0 0 0 0 0 0 0 0 0 0 0 0 0 0 0 0 0 0 0 0 0 0 0 0 0 0 0 0 0 0 0 0 0 0 0 0 0 0 0 0 0 0 0 0 0 0 0 0 0 0 0 0 0 0 0 0 0 0 1 4 0 0 0 4 6 0 1 40 128 255 6 0 0 0 0 148 255 255 243 154 83 1 28 12 16 0 0 0 0 19 23 34 0 0 54 51 8 0 216 94 103 99 0 66 75 0 48 2 0 16 24 0 83 0 0 38 0 0 0 0 19 52 159 0 0 0 4 7 0 139 0 105 48 8 65 67 0 29 0 42 52 21 0 0 0 5 36 0 97 0 19 0 255 72 0 32 150 255 0 0 55 0 0 150 4 127 53 0 16 0 0 0 51 147 36 3 15 4 0 2 0 0 0 0 0 0 0 0 0 0 0 0 0 0 0 0 1 2 3 3 3 3 3 4 0 0 3 8 23 0 0 0 0 1 6 5 2 2 0 10 5 4 11 0 1 10 15 0 0 0 0 6 0 4 0 10 0 0 0 0 0 5 2 23 11 11 8 5 2 0 5 0 0 0 0 0 0 1 0 0 4 0 3 2 4 0 2 0 0 0 0 3 0 0 6 0 23 11 0 0 6 7 0 18 9 3 0 0 4 1 0 3 5 3 6 0 0 0 1 0 0 14 11 8 2 0 0 0 13 0 0 0 48 92 135 0 0 0 0 67 19 0 0 0 0 0 0 0 7 6 0 25 1 0 0 0 3 5 12 0 0 10 0 0 0 9 13 0 0 6 10 11 5 0 5 0 16 29 0 0 0 20 88 124 0 0 46 0 125 0 0 50 19 9 9 14 22 19 30 8 27 0 0 26 7 0 6 86 0 0 196 255 0 14 0 10 0 0 2 8 8 0 0 0 2 135 101 0 0 10 19 130 118 26 0 119 0 68 55 0 0 255 255 134 0 0 29 0 0 0 0 255 255 6 0 0 21 0 0 0 64 0 0 250 27 0 108 119 0 0 0 75 7 35 40 30 7 0 0 7 7 0 0 0 0 0 0 77 0 97 0 137 101 0 0 0 0 11 35 19 0 2 0 12 6 11 8 1 0 0 0 0 0 0 0 0 0 0 0 8 23 16 41 30 0 0 0 64 4 0 0 0 0 6 7 0 3 0 0 0 7 11 13 1 2 6 2 1 0 0 0 0 0 0 0 0 0 0 0 0 0 0 0 0 0 0 0 0 0 0 0 0 0 0 0 0 0 0 0 0 0 0 0 0 0 0 0 0 1 2 9 0 0 0 18 16 15 0 0 21 41 78 88 84 40 0 0 0 0 0 0 62 99 57 23 0 8 29 15 0 0 0 51 21 0 0 0 0 0 0 16 33 12 0 0 0 0 0 44 0 0 0 0 0 0 0 0 0 0 0 0 0 0 0 0 0 0 60 23 22 0 7 7 0 0 0 0 0 5 1 0 0 0 0 0 0 0 0 0 0 0 0 0 0 0 0 0 0 0 0 0 0 0 0 0 0 0 0 0 0 0 0 0 0 0 0 0 0 0 0 0 0 0 0 0 0 0 0 0 0 0 0 0 0 0 0 0 0 0 0 0 0 0 0 0 0 0 0 0 0 0 0 0 0 0 0 0 0 0 0 0 0 0 0 0 0 0 0 0 0 0 0 0 0 0 0 0 0 0 0 0 0 0 0 0 0 0 0 0 0 0 0 0 0 0 0 0 0 0 0 0 0 0 0 0 0 0 0 0 0 0 0 0 0 0 0 0 0 0 0 0 0 0 0 0 0 0 0 0 0 0 0 0 0 0 0 0 0 0 0 0 0 0 0 0 0 0 0 0 0 0 0 0 0 0 0 0 0 0 0 0 0 0 0 0 0 0 0 0 0 0 0 0 0 0 0 0 0 0 0 0 0 0 0 0 0 0 0 0 0 0 0 0 0 0 0 0 0 0 0 255
255 0 0 0 0 0 0 0 0 0 0 0 0 0 0 0 0 0 0 0 0 0 0 0 0 0 0 0 0 0 0 0 0 0 0 0 0 0 0 0 0 0 0 0 0 0 0 0 0 0 0 0 0 0 0 0 0 0 0 0 0 0 0 0 0 0 0 0 0 0 0 0 0 0 0 0 0 0 0 0 0 0 0 0 0 0 0 0 2 0 0 0 2 4 4 0 0 0 0 233 255 0 0 0 0 0 0 0 121 158 154 175 120 88 68 61 31 14 0 0 0 0 29 32 21 207 0 0 255 54 0 0 118 93 0 0 0 0 68 0 0 0 11 111 29 45 34 39 35 0 0 0 7 13 0 0 72 0 0 0 43 68 32 38 32 15 59 0 0 48 7 0 0 28 18 0 0 16 88 0 0 255 45 13 140 255 0 0 48 0 0 0 252 0 0 0 0 103 0 0 43 98 61 0 0 8 6 5 2 0 0 0 0 0 0 0 0 0 0 0 0 0 0 0 0 1 0 0 0 0 2 2 0 4 0 0 17 14 0 0 11 1 12 3 18 11 12 4 0 0 0 0 0 0 0 3 0 0 0 0 0 0 0 0 0 0 0 0 0 0 11 26 0 0 0 4 10 7 15 17 2 7 10 6 7 0 0 0 0 3 5 0 5 5 0 3 4 4 2 0 4 1 0 8 0 12 9 0 0 12 12 0 8 0 0 0 5 5 3 0 0 0 4 2 7 4 0 0 0 3 10 4 2 0 0 0 0 0 19 39 0 0 0 32 61 0 0 0 21 0 0 14 1 0 7 10 0 0 3 0 14 0 2 0 9 0 3 14 0 0 5 0 8 0 0 0 0 2 0 0 5 6 7 8 0 13 25 5 0 0 0 0 62 46 0 15 54 109 0 0 0 0 17 25 11 0 0 25 0 11 0 0 8 0 0 80 0 0 0 255 141 0 181 0 14 4 4 5 4 10 0 0 19 0 66 101 0 0 8 0 96 151 52 0 134 0 15 0 0 218 255 0 0 61 0 0 70 0 123 0 0 97 255 0 0 0 52 11 0 236 0 0 255 0 6 80 151 0 25 255 13 5 26 0 0 0 8 40 0 28 34 14 0 0 11 35 0 0 35 0 98 255 0 0 67 0 0 0 0 0 22 22 26 17 13 13 8 4 0 0 5 0 3 4 4 2 1 0 13 18 12 5 0 0 0 74 27 1 5 3 3 3 3 6 0 0 0 0 0 0 0 0 0 0 0 0 4 2 1 0 0 0 0 0 0 0 0 0 0 0 0 0 0 0 0 0 0 0 0 0 0 0 0 0 0 0 0 0 0 0 0 0 0 0 0 0 0 2 0 2 5 11 0 0 0 0 27 76 109 96 46 0 0 0 0 0 0 0 77 114 70 6 0 24 0 14 0 0 0 61 103 103 18 0 0 0 53 60 38 61 51 0 0 0 83 150 79 40 0 0 0 0 18 29 32 0 58 99 70 5 17 29 23 26 0 19 93 96 37 0 0 0 6 3 3 2 0 3 1 1 1 0 0 0 0 0 0 0 0 0 0 0 0 0 0 0 0 0 0 0 0 0 0 0 0 0 0 0 0 0 0 0 0 0 0 0 0 0 0 0 0 0 0 0 0 0 0 0 0 0 0 0 0 0 0 0 0 0 0 0 0 0 0 0 0 0 0 0 0 0 0 0 0 0 0 0 0 0 0 0 0 0 0 0 0 0 0 0 0 0 0 0 0 0 0 0 0 0 0 0 0 0 0 0 0 0 0 0 0 0 0 0 0 0 0 0 0 0 0 0 0 0 0 0 0 0 0 0 0 0 0 0 0 0 0 0 0 0 0 0 0 0 0 0 0 0 0 0 0 0 0 0 0 0 0 0 0 0 0 0 0 0 0 0 0 0 0 0 0 0 0 0 0 0 0 0 0 0 0 0 0 0 0 0 0 0 0 0 0 0 0 0 0 0 0 0 0 0 0 0 0 0 0 0 0 0 0 0 0 0 0 0 0 0 0 0 0 0 0 255
255 0 0 0 0 0 0 0 0 0 0 0 0 0 0 0 0 0 0 0 0 0 0 0 0 0 0 0 0 0 0 0 0 0 0 0 0 0 0 0 0 0 0 0 0 0 0 0 0 0 0 0 0 0 0 0 0 0 0 0 0 0 0 0 0 0 0 0 0 0 0 0 0 0 0 0 0 0 0 0 0 0 0 0 0 0 0 0 1 4 0 4 1 3 2 0 32 22 42 50 112 255 180 0 0 0 0 0 0 0 0 0 0 5 52 120 147 142 82 39 32 0 6 24 52 28 199 0 0 91 151 0 0 62 0 0 46 0 118 0 0 0 33 65 0 95 96 0 0 85 61 0 0 30 0 0 63 0 0 84 0 86 23 0 0 6 51 0 0 27 0 0 17 8 57 0 0 0 148 0 0 228 79 72 255 38 0 36 49 0 0 23 45 20 0 0 48 2 0 0 213 77 25 1 14 4 0 7 0 0 0 0 0 0 0 0 0 0 0 0 0 0 0 0 0 1 4 0 0 0 3 5 3 0 0 2 12 0 0 15 10 7 0 7 15 5 13 4 0 0 1 0 0 0 0 0 5 0 0 0 0 0 1 0 0 1 16 16 6 0 0 0 0 0 0 0 0 11 8 2 25 10 11 11 18 11 8 2 0 0 0 0 3 3 7 0 0 2 0 5 0 5 3 8 0 8 9 0 0 8 12 7 0 4 0 0 8 9 1 0 5 0 5 0 0 0 0 0 4 0 11 14 12 4 0 0 13 0 0 27 26 0 0 0 59 69 27 0 0 0 18 28 3 0 9 4 6 0 0 0 7 0 7 7 5 5 3 5 0 0 0 3 1 1 3 6 2 1 0 8 4 0 3 0 0 0 0 5 6 0 0 0 57 242 0 0 0 5 6 0 0 0 6 17 6 0 0 23 0 23 13 0 20 0 0 30 20 0 143 255 0 5 81 0 19 9 0 8 19 13 6 4 38 25 13 83 0 0 0 0 0 100 64 0 119 0 0 0 160 255 0 23 13 33 41 0 37 0 31 29 0 143 255 255 0 0 0 27 26 150 0 0 84 67 50 71 0 0 72 0 29 10 0 0 0 2 7 0 0 0 0 0 20 33 46 16 107 86 47 0 0 135 205 194 255 101 0 0 5 70 49 0 1 6 8 12 3 4 12 19 10 12 13 12 19 18 19 17 12 30 0 0 0 0 0 71 3 0 3 0 2 9 8 13 24 40 64 74 46 31 11 0 0 0 0 0 0 0 1 0 0 0 0 0 0 0 0 0 0 0 0 0 0 0 0 0 0 0 0 0 0 0 0 0 0 0 0 0 0 0 0 0 0 0 0 0 0 2 0 3 0 10 21 35 55 67 48 79 0 0 0 0 0 0 0 0 116 72 14 0 0 0 11 53 0 20 3 0 63 134 38 0 0 0 0 68 63 7 0 22 0 34 82 79 70 44 4 24 0 0 0 0 5 0 0 0 35 78 89 25 35 33 11 0 23 0 0 0 35 64 45 15 26 13 8 4 2 1 2 0 2 0 0 0 0 0 0 0 0 0 0 0 0 0 0 0 0 0 0 0 0 0 0 0 0 0 0 0 0 0 0 0 0 0 0 0 0 0 0 0 0 0 0 0 0 0 0 0 0 0 0 0 0 0 0 0 0 0 0 0 0 0 0 0 0 0 0 0 0 0 0 0 0 0 0 0 0 0 0 0 0 0 0 0 0 0 0 0 0 0 0 0 0 0 0 0 0 0 0 0 0 0 0 0 0 0 0 0 0 0 0 0 0 0 0 0 0 0 0 0 0 0 0 0 0 0 0 0 0 0 0 0 0 0 0 0 0 0 0 0 0 0 0 0 0 0 0 0 0 0 0 0 0 0 0 0 0 0 0 0 0 0 0 0 0 0 0 0 0 0 0 0 0 0 0 0 0 0 0 0 0 0 0 0 0 0 0 0 0 0 0 0 0 0 0 0 0 0 0 0 0 0 0 0 0 0 0 0 0 0 0 0 0 0 0 0 0 0 0 255
255 0 0 0 0 0 0 0 0 0 0 0 0 0 0 0 0 0 0 0 0 0 0 0 0 0 0 0 0 0 0 0 0 0 0 0 0 0 0 0 0 0 0 0 0 0 0 0 0 0 0 0 0 0 0 0 0 0 0 0 0 0 0 0 0 0 0 0 0 0 0 0 0 0 0 0 0 0 0 0 0 0 0 0 0 0 0 0 0 3 0 3 0 3 1 4 0 12 0 0 25 82 153 255 0 0 0 177 173 83 126 124 0 0 0 0 0 0 83 166 94 0 0 3 66 0 75 12 0 51 255 16 0 29 57 10 68 0 89 0 105 96 43 0 0 0 0 0 0 31 83 53 0 35 45 0 0 0 99 101 0 128 37 0 31 0 0 41 0 48 0 0 0 0 83 6 10 0 144 0 0 255 91 214 182 0 22 0 19 0 0 255 0 14 73 15 0 0 0 128 116 25 0 0 16 0 0 9 2 0 0 0 0 0 0 0 0 0 0 0 0 0 1 2 3 2 3 0 0 0 3 9 0 0 12 7 14 0 0 14 15 0 0 0 0 0 0 0 2 0 0 0 0 0 0 0 0 6 0 1 3 0 1 0 6 3 15 16 16 3 0 0 0 0 0 0 0 0 0 0 17 3 9 2 8 2 4 3 8 2 0 4 2 0 0 0 10 0 0 0 0 3 0 0 11 0 0 14 19 0 1 24 0 0 0 1 5 0 0 0 6 1 0 0 0 0 0 0 6 3 8 10 6 0 0 2 42 0 0 0 1 31 31 45 17 71 77 0 0 0 0 7 3 0 0 0 0 0 4 0 2 0 0 0 2 6 0 0 0 0 10 0 1 0 1 1 0 0 0 0 1 1 1 6 5 7 0 5 14 3 0 0 0 119 75 0 0 11 147 8 0 0 0 0 0 1 7 10 0 38 19 1 28 2 0 0 103 0 147 255 0 19 0 5 13 11 0 0 6 0 0 5 0 63 0 71 43 0 0 0 0 41 23 0 49 26 0 0 255 0 0 0 62 0 0 33 110 54 0 0 0 0 0 255 16 0 0 0 0 0 0 0 99 173 0 0 0 124 166 0 0 0 2 3 21 30 13 0 0 0 0 0 0 12 4 0 0 0 0 67 0 0 0 0 147 127 130 52 0 0 0 47 0 0 0 0 3 0 5 3 5 9 0 6 3 2 6 4 0 15 0 0 0 28 43 31 10 0 4 1 7 6 0 0 67 58 8 23 55 81 31 22 0 2 6 3 3 3 3 2 1 0 0 0 0 0 0 0 0 0 0 0 0 0 0 0 0 0 0 0 0 0 0 0 0 0 0 0 0 0 0 0 0 0 0 0 0 1 2 10 0 8 56 93 94 57 0 0 0 0 0 0 0 49 106 126 0 0 0 11 79 75 2 0 0 7 46 89 89 20 0 0 0 0 9 44 8 0 0 0 0 44 104 52 0 0 0 0 0 0 0 0 0 0 0 0 0 0 5 9 37 0 0 0 0 0 0 0 0 34 51 25 27 10 20 12 3 0 2 0 2 0 0 0 0 0 0 0 0 0 0 0 0 0 0 0 0 0 0 0 0 0 0 0 0 0 0 0 0 0 0 0 0 0 0 0 0 0 0 0 0 0 0 0 0 0 0 0 0 0 0 0 0 0 0 0 0 0 0 0 0 0 0 0 0 0 0 0 0 0 0 0 0 0 0 0 0 0 0 0 0 0 0 0 0 0 0 0 0 0 0 0 0 0 0 0 0 0 0 0 0 0 0 0 0 0 0 0 0 0 0 0 0 0 0 0 0 0 0 0 0 0 0 0 0 0 0 0 0 0 0 0 0 0 0 0 0 0 0 0 0 0 0 0 0 0 0 0 0 0 0 0 0 0 0 0 0 0 0 0 0 0 0 0 0 0 0 0 0 0 0 0 0 0 0 0 0 0 0 0 0 0 0 0 0 0 0 0 0 0 0 0 0 0 0 0 0 0 0 0 0 0 0 0 0 0 0 0 0 0 0 0 0 0 0 0 0 0 0 255
255 0 0 0 0 0 0 0 0 0 0 0 0 0 0 0 0 0 0 0 0 0 0 0 0 0 0 0 0 0 0 0 0 0 0 0 0 0 0 0 0 0 0 0 0 0 0 0 0 0 0 0 0 0 0 0 0 0 0 0 0 0 0 0 0 0 0 0 0 0 0 0 0 0 0 0 0 0 0 0 0 0 0 0 0 0 0 0 0 2 0 2 0 2 0 1 7 0 0 15 13 0 20 152 255 0 0 0 0 0 0 0 0 15 86 56 0 0 0 0 20 109 56 30 0 85 0 142 0 0 117 238 58 0 0 46 36 0 14 0 0 0 50 0 0 19 38 44 29 7 0 0 0 0 0 0 0 0 251 16 0 159 50 0 99 0 0 82 0 41 0 29 56 0 93 0 70 41 113 0 0 255 165 255 0 0 0 0 0 0 78 255 87 0 0 84 0 0 97 151 0 16 16 0 17 10 13 0 6 3 2 1 0 0 0 0 0 0 0 0 0 0 1 0 0 0 2 4 0 0 2 9 0 0 10 38 17 0 0 21 25 5 0 0 0 0 0 0 22 15 14 9 7 5 8 10 20 2 0 0 11 7 0 0 17 0 0 0 0 5 22 16 40 19 3 0 0 0 0 0 0 0 0 0 0 3 1 0 12 7 2 0 0 3 3 0 20 9 14 7 4 14 11 0 32 0 0 20 17 0 0 18 0 6 0 0 4 8 1 0 14 16 2 0 0 0 0 0 1 0 8 5 6 0 0 0 0 0 33 0 0 24 6 0 0 0 19 111 74 0 0 0 14 0 8 11 7 21 20 20 8 0 0 0 6 17 30 19 9 9 28 17 18 4 4 4 18 7 0 0 7 4 9 1 5 8 0 0 0 8 35 66 27 3 254 0 0 0 23 8 36 27 0 0 0 0 0 0 0 0 0 0 0 0 0 21 0 0 72 181 0 45 54 37 10 0 0 40 108 112 66 42 0 77 0 71 71 0 0 0 11 48 39 50 39 51 0 34 195 0 110 0 0 55 50 0 0 42 18 76 0 94 34 133 255 0 61 0 0 0 0 0 159 0 56 54 112 0 0 49 0 50 70 32 0 0 0 44 0 17 47 0 0 0 8 5 7 29 0 103 0 0 160 0 0 0 0 43 78 39 0 0 0 0 15 17 2 0 8 10 7 0 0 1 6 0 0 0 0 0 0 0 18 78 33 0 7 0 8 5 6 19 40 89 94 0 0 0 0 80 95 27 15 12 17 14 9 7 0 0 5 3 2 1 0 0 0 0 0 0 0 0 0 0 0 1 2 3 3 3 3 4 5 8 7 6 2 3 6 7 6 5 9 11 8 4 3 7 10 30 53 101 39 0 0 0 0 0 27 16 39 56 66 40 0 0 0 12 34 4 0 0 0 0 61 88 134 128 0 0 0 2 196 120 95 21 0 67 126 177 157 106 0 0 0 10 5 0 0 0 0 0 0 0 60 133 130 7 0 0 23 0 0 70 0 13 35 16 0 0 48 62 56 10 3 3 9 2 5 6 8 8 9 9 9 7 4 2 2 4 5 6 5 4 2 1 0 0 0 0 0 0 0 0 0 0 0 0 0 0 0 0 0 0 0 0 0 0 0 0 0 0 0 0 0 0 0 0 0 0 0 0 0 0 0 0 0 0 0 0 0 0 0 0 0 0 0 0 0 0 0 0 0 0 0 0 0 0 0 0 0 0 0 0 0 0 0 0 0 0 0 0 0 0 0 0 0 0 0 0 0 0 0 0 0 0 0 0 0 0 0 0 0 0 0 0 0 0 0 0 0 0 0 0 0 0 0 0 0 0 0 0 0 0 0 0 0 0 0 0 0 0 0 0 0 0 0 0 0 0 0 0 0 0 0 0 0 0 0 0 0 0 0 0 0 0 0 0 0 0 0 0 0 0 0 0 0 0 0 0 0 0 0 0 0 0 0 0 0 0 0 0 0 0 0 0 0 0 0 0 0 0 0 0 0 0 0 0 0 0 0 0 0 0 0 0 0 0 0 255
255 0 0 0 0 0 0 0 0 0 0 0 0 0 0 0 0 0 0 0 0 0 0 0 0 0 0 0 0 0 0 0 0 0 0 0 0 0 0 0 0 0 0 0 0 0 0 0 0 0 0 0 0 0 0 0 0 0 0 0 0 0 0 0 0 0 0 0 0 0 0 0 0 0 0 0 0 0 0 0 0 0 0 0 0 0 0 0 0 1 1 1 0 1 3 6 2 13 13 1 3 5 0 17 161 255 19 0 0 0 119 0 91 11 0 6 65 104 39 0 0 0 120 61 32 107 17 2 0 0 0 146 255 0 0 61 0 55 26 0 0 0 0 6 0 0 42 16 0 0 0 0 0 16 61 78 0 0 0 0 0 160 21 0 16 0 14 13 0 34 0 0 0 0 0 0 0 57 74 0 0 255 255 0 0 0 46 0 0 11 255 31 0 0 0 0 0 81 135 23 6 2 10 0 6 0 2 0 1 0 0 2 0 0 0 0 0 0 0 0 0 0 1 2 3 3 2 4 0 5 2 7 5 0 9 35 0 0 3 4 0 0 0 0 0 1 5 3 0 0 2 3 1 4 0 0 6 0 2 1 0 0 0 0 0 0 11 8 14 0 0 0 0 0 0 0 2 0 0 0 0 9 25 11 4 25 21 0 25 11 10 9 13 0 0 0 7 0 0 10 1 0 0 0 15 15 0 0 0 0 0 0 0 1 0 0 2 6 0 0 0 8 0 11 4 0 0 0 32 11 0 0 6 9 0 4 30 9 5 0 0 6 8 17 32 9 0 0 66 98 0 0 22 3 0 0 0 0 0 0 15 13 18 6 0 0 13 13 0 0 0 0 0 4 6 6 0 0 5 6 9 5 8 6 0 16 4 0 3 9 0 0 13 0 4 239 25 0 20 5 5 0 0 0 0 0 0 21 0 0 0 0 0 70 45 0 22 0 99 253 0 58 68 0 28 55 76 0 0 0 0 114 0 33 17 102 5 0 0 105 0 54 0 82 0 0 0 255 57 48 222 228 52 0 0 0 51 0 0 0 0 0 0 2 157 0 10 134 216 0 49 41 16 186 0 0 218 0 55 32 0 0 0 2 18 15 12 21 18 7 0 1 14 4 10 1 9 8 0 0 0 0 0 0 102 13 0 0 0 0 50 0 0 0 0 0 92 0 2 0 0 0 19 0 0 0 0 0 0 0 41 113 78 31 0 0 0 0 21 30 55 118 25 0 0 0 79 12 0 0 29 185 49 1 0 0 0 2 0 0 0 0 0 1 0 0 0 0 0 0 0 0 0 0 0 2 0 0 0 0 0 0 0 0 0 2 3 17 0 0 0 1 0 0 0 11 4 10 21 74 21 0 0 0 0 19 1 0 0 0 98 79 0 0 0 18 0 0 43 4 0 64 99 186 56 0 0 0 0 0 52 100 218 223 21 42 255 107 0 36 0 0 0 0 0 0 0 0 0 48 173 176 149 145 92 20 25 60 35 0 0 0 45 72 30 78 3 0 20 0 0 0 9 43 96 80 57 9 4 0 2 0 0 0 0 0 0 4 0 0 0 0 0 0 0 3 1 0 0 0 0 0 0 0 0 0 0 0 0 0 0 0 0 0 0 0 0 0 0 0 0 0 0 0 0 0 0 0 0 0 0 0 0 0 0 0 0 0 0 0 0 0 0 0 0 0 0 0 0 0 0 0 0 0 0 0 0 0 0 0 0 0 0 0 0 0 0 0 0 0 0 0 0 0 0 0 0 0 0 0 0 0 0 0 0 0 0 0 0 0 0 0 0 0 0 0 0 0 0 0 0 0 0 0 0 0 0 0 0 0 0 0 0 0 0 0 0 0 0 0 0 0 0 0 0 0 0 0 0 0 0 0 0 0 0 0 0 0 0 0 0 0 0 0 0 0 0 0 0 0 0 0 0 0 0 0 0 0 0 0 0 0 0 0 0 0 0 0 0 0 0 0 0 0 0 0 0 0 0 0 0 0 0 0 0 0 0 0 0 0 0 0 0 0 0 0 0 0 0 255
255 0 0 0 0 0 0 0 0 0 0 0 0 0 0 0 0 0 0 0 0 0 0 0 0 0 0 0 0 0 0 0 0 0 0 0 0 0 0 0 0 0 0 0 0 0 0 0 0 0 0 0 0 0 0 0 0 0 0 0 0 0 0 0 0 0 0 0 0 0 0 0 0 0 0 0 0 0 0 0 0 0 0 0 0 0 0 0 0 0 0 0 0 0 0 1 1 1 3 0 0 1 1 6 0 118 255 166 0 0 0 0 0 95 144 18 0 6 70 83 0 0 0 7 55 36 55 143 0 0 0 0 255 115 0 0 29 8 0 48 148 67 143 0 0 0 0 0 0 0 218 233 232 217 151 215 178 102 62 0 104 165 0 0 16 0 18 15 0 10 0 0 6 17 20 0 0 0 217 0 0 255 255 0 0 255 255 0 0 128 255 114 0 0 0 0 21 82 59 7 5 0 4 0 2 1 0 0 2 0 0 3 0 0 0 0 0 0 0 0 0 0 0 1 2 4 0 6 0 0 2 3 0 0 14 46 0 0 23 21 2 6 2 0 6 1 0 2 0 0 0 4 3 0 0 0 11 0 0 0 0 4 8 16 0 3 8 5 7 0 3 0 16 11 3 0 0 0 0 0 0 9 12 0 0 12 7 0 17 0 11 9 10 7 12 3 0 0 0 20 13 0 0 14 1 9 5 14 5 9 3 12 0 1 0 1 0 3 6 0 0 4 1 4 10 4 8 3 4 4 0 0 4 2 0 0 10 0 0 0 1 0 8 2 19 2 0 0 3 31 21 24 0 20 47 0 0 46 53 0 0 0 0 0 0 0 0 0 34 14 15 10 12 5 0 0 3 0 0 2 0 0 5 0 0 0 9 0 6 16 3 0 56 0 79 56 160 0 0 0 0 23 132 180 156 118 87 92 73 74 10 0 0 0 5 10 0 0 0 231 0 7 0 9 0 0 0 0 0 0 0 42 0 55 0 26 39 2 21 0 37 123 3 57 30 0 0 228 0 9 109 99 32 52 69 31 0 0 0 3 27 20 24 21 230 0 0 51 34 0 0 52 79 127 0 0 194 0 99 0 10 0 0 5 3 0 0 4 9 8 0 2 7 0 5 8 7 11 1 0 0 4 0 0 0 90 30 0 0 16 255 255 197 255 88 80 197 205 236 234 132 0 0 0 0 0 0 0 64 73 76 38 11 0 1 30 55 39 69 87 28 0 0 0 0 116 0 81 180 82 0 0 104 122 60 28 3 18 21 15 5 3 2 1 1 2 3 2 1 0 0 0 0 0 0 3 0 0 0 0 0 1 2 4 1 13 0 0 0 11 11 16 0 14 18 12 59 81 38 9 0 0 6 27 0 0 0 7 159 14 0 0 0 0 19 77 99 1 77 35 43 123 30 0 0 0 0 0 0 0 0 0 0 0 0 0 11 0 0 15 0 0 0 0 0 0 14 116 119 86 47 0 0 0 0 22 0 0 0 29 82 66 0 0 0 95 35 0 0 0 0 0 0 0 0 0 47 71 28 0 0 0 5 2 10 9 0 0 3 4 5 7 0 0 0 0 1 0 0 0 0 0 0 0 0 0 0 0 0 0 0 0 0 0 0 0 0 0 0 0 0 0 0 0 0 0 0 0 0 0 0 0 0 0 0 0 0 0 0 0 0 0 0 0 0 0 0 0 0 0 0 0 0 0 0 0 0 0 0 0 0 0 0 0 0 0 0 0 0 0 0 0 0 0 0 0 0 0 0 0 0 0 0 0 0 0 0 0 0 0 0 0 0 0 0 0 0 0 0 0 0 0 0 0 0 0 0 0 0 0 0 0 0 0 0 0 0 0 0 0 0 0 0 0 0 0 0 0 0 0 0 0 0 0 0 0 0 0 0 0 0 0 0 0 0 0 0 0 0 0 0 0 0 0 0 0 0 0 0 0 0 0 0 0 0 0 0 0 0 0 0 0 0 0 0 0 0 0 0 0 0 0 0 0 0 0 0 0 0 0 0 0 0 0 0 0 0 0 0 255
255 0 0 0 0 0 0 0 0 0 0 0 0 0 0 0 0 0 0 0 0 0 0 0 0 0 0 0 0 0 0 0 0 0 0 0 0 0 0 0 0 0 0 0 0 0 0 0 0 0 0 0 0 0 0 0 0 0 0 0 0 0 0 0 0 0 0 0 0 0 0 0 0 0 0 0 0 0 0 0 0 0 0 0 0 0 0 0 0 0 0 0 0 0 0 0 0 0 2 0 0 0 0 6 25 11 48 193 255 56 0 0 0 0 0 84 51 0 0 83 72 0 0 0 63 69 54 175 94 0 0 0 28 255 175 0 38 0 0 95 0 0 33 0 0 0 167 221 183 136 59 0 0 0 0 80 85 57 119 0 146 164 32 0 45 0 1 68 0 0 0 0 14 0 0 0 25 162 90 0 255 255 0 0 255 0 27 0 0 197 0 0 7 0 0 76 148 80 27 13 2 2 4 3 2 1 2 2 1 0 0 3 0 0 0 0 0 0 0 0 0 0 0 2 0 0 0 0 0 0 3 3 0 0 21 36 0 0 19 6 0 0 0 0 2 0 3 0 0 1 4 0 0 0 0 0 0 0 0 4 0 4 0 26 0 0 0 0 0 0 2 0 10 5 6 1 0 0 0 0 0 0 0 0 0 0 0 0 2 0 0 0 6 16 27 34 5 3 0 19 12 0 0 18 0 0 0 5 2 1 10 13 0 7 0 2 0 5 0 0 0 0 0 9 18 20 24 34 0 0 0 0 0 4 0 2 1 0 0 0 0 0 1 0 0 2 0 0 0 13 50 96 0 0 0 13 48 0 0 15 0 0 0 5 0 0 2 0 20 8 11 9 5 0 0 0 20 3 0 2 0 0 5 0 8 0 16 0 0 17 1 0 0 20 30 8 209 0 0 0 0 71 185 106 35 31 40 38 55 80 85 51 0 0 0 5 33 0 0 233 33 6 0 51 60 41 39 51 57 42 37 79 0 0 109 0 0 0 0 29 0 0 0 0 0 0 0 255 0 0 41 80 86 0 0 0 0 0 54 56 30 14 9 0 255 0 0 42 0 0 0 156 82 32 0 108 191 0 91 0 15 0 9 3 0 4 3 7 11 8 0 0 12 7 5 5 13 5 5 5 5 1 0 6 0 56 56 0 0 0 0 255 255 255 13 0 0 0 0 16 22 191 255 164 85 68 126 118 83 52 33 17 11 21 39 77 23 0 22 47 0 0 0 119 0 0 0 0 0 5 0 0 0 51 76 0 6 0 0 15 5 1 0 0 2 0 0 0 2 0 0 0 0 0 0 3 0 0 0 0 0 0 0 3 10 14 0 6 6 3 0 0 0 33 59 22 0 5 7 0 0 0 0 0 0 0 0 28 42 10 0 0 2 89 52 0 43 10 144 43 0 0 0 0 9 0 0 0 0 11 14 55 0 0 0 0 0 0 0 0 0 0 0 0 21 46 82 126 82 36 6 3 0 0 0 8 0 0 0 24 25 1 9 104 0 0 0 68 214 152 9 0 10 0 0 0 27 77 68 33 7 2 9 10 10 8 0 8 8 9 6 4 4 0 4 2 1 0 0 0 0 0 0 0 0 0 0 0 0 0 0 0 0 0 0 0 0 0 0 0 0 0 0 0 0 0 0 0 0 0 0 0 0 0 0 0 0 0 0 0 0 0 0 0 0 0 0 0 0 0 0 0 0 0 0 0 0 0 0 0 0 0 0 0 0 0 0 0 0 0 0 0 0 0 0 0 0 0 0 0 0 0 0 0 0 0 0 0 0 0 0 0 0 0 0 0 0 0 0 0 0 0 0 0 0 0 0 0 0 0 0 0 0 0 0 0 0 0 0 0 0 0 0 0 0 0 0 0 0 0 0 0 0 0 0 0 0 0 0 0 0 0 0 0 0 0 0 0 0 0 0 0 0 0 0 0 0 0 0 0 0 0 0 0 0 0 0 0 0 0 0 0 0 0 0 0 0 0 0 0 0 0 0 0 0 0 0 0 0 0 0 0 0 0 0 0 0 0 0 255
255 0 0 0 0 0 0 0 0 0 0 0 0 0 0 0 0 0 0 0 0 0 0 0 0 0 0 0 0 0 0 0 0 0 0 0 0 0 0 0 0 0 0 0 0 0 0 0 0 0 0 0 0 0 0 0 0 0 0 0 0 0 0 0 0 0 0 0 0 0 0 0 0 0 0 0 0 0 0 0 0 0 0 0 0 0 0 0 0 0 0 0 0 0 0 0 0 1 3 6 0 0 0 7 7 0 0 39 90 214 137 14 0 0 0 12 113 0 0 0 61 59 22 0 0 0 30 81 199 59 0 0 0 147 182 43 0 51 34 155 0 0 0 0 255 246 134 37 3 0 0 60 0 0 0 0 0 0 28 0 0 69 107 84 58 0 0 94 0 0 0 2 10 0 0 0 69 0 171 0 0 0 0 239 255 0 97 0 177 98 0 38 44 0 0 105 102 18 0 0 0 1 0 0 1 0 0 0 0 0 0 3 0 0 0 0 0 0 0 0 0 0 0 3 0 0 0 0 0 0 3 2 0 2 34 30 0 0 18 8 0 0 2 0 10 0 5 0 6 5 5 11 5 2 0 0 6 0 0 0 6 6 5 12 0 7 0 0 0 0 9 0 0 0 0 0 0 1 0 1 8 9 0 0 0 0 3 0 0 0 0 0 7 7 14 13 3 5 4 4 0 0 0 10 0 0 0 0 1 0 0 0 5 8 0 3 2 8 3 0 6 8 0 0 0 0 0 3 0 0 0 2 0 14 0 4 4 0 0 0 0 0 2 4 0 0 11 13 0 2 1 13 147 0 0 0 47 0 0 40 17 15 22 17 7 13 17 17 0 0 0 0 2 11 0 0 16 0 0 0 3 0 0 0 0 0 11 0 3 10 8 8 0 19 0 81 44 228 0 0 100 96 91 0 0 4 35 0 0 0 45 87 43 0 0 0 36 48 0 122 205 49 0 11 28 2 0 20 34 30 1 10 0 0 15 0 255 255 0 0 0 0 0 0 0 0 0 224 0 0 0 59 105 0 0 0 18 56 75 27 4 26 23 7 239 0 0 0 0 0 0 0 0 20 0 110 255 0 20 25 0 0 1 12 7 2 0 6 2 0 0 0 0 3 0 3 0 5 3 1 5 2 0 0 0 0 47 8 38 38 0 38 0 0 0 0 0 0 0 0 0 11 255 255 157 65 23 30 14 0 0 0 26 67 55 0 9 0 0 0 0 0 0 137 96 0 131 25 27 0 69 0 0 0 0 69 49 38 0 4 0 2 0 0 2 0 0 0 2 0 0 0 0 0 0 3 0 0 0 0 0 0 0 3 0 4 5 11 5 0 2 28 38 76 52 0 0 0 0 0 0 2 0 0 0 53 65 8 0 0 38 69 50 0 0 0 33 0 42 0 0 0 0 0 0 0 43 178 247 179 41 0 4 1 0 0 0 5 2 0 0 0 0 33 96 92 26 0 0 0 0 16 36 0 2 41 1 13 32 49 17 4 81 255 55 0 0 0 62 90 79 131 117 80 26 0 0 8 87 110 78 37 21 0 0 0 0 15 0 0 0 0 2 1 1 0 0 0 0 0 0 0 0 0 0 0 0 0 0 0 0 0 0 0 0 0 0 0 0 0 0 0 0 0 0 0 0 0 0 0 0 0 0 0 0 0 0 0 0 0 0 0 0 0 0 0 0 0 0 0 0 0 0 0 0 0 0 0 0 0 0 0 0 0 0 0 0 0 0 0 0 0 0 0 0 0 0 0 0 0 0 0 0 0 0 0 0 0 0 0 0 0 0 0 0 0 0 0 0 0 0 0 0 0 0 0 0 0 0 0 0 0 0 0 0 0 0 0 0 0 0 0 0 0 0 0 0 0 0 0 0 0 0 0 0 0 0 0 0 0 0 0 0 0 0 0 0 0 0 0 0 0 0 0 0 0 0 0 0 0 0 0 0 0 0 0 0 0 0 0 0 0 0 0 0 0 0 0 0 0 0 0 0 0 0 0 0 0 0 0 0 0 0 0 0 0 0 0 0 255
255 0 0 0 0 0 0 0 0 0 0 0 0 0 0 0 0 0 0 0 0 0 0 0 0 0 0 0 0 0 0 0 0 0 0 0 0 0 0 0 0 0 0 0 0 0 0 0 0 0 0 0 0 0 0 0 0 0 0 0 0 0 0 0 0 0 0 0 0 0 0 0 0 0 0 0 0 0 0 0 0 0 0 0 0 0 0 0 0 0 0 0 0 0 0 1 2 4 0 0 0 0 0 5 0 33 31 6 0 14 82 162 165 146 0 0 0 67 57 0 0 25 51 0 0 0 27 64 118 255 0 0 0 0 78 210 0 94 0 13 42 87 0 24 166 0 0 32 91 0 0 0 49 20 0 64 90 62 65 0 0 0 31 26 48 14 0 49 0 0 0 6 5 0 0 0 160 0 99 103 0 0 35 31 0 0 54 151 0 0 0 0 0 0 83 100 33 0 0 17 0 1 2 2 1 0 0 0 0 0 0 3 0 0 0 0 0 0 0 0 0 0 0 2 0 0 0 0 0 0 3 1 4 4 35 25 0 0 22 0 0 0 0 9 16 3 10 1 0 0 6 15 9 5 11 0 8 5 2 0 0 0 0 0 5 4 0 0 0 0 6 0 0 0 0 3 1 10 6 9 7 0 0 0 0 2 10 13 0 0 0 0 0 0 0 0 15 5 7 2 0 5 8 8 0 0 0 3 0 1 2 0 7 0 3 1 7 2 0 0 15 6 0 4 0 0 0 0 0 1 0 5 3 10 3 0 3 0 1 0 3 0 6 6 4 6 2 13 14 0 0 0 63 87 32 0 0 25 46 0 0 0 1 0 0 0 0 0 0 0 0 0 6 10 17 7 10 4 6 6 0 4 3 1 4 4 17 0 0 14 10 19 0 0 0 102 0 255 0 0 67 2 16 12 39 59 33 0 51 5 0 8 18 0 0 0 0 0 0 0 236 28 39 0 0 0 0 0 0 0 0 0 108 0 125 0 0 220 223 196 255 222 255 154 204 0 0 255 4 0 0 34 125 4 0 22 60 29 2 0 6 48 43 6 107 0 0 0 176 255 255 1 0 30 0 0 255 0 0 94 0 2 8 9 4 9 9 13 0 0 0 4 0 1 0 14 0 0 0 5 9 9 0 0 34 0 113 32 0 164 58 0 0 0 80 98 153 232 53 31 0 0 0 71 255 116 0 0 14 23 20 42 66 59 0 0 106 0 14 37 0 0 0 0 74 134 27 0 157 58 0 51 0 0 0 18 122 66 9 2 6 5 2 1 1 2 3 2 1 0 0 0 0 0 0 3 0 0 0 0 0 0 0 3 5 9 0 0 0 12 52 87 91 0 0 0 48 48 0 0 23 0 0 0 52 71 42 9 82 0 0 99 24 0 0 155 142 0 0 0 2 42 0 0 74 4 0 31 50 0 0 0 0 6 0 0 20 0 0 14 129 97 112 66 0 0 0 56 22 3 3 18 0 0 0 68 129 48 5 35 84 68 0 0 0 86 104 0 0 0 11 0 16 0 0 0 0 0 8 4 121 80 80 33 23 8 4 0 0 0 0 4 1 1 3 3 2 0 0 0 0 0 0 0 0 0 0 0 0 0 0 0 0 0 0 0 0 0 0 0 0 0 0 0 0 0 0 0 0 0 0 0 0 0 0 0 0 0 0 0 0 0 0 0 0 0 0 0 0 0 0 0 0 0 0 0 0 0 0 0 0 0 0 0 0 0 0 0 0 0 0 0 0 0 0 0 0 0 0 0 0 0 0 0 0 0 0 0 0 0 0 0 0 0 0 0 0 0 0 0 0 0 0 0 0 0 0 0 0 0 0 0 0 0 0 0 0 0 0 0 0 0 0 0 0 0 0 0 0 0 0 0 0 0 0 0 0 0 0 0 0 0 0 0 0 0 0 0 0 0 0 0 0 0 0 0 0 0 0 0 0 0 0 0 0 0 0 0 0 0 0 0 0 0 0 0 0 0 0 0 0 0 0 0 0 0 0 0 0 0 0 0 0 0 0 0 0 0 0 255
255 0 0 0 0 0 0 0 0 0 0 0 0 0 0 0 0 0 0 0 0 0 0 0 0 0 0 0 0 0 0 0 0 0 0 0 0 0 0 0 0 0 0 0 0 0 0 0 0 0 0 0 0 0 0 0 0 0 0 0 0 0 0 0 0 0 0 0 0 0 0 0 0 0 0 0 0 0 0 0 0 0 0 0 0 0 0 0 0 0 0 0 0 0 0 2 0 0 0 0 0 0 4 11 14 21 0 0 20 18 4 9 40 80 131 8 0 0 46 41 1 0 0 29 28 0 0 12 100 240 255 0 0 0 18 162 124 139 0 0 0 0 0 223 48 0 0 0 41 0 0 76 0 0 0 5 5 0 98 51 0 0 0 0 24 109 9 36 0 0 0 3 2 0 0 12 172 2 0 0 0 253 103 0 80 0 0 255 181 0 0 0 0 34 158 50 7 9 0 17 0 0 0 0 0 0 0 0 0 0 0 3 0 0 0 0 0 0 0 0 0 0 0 1 2 3 4 5 0 0 4 2 4 10 42 9 0 0 17 0 6 0 0 0 4 7 2 2 0 0 0 0 0 1 10 0 19 7 7 1 0 4 0 0 0 0 0 0 1 0 1 0 25 15 12 10 0 0 0 0 5 0 0 0 0 0 0 2 0 8 0 0 0 0 0 0 3 6 9 0 0 0 12 0 25 17 12 9 9 2 4 1 12 0 0 0 8 10 3 0 3 1 3 0 0 11 7 13 1 0 0 1 3 3 0 0 15 3 4 0 3 8 0 0 46 7 0 0 3 0 12 2 0 50 88 6 0 0 0 16 0 0 0 0 2 0 0 0 5 0 1 7 5 9 6 0 15 0 5 1 8 1 0 1 0 0 16 1 6 3 3 9 20 0 78 0 0 145 142 0 0 0 0 35 35 0 0 4 23 0 0 30 62 49 7 0 30 0 0 0 164 27 149 11 33 36 33 21 28 26 26 7 0 109 0 0 0 26 115 68 24 0 13 0 141 24 0 202 23 76 48 0 17 90 80 18 57 5 0 0 0 3 0 0 187 0 59 0 193 255 255 0 0 42 0 0 255 0 0 46 1 0 4 7 14 2 3 2 16 9 6 12 9 13 10 24 0 0 0 2 7 10 6 0 118 0 87 255 0 0 0 0 66 0 7 0 0 0 0 17 28 0 0 0 27 239 101 10 0 26 51 109 23 0 0 0 56 0 31 93 64 40 0 0 0 27 0 0 0 60 24 182 0 0 0 0 0 92 52 0 7 0 0 3 1 0 0 0 0 0 0 0 0 0 0 3 0 0 0 0 0 0 0 4 18 0 0 20 28 79 42 5 0 0 0 61 35 0 0 0 0 0 0 90 84 0 0 31 17 24 0 0 0 44 94 180 72 0 0 0 16 22 0 0 135 4 0 0 0 0 0 31 0 72 2 0 8 0 0 68 117 69 51 23 0 0 0 45 0 3 37 61 0 0 0 11 17 0 0 0 0 0 0 0 0 12 180 120 0 0 0 0 0 0 0 0 5 8 0 0 0 0 55 82 95 46 29 0 27 15 7 2 0 1 0 0 3 0 0 0 0 0 0 0 0 0 0 0 0 0 0 0 0 0 0 0 0 0 0 0 0 0 0 0 0 0 0 0 0 0 0 0 0 0 0 0 0 0 0 0 0 0 0 0 0 0 0 0 0 0 0 0 0 0 0 0 0 0 0 0 0 0 0 0 0 0 0 0 0 0 0 0 0 0 0 0 0 0 0 0 0 0 0 0 0 0 0 0 0 0 0 0 0 0 0 0 0 0 0 0 0 0 0 0 0 0 0 0 0 0 0 0 0 0 0 0 0 0 0 0 0 0 0 0 0 0 0 0 0 0 0 0 0 0 0 0 0 0 0 0 0 0 0 0 0 0 0 0 0 0 0 0 0 0 0 0 0 0 0 0 0 0 0 0 0 0 0 0 0 0 0 0 0 0 0 0 0 0 0 0 0 0 0 0 0 0 0 0 0 0 0 0 0 0 0 0 0 0 0 255
255 0 0 0 0 0 0 0 0 0 0 0 0 0 0 0 0 0 0 0 0 0 0 0 0 0 0 0 0 0 0 0 0 0 0 0 0 0 0 0 0 0 0 0 0 0 0 0 0 0 0 0 0 0 0 0 0 0 0 0 0 0 0 0 0 0 0 0 0 0 0 0 0 0 0 0 0 0 0 0 0 0 0 0 0 0 0 0 0 0 0 0 0 0 0 3 0 0 0 0 5 2 1 3 0 0 0 18 10 7 0 16 0 0 34 75 65 0 0 9 79 0 0 27 37 0 0 0 89 33 255 115 0 0 0 0 151 143 188 0 0 0 0 255 72 0 0 94 91 29 21 21 17 92 55 39 0 0 19 65 67 0 6 0 0 130 23 38 0 10 5 0 0 0 13 92 0 0 26 87 0 0 71 0 34 0 65 0 255 0 32 0 0 115 80 13 5 6 0 0 0 0 0 0 0 0 0 0 0 0 0 3 0 0 0 0 0 0 0 0 0 0 0 0 1 2 3 0 3 4 0 0 5 17 38 0 0 0 30 0 10 0 0 0 6 0 0 0 0 0 0 0 0 0 0 0 12 0 0 1 0 0 0 0 0 0 0 0 1 0 8 3 10 9 3 0 1 0 0 0 19 0 0 0 8 0 0 0 3 4 7 0 0 0 0 0 0 4 0 0 0 2 6 0 29 0 4 8 8 1 3 0 11 0 0 0 2 1 0 0 0 0 4 5 10 9 1 0 12 0 0 0 0 8 0 0 5 3 0 8 11 6 0 0 27 0 0 0 0 0 1 43 0 0 9 120 62 0 0 56 16 1 0 6 12 4 5 0 25 11 10 2 0 0 4 0 6 0 0 0 2 1 2 6 0 5 17 0 0 5 11 13 19 0 44 0 16 0 188 0 0 26 31 24 1 0 0 63 0 0 11 26 56 60 23 0 105 0 78 0 0 0 105 25 0 0 0 0 0 0 0 0 79 0 0 155 255 9 16 0 69 0 42 36 92 104 0 129 80 16 24 0 0 19 20 0 44 3 0 0 0 0 0 0 0 0 0 0 0 213 255 0 0 8 0 0 220 166 0 0 0 0 2 0 0 0 0 0 17 4 0 5 2 7 0 7 0 0 0 0 9 7 0 0 54 0 0 255 133 0 0 170 0 0 43 116 39 15 80 0 0 0 0 0 0 77 246 50 0 58 63 0 0 0 0 0 0 0 0 52 44 18 0 0 0 42 185 255 0 24 0 0 19 0 29 38 0 21 156 47 12 0 3 0 2 0 0 0 0 0 0 0 0 0 0 3 0 1 1 0 0 0 0 4 0 0 20 53 107 48 0 0 0 0 53 45 0 0 0 69 0 0 31 75 32 0 0 0 0 55 54 0 0 178 145 0 0 0 50 38 0 0 0 0 0 0 12 73 95 48 0 0 68 61 40 1 0 0 28 48 0 0 0 0 49 71 16 0 0 0 40 51 0 0 0 0 0 0 25 0 0 0 0 10 114 0 0 87 42 0 47 75 2 0 0 11 17 0 0 0 0 0 0 0 34 76 84 29 11 17 19 14 5 2 4 0 3 0 0 0 0 0 0 0 0 0 0 0 0 0 0 0 0 0 0 0 0 0 0 0 0 0 0 0 0 0 0 0 0 0 0 0 0 0 0 0 0 0 0 0 0 0 0 0 0 0 0 0 0 0 0 0 0 0 0 0 0 0 0 0 0 0 0 0 0 0 0 0 0 0 0 0 0 0 0 0 0 0 0 0 0 0 0 0 0 0 0 0 0 0 0 0 0 0 0 0 0 0 0 0 0 0 0 0 0 0 0 0 0 0 0 0 0 0 0 0 0 0 0 0 0 0 0 0 0 0 0 0 0 0 0 0 0 0 0 0 0 0 0 0 0 0 0 0 0 0 0 0 0 0 0 0 0 0 0 0 0 0 0 0 0 0 0 0 0 0 0 0 0 0 0 0 0 0 0 0 0 0 0 0 0 0 0 0 0 0 0 0 0 0 0 0 0 0 0 0 0 0 0 255
255 0 0 0 0 0 0 0 0 0 0 0 0 0 0 0 0 0 0 0 0 0 0 0 0 0 0 0 0 0 0 0 0 0 0 0 0 0 0 0 0 0 0 0 0 0 0 0 0 0 0 0 0 0 0 0 0 0 0 0 0 0 0 0 0 0 0 0 0 0 0 0 0 0 0 0 0 0 0 0 0 0 0 0 0 0 0 0 0 0 0 0 0 0 0 3 0 0 0 0 2 0 0 3 0 16 15 0 0 11 8 8 0 11 2 6 43 67 0 0 22 72 40 0 0 33 35 0 0 139 188 255 0 0 0 0 0 0 255 70 26 0 0 0 186 0 26 103 0 0 35 0 0 0 0 75 62 0 26 0 65 0 70 0 0 61 33 83 0 32 29 3 0 0 38 134 0 0 230 0 111 204 0 0 111 49 0 0 255 0 0 143 72 105 20 0 5 2 4 17 4 5 9 15 13 7 9 18 17 9 0 15 12 11 2 2 3 4 7 7 5 3 3 2 2 0 0 4 2 2 0 6 0 25 57 2 0 0 38 0 9 0 0 0 0 0 0 0 14 6 11 2 17 10 5 0 10 3 14 10 6 5 15 18 1 0 10 11 13 5 6 3 0 0 3 12 5 13 15 6 39 0 0 6 33 13 0 7 0 9 9 10 26 8 5 2 0 4 19 0 0 14 24 4 7 0 0 0 0 0 0 0 1 0 0 0 0 0 0 0 4 6 12 3 9 0 0 0 16 0 0 0 0 0 0 0 0 0 0 4 1 10 0 0 0 0 0 7 0 0 0 16 45 8 0 36 41 0 0 0 40 9 3 0 8 9 20 0 5 0 0 0 0 0 0 0 15 0 0 0 0 3 4 8 0 19 36 12 1 0 0 3 10 0 0 54 41 39 145 47 0 0 0 0 2 46 58 42 80 106 54 0 0 0 0 0 47 0 96 0 0 0 10 47 161 86 39 23 54 78 75 62 65 0 103 255 42 26 0 58 0 0 0 0 0 0 0 47 255 0 0 92 28 0 20 47 21 0 12 43 0 0 0 0 148 249 255 137 7 219 255 30 0 0 0 0 42 255 0 0 12 0 7 3 0 0 0 0 1 0 0 0 0 0 0 0 0 0 0 12 16 20 5 6 31 1 0 0 0 0 0 32 0 17 0 126 24 0 94 0 0 0 0 62 0 0 159 146 66 110 23 0 0 0 57 63 0 0 5 68 0 0 0 16 0 33 0 0 36 0 0 0 91 0 0 116 0 0 0 127 22 0 5 12 11 9 1 0 0 1 1 1 1 2 3 4 0 0 2 0 4 8 9 17 17 27 78 64 0 0 0 0 111 65 0 0 0 22 19 0 0 96 95 0 0 101 113 0 83 0 0 100 151 46 0 0 0 0 43 0 0 66 31 0 99 45 5 0 0 0 20 45 107 0 0 0 0 174 255 67 15 61 90 33 0 0 0 20 6 17 39 49 22 0 20 83 0 94 112 22 0 0 0 0 0 0 0 67 0 0 22 0 0 0 18 0 0 0 92 227 0 0 0 0 0 31 90 101 44 47 39 28 8 5 10 9 9 3 2 1 1 2 3 2 1 0 0 0 0 0 0 0 0 0 0 0 0 0 0 0 0 0 0 0 0 0 0 0 0 0 0 0 0 0 0 0 0 0 0 0 0 0 0 0 0 0 0 0 0 0 0 0 0 0 0 0 0 0 0 0 0 0 0 0 0 0 0 0 0 0 0 0 0 0 0 0 0 0 0 0 0 0 0 0 0 0 0 0 0 0 0 0 0 0 0 0 0 0 0 0 0 0 0 0 0 0 0 0 0 0 0 0 0 0 0 0 0 0 0 0 0 0 0 0 0 0 0 0 0 0 0 0 0 0 0 0 0 0 0 0 0 0 0 0 0 0 0 0 0 0 0 0 0 0 0 0 0 0 0 0 0 0 0 0 0 0 0 0 0 0 0 0 0 0 0 0 0 0 0 0 0 0 0 0 0 0 0 0 0 0 0 0 0 0 0 0 0 0 0 255
255 0 0 0 0 0 0 0 0 0 0 0 0 0 0 0 0 0 0 0 0 0 0 0 0 0 0 0 0 0 0 0 0 0 0 0 0 0 0 0 0 0 0 0 0 0 0 0 0 0 0 0 0 0 0 0 0 0 0 0 0 0 0 0 0 0 0 0 0 0 0 0 0 0 0 0 0 0 0 0 0 0 0 0 0 0 0 0 0 0 0 0 0 0 0 2 0 0 4 2 1 0 0 2 5 0 0 12 2 0 0 5 0 6 4 5 9 45 44 19 0 0 30 47 8 0 18 51 0 0 55 255 255 0 0 0 19 0 97 105 134 0 21 8 0 0 0 16 66 26 59 0 0 0 4 0 0 0 66 3 0 21 46 0 0 14 0 0 29 0 0 0 0 4 48 0 100 28 0 98 68 0 0 0 63 1 0 195 255 0 0 92 104 48 26 0 20 9 5 9 0 12 0 0 0 8 1 0 0 30 24 32 0 17 8 0 3 0 0 0 0 0 0 0 6 5 0 0 2 1 1 7 0 31 62 0 0 19 0 23 0 0 13 4 0 10 13 13 10 1 0 0 0 0 5 8 34 0 0 0 24 14 0 0 14 5 0 0 0 0 0 0 14 0 0 0 0 0 7 8 24 40 39 11 0 0 0 10 0 0 0 0 0 0 13 9 0 0 0 0 0 1 11 12 20 15 29 13 2 0 0 2 1 7 11 10 19 14 14 22 0 0 0 0 0 0 4 0 11 0 6 2 11 4 6 12 5 6 0 3 3 0 0 3 0 0 0 8 22 29 20 11 0 13 3 0 37 106 0 0 17 63 0 0 71 10 0 12 18 7 11 10 16 6 1 0 0 1 19 17 6 0 0 0 0 0 0 0 7 17 10 12 10 18 11 6 13 0 0 255 0 10 0 0 45 0 0 0 0 0 0 0 0 12 21 0 79 20 14 40 35 0 0 0 0 55 148 106 60 36 33 36 0 0 255 0 16 0 0 49 0 22 35 10 0 0 0 0 255 153 30 0 63 42 0 24 0 80 0 0 0 155 225 148 54 198 0 0 13 0 31 100 0 0 0 6 0 255 193 0 4 0 13 11 18 32 30 0 8 0 0 0 3 2 2 16 20 0 0 0 0 0 2 10 0 35 68 24 0 0 47 27 0 26 35 3 0 32 43 44 13 42 0 0 18 0 0 255 181 0 0 0 39 0 0 169 0 0 0 0 0 37 135 79 86 0 248 0 0 225 121 57 153 0 0 193 62 0 0 176 104 3 0 25 0 1 2 0 0 2 0 2 2 0 0 0 8 0 6 5 8 0 0 7 0 93 126 0 0 0 64 21 80 0 0 34 53 0 0 7 0 10 56 12 0 0 2 0 0 39 62 1 0 0 0 2 0 0 11 23 0 0 0 37 0 0 0 0 0 0 3 13 0 0 12 0 0 0 34 38 132 34 0 24 20 0 0 48 0 97 86 0 0 0 118 96 18 24 7 0 0 98 179 94 118 123 0 0 0 0 0 0 11 30 41 0 30 0 0 116 255 179 199 0 0 0 7 0 8 0 0 112 104 36 19 0 6 5 4 7 3 0 0 0 3 0 0 0 0 0 0 0 0 0 0 0 0 0 0 0 0 0 0 0 0 0 0 0 0 0 0 0 0 0 0 0 0 0 0 0 0 0 0 0 0 0 0 0 0 0 0 0 0 0 0 0 0 0 0 0 0 0 0 0 0 0 0 0 0 0 0 0 0 0 0 0 0 0 0 0 0 0 0 0 0 0 0 0 0 0 0 0 0 0 0 0 0 0 0 0 0 0 0 0 0 0 0 0 0 0 0 0 0 0 0 0 0 0 0 0 0 0 0 0 0 0 0 0 0 0 0 0 0 0 0 0 0 0 0 0 0 0 0 0 0 0 0 0 0 0 0 0 0 0 0 0 0 0 0 0 0 0 0 0 0 0 0 0 0 0 0 0 0 0 0 0 0 0 0 0 0 0 0 0 0 0 0 0 0 0 0 0 0 0 0 0 0 0 0 255
255 0 0 0 0 0 0 0 0 0 0 0 0 0 0 0 0 0 0 0 0 0 0 0 0 0 0 0 0 0 0 0 0 0 0 0 0 0 0 0 0 0 0 0 0 0 0 0 0 0 0 0 0 0 0 0 0 0 0 0 0 0 0 0 0 0 0 0 0 0 0 0 0 0 0 0 0 0 0 0 0 0 0 0 0 0 0 0 0 0 0 0 0 0 0 1 2 2 1 0 0 0 0 2 5 0 8 12 9 19 23 19 0 3 0 0 0 22 30 69 36 0 0 0 0 0 0 68 30 0 0 0 255 21 0 0 57 0 100 108 0 0 0 23 39 50 0 0 0 0 85 78 30 0 4 48 0 0 23 1 11 0 0 42 51 0 0 0 0 0 104 0 61 255 0 0 255 0 0 49 138 58 0 0 65 0 0 255 0 0 0 185 50 23 0 0 10 7 0 0 29 44 67 166 190 188 214 235 151 126 0 0 32 0 0 13 13 16 18 19 17 14 0 0 8 0 0 0 3 0 0 7 0 34 85 0 0 34 0 26 0 1 7 0 8 0 0 2 8 1 5 0 0 4 0 10 0 0 2 0 0 0 6 29 15 7 13 24 49 80 100 121 138 128 117 100 107 94 91 80 0 0 12 25 26 11 8 11 0 15 26 38 22 0 0 0 11 3 0 0 0 0 0 0 15 6 27 25 21 7 18 6 2 0 0 0 0 0 0 4 0 0 5 0 12 0 0 0 12 0 2 0 0 0 0 1 0 0 3 1 4 7 0 0 0 0 0 0 3 2 0 0 0 14 0 0 0 41 31 14 0 0 49 34 0 0 20 1 7 0 0 0 0 0 0 0 12 0 11 18 0 0 2 10 0 0 0 1 8 4 0 0 0 6 0 0 17 13 0 224 0 0 0 0 64 17 31 10 0 66 14 0 0 21 3 0 19 0 0 1 0 0 0 0 0 0 0 0 0 0 0 0 0 30 255 0 25 0 0 0 4 0 0 15 75 24 0 0 0 255 255 3 68 36 0 118 102 0 0 0 105 63 0 0 0 0 0 26 0 0 78 130 93 0 0 0 0 0 26 37 4 7 0 0 3 0 0 0 16 0 5 2 2 5 0 2 9 2 0 0 0 2 11 9 12 27 62 26 0 0 26 0 46 41 68 50 23 8 0 0 28 46 0 0 80 0 0 255 114 0 68 155 64 0 147 116 34 255 104 0 22 92 114 0 0 0 121 143 0 0 86 0 0 0 0 139 72 14 0 0 110 84 0 25 24 5 6 0 0 3 0 4 3 0 0 3 3 12 0 0 14 13 7 24 114 40 0 0 8 81 52 34 0 37 60 0 0 0 29 101 7 46 26 0 0 0 0 0 23 0 0 0 0 0 0 0 56 38 16 0 0 0 0 0 3 0 0 0 0 0 0 0 0 0 3 0 0 0 13 0 98 49 0 0 0 10 32 63 0 61 58 0 0 0 110 128 16 12 4 0 7 122 151 7 198 190 0 43 45 0 10 0 35 0 12 0 62 29 0 0 42 26 12 0 0 64 0 0 0 105 0 0 21 34 88 22 12 0 0 6 6 1 0 0 4 0 0 0 0 0 0 0 0 0 0 0 0 0 0 0 0 0 0 0 0 0 0 0 0 0 0 0 0 0 0 0 0 0 0 0 0 0 0 0 0 0 0 0 0 0 0 0 0 0 0 0 0 0 0 0 0 0 0 0 0 0 0 0 0 0 0 0 0 0 0 0 0 0 0 0 0 0 0 0 0 0 0 0 0 0 0 0 0 0 0 0 0 0 0 0 0 0 0 0 0 0 0 0 0 0 0 0 0 0 0 0 0 0 0 0 0 0 0 0 0 0 0 0 0 0 0 0 0 0 0 0 0 0 0 0 0 0 0 0 0 0 0 0 0 0 0 0 0 0 0 0 0 0 0 0 0 0 0 0 0 0 0 0 0 0 0 0 0 0 0 0 0 0 0 0 0 0 0 0 0 0 0 0 0 0 0 0 0 0 0 0 0 0 0 255
255 0 0 0 0 0 0 0 0 0 0 0 0 0 0 0 0 0 0 0 0 0 0 0 0 0 0 0 0 0 0 0 0 0 0 0 0 0 0 0 0 0 0 0 0 0 0 0 0 0 0 0 0 0 0 0 0 0 0 0 0 0 0 0 0 0 0 0 0 0 0 0 0 0 0 0 0 0 0 0 0 0 0 0 0 0 0 0 0 0 0 0 0 0 0 0 0 0 0 0 0 0 0 7 0 9 5 1 0 0 0 0 10 2 11 0 0 0 15 30 52 22 0 0 1 0 0 13 68 37 0 0 255 222 0 0 19 0 0 84 177 151 0 96 44 73 0 0 0 0 0 0 24 12 0 119 19 0 103 56 16 0 1 63 55 0 0 0 36 0 0 0 145 111 0 161 0 0 135 43 83 0 0 72 79 0 111 255 0 42 123 255 54 29 33 30 18 0 19 100 76 90 0 0 0 35 28 0 0 169 215 34 39 0 2 10 0 0 0 0 0 0 5 0 0 0 0 0 3 0 0 8 0 32 93 0 0 29 1 0 14 4 10 5 0 0 0 0 0 1 0 0 0 1 0 0 0 48 68 41 0 0 0 0 20 50 83 109 82 34 0 0 0 0 0 0 0 0 0 0 57 77 82 82 61 33 17 17 0 0 0 0 3 20 51 65 21 20 16 12 0 1 0 0 0 0 0 1 12 1 0 0 2 0 0 4 8 0 5 4 4 2 2 3 0 0 2 0 9 4 5 7 1 5 6 10 0 0 0 0 1 4 4 0 16 0 0 3 4 0 0 0 15 11 0 0 0 11 44 147 0 0 9 99 0 0 52 0 0 1 0 3 0 0 0 0 0 0 6 0 0 0 4 6 7 0 0 5 12 0 6 3 0 2 0 3 5 11 13 182 0 0 25 0 51 0 33 14 0 60 37 0 20 30 0 0 0 0 0 14 6 0 0 0 94 47 0 0 0 0 0 0 0 219 122 0 83 69 0 14 16 16 18 25 40 11 0 0 0 0 107 179 98 48 50 62 0 0 18 29 172 85 108 129 113 0 57 32 0 0 0 32 102 106 239 99 0 0 0 50 32 19 7 7 0 0 0 0 6 0 5 0 5 5 0 12 0 0 5 6 6 0 8 5 5 16 40 0 0 0 30 0 31 13 34 47 30 0 0 0 60 41 27 0 140 0 0 255 0 0 3 0 72 0 0 0 0 0 0 0 59 0 123 0 0 0 0 136 0 0 34 0 7 0 0 73 16 34 0 0 0 168 53 0 26 0 9 2 3 5 0 0 3 2 5 7 0 15 13 0 0 18 39 109 81 0 0 3 149 66 0 0 0 0 0 0 0 61 98 34 13 2 0 0 0 23 30 29 22 0 20 60 0 0 0 0 0 0 0 0 0 0 9 6 168 114 37 3 0 15 2 8 0 38 31 0 0 0 0 0 0 0 0 57 149 119 81 50 0 149 91 0 0 0 0 38 65 124 207 122 0 0 46 0 99 77 0 0 60 0 0 0 0 0 0 0 0 29 0 0 0 0 0 0 49 122 0 0 0 61 0 0 0 0 119 102 56 3 0 7 0 3 0 1 4 0 0 0 0 0 0 0 0 0 0 0 0 0 0 0 0 0 0 0 0 0 0 0 0 0 0 0 0 0 0 0 0 0 0 0 0 0 0 0 0 0 0 0 0 0 0 0 0 0 0 0 0 0 0 0 0 0 0 0 0 0 0 0 0 0 0 0 0 0 0 0 0 0 0 0 0 0 0 0 0 0 0 0 0 0 0 0 0 0 0 0 0 0 0 0 0 0 0 0 0 0 0 0 0 0 0 0 0 0 0 0 0 0 0 0 0 0 0 0 0 0 0 0 0 0 0 0 0 0 0 0 0 0 0 0 0 0 0 0 0 0 0 0 0 0 0 0 0 0 0 0 0 0 0 0 0 0 0 0 0 0 0 0 0 0 0 0 0 0 0 0 0 0 0 0 0 0 0 0 0 0 0 0 0 0 0 0 0 0 0 0 0 0 0 255
255 0 0 0 0 0 0 0 0 0 0 0 0 0 0 0 0 0 0 0 0 0 0 0 0 0 0 0 0 0 0 0 0 0 0 0 0 0 0 0 0 0 0 0 0 0 0 0 0 0 0 0 0 0 0 0 0 0 0 0 0 0 0 0 0 0 0 0 0 0 0 0 0 0 0 0 0 0 0 0 0 0 0 0 0 0 0 0 0 0 0 0 0 0 0 0 0 0 0 0 0 0 0 7 0 1 11 2 17 27 32 32 9 5 10 13 0 0 0 0 0 46 53 0 27 94 14 0 0 156 39 0 48 38 63 0 0 0 0 0 166 166 0 142 45 48 1 46 43 0 0 0 0 0 0 33 0 0 95 0 0 19 18 0 18 51 29 0 2 0 50 0 0 0 23 6 0 4 120 105 18 0 41 2 0 61 237 49 0 0 0 0 222 65 0 0 39 103 94 50 0 0 0 0 0 0 0 0 0 0 255 118 0 22 14 0 33 32 18 6 0 0 3 7 6 5 0 0 3 0 0 7 0 25 119 0 0 25 28 0 7 9 4 8 0 0 0 6 0 1 2 6 7 0 0 4 22 18 0 0 0 93 146 136 96 31 0 0 0 0 0 0 0 0 0 0 0 0 0 0 0 0 0 0 0 24 95 113 93 63 46 15 0 0 0 0 0 0 0 4 0 10 3 5 0 0 0 0 7 16 2 0 14 5 1 0 0 0 3 0 9 1 0 3 0 2 5 0 0 0 4 2 2 4 0 4 7 7 1 4 9 0 0 0 10 0 6 0 13 9 0 0 7 2 13 24 10 0 1 81 72 0 0 51 55 0 1 0 2 0 0 0 2 0 4 2 2 0 0 0 0 0 6 0 5 5 5 1 6 6 0 0 0 0 0 0 0 11 12 133 145 0 33 0 25 0 25 0 0 39 35 0 38 29 0 0 0 0 11 18 18 6 0 0 0 14 42 41 34 38 49 0 0 194 0 67 120 26 0 21 12 15 7 0 3 30 78 151 43 0 0 85 58 58 91 0 0 0 104 113 255 148 105 77 165 29 41 0 0 28 0 0 100 14 190 176 255 147 0 0 1 0 0 8 7 5 14 21 9 0 0 2 6 4 4 11 4 0 0 6 10 1 0 0 0 0 38 0 0 0 29 37 0 0 0 14 13 0 0 5 0 0 31 0 151 0 0 211 255 0 0 0 0 0 88 111 0 0 19 103 0 0 123 54 46 0 0 64 0 0 0 23 117 84 0 107 21 0 0 70 0 0 133 0 20 0 12 0 0 0 0 0 4 1 2 4 0 15 19 12 16 56 47 57 0 0 3 140 108 0 0 0 51 0 0 0 108 126 29 0 0 0 0 20 49 31 22 28 0 0 174 179 0 0 54 0 10 33 44 36 71 141 160 133 62 25 0 0 0 0 38 114 1 32 12 0 0 0 0 0 110 0 0 0 0 0 0 40 86 213 89 0 0 0 0 0 0 76 188 92 0 0 0 0 0 0 0 0 72 0 0 0 0 0 52 0 0 0 66 48 0 0 0 0 68 197 1 40 0 0 0 18 7 0 0 66 130 55 32 16 0 6 4 1 6 0 0 0 0 0 0 0 0 0 0 0 0 0 0 0 0 0 0 0 0 0 0 0 0 0 0 0 0 0 0 0 0 0 0 0 0 0 0 0 0 0 0 0 0 0 0 0 0 0 0 0 0 0 0 0 0 0 0 0 0 0 0 0 0 0 0 0 0 0 0 0 0 0 0 0 0 0 0 0 0 0 0 0 0 0 0 0 0 0 0 0 0 0 0 0 0 0 0 0 0 0 0 0 0 0 0 0 0 0 0 0 0 0 0 0 0 0 0 0 0 0 0 0 0 0 0 0 0 0 0 0 0 0 0 0 0 0 0 0 0 0 0 0 0 0 0 0 0 0 0 0 0 0 0 0 0 0 0 0 0 0 0 0 0 0 0 0 0 0 0 0 0 0 0 0 0 0 0 0 0 0 0 0 0 0 0 0 0 0 0 0 0 0 0 255
255 0 0 0 0 0 0 0 0 0 0 0 0 0 0 0 0 0 0 0 0 0 0 0 0 0 0 0 0 0 0 0 0 0 0 0 0 0 0 0 0 0 0 0 0 0 0 0 0 0 0 0 0 0 0 0 0 0 0 0 0 0 0 0 0 0 0 0 0 0 0 0 0 0 0 0 0 0 0 0 0 0 0 0 0 0 0 0 0 0 0 0 0 0 0 0 0 0 0 0 0 0 0 6 8 12 0 0 0 3 4 0 0 0 0 0 13 8 11 6 0 25 21 15 26 60 23 0 0 63 72 0 97 0 255 236 0 0 0 0 0 255 0 0 107 43 0 4 37 16 95 67 24 56 0 43 0 0 109 0 29 0 0 0 27 33 0 0 0 0 255 0 0 108 0 0 0 154 64 130 0 0 51 0 0 163 153 0 28 0 0 0 0 0 66 99 205 87 0 0 97 51 196 255 60 0 0 83 45 0 0 255 79 30 26 30 0 0 0 8 21 13 9 0 3 3 0 0 3 0 1 7 0 16 129 0 0 13 40 0 7 5 0 6 1 5 5 21 0 2 9 11 14 8 5 0 0 4 37 46 52 35 0 0 0 0 0 0 0 59 133 161 96 80 76 69 57 44 31 22 104 70 7 0 0 0 0 0 0 0 20 59 69 53 27 0 7 0 0 0 0 0 0 0 9 4 0 0 11 29 28 5 34 10 8 7 8 2 0 0 9 7 4 4 0 0 0 3 0 0 0 3 2 3 2 0 15 4 0 4 0 0 12 0 14 5 4 0 5 0 0 0 12 0 0 37 31 0 0 0 140 23 0 0 58 57 0 30 12 0 7 4 2 5 7 0 0 0 0 0 0 5 9 0 6 0 0 1 10 4 0 4 16 7 0 0 0 1 4 80 249 0 11 0 30 0 33 0 0 26 3 0 27 4 0 4 2 7 16 10 9 7 9 0 0 0 0 0 0 0 0 0 0 124 0 133 0 0 68 0 30 0 0 0 42 63 5 0 0 17 0 0 0 31 0 0 0 0 255 167 0 0 0 0 0 136 8 0 60 10 0 0 42 0 0 0 170 165 69 2 0 0 0 0 15 0 0 0 10 3 0 0 4 2 3 8 1 0 7 2 8 11 4 1 0 0 51 13 0 0 12 67 0 0 0 6 15 0 0 21 0 0 5 0 79 0 0 113 255 0 89 33 100 160 218 59 115 9 118 232 0 0 0 255 160 2 0 150 99 98 0 24 12 32 0 152 148 0 0 61 0 0 210 30 5 16 0 7 3 1 0 0 0 4 3 10 16 0 0 27 69 123 0 0 0 60 110 20 0 0 0 29 0 0 0 138 125 0 0 1 21 0 6 9 0 0 0 0 31 45 177 90 0 0 76 0 99 94 80 61 70 120 82 19 0 0 0 8 23 34 52 108 0 0 0 0 24 48 43 13 0 0 61 139 79 0 0 0 0 62 0 0 1 16 0 0 0 0 0 0 0 0 0 0 2 0 59 0 105 0 0 116 14 42 255 170 0 0 5 0 46 0 46 0 0 165 119 26 19 0 0 78 76 0 0 0 56 74 95 40 0 6 6 0 11 0 0 0 0 0 0 0 0 0 0 0 0 0 0 0 0 0 0 0 0 0 0 0 0 0 0 0 0 0 0 0 0 0 0 0 0 0 0 0 0 0 0 0 0 0 0 0 0 0 0 0 0 0 0 0 0 0 0 0 0 0 0 0 0 0 0 0 0 0 0 0 0 0 0 0 0 0 0 0 0 0 0 0 0 0 0 0 0 0 0 0 0 0 0 0 0 0 0 0 0 0 0 0 0 0 0 0 0 0 0 0 0 0 0 0 0 0 0 0 0 0 0 0 0 0 0 0 0 0 0 0 0 0 0 0 0 0 0 0 0 0 0 0 0 0 0 0 0 0 0 0 0 0 0 0 0 0 0 0 0 0 0 0 0 0 0 0 0 0 0 0 0 0 0 0 0 0 0 0 0 0 0 0 0 0 0 0 0 0 0 0 0 0 0 255
255 0 0 0 0 0 0 0 0 0 0 0 0 0 0 0 0 0 0 0 0 0 0 0 0 0 0 0 0 0 0 0 0 0 0 0 0 0 0 0 0 0 0 0 0 0 0 0 0 0 0 0 0 0 0 0 0 0 0 0 0 0 0 0 0 0 0 0 0 0 0 0 0 0 0 0 0 0 0 0 0 0 0 0 0 0 0 0 0 0 0 0 0 0 0 0 0 0 0 0 0 1 2 7 5 11 4 11 13 15 0 16 11 8 0 0 0 8 7 16 25 0 0 16 11 0 15 171 0 0 54 0 11 0 120 172 244 169 0 0 0 46 255 0 92 18 0 0 24 6 72 67 52 21 51 25 2 109 101 0 117 0 0 65 59 0 0 0 10 0 95 8 174 87 0 0 79 23 87 33 0 45 0 29 73 54 0 0 0 0 255 255 0 137 233 229 0 0 0 0 134 0 41 96 155 0 0 0 0 0 0 93 194 12 42 8 13 0 0 0 0 0 14 6 4 2 0 0 3 0 2 0 4 2 133 0 0 9 33 0 13 0 3 0 11 0 11 19 0 6 6 19 13 7 5 3 21 72 82 30 0 0 0 0 79 114 181 196 162 80 0 0 42 42 34 35 30 26 9 6 0 0 18 39 54 73 65 50 0 0 0 0 0 9 58 73 86 53 47 23 5 0 0 0 8 0 0 0 0 0 10 0 31 12 15 0 2 0 0 0 7 0 0 7 4 3 1 5 0 0 0 1 0 0 0 0 13 1 0 2 5 0 5 0 0 0 0 0 2 12 10 0 7 0 0 0 12 0 0 0 0 160 2 0 0 48 12 26 7 3 1 14 9 10 10 13 6 0 0 0 0 7 6 0 16 4 5 0 9 13 2 12 13 12 1 0 0 5 0 22 255 0 0 0 29 0 34 0 0 14 0 0 16 0 0 23 0 11 3 0 0 0 8 0 96 2 0 0 0 0 0 0 0 169 0 72 0 0 146 0 42 20 3 0 20 0 0 0 0 26 7 0 0 38 78 0 0 126 255 0 0 0 0 0 0 195 100 0 35 0 0 11 0 11 159 0 0 0 38 191 11 0 0 19 26 1 0 0 8 0 2 5 11 2 3 6 7 3 0 0 8 0 0 0 19 0 50 53 0 0 0 54 0 0 2 21 22 0 0 0 54 11 43 0 22 0 0 52 43 39 72 0 243 142 0 0 0 0 0 52 255 0 0 0 208 198 0 116 198 0 92 11 0 0 0 0 147 44 0 0 72 0 156 76 0 19 0 0 1 4 1 0 0 0 0 16 0 13 33 96 64 0 0 0 28 90 50 0 0 0 29 0 0 0 42 66 17 0 0 24 16 16 22 10 12 33 62 77 157 78 33 0 0 0 84 0 54 2 0 0 0 0 0 0 5 15 41 31 6 0 0 20 0 0 0 43 70 49 2 0 0 74 108 0 0 111 172 142 0 0 0 0 0 0 0 10 0 0 0 0 0 26 55 0 51 0 68 0 2 0 24 127 31 14 196 87 0 0 6 0 53 0 70 0 0 27 71 0 31 0 2 11 41 0 0 0 0 39 137 94 43 34 21 0 12 0 0 0 0 0 0 0 0 0 0 0 0 0 0 0 0 0 0 0 0 0 0 0 0 0 0 0 0 0 0 0 0 0 0 0 0 0 0 0 0 0 0 0 0 0 0 0 0 0 0 0 0 0 0 0 0 0 0 0 0 0 0 0 0 0 0 0 0 0 0 0 0 0 0 0 0 0 0 0 0 0 0 0 0 0 0 0 0 0 0 0 0 0 0 0 0 0 0 0 0 0 0 0 0 0 0 0 0 0 0 0 0 0 0 0 0 0 0 0 0 0 0 0 0 0 0 0 0 0 0 0 0 0 0 0 0 0 0 0 0 0 0 0 0 0 0 0 0 0 0 0 0 0 0 0 0 0 0 0 0 0 0 0 0 0 0 0 0 0 0 0 0 0 0 0 0 0 0 0 0 0 0 0 0 0 0 0 0 0 0 0 0 0 0 255
255 0 0 0 0 0 0 0 0 0 0 0 0 0 0 0 0 0 0 0 0 0 0 0 0 0 0 0 0 0 0 0 0 0 0 0 0 0 0 0 0 0 0 0 0 0 0 0 0 0 0 0 0 0 0 0 0 0 0 0 0 0 0 0 0 0 0 0 0 0 0 0 0 0 0 0 0 0 0 0 0 0 0 0 0 0 0 0 0 0 0 0 0 0 0 0 0 0 0 0 0 2 0 1 0 0 0 41 105 124 175 163 83 31 15 3 0 4 0 0 19 0 0 9 11 0 3 71 197 0 4 63 0 0 8 0 0 211 255 121 0 0 61 136 18 20 0 43 37 0 0 0 0 0 0 0 0 66 0 0 149 0 0 55 13 0 0 4 169 159 0 132 208 0 0 108 0 0 100 0 0 0 0 80 59 0 0 87 0 0 255 37 252 241 0 0 0 0 49 193 23 4 0 8 115 255 152 0 0 88 0 78 255 232 255 252 255 199 106 46 6 0 0 0 3 2 4 0 3 1 4 0 8 0 111 40 0 0 17 0 0 0 0 0 0 0 1 10 0 0 0 0 0 0 0 13 70 0 0 0 0 0 98 220 83 17 0 0 0 0 76 126 0 0 0 0 9 18 14 21 2 1 14 23 25 3 0 0 78 56 0 0 0 0 0 0 23 15 26 35 32 19 10 4 0 0 0 0 0 0 0 0 15 0 0 0 0 4 4 3 0 2 3 3 0 0 4 6 2 0 0 4 5 0 5 0 3 3 0 0 2 0 3 3 15 0 0 3 1 3 1 2 7 0 0 0 0 7 11 19 0 103 111 0 0 0 29 0 20 0 0 0 0 5 2 3 0 0 0 0 1 12 0 0 12 0 0 0 1 8 1 12 0 9 1 6 0 0 0 1 255 0 0 18 23 0 56 0 0 12 0 0 18 0 0 36 0 0 3 0 0 7 3 0 0 0 0 5 73 82 19 0 0 174 15 1 0 30 74 0 14 54 53 10 0 0 14 96 42 0 0 131 0 0 121 0 132 255 139 0 0 255 207 0 0 6 185 69 0 0 0 0 47 24 119 0 8 50 0 0 90 11 0 0 26 6 0 8 0 0 0 1 0 0 0 0 5 0 0 0 0 0 0 0 34 0 31 98 0 0 0 22 20 18 25 0 2 4 4 0 44 40 33 25 6 0 0 82 111 0 0 0 0 0 143 255 0 182 60 0 117 255 67 0 3 110 0 0 83 0 54 48 12 0 0 0 94 57 0 0 25 0 0 150 17 0 19 0 0 0 3 1 0 0 0 10 0 34 88 65 0 0 0 28 22 11 0 0 0 45 14 0 29 0 0 0 0 26 17 0 0 0 0 6 36 105 124 127 57 15 0 0 0 25 31 0 44 0 0 0 0 0 0 0 34 0 0 0 0 0 0 0 29 15 18 29 20 0 0 0 0 87 187 143 97 73 17 0 2 0 0 0 0 0 0 0 49 49 80 72 0 0 16 4 10 0 0 35 0 22 0 62 0 0 77 0 0 0 31 56 0 0 49 0 0 0 0 41 42 0 17 0 21 70 0 0 0 0 0 49 63 38 34 0 8 0 0 0 0 0 0 0 0 0 0 0 0 0 0 0 0 0 0 0 0 0 0 0 0 0 0 0 0 0 0 0 0 0 0 0 0 0 0 0 0 0 0 0 0 0 0 0 0 0 0 0 0 0 0 0 0 0 0 0 0 0 0 0 0 0 0 0 0 0 0 0 0 0 0 0 0 0 0 0 0 0 0 0 0 0 0 0 0 0 0 0 0 0 0 0 0 0 0 0 0 0 0 0 0 0 0 0 0 0 0 0 0 0 0 0 0 0 0 0 0 0 0 0 0 0 0 0 0 0 0 0 0 0 0 0 0 0 0 0 0 0 0 0 0 0 0 0 0 0 0 0 0 0 0 0 0 0 0 0 0 0 0 0 0 0 0 0 0 0 0 0 0 0 0 0 0 0 0 0 0 0 0 0 0 0 0 0 0 0 0 0 0 0 0 255
255 0 0 0 0 0 0 0 0 0 0 0 0 0 0 0 0 0 0 0 0 0 0 0 0 0 0 0 0 0 0 0 0 0 0 0 0 0 0 0 0 0 0 0 0 0 0 0 0 0 0 0 0 0 0 0 0 0 0 0 0 0 0 0 0 0 0 0 0 0 0 0 0 0 0 0 0 0 0 0 0 0 0 0 0 0 0 0 0 0 0 0 0 0 0 0 0 0 0 1 2 4 0 6 14 22 29 77 19 0 0 0 223 205 159 80 21 1 8 12 0 12 9 13 17 16 22 0 68 179 0 0 8 125 27 0 0 32 0 219 255 0 0 80 20 30 0 60 37 0 28 62 162 0 109 41 0 121 0 0 199 80 62 28 0 0 51 192 188 4 0 72 0 0 0 0 18 190 62 0 0 0 252 0 12 12 0 35 0 24 255 187 0 0 0 0 0 59 28 65 13 19 11 0 0 125 255 255 179 0 0 0 0 0 0 0 0 0 62 125 46 9 6 0 0 2 2 0 4 4 0 0 12 0 77 31 0 0 32 0 10 0 12 8 4 8 0 13 0 14 26 39 25 8 35 77 0 0 0 0 151 131 44 6 1 31 54 64 50 14 0 0 11 13 9 1 3 0 9 3 34 20 0 1 9 26 21 23 0 0 27 40 31 0 0 0 0 0 0 34 82 78 54 23 23 19 15 0 0 0 0 0 0 0 0 0 0 8 11 21 0 0 0 2 9 8 1 0 11 4 5 0 9 2 4 13 6 5 0 0 0 4 5 0 7 4 4 8 13 13 11 6 0 26 38 3 0 0 13 1 24 0 103 85 0 0 61 0 44 3 12 7 0 0 2 11 10 0 0 0 4 7 0 0 9 0 4 4 6 10 7 1 0 0 11 1 7 0 0 0 255 0 0 38 0 0 47 0 13 34 16 21 48 0 0 38 0 16 33 24 13 16 0 0 0 38 171 200 84 0 0 45 0 125 0 0 158 35 0 63 22 0 0 12 70 36 0 0 0 0 0 0 0 0 0 0 149 82 0 0 63 255 4 0 5 0 182 82 0 114 0 0 0 0 77 0 0 2 0 0 103 0 0 64 98 65 26 25 4 0 0 0 0 0 0 0 3 0 0 0 12 23 19 25 23 0 0 90 17 0 0 48 0 20 8 0 0 32 54 41 0 12 0 55 0 0 0 111 0 126 202 0 0 0 0 255 255 26 0 70 0 0 255 57 0 0 147 0 81 20 0 160 254 108 201 0 172 44 27 174 0 55 0 199 101 0 19 0 0 0 0 5 5 3 1 12 29 94 67 0 0 6 0 0 4 0 0 8 0 0 0 0 65 10 11 25 0 0 0 13 15 43 60 45 84 103 7 0 0 0 0 5 79 0 0 0 0 0 0 0 36 16 0 0 0 0 0 0 0 0 0 0 0 0 0 0 0 0 0 0 0 0 0 6 0 0 0 0 130 127 202 155 0 0 0 0 64 0 0 8 0 4 31 0 76 0 77 233 0 119 2 0 0 79 255 169 0 0 0 0 0 36 48 0 5 0 0 183 105 0 31 12 99 85 0 0 0 0 0 21 121 79 44 49 11 10 9 5 2 2 4 4 4 4 3 2 1 2 2 1 0 0 0 0 0 0 0 0 0 0 0 0 0 0 0 0 0 0 0 0 0 0 0 0 0 0 0 0 0 0 0 0 0 0 0 0 0 0 0 0 0 0 0 0 0 0 0 0 0 0 0 0 0 0 0 0 0 0 0 0 0 0 0 0 0 0 0 0 0 0 0 0 0 0 0 0 0 0 0 0 0 0 0 0 0 0 0 0 0 0 0 0 0 0 0 0 0 0 0 0 0 0 0 0 0 0 0 0 0 0 0 0 0 0 0 0 0 0 0 0 0 0 0 0 0 0 0 0 0 0 0 0 0 0 0 0 0 0 0 0 0 0 0 0 0 0 0 0 0 0 0 0 0 0 0 0 0 0 0 0 0 0 0 0 0 0 0 0 0 0 0 0 0 0 0 0 0 0 0 255
255 0 0 0 0 0 0 0 0 0 0 0 0 0 0 0 0 0 0 0 0 0 0 0 0 0 0 0 0 0 0 0 0 0 0 0 0 0 0 0 0 0 0 0 0 0 0 0 0 0 0 0 0 0 0 0 0 0 0 0 0 0 0 0 0 0 0 0 0 0 0 0 0 0 0 0 0 0 0 0 0 0 0 0 0 0 0 0 0 0 0 0 0 0 0 0 0 0 0 2 0 0 4 10 0 6 59 22 0 0 0 0 0 0 90 228 227 112 35 0 0 23 19 0 0 5 10 0 0 55 48 0 0 78 41 0 22 117 100 0 7 105 0 92 48 77 24 0 56 0 83 0 0 49 72 0 0 131 68 0 0 86 156 0 0 107 99 0 0 0 187 0 42 215 0 0 52 0 0 103 79 5 80 0 151 0 206 0 0 238 217 0 0 0 40 67 0 37 97 47 0 0 45 126 250 186 0 0 0 0 37 82 103 124 111 88 0 0 0 0 130 59 19 7 4 3 1 3 0 0 0 0 10 0 52 166 0 0 73 0 45 4 0 6 0 0 0 40 0 0 0 4 0 16 90 0 0 0 171 153 63 59 19 0 9 0 0 0 0 0 10 1 19 0 7 3 8 4 0 0 0 0 1 0 0 3 0 12 35 25 22 24 35 40 30 43 31 0 0 0 0 0 17 60 110 59 35 15 24 24 18 4 0 0 0 5 13 16 6 12 0 5 0 0 0 2 3 10 0 0 5 0 0 0 0 0 0 14 11 9 5 2 3 0 17 0 0 0 0 0 0 6 7 1 0 4 8 10 13 10 35 0 50 179 0 0 0 119 65 25 2 0 19 51 16 0 24 0 0 0 0 0 5 3 2 0 0 2 13 0 0 18 32 0 10 0 59 28 65 0 152 0 0 0 0 34 62 3 38 20 0 0 0 0 0 0 48 0 0 97 0 0 0 9 202 113 39 0 30 121 98 53 0 19 92 20 0 34 52 0 74 0 9 47 0 0 0 0 75 160 126 43 30 0 0 0 255 0 0 0 0 255 133 0 0 0 96 184 0 60 0 49 0 0 109 0 0 22 0 5 14 164 0 0 0 108 46 40 63 30 25 33 25 0 0 2 38 14 10 0 0 0 0 0 0 0 76 125 78 0 0 13 0 0 3 0 8 12 0 0 0 7 2 0 0 4 17 0 0 0 0 0 0 0 0 0 255 99 248 255 58 0 0 79 0 0 249 0 7 48 0 0 126 0 0 0 171 198 87 18 51 0 0 0 107 27 32 0 2 11 1 0 0 0 16 16 56 100 0 0 0 0 0 79 0 23 53 0 0 0 41 107 69 8 26 49 21 30 53 25 123 117 15 0 0 0 0 0 36 0 0 0 0 0 0 184 0 0 123 25 0 23 0 55 0 25 85 106 123 128 83 25 6 44 0 0 0 71 153 160 0 0 0 0 0 0 7 79 61 0 0 151 166 93 35 0 0 16 0 0 23 0 0 0 41 26 0 0 112 218 190 204 240 32 84 0 0 0 0 0 0 0 0 28 116 11 0 28 186 47 33 0 0 147 64 0 0 0 0 0 39 0 2 140 76 17 0 1 8 0 1 0 0 1 0 4 1 0 0 2 0 0 0 0 0 0 0 0 0 0 0 0 0 0 0 0 0 0 0 0 0 0 0 0 0 0 0 0 0 0 0 0 0 0 0 0 0 0 0 0 0 0 0 0 0 0 0 0 0 0 0 0 0 0 0 0 0 0 0 0 0 0 0 0 0 0 0 0 0 0 0 0 0 0 0 0 0 0 0 0 0 0 0 0 0 0 0 0 0 0 0 0 0 0 0 0 0 0 0 0 0 0 0 0 0 0 0 0 0 0 0 0 0 0 0 0 0 0 0 0 0 0 0 0 0 0 0 0 0 0 0 0 0 0 0 0 0 0 0 0 0 0 0 0 0 0 0 0 0 0 0 0 0 0 0 0 0 0 0 0 0 0 0 0 0 0 0 0 0 0 0 0 0 0 0 0 0 0 0 255
255 0 0 0 0 0 0 0 0 0 0 0 0 0 0 0 0 0 0 0 0 0 0 0 0 0 0 0 0 0 0 0 0 0 0 0 0 0 0 0 0 0 0 0 0 0 0 0 0 0 0 0 0 0 0 0 0 0 0 0 0 0 0 0 0 0 0 0 0 0 0 0 0 0 0 0 0 0 0 0 0 0 0 0 0 0 0 0 0 0 0 0 0 0 0 0 0 0 0 2 0 0 2 21 20 22 92 0 0 13 141 0 0 0 0 0 0 103 227 162 94 0 0 14 14 0 0 29 30 45 66 28 0 0 0 0 0 0 39 0 37 58 0 0 0 0 112 0 49 15 45 0 0 45 73 0 0 0 46 0 0 0 12 0 0 109 0 137 93 0 143 0 87 103 0 66 2 148 116 79 46 0 45 34 80 0 126 21 0 35 0 0 0 0 0 0 2 159 39 0 70 149 255 132 0 0 0 0 123 140 179 160 131 131 118 128 205 253 100 0 0 0 31 0 4 3 0 3 0 0 0 0 5 2 22 99 4 0 0 50 0 0 0 24 20 1 0 0 37 0 97 0 0 43 0 0 116 94 69 0 0 0 21 7 17 0 0 1 8 0 6 0 1 0 0 0 0 1 4 0 10 1 5 0 7 8 0 3 9 2 0 4 4 14 3 4 1 13 0 0 0 0 0 0 0 26 99 90 30 0 0 10 39 22 0 0 0 0 0 0 2 0 4 0 4 1 0 7 0 0 9 7 4 0 0 19 0 0 0 0 0 0 2 0 12 0 0 8 5 0 0 3 0 0 6 0 3 0 4 1 14 0 0 100 237 0 0 0 46 33 30 24 0 0 6 54 15 4 17 19 7 0 4 13 25 0 0 14 10 0 3 19 10 0 89 10 28 0 0 34 255 27 0 0 0 0 45 0 0 0 8 30 0 0 0 67 0 0 16 9 0 0 19 62 60 35 2 0 0 26 0 0 0 0 64 72 36 0 0 4 59 27 0 0 0 44 148 116 182 144 87 66 89 38 0 0 77 36 0 80 0 0 125 66 0 0 67 146 0 4 0 0 0 2 168 0 0 86 0 54 0 122 0 0 0 0 0 0 81 0 0 0 0 0 46 78 0 0 0 20 24 3 0 0 48 0 0 0 23 0 0 0 13 1 8 0 8 21 13 0 0 0 0 0 0 0 44 12 106 247 155 0 0 0 0 0 103 0 0 201 241 149 74 55 255 0 0 0 205 192 0 1 0 0 164 0 0 0 0 0 0 0 58 0 175 49 0 15 4 8 9 0 6 13 28 57 62 22 0 0 60 66 0 0 24 0 0 0 0 16 43 21 0 10 26 0 0 0 65 41 11 56 0 0 0 0 20 0 43 0 0 169 190 24 0 93 34 167 111 0 0 20 72 0 0 51 157 97 22 19 64 92 118 151 113 29 4 56 70 54 12 52 36 9 3 26 44 1 8 0 7 69 3 0 0 0 15 0 0 0 0 8 31 33 0 0 47 0 0 0 0 11 0 0 0 0 0 113 86 107 97 0 0 0 79 36 0 26 0 0 149 43 0 27 0 0 0 60 18 0 0 18 42 0 29 19 51 26 0 0 2 0 5 0 0 5 1 5 0 5 1 0 0 0 0 0 0 0 0 0 0 0 0 0 0 0 0 0 0 0 0 0 0 0 0 0 0 0 0 0 0 0 0 0 0 0 0 0 0 0 0 0 0 0 0 0 0 0 0 0 0 0 0 0 0 0 0 0 0 0 0 0 0 0 0 0 0 0 0 0 0 0 0 0 0 0 0 0 0 0 0 0 0 0 0 0 0 0 0 0 0 0 0 0 0 0 0 0 0 0 0 0 0 0 0 0 0 0 0 0 0 0 0 0 0 0 0 0 0 0 0 0 0 0 0 0 0 0 0 0 0 0 0 0 0 0 0 0 0 0 0 0 0 0 0 0 0 0 0 0 0 0 0 0 0 0 0 0 0 0 0 0 0 0 0 0 0 0 0 0 0 0 0 0 0 0 0 0 0 255
255 0 0 0 0 0 0 0 0 0 0 0 0 0 0 0 0 0 0 0 0 0 0 0 0 0 0 0 0 0 0 0 0 0 0 0 0 0 0 0 0 0 0 0 0 0 0 0 0 0 0 0 0 0 0 0 0 0 0 0 0 0 0 0 0 0 0 0 0 0 0 0 0 0 0 0 0 0 0 0 0 0 0 0 0 0 0 0 0 0 0 0 0 0 0 0 0 0 0 1 2 2 1 16 0 23 142 51 0 0 44 0 82 90 21 0 0 0 0 0 170 156 144 86 50 31 13 0 0 0 38 68 66 0 0 0 23 0 20 24 79 90 0 0 64 0 168 7 67 109 41 124 168 58 23 20 0 14 43 7 139 144 11 0 115 52 0 0 0 0 0 0 65 0 0 12 0 99 0 0 89 28 0 0 0 0 97 35 0 0 0 0 0 18 0 8 104 69 52 135 255 96 0 0 0 0 126 255 167 81 47 26 16 13 13 13 11 39 94 62 12 21 39 18 2 2 0 2 0 0 4 6 0 11 0 64 170 0 0 58 0 1 0 0 18 23 0 0 21 0 0 59 0 0 0 91 135 58 45 0 0 15 20 0 14 1 4 0 7 5 7 9 3 10 0 5 7 1 11 0 15 6 11 14 12 4 4 11 8 7 7 8 14 10 10 9 3 17 21 24 7 0 0 0 0 0 0 2 57 84 49 10 0 0 6 13 20 15 5 0 7 0 0 0 0 0 0 4 0 0 6 2 6 0 7 26 0 0 0 0 4 2 0 0 0 0 0 18 14 0 0 2 0 0 0 0 0 0 0 0 18 0 0 20 90 129 0 0 0 0 94 37 0 18 29 0 0 1 22 16 0 5 2 2 16 0 0 9 1 0 0 23 2 0 77 31 11 0 0 53 0 81 187 108 0 0 0 0 19 36 0 0 0 70 36 0 0 39 25 0 0 46 149 107 49 33 2 0 0 20 0 0 0 0 0 73 84 2 0 27 0 0 0 0 36 174 154 89 49 0 0 61 98 120 80 0 0 255 0 0 38 0 0 41 0 0 69 152 0 22 0 0 0 89 158 0 0 81 0 19 0 99 6 0 0 0 0 0 115 97 103 61 36 18 0 0 21 14 24 45 30 13 12 10 44 39 36 94 168 134 16 0 8 0 0 0 2 14 0 0 28 38 34 13 18 56 148 154 214 248 255 255 255 198 0 0 0 0 0 0 0 255 255 255 255 255 0 255 45 0 0 0 39 0 0 0 0 0 63 255 0 7 0 0 154 77 0 25 5 5 0 4 9 43 33 52 0 36 0 0 22 58 9 0 0 0 0 0 17 96 63 0 0 0 0 0 11 129 105 0 0 0 0 0 6 0 50 37 0 0 16 143 64 0 0 34 210 201 0 0 0 0 79 0 0 16 65 1 0 36 37 0 0 16 3 0 0 0 0 0 45 76 46 3 29 93 63 0 0 0 46 60 0 0 0 23 10 0 4 44 0 0 22 0 0 10 11 0 0 0 0 0 0 0 0 0 0 203 160 68 147 120 0 0 85 34 0 0 0 0 186 118 33 90 19 0 0 8 38 0 0 15 107 0 0 0 68 80 26 5 14 12 0 0 1 3 1 5 0 0 2 0 0 0 0 0 0 0 0 0 0 0 0 0 0 0 0 0 0 0 0 0 0 0 0 0 0 0 0 0 0 0 0 0 0 0 0 0 0 0 0 0 0 0 0 0 0 0 0 0 0 0 0 0 0 0 0 0 0 0 0 0 0 0 0 0 0 0 0 0 0 0 0 0 0 0 0 0 0 0 0 0 0 0 0 0 0 0 0 0 0 0 0 0 0 0 0 0 0 0 0 0 0 0 0 0 0 0 0 0 0 0 0 0 0 0 0 0 0 0 0 0 0 0 0 0 0 0 0 0 0 0 0 0 0 0 0 0 0 0 0 0 0 0 0 0 0 0 0 0 0 0 0 0 0 0 0 0 0 0 0 0 0 0 0 0 0 0 0 0 0 0 0 0 0 0 0 0 0 255
255 0 0 0 0 0 0 0 0 0 0 0 0 0 0 0 0 0 0 0 0 0 0 0 0 0 0 0 0 0 0 0 0 0 0 0 0 0 0 0 0 0 0 0 0 0 0 0 0 0 0 0 0 0 0 0 0 0 0 0 0 0 0 0 0 0 0 0 0 0 0 0 0 0 0 0 0 0 0 0 0 0 0 0 0 0 0 0 0 0 0 0 0 0 0 0 0 0 0 0 0 0 0 16 41 155 31 10 119 0 0 159 0 0 26 69 72 24 0 0 0 0 45 61 111 190 150 96 38 0 0 25 73 50 13 21 64 0 0 5 0 53 7 0 100 0 10 27 22 0 0 0 48 0 0 33 39 26 13 0 52 202 0 0 255 0 161 0 62 78 41 164 171 0 17 22 0 120 54 21 14 0 0 254 0 9 144 0 34 92 0 0 85 0 0 168 59 0 210 169 0 0 0 0 228 237 109 37 15 0 0 0 0 0 0 0 0 0 0 43 68 0 0 23 6 1 0 2 4 4 2 5 0 11 0 19 126 14 0 0 31 40 21 0 0 13 7 0 0 24 0 87 0 0 198 136 0 0 0 24 39 15 0 0 17 8 4 0 8 6 0 1 3 10 0 3 2 4 3 1 0 0 0 0 0 1 0 0 0 0 1 2 2 7 2 0 13 6 13 11 27 26 39 41 0 0 0 0 0 45 62 34 11 0 14 8 0 0 2 22 2 0 0 0 0 3 0 1 2 0 8 5 0 2 0 7 5 1 4 0 13 5 8 0 4 0 0 16 12 0 0 16 0 0 0 0 0 0 0 4 0 0 48 0 0 190 255 34 0 0 0 43 142 23 0 50 0 0 0 0 0 8 7 0 0 0 0 4 0 0 0 6 59 0 1 0 66 0 0 71 46 0 41 86 255 105 0 0 0 0 36 30 0 0 10 43 1 44 0 0 120 91 126 0 29 5 0 0 33 61 4 0 15 0 0 0 98 81 22 43 0 0 0 81 169 67 0 0 8 0 0 17 0 0 3 0 0 181 69 0 91 155 0 69 0 0 102 165 5 13 6 5 0 103 89 0 0 65 0 0 72 95 0 0 43 4 0 0 0 0 42 65 81 109 94 52 73 62 42 14 0 0 22 90 0 22 50 55 78 36 0 0 0 0 0 0 3 5 6 0 10 0 0 0 0 0 1 32 0 38 0 0 0 170 100 0 0 47 0 0 0 0 9 0 0 0 255 164 0 0 0 0 0 0 0 57 0 0 0 108 255 48 0 0 56 172 77 41 7 0 0 4 37 53 12 7 0 78 80 0 0 32 11 0 0 0 11 48 52 51 27 0 0 17 57 82 73 99 29 0 0 18 0 0 62 0 14 0 138 134 115 0 0 0 0 0 89 4 0 25 53 0 10 0 0 0 16 0 0 18 0 0 0 0 0 0 0 0 9 31 9 19 0 0 0 15 21 0 0 56 81 54 0 0 0 72 25 0 23 66 0 0 31 0 77 39 0 7 106 64 0 0 44 7 88 80 23 47 3 0 17 151 0 0 25 0 11 0 12 0 17 2 57 200 80 0 0 0 0 0 0 0 72 55 5 0 0 37 93 38 14 0 6 0 5 3 5 0 0 0 2 0 0 0 0 0 0 0 0 0 0 0 0 0 0 0 0 0 0 0 0 0 0 0 0 0 0 0 0 0 0 0 0 0 0 0 0 0 0 0 0 0 0 0 0 0 0 0 0 0 0 0 0 0 0 0 0 0 0 0 0 0 0 0 0 0 0 0 0 0 0 0 0 0 0 0 0 0 0 0 0 0 0 0 0 0 0 0 0 0 0 0 0 0 0 0 0 0 0 0 0 0 0 0 0 0 0 0 0 0 0 0 0 0 0 0 0 0 0 0 0 0 0 0 0 0 0 0 0 0 0 0 0 0 0 0 0 0 0 0 0 0 0 0 0 0 0 0 0 0 0 0 0 0 0 0 0 0 0 0 0 0 0 0 0 0 0 0 0 0 0 0 0 0 0 0 0 0 0 255
255 0 0 0 0 0 0 0 0 0 0 0 0 0 0 0 0 0 0 0 0 0 0 0 0 0 0 0 0 0 0 0 0 0 0 0 0 0 0 0 0 0 0 0 0 0 0 0 0 0 0 0 0 0 0 0 0 0 0 0 0 0 0 0 0 0 0 0 0 0 0 0 0 0 0 0 0 0 0 0 0 0 0 0 0 0 0 0 0 0 0 0 0 0 0 0 0 0 0 0 0 0 0 3 61 0 0 0 132 0 0 0 171 133 54 12 0 4 0 14 0 0 0 0 0 0 0 108 221 129 64 21 24 24 0 0 19 0 0 0 0 32 63 0 19 0 0 133 73 0 0 0 0 0 3 40 0 0 0 0 69 0 0 255 206 0 141 50 0 25 0 62 0 0 0 0 26 159 104 14 0 0 15 95 0 166 152 0 1 37 0 0 0 0 0 117 85 162 163 0 0 0 27 159 117 0 0 18 8 0 2 16 19 19 20 28 35 34 26 0 0 5 30 0 13 0 1 3 0 0 3 6 0 6 4 8 59 109 0 0 0 13 18 6 0 11 9 8 0 43 104 0 0 208 79 17 36 12 0 0 0 0 0 34 5 1 0 0 0 3 0 0 9 0 0 0 3 3 1 0 0 0 0 0 0 0 0 0 0 1 4 0 0 0 0 0 24 7 0 0 0 0 0 13 11 37 20 0 0 0 0 6 96 60 51 0 0 0 0 30 7 0 5 9 0 0 0 0 0 4 4 3 0 0 0 0 27 9 2 1 8 4 4 0 20 1 0 3 7 0 0 30 0 0 3 0 3 0 0 15 0 44 0 0 65 12 0 214 170 0 0 0 0 63 92 44 14 16 0 0 0 22 4 0 0 0 1 23 3 0 0 4 80 0 25 0 97 0 47 23 0 0 138 37 104 22 124 168 0 0 0 0 95 15 0 73 10 0 0 0 200 17 46 0 11 0 0 0 50 94 43 0 47 0 0 0 0 60 47 44 1 0 0 184 68 0 19 3 64 8 55 58 0 0 0 0 0 0 255 0 0 0 0 0 0 0 64 101 0 0 0 0 60 82 0 0 0 15 0 0 57 73 17 0 58 81 0 0 0 0 0 0 0 10 51 63 0 0 0 0 0 0 6 113 45 98 31 0 0 0 0 0 0 0 0 0 0 0 0 6 0 0 0 0 0 0 0 0 22 0 0 0 0 21 86 237 0 0 0 0 0 0 0 0 0 78 255 0 0 95 0 49 19 47 5 0 0 71 0 0 255 255 0 0 0 0 25 42 15 0 13 25 51 41 0 0 15 0 0 9 31 0 0 0 0 12 106 80 14 0 0 12 38 64 150 135 0 0 0 0 0 69 6 13 0 0 0 0 56 0 0 0 10 79 41 0 0 0 52 0 0 79 0 0 0 59 162 72 0 0 39 25 36 20 35 47 30 1 9 68 0 0 0 12 0 0 0 45 0 69 48 0 0 0 0 30 56 0 0 6 0 0 111 51 0 6 1 20 31 0 0 84 0 0 70 125 34 0 0 0 0 149 0 0 0 0 10 0 50 0 0 0 0 95 27 0 0 44 0 0 0 0 0 30 51 0 0 0 42 74 62 5 14 5 2 6 0 0 0 3 1 0 0 0 0 0 0 0 0 0 0 0 0 0 0 0 0 0 0 0 0 0 0 0 0 0 0 0 0 0 0 0 0 0 0 0 0 0 0 0 0 0 0 0 0 0 0 0 0 0 0 0 0 0 0 0 0 0 0 0 0 0 0 0 0 0 0 0 0 0 0 0 0 0 0 0 0 0 0 0 0 0 0 0 0 0 0 0 0 0 0 0 0 0 0 0 0 0 0 0 0 0 0 0 0 0 0 0 0 0 0 0 0 0 0 0 0 0 0 0 0 0 0 0 0 0 0 0 0 0 0 0 0 0 0 0 0 0 0 0 0 0 0 0 0 0 0 0 0 0 0 0 0 0 0 0 0 0 0 0 0 0 0 0 0 0 0 0 0 0 0 0 0 0 0 0 0 0 0 255
255 0 0 0 0 0 0 0 0 0 0 0 0 0 0 0 0 0 0 0 0 0 0 0 0 0 0 0 0 0 0 0 0 0 0 0 0 0 0 0 0 0 0 0 0 0 0 0 0 0 0 0 0 0 0 0 0 0 0 0 0 0 0 0 0 0 0 0 0 0 0 0 0 0 0 0 0 0 0 0 0 0 0 0 0 0 0 0 0 0 0 0 0 0 0 0 0 0 0 0 0 0 0 2 81 0 0 187 197 152 141 0 0 0 10 171 197 111 20 0 84 66 40 3 0 0 0 0 0 24 131 103 56 66 17 0 0 28 7 47 0 43 118 0 0 103 0 99 62 63 113 10 0 0 66 58 0 0 3 0 187 0 0 255 0 0 0 0 6 123 0 68 0 0 112 0 76 85 0 0 0 78 99 0 82 159 60 0 0 0 0 19 0 105 108 126 255 53 0 0 0 73 255 99 50 28 15 22 0 0 0 9 5 0 0 0 0 0 17 0 30 26 29 0 13 1 3 0 0 0 0 5 0 1 2 6 0 95 120 0 0 0 0 20 21 3 0 0 28 98 0 0 181 206 0 16 23 16 12 4 0 0 0 29 0 1 0 0 4 0 0 0 6 3 0 0 2 0 0 0 9 8 9 2 9 9 0 4 5 4 15 12 3 0 0 0 8 7 19 22 5 0 0 0 10 41 41 29 0 0 0 0 0 0 50 79 48 21 0 0 8 0 0 0 4 4 2 0 0 5 2 0 0 0 0 0 29 0 0 0 5 1 0 0 29 0 0 2 0 0 0 35 0 0 0 0 8 4 0 13 0 19 0 0 0 0 0 28 121 205 113 0 0 0 27 41 52 32 19 0 0 15 8 0 0 0 10 12 2 0 0 13 19 0 59 0 41 0 33 0 26 0 43 0 32 65 84 170 181 22 0 0 0 0 0 0 0 0 0 31 143 0 33 52 8 18 2 13 31 48 15 0 0 35 0 0 0 0 0 14 0 0 80 110 0 0 79 12 0 0 0 40 59 65 60 44 2 0 179 240 102 0 0 0 0 0 38 74 0 0 10 0 113 45 0 0 1 0 0 27 27 71 62 0 9 38 5 0 25 14 0 0 0 0 0 0 0 0 0 0 0 0 13 108 62 74 0 0 18 34 15 40 0 0 0 0 0 0 0 17 0 9 21 28 14 0 9 10 0 159 155 0 0 53 177 66 121 81 0 0 60 187 180 170 127 63 38 0 0 0 0 0 0 0 0 0 0 0 0 0 0 255 144 0 0 0 0 115 19 19 30 30 41 27 0 0 50 0 0 92 19 0 0 0 122 71 44 4 0 0 14 37 110 0 0 0 0 0 0 0 0 28 0 0 0 0 70 0 0 0 0 134 254 130 4 0 10 0 98 0 0 21 0 0 0 6 71 20 0 16 28 0 59 13 10 5 0 0 0 16 0 0 20 77 38 0 0 40 13 110 29 0 0 0 0 0 12 0 24 63 6 26 67 35 0 7 0 14 0 0 0 114 4 0 0 75 34 0 66 62 44 174 0 0 0 55 54 0 12 0 37 0 0 0 0 0 0 183 93 0 0 0 0 0 105 23 0 0 0 0 70 96 20 20 8 1 0 0 8 3 1 0 0 0 0 0 0 0 0 0 0 0 0 0 0 0 0 0 0 0 0 0 0 0 0 0 0 0 0 0 0 0 0 0 0 0 0 0 0 0 0 0 0 0 0 0 0 0 0 0 0 0 0 0 0 0 0 0 0 0 0 0 0 0 0 0 0 0 0 0 0 0 0 0 0 0 0 0 0 0 0 0 0 0 0 0 0 0 0 0 0 0 0 0 0 0 0 0 0 0 0 0 0 0 0 0 0 0 0 0 0 0 0 0 0 0 0 0 0 0 0 0 0 0 0 0 0 0 0 0 0 0 0 0 0 0 0 0 0 0 0 0 0 0 0 0 0 0 0 0 0 0 0 0 0 0 0 0 0 0 0 0 0 0 0 0 0 0 0 0 0 0 0 0 0 0 0 0 0 255
255 0 0 0 0 0 0 0 0 0 0 0 0 0 0 0 0 0 0 0 0 0 0 0 0 0 0 0 0 0 0 0 0 0 0 0 0 0 0 0 0 0 0 0 0 0 0 0 0 0 0 0 0 0 0 0 0 0 0 0 0 0 0 0 0 0 0 0 0 0 0 0 0 0 0 0 0 0 0 0 0 0 0 0 0 0 0 0 0 0 0 0 0 0 0 0 0 0 0 0 0 0 0 1 63 0 0 99 1 5 159 170 160 0 0 0 0 0 61 123 0 70 97 40 21 54 8 0 0 0 0 63 121 117 83 75 0 35 0 59 70 3 113 30 0 0 0 0 0 50 53 177 99 72 44 70 46 38 23 0 25 0 8 247 0 7 150 5 0 0 0 0 0 0 8 0 0 152 16 0 24 36 60 0 159 72 0 0 0 0 0 83 12 136 170 137 91 0 0 0 210 101 60 0 0 22 13 0 25 4 8 7 6 0 0 27 23 24 0 0 0 0 0 15 10 2 0 0 0 0 0 5 7 0 7 0 0 28 102 103 0 0 0 1 31 1 0 0 60 0 0 101 248 0 0 73 0 0 9 18 15 16 0 0 0 0 0 0 0 5 4 0 0 0 1 0 9 6 5 0 5 3 3 13 10 0 8 6 0 7 7 14 5 0 0 7 0 0 12 22 26 29 18 22 20 0 0 5 75 80 7 0 0 0 0 47 81 68 19 0 0 0 0 0 8 0 14 15 0 0 0 8 3 0 4 0 15 0 0 0 5 6 1 0 11 0 1 3 6 0 0 12 0 0 5 5 14 3 5 9 45 0 38 16 0 0 114 0 80 0 93 218 17 0 0 44 21 22 38 9 0 3 15 0 0 0 19 12 0 0 0 22 0 0 52 0 15 0 3 0 0 0 51 106 23 87 0 0 91 255 255 0 0 0 0 36 0 0 0 172 76 0 30 97 6 20 19 2 2 0 0 0 0 28 19 0 0 0 0 0 0 78 147 4 10 43 0 0 3 41 0 0 32 0 0 0 0 0 0 102 255 164 86 69 54 13 27 60 0 0 54 36 33 0 0 0 0 0 12 27 62 24 17 0 0 0 5 45 0 0 0 11 53 21 0 0 0 0 0 8 0 0 0 40 0 0 0 0 39 24 0 0 6 0 0 0 3 0 0 22 0 0 0 0 0 0 0 0 0 0 1 57 0 0 0 0 57 169 44 0 0 78 0 0 0 0 0 0 0 0 0 50 255 255 255 235 0 0 0 0 0 0 86 70 75 0 0 205 34 13 34 9 0 0 0 0 0 0 70 92 0 0 15 103 113 40 0 0 0 20 12 7 37 0 0 0 0 51 61 0 0 0 0 7 0 29 233 19 129 97 184 255 197 0 0 0 93 0 0 46 11 0 0 61 56 0 0 0 0 26 0 0 61 29 26 11 14 31 47 32 0 0 0 24 18 0 0 0 6 123 7 0 3 23 0 0 0 4 51 71 56 5 0 0 0 0 0 0 42 0 0 21 90 50 0 51 3 0 80 36 38 124 58 0 0 121 12 23 10 0 120 48 0 0 0 28 0 159 179 0 0 32 40 0 35 16 40 0 0 0 28 55 31 9 22 0 0 2 0 0 3 0 0 0 0 0 0 0 0 0 0 0 0 0 0 0 0 0 0 0 0 0 0 0 0 0 0 0 0 0 0 0 0 0 0 0 0 0 0 0 0 0 0 0 0 0 0 0 0 0 0 0 0 0 0 0 0 0 0 0 0 0 0 0 0 0 0 0 0 0 0 0 0 0 0 0 0 0 0 0 0 0 0 0 0 0 0 0 0 0 0 0 0 0 0 0 0 0 0 0 0 0 0 0 0 0 0 0 0 0 0 0 0 0 0 0 0 0 0 0 0 0 0 0 0 0 0 0 0 0 0 0 0 0 0 0 0 0 0 0 0 0 0 0 0 0 0 0 0 0 0 0 0 0 0 0 0 0 0 0 0 0 0 0 0 0 0 0 0 0 0 0 0 0 0 0 0 0 0 255
255 0 0 0 0 0 0 0 0 0 0 0 0 0 0 0 0 0 0 0 0 0 0 0 0 0 0 0 0 0 0 0 0 0 0 0 0 0 0 0 0 0 0 0 0 0 0 0 0 0 0 0 0 0 0 0 0 0 0 0 0 0 0 0 0 0 0 0 0 0 0 0 0 0 0 0 0 0 0 0 0 0 0 0 0 0 0 0 0 0 0 0 0 0 0 0 0 0 0 0 0 0 0 0 29 108 0 91 66 0 50 39 103 196 236 102 0 0 0 0 0 0 0 14 64 0 0 69 101 0 0 0 30 183 192 161 0 0 0 0 0 0 0 42 53 0 0 209 73 33 0 201 21 0 22 71 0 0 0 31 9 0 0 255 0 0 162 0 6 0 0 94 0 99 42 0 0 112 0 0 255 38 0 5 83 57 0 4 0 0 7 0 209 192 255 0 0 0 0 197 255 162 137 97 65 0 0 18 18 0 0 6 5 0 13 15 0 4 11 14 7 9 7 0 3 2 0 0 0 0 0 0 5 0 0 0 12 7 18 189 0 0 0 0 2 0 0 36 65 0 17 255 0 0 18 0 0 22 0 0 0 24 34 0 0 0 0 0 7 18 9 16 4 0 3 1 16 13 8 5 0 0 0 1 9 0 0 3 0 0 9 3 0 0 0 5 25 7 0 0 0 0 0 15 8 18 6 0 0 0 0 29 75 0 0 0 0 60 99 74 0 0 19 16 35 22 14 5 0 0 3 0 4 0 5 19 12 0 0 0 13 14 8 0 0 0 0 12 14 0 0 0 0 0 7 10 5 3 5 0 0 0 0 38 104 0 0 82 18 59 54 35 153 206 0 0 0 77 104 44 0 3 8 0 0 3 7 4 0 0 0 27 60 0 41 0 84 0 29 8 62 0 0 55 0 73 0 88 0 0 95 255 151 0 0 0 13 0 0 220 35 0 65 49 0 19 41 29 9 0 0 5 15 27 0 1 42 46 14 0 0 226 155 0 129 97 0 65 0 68 13 0 10 0 0 99 80 0 0 0 0 148 248 200 165 132 64 54 9 0 74 58 0 0 0 23 10 0 49 0 153 10 0 0 0 0 0 21 89 0 0 4 23 0 0 62 47 33 3 3 0 0 0 0 0 5 0 0 17 0 0 5 49 21 13 14 5 0 0 31 10 30 11 0 0 11 34 20 33 58 149 100 0 0 0 0 0 34 0 0 0 0 0 0 0 0 0 20 255 255 209 243 186 49 158 161 255 255 104 0 0 0 0 182 96 57 0 182 152 59 51 18 0 0 0 0 4 123 150 0 0 28 174 0 0 0 0 37 124 130 48 0 0 0 0 0 0 0 15 3 32 0 9 28 0 132 255 10 0 0 0 0 0 0 0 115 0 64 0 0 0 0 139 64 117 77 65 44 0 0 0 0 12 0 0 0 0 0 0 0 57 48 59 105 146 188 135 62 1 133 7 0 0 17 0 18 27 26 0 0 0 0 8 109 0 0 0 0 16 0 0 0 0 44 4 41 0 0 108 31 0 76 131 0 0 59 0 0 38 0 0 0 0 68 0 0 0 64 199 44 0 9 69 0 0 0 42 14 0 0 0 0 120 55 46 8 6 4 12 0 8 4 2 1 0 0 0 0 0 0 0 0 0 0 0 0 0 0 0 0 0 0 0 0 0 0 0 0 0 0 0 0 0 0 0 0 0 0 0 0 0 0 0 0 0 0 0 0 0 0 0 0 0 0 0 0 0 0 0 0 0 0 0 0 0 0 0 0 0 0 0 0 0 0 0 0 0 0 0 0 0 0 0 0 0 0 0 0 0 0 0 0 0 0 0 0 0 0 0 0 0 0 0 0 0 0 0 0 0 0 0 0 0 0 0 0 0 0 0 0 0 0 0 0 0 0 0 0 0 0 0 0 0 0 0 0 0 0 0 0 0 0 0 0 0 0 0 0 0 0 0 0 0 0 0 0 0 0 0 0 0 0 0 0 0 0 0 0 0 0 0 0 0 0 0 0 0 0 0 255
255 0 0 0 0 0 0 0 0 0 0 0 0 0 0 0 0 0 0 0 0 0 0 0 0 0 0 0 0 0 0 0 0 0 0 0 0 0 0 0 0 0 0 0 0 0 0 0 0 0 0 0 0 0 0 0 0 0 0 0 0 0 0 0 0 0 0 0 0 0 0 0 0 0 0 0 0 0 0 0 0 0 0 0 0 0 0 0 0 0 0 0 0 0 0 0 0 0 0 0 0 0 0 0 9 76 0 0 68 0 39 0 28 0 31 142 209 235 186 168 175 191 0 0 0 0 0 0 61 104 43 0 0 0 0 201 255 60 0 33 169 121 12 0 132 0 0 7 84 86 0 0 0 0 0 0 70 67 27 7 9 6 0 180 0 0 87 67 5 57 26 0 0 0 0 125 55 40 0 80 0 1 10 57 0 255 0 0 8 0 121 211 255 192 0 0 0 181 255 255 107 131 101 139 242 181 77 0 22 0 0 18 12 19 14 0 5 2 7 7 5 5 0 0 3 1 2 3 3 3 3 2 3 8 3 3 0 3 0 75 228 0 0 51 55 0 0 58 0 0 255 77 0 54 1 7 12 12 3 12 14 0 0 0 9 5 2 0 0 0 0 0 0 2 0 0 0 0 0 0 0 0 0 0 0 0 0 19 0 0 6 5 9 7 2 0 8 3 6 2 12 8 6 1 0 0 6 11 26 19 16 1 0 18 20 0 0 0 0 44 150 8 0 0 0 0 0 26 21 3 8 3 7 5 1 8 0 0 9 13 13 8 2 0 12 15 2 0 0 7 4 0 6 4 6 0 2 0 0 2 9 0 13 13 0 0 0 0 0 36 51 0 0 100 139 120 0 0 55 144 20 0 39 3 0 0 39 45 0 0 39 0 0 19 41 9 3 18 5 0 0 0 0 24 30 63 47 30 4 0 0 30 232 255 0 0 0 65 0 106 255 0 0 195 41 0 0 0 0 0 0 16 0 0 0 98 80 0 0 0 0 127 6 0 74 32 22 6 0 0 67 0 31 38 0 70 0 0 0 0 0 0 0 0 0 0 0 0 5 13 0 0 0 3 0 0 21 0 0 127 0 0 0 10 19 44 59 8 201 0 0 23 46 12 1 28 0 0 0 0 0 0 0 0 0 0 0 0 0 0 12 47 0 0 0 6 0 0 0 4 0 0 0 8 15 1 27 51 16 0 38 56 14 0 0 0 0 0 0 0 0 40 255 255 255 255 255 255 184 100 37 31 0 0 0 0 0 21 198 255 255 165 0 0 0 0 0 0 32 48 82 0 0 0 0 0 53 0 0 0 0 7 27 22 0 18 22 12 0 0 0 0 0 0 0 42 71 0 0 9 0 0 11 0 12 19 0 0 5 0 0 0 0 13 1 0 0 27 30 0 0 0 58 81 0 6 0 0 0 17 44 16 0 32 38 0 0 54 52 0 75 90 10 0 0 0 80 120 204 37 0 0 0 5 14 5 40 18 11 17 0 0 1 38 61 21 0 0 0 0 0 59 28 101 15 39 0 0 0 0 0 0 0 8 0 0 34 0 0 18 83 52 0 0 38 58 8 11 85 24 0 0 75 89 0 0 80 0 0 42 0 21 0 0 90 31 0 0 12 1 0 0 0 2 0 0 0 0 0 0 0 0 0 0 0 0 0 0 0 0 0 0 0 0 0 0 0 0 0 0 0 0 0 0 0 0 0 0 0 0 0 0 0 0 0 0 0 0 0 0 0 0 0 0 0 0 0 0 0 0 0 0 0 0 0 0 0 0 0 0 0 0 0 0 0 0 0 0 0 0 0 0 0 0 0 0 0 0 0 0 0 0 0 0 0 0 0 0 0 0 0 0 0 0 0 0 0 0 0 0 0 0 0 0 0 0 0 0 0 0 0 0 0 0 0 0 0 0 0 0 0 0 0 0 0 0 0 0 0 0 0 0 0 0 0 0 0 0 0 0 0 0 0 0 0 0 0 0 0 0 0 0 0 0 0 0 0 0 0 0 0 0 0 0 0 0 0 0 0 255
255 0 0 0 0 0 0 0 0 0 0 0 0 0 0 0 0 0 0 0 0 0 0 0 0 0 0 0 0 0 0 0 0 0 0 0 0 0 0 0 0 0 0 0 0 0 0 0 0 0 0 0 0 0 0 0 0 0 0 0 0 0 0 0 0 0 0 0 0 0 0 0 0 0 0 0 0 0 0 0 0 0 0 0 0 0 0 0 0 0 0 0 0 0 0 0 0 0 0 0 0 0 0 0 6 83 0 0 67 0 34 0 14 1 4 0 0 0 31 47 0 141 156 245 193 255 255 255 0 0 0 83 181 18 0 0 44 36 76 110 149 194 217 209 71 3 179 4 0 63 0 68 214 107 48 0 77 0 0 0 25 0 61 193 0 0 0 56 0 47 67 65 65 19 0 0 0 1 0 71 0 33 0 17 0 255 0 0 0 0 133 255 24 0 0 75 196 24 0 0 0 0 0 0 0 0 80 139 36 0 22 14 0 0 16 7 8 8 0 0 0 3 3 3 2 0 0 0 0 0 0 0 0 3 0 0 0 3 0 5 168 0 0 0 0 36 148 142 0 40 221 0 0 0 35 0 3 0 6 2 0 0 0 0 12 5 3 5 4 5 11 0 8 0 0 0 0 0 2 2 0 1 10 2 0 0 0 10 0 0 0 0 9 0 0 0 0 0 0 0 0 0 0 5 0 0 0 0 3 0 0 0 13 17 6 0 0 0 0 0 1 105 129 13 0 10 50 11 0 0 0 0 0 0 19 43 0 0 0 3 7 0 0 0 6 3 0 0 0 1 0 0 4 0 6 0 0 0 7 4 0 0 0 9 14 0 0 0 0 21 36 0 0 55 41 50 162 0 0 0 255 101 0 56 132 0 0 12 0 0 0 20 11 20 12 0 0 3 8 0 37 0 0 28 3 0 16 18 5 32 6 0 33 145 195 255 0 0 0 175 214 0 0 5 42 5 18 5 0 0 0 14 69 81 82 0 0 0 0 0 0 114 9 3 92 30 20 0 40 0 14 0 46 0 14 45 5 0 0 0 134 126 31 24 0 17 0 0 0 0 0 0 0 50 26 0 0 0 37 177 0 0 0 28 0 0 0 46 28 0 0 48 33 0 7 25 5 7 7 0 0 2 12 0 0 0 2 0 4 11 14 50 0 0 0 6 9 0 0 0 40 5 0 0 0 65 85 55 58 14 82 171 0 0 0 0 0 114 255 255 255 255 218 100 0 0 0 0 0 0 0 0 14 18 7 6 0 0 0 0 0 48 104 161 170 96 0 0 68 66 69 0 0 23 0 0 21 0 0 0 34 76 56 40 14 16 0 0 0 0 0 0 52 85 51 76 167 95 0 0 21 12 12 0 0 0 0 0 1 19 13 16 14 10 0 0 0 0 1 0 0 0 0 121 0 16 6 0 0 3 7 0 71 0 0 9 24 0 11 106 0 28 0 0 0 0 0 0 70 0 0 0 36 15 0 0 0 0 0 0 0 0 14 33 1 0 0 0 0 18 114 220 0 21 0 8 57 49 71 45 36 0 0 0 0 0 18 0 0 0 0 25 32 2 0 0 0 0 102 144 0 0 42 145 0 0 0 0 45 45 0 0 0 60 97 87 34 10 0 8 0 2 0 3 0 0 0 0 0 0 0 0 0 0 0 0 0 0 0 0 0 0 0 0 0 0 0 0 0 0 0 0 0 0 0 0 0 0 0 0 0 0 0 0 0 0 0 0 0 0 0 0 0 0 0 0 0 0 0 0 0 0 0 0 0 0 0 0 0 0 0 0 0 0 0 0 0 0 0 0 0 0 0 0 0 0 0 0 0 0 0 0 0 0 0 0 0 0 0 0 0 0 0 0 0 0 0 0 0 0 0 0 0 0 0 0 0 0 0 0 0 0 0 0 0 0 0 0 0 0 0 0 0 0 0 0 0 0 0 0 0 0 0 0 0 0 0 0 0 0 0 0 0 0 0 0 0 0 0 0 0 0 0 0 0 0 0 0 0 0 0 0 0 0 0 0 0 0 0 255
255 0 0 0 0 0 0 0 0 0 0 0 0 0 0 0 0 0 0 0 0 0 0 0 0 0 0 0 0 0 0 0 0 0 0 0 0 0 0 0 0 0 0 0 0 0 0 0 0 0 0 0 0 0 0 0 0 0 0 0 0 0 0 0 0 0 0 0 0 0 0 0 0 0 0 0 0 0 0 0 0 0 0 0 0 0 0 0 0 0 0 0 0 0 0 0 0 0 0 0 0 0 0 0 2 70 0 8 47 0 24 0 6 4 0 2 21 19 30 1 45 0 37 96 170 152 112 0 0 0 0 0 0 0 76 0 0 0 0 0 0 0 0 19 172 0 88 60 69 96 0 64 48 54 0 0 36 0 149 0 98 0 0 84 80 0 26 80 32 78 23 0 0 15 0 8 0 7 0 52 0 23 0 0 28 167 0 0 0 0 255 242 0 0 0 59 0 0 0 0 0 12 0 0 0 0 0 171 255 225 255 255 230 171 109 42 17 13 0 0 0 2 0 0 0 0 0 0 0 0 0 0 0 3 0 0 0 3 0 0 98 131 0 0 0 0 26 0 0 255 80 0 8 0 34 5 0 0 0 0 0 0 1 0 16 0 0 9 6 6 3 0 17 7 13 7 7 12 6 12 1 9 11 1 0 2 2 6 17 11 0 0 8 3 4 9 0 0 0 4 2 7 0 0 0 0 0 3 8 5 15 8 16 16 12 30 28 6 0 0 0 0 52 100 66 1 0 0 2 12 24 23 0 0 0 20 0 0 0 2 8 8 0 0 0 0 1 2 3 0 2 0 5 11 0 10 0 0 0 0 2 0 0 0 19 36 0 0 6 0 12 0 1 42 49 33 199 255 0 0 0 114 124 0 0 26 37 0 0 0 0 23 13 9 0 0 0 1 3 0 45 0 0 45 6 0 4 29 18 46 35 0 0 0 12 184 255 0 0 0 255 0 0 171 50 17 55 89 64 5 0 37 0 0 0 0 57 250 71 162 62 54 0 24 68 14 35 1 0 0 19 0 4 0 49 0 0 0 255 255 255 218 85 0 0 0 0 0 0 0 0 0 0 50 36 0 0 0 0 0 0 0 0 0 0 135 107 0 0 0 0 19 0 0 10 0 14 8 9 0 10 12 12 0 1 0 8 25 40 42 33 45 1 10 13 34 40 7 0 0 0 16 87 21 0 0 39 119 55 0 0 0 0 0 27 255 255 236 132 11 0 0 0 12 0 0 0 0 0 0 0 0 6 5 19 20 20 0 0 0 0 0 0 0 0 37 107 70 78 91 4 0 0 0 82 138 98 12 0 0 42 39 0 0 7 0 0 0 0 0 0 0 86 160 88 62 189 119 0 0 34 0 0 0 0 0 0 143 0 27 37 40 15 0 0 0 35 0 0 0 0 0 0 23 0 0 17 0 0 14 9 5 0 21 0 0 11 66 44 7 0 0 0 0 0 0 0 0 0 0 0 10 34 15 0 0 0 4 18 23 3 0 0 0 13 0 5 0 0 0 100 66 0 0 0 0 66 53 0 17 141 54 0 0 0 4 0 0 27 25 0 0 37 25 0 0 0 0 32 109 0 0 0 147 0 4 0 0 66 60 63 0 0 0 2 58 101 37 0 15 2 1 0 3 0 0 0 0 0 0 0 0 0 0 0 0 0 0 0 0 0 0 0 0 0 0 0 0 0 0 0 0 0 0 0 0 0 0 0 0 0 0 0 0 0 0 0 0 0 0 0 0 0 0 0 0 0 0 0 0 0 0 0 0 0 0 0 0 0 0 0 0 0 0 0 0 0 0 0 0 0 0 0 0 0 0 0 0 0 0 0 0 0 0 0 0 0 0 0 0 0 0 0 0 0 0 0 0 0 0 0 0 0 0 0 0 0 0 0 0 0 0 0 0 0 0 0 0 0 0 0 0 0 0 0 0 0 0 0 0 0 0 0 0 0 0 0 0 0 0 0 0 0 0 0 0 0 0 0 0 0 0 0 0 0 0 0 0 0 0 0 0 0 0 0 0 0 0 0 255
255 0 0 0 0 0 0 0 0 0 0 0 0 0 0 0 0 0 0 0 0 0 0 0 0 0 0 0 0 0 0 0 0 0 0 0 0 0 0 0 0 0 0 0 0 0 0 0 0 0 0 0 0 0 0 0 0 0 0 0 0 0 0 0 0 0 0 0 0 0 0 0 0 0 0 0 0 0 0 0 0 0 0 0 0 0 0 0 0 0 0 0 0 0 0 0 0 0 0 0 0 0 0 1 1 40 0 17 26 0 15 10 0 5 8 0 7 11 0 0 0 0 66 0 0 0 0 0 0 0 52 38 0 0 0 0 175 20 0 5 85 33 0 0 0 0 172 255 186 48 0 0 0 41 44 0 0 18 81 0 187 0 0 82 105 0 12 69 35 45 0 0 0 0 13 0 3 10 0 18 9 2 0 0 255 78 0 6 0 255 255 0 0 20 59 0 69 184 198 158 92 158 156 97 12 0 0 0 0 0 0 0 0 0 123 123 88 26 15 11 7 5 4 2 0 0 0 0 0 0 0 0 0 3 0 0 0 3 0 1 39 195 0 0 0 0 0 0 93 247 0 33 67 0 0 16 3 0 4 6 1 0 0 0 12 0 0 0 0 4 1 0 5 4 0 1 0 3 0 3 9 0 0 6 7 0 3 0 19 1 0 0 0 0 5 9 14 18 13 7 14 4 0 0 10 9 0 1 0 5 11 7 1 5 0 9 29 44 43 31 0 0 0 9 110 71 0 0 0 22 33 20 21 4 0 0 5 0 6 4 9 0 0 0 1 2 0 0 4 0 0 0 6 3 0 4 3 6 0 2 0 13 10 0 9 54 18 0 11 0 8 24 10 0 0 8 33 0 229 76 0 0 199 166 0 56 30 0 23 12 0 27 0 0 6 27 39 18 0 0 6 0 0 59 39 0 0 0 0 0 10 44 56 8 0 13 66 255 0 0 0 165 0 0 20 0 11 58 42 1 0 57 0 0 0 123 255 213 167 52 12 0 0 19 1 0 44 0 0 8 3 0 20 65 0 0 147 255 255 0 0 192 184 28 18 2 0 0 0 26 106 135 6 0 0 0 255 255 255 108 0 0 0 0 0 0 0 113 81 5 0 0 0 24 43 0 15 8 0 0 0 0 12 0 7 2 17 45 49 41 14 0 27 21 22 42 55 26 0 0 18 0 0 0 0 0 0 0 0 0 0 0 193 255 255 123 21 28 50 55 49 18 0 0 4 1 2 0 0 3 5 11 0 0 0 13 23 38 51 60 27 0 0 52 37 0 0 0 0 31 3 0 0 0 0 3 0 0 0 15 69 34 0 0 0 0 9 16 25 14 12 0 0 95 12 0 8 0 0 0 1 0 0 2 11 27 92 243 0 1 1 0 0 0 6 22 0 0 0 4 99 110 38 0 0 7 6 0 0 7 15 17 0 25 72 14 32 98 30 0 0 0 0 2 40 25 17 34 0 0 0 0 0 0 22 86 0 33 60 31 0 0 0 0 0 0 0 0 0 0 101 0 17 0 49 0 29 0 0 14 200 115 0 0 30 29 0 0 132 106 0 0 37 10 0 94 25 0 0 58 0 0 0 33 0 0 0 0 0 86 114 70 0 0 0 13 89 103 31 13 6 0 0 3 0 0 0 0 0 0 0 0 0 0 0 0 0 0 0 0 0 0 0 0 0 0 0 0 0 0 0 0 0 0 0 0 0 0 0 0 0 0 0 0 0 0 0 0 0 0 0 0 0 0 0 0 0 0 0 0 0 0 0 0 0 0 0 0 0 0 0 0 0 0 0 0 0 0 0 0 0 0 0 0 0 0 0 0 0 0 0 0 0 0 0 0 0 0 0 0 0 0 0 0 0 0 0 0 0 0 0 0 0 0 0 0 0 0 0 0 0 0 0 0 0 0 0 0 0 0 0 0 0 0 0 0 0 0 0 0 0 0 0 0 0 0 0 0 0 0 0 0 0 0 0 0 0 0 0 0 0 0 0 0 0 0 0 0 0 0 0 0 0 0 0 0 0 0 0 255
255 0 0 0 0 0 0 0 0 0 0 0 0 0 0 0 0 0 0 0 0 0 0 0 0 0 0 0 0 0 0 0 0 0 0 0 0 0 0 0 0 0 0 0 0 0 0 0 0 0 0 0 0 0 0 0 0 0 0 0 0 0 0 0 0 0 0 0 0 0 0 0 0 0 0 0 0 0 0 0 0 0 0 0 0 0 0 0 0 0 0 0 0 0 0 0 0 0 0 0 0 0 0 2 0 18 0 20 10 0 1 10 0 11 13 0 0 0 36 45 62 96 117 0 0 0 59 255 149 0 0 39 142 39 0 0 0 59 61 0 0 0 50 20 0 0 0 0 0 255 200 0 0 0 122 0 0 126 0 0 255 43 0 174 0 23 0 0 0 2 0 0 11 52 0 0 13 36 15 0 41 2 0 0 251 185 0 13 82 0 0 0 132 136 73 74 229 162 0 0 74 67 43 96 234 214 51 0 0 0 0 0 0 0 0 0 0 0 28 14 7 0 0 3 0 0 0 0 0 0 0 0 0 3 0 0 0 3 0 0 7 166 0 0 18 30 62 0 255 60 0 62 23 42 0 12 2 0 0 1 3 5 8 0 7 0 0 0 2 1 0 0 0 2 0 0 1 5 0 3 2 2 10 9 0 0 0 0 10 0 0 0 0 0 2 13 0 13 4 12 13 6 0 0 20 10 0 1 0 0 0 0 23 10 0 0 0 0 2 20 39 17 0 0 0 83 126 44 0 0 0 0 0 24 10 0 9 2 3 4 9 15 1 0 0 1 1 2 4 0 0 0 9 0 5 0 1 3 5 0 0 19 18 0 0 19 22 0 0 0 1 33 34 0 0 0 0 40 31 182 255 0 0 30 243 70 0 0 76 18 0 38 27 0 14 34 42 9 17 43 32 0 0 37 33 0 6 0 52 0 0 22 60 52 24 57 0 117 233 0 0 0 182 0 32 0 0 0 10 0 0 13 57 0 0 255 142 0 9 0 0 0 22 26 0 0 40 0 59 33 0 34 56 133 0 0 255 104 31 69 162 68 0 0 64 53 74 98 92 124 84 0 0 0 104 0 0 0 70 231 255 255 255 255 255 26 0 0 0 0 4 30 5 23 45 16 1 0 0 0 0 0 0 0 0 0 21 38 54 39 2 0 40 27 28 39 43 34 5 0 0 5 60 123 22 0 0 0 0 78 255 255 170 93 28 0 0 0 0 0 0 0 21 37 0 0 0 0 0 0 0 5 14 10 0 0 0 0 12 25 96 48 63 147 107 0 0 0 0 43 134 105 41 0 0 0 0 0 0 26 88 52 24 59 0 1 14 22 27 17 19 19 0 63 0 0 0 0 0 55 7 17 0 0 0 62 68 62 0 0 0 0 0 0 10 0 0 25 150 95 21 26 40 6 7 3 0 0 0 6 13 12 8 0 22 81 75 0 0 19 0 0 0 6 6 0 0 14 0 15 17 7 0 0 26 89 0 6 21 0 0 0 0 0 51 0 29 49 0 0 82 0 24 0 46 0 67 26 0 88 128 77 0 0 27 21 0 0 37 92 36 0 36 0 0 77 0 0 18 95 70 0 0 0 48 0 65 0 0 92 0 45 0 0 0 0 0 98 65 0 8 0 0 3 0 0 0 0 0 0 0 0 0 0 0 0 0 0 0 0 0 0 0 0 0 0 0 0 0 0 0 0 0 0 0 0 0 0 0 0 0 0 0 0 0 0 0 0 0 0 0 0 0 0 0 0 0 0 0 0 0 0 0 0 0 0 0 0 0 0 0 0 0 0 0 0 0 0 0 0 0 0 0 0 0 0 0 0 0 0 0 0 0 0 0 0 0 0 0 0 0 0 0 0 0 0 0 0 0 0 0 0 0 0 0 0 0 0 0 0 0 0 0 0 0 0 0 0 0 0 0 0 0 0 0 0 0 0 0 0 0 0 0 0 0 0 0 0 0 0 0 0 0 0 0 0 0 0 0 0 0 0 0 0 0 0 0 0 0 0 0 0 0 0 0 0 0 0 0 255
255 0 0 0 0 0 0 0 0 0 0 0 0 0 0 0 0 0 0 0 0 0 0 0 0 0 0 0 0 0 0 0 0 0 0 0 0 0 0 0 0 0 0 0 0 0 0 0 0 0 0 0 0 0 0 0 0 0 0 0 0 0 0 0 0 0 0 0 0 0 0 0 0 0 0 0 0 0 0 0 0 0 0 0 0 0 0 0 0 0 0 0 0 0 0 0 0 0 0 0 0 0 0 3 0 7 6 6 4 10 0 13 15 0 0 44 82 161 223 221 227 169 41 0 14 214 159 89 97 116 10 0 0 82 134 124 0 0 62 209 177 39 0 0 0 74 12 0 0 0 118 237 105 0 48 0 0 125 0 159 249 12 0 133 0 176 0 0 27 32 15 5 68 70 0 0 0 44 51 0 69 0 16 0 193 130 0 0 0 0 0 142 30 0 0 0 0 0 0 0 0 0 0 0 0 0 0 0 0 15 238 255 255 255 230 174 0 0 0 15 9 0 0 3 0 0 0 0 0 0 0 0 0 3 0 0 0 3 0 3 8 133 8 0 13 41 0 0 207 0 55 40 0 51 0 13 8 3 6 6 5 4 5 6 3 0 8 0 6 6 3 4 0 0 0 0 0 0 0 4 0 0 0 0 3 1 0 0 6 0 0 0 0 2 0 18 0 0 0 0 0 14 5 3 11 4 4 0 3 0 0 0 0 1 10 2 6 0 0 3 0 57 50 0 0 0 0 50 88 51 22 0 0 22 23 10 13 3 0 2 0 8 0 3 1 8 0 0 2 0 3 0 3 3 12 0 2 0 0 0 3 15 14 0 0 0 16 43 0 0 0 27 46 22 0 8 84 10 55 93 83 132 0 0 0 59 100 0 0 34 29 0 68 0 0 9 1 0 6 90 66 0 0 6 0 5 21 0 55 21 6 0 0 0 0 0 127 0 31 156 68 0 0 126 81 24 2 0 12 22 15 31 0 0 168 183 0 42 37 117 0 0 71 44 0 11 7 5 30 69 19 164 0 0 0 255 212 41 0 0 0 0 0 147 0 0 19 78 88 78 0 0 88 0 0 0 0 9 95 82 68 99 87 46 222 255 255 101 0 0 0 48 11 0 0 0 10 3 0 0 0 9 10 0 0 0 0 25 46 34 20 0 33 29 31 25 34 37 14 11 36 0 0 0 0 0 41 239 255 255 108 0 0 21 30 15 29 29 45 49 43 5 0 0 2 1 0 0 0 0 7 9 0 2 0 4 7 2 0 0 0 0 0 0 0 0 48 48 49 78 86 103 184 190 102 90 0 0 0 0 0 0 0 0 25 16 10 0 0 0 11 5 104 48 0 0 23 30 0 0 2 23 0 0 0 56 19 0 0 0 0 0 22 23 0 0 0 72 159 37 0 7 37 0 10 11 0 0 0 4 10 0 36 26 0 0 0 0 0 67 0 0 0 18 1 0 0 0 0 10 50 48 32 7 0 0 0 0 0 0 0 16 101 111 240 108 117 108 0 0 9 0 62 0 0 0 76 37 0 47 0 0 0 0 0 2 0 0 46 73 42 0 0 0 0 136 0 42 88 69 42 0 0 11 81 0 63 0 0 158 0 4 38 0 0 0 0 58 192 35 10 0 0 3 0 0 0 0 0 0 0 0 0 0 0 0 0 0 0 0 0 0 0 0 0 0 0 0 0 0 0 0 0 0 0 0 0 0 0 0 0 0 0 0 0 0 0 0 0 0 0 0 0 0 0 0 0 0 0 0 0 0 0 0 0 0 0 0 0 0 0 0 0 0 0 0 0 0 0 0 0 0 0 0 0 0 0 0 0 0 0 0 0 0 0 0 0 0 0 0 0 0 0 0 0 0 0 0 0 0 0 0 0 0 0 0 0 0 0 0 0 0 0 0 0 0 0 0 0 0 0 0 0 0 0 0 0 0 0 0 0 0 0 0 0 0 0 0 0 0 0 0 0 0 0 0 0 0 0 0 0 0 0 0 0 0 0 0 0 0 0 0 0 0 0 0 0 0 0 255
255 0 0 0 0 0 0 0 0 0 0 0 0 0 0 0 0 0 0 0 0 0 0 0 0 0 0 0 0 0 0 0 0 0 0 0 0 0 0 0 0 0 0 0 0 0 0 0 0 0 0 0 0 0 0 0 0 0 0 0 0 0 0 0 0 0 0 0 0 0 0 0 0 0 0 0 0 0 0 0 0 0 0 0 0 0 0 0 0 0 0 0 0 0 0 0 0 0 0 0 0 0 0 4 0 4 5 0 5 12 0 20 9 0 0 116 181 106 10 0 0 0 160 126 0 1 0 0 123 62 133 177 83 0 0 103 255 0 0 0 0 49 9 0 1 0 16 146 71 0 0 0 178 9 0 0 6 54 0 13 240 0 0 45 63 249 0 0 96 44 0 0 27 26 1 57 0 46 57 0 61 0 0 0 255 0 0 0 0 142 226 0 0 78 105 11 89 255 221 108 0 0 0 1 0 0 6 255 13 0 0 81 36 0 0 34 0 0 0 0 3 3 4 1 0 0 0 0 0 0 0 0 0 3 0 0 0 3 0 1 0 109 131 0 0 0 0 0 119 0 79 0 0 19 1 8 0 0 0 0 0 4 4 0 17 5 4 4 10 10 7 7 0 0 0 0 0 0 0 1 4 0 4 0 8 10 0 0 6 5 0 0 7 1 0 20 0 0 0 0 0 0 6 5 6 0 2 0 7 0 0 0 0 0 11 24 22 26 17 32 0 0 36 116 28 0 0 0 58 61 55 14 0 2 20 0 8 0 0 2 0 7 4 0 4 8 0 1 3 8 0 0 0 1 2 0 4 0 3 0 12 0 0 9 0 0 0 55 0 0 0 0 27 32 20 0 10 0 0 0 22 230 219 0 0 0 139 39 0 13 62 0 40 0 0 16 0 0 0 61 0 0 0 12 0 5 31 0 0 0 24 32 47 52 63 71 0 6 27 0 222 14 0 0 0 38 15 0 4 43 30 27 0 0 176 16 0 105 0 0 34 0 17 30 19 33 0 35 0 62 34 113 0 0 0 255 0 10 0 0 100 72 0 0 96 32 0 0 0 23 117 86 123 44 0 73 180 141 62 27 63 0 23 0 0 0 114 255 0 0 0 0 23 0 0 0 10 10 0 0 0 0 0 0 0 0 0 1 25 23 0 0 0 0 4 0 0 5 6 0 0 0 0 0 255 255 255 111 0 0 0 28 16 0 0 0 0 0 0 0 0 2 42 74 19 21 17 16 25 17 20 30 0 0 5 16 28 23 15 4 3 30 19 0 0 38 34 0 56 3 0 0 7 96 149 241 230 179 50 0 0 0 0 0 0 17 3 0 0 0 0 18 99 0 0 39 17 2 13 0 1 3 0 0 14 34 9 0 0 4 7 22 16 6 0 0 0 35 57 0 0 26 18 0 12 9 9 0 0 4 2 0 0 54 33 0 0 6 42 11 0 0 9 18 23 18 22 33 0 5 26 19 29 18 0 0 24 1 0 0 10 116 141 99 21 0 0 11 3 19 51 63 49 16 0 6 42 0 0 4 0 0 0 0 0 0 13 0 72 29 0 0 0 0 20 168 36 90 44 0 20 0 0 21 95 0 17 0 0 92 87 22 21 0 0 0 0 0 35 133 19 0 0 3 0 0 0 0 0 0 0 0 0 0 0 0 0 0 0 0 0 0 0 0 0 0 0 0 0 0 0 0 0 0 0 0 0 0 0 0 0 0 0 0 0 0 0 0 0 0 0 0 0 0 0 0 0 0 0 0 0 0 0 0 0 0 0 0 0 0 0 0 0 0 0 0 0 0 0 0 0 0 0 0 0 0 0 0 0 0 0 0 0 0 0 0 0 0 0 0 0 0 0 0 0 0 0 0 0 0 0 0 0 0 0 0 0 0 0 0 0 0 0 0 0 0 0 0 0 0 0 0 0 0 0 0 0 0 0 0 0 0 0 0 0 0 0 0 0 0 0 0 0 0 0 0 0 0 0 0 0 0 0 0 0 0 0 0 0 0 0 0 0 0 0 0 0 0 0 255
255 0 0 0 0 0 0 0 0 0 0 0 0 0 0 0 0 0 0 0 0 0 0 0 0 0 0 0 0 0 0 0 0 0 0 0 0 0 0 0 0 0 0 0 0 0 0 0 0 0 0 0 0 0 0 0 0 0 0 0 0 0 0 0 0 0 0 0 0 0 0 0 0 0 0 0 0 0 0 0 0 0 0 0 0 0 0 0 0 0 0 0 0 0 0 0 0 0 0 0 0 0 0 4 0 5 6 0 5 10 0 19 0 27 73 159 0 0 0 0 0 0 0 255 49 86 0 0 0 0 63 134 255 255 202 0 0 253 163 0 0 83 159 0 79 0 0 0 42 0 0 0 21 175 10 10 116 193 0 0 255 0 0 15 34 0 0 0 19 0 0 0 41 3 0 60 0 69 108 0 48 0 0 0 232 54 0 235 80 77 0 0 0 255 214 249 255 255 0 0 68 0 0 34 109 42 104 255 191 0 0 0 41 19 19 3 30 33 0 0 0 12 4 2 1 0 0 0 0 0 0 0 0 2 0 0 0 1 0 0 0 63 166 0 0 64 0 171 134 0 0 0 85 0 0 10 0 0 0 0 0 0 0 0 9 0 0 0 0 1 0 0 6 1 0 0 5 10 13 17 0 0 0 0 26 29 15 0 12 11 10 14 12 19 17 21 29 16 0 0 0 0 0 0 0 3 2 15 18 24 7 1 12 5 0 0 0 4 0 0 32 29 0 0 0 55 0 0 0 0 103 69 9 0 3 0 13 0 0 4 17 3 0 0 2 3 2 4 0 1 0 0 5 4 6 3 7 0 0 0 31 0 0 7 25 0 0 38 0 0 0 0 0 22 0 0 11 42 33 51 42 0 0 255 0 0 0 98 113 0 0 67 21 12 58 139 85 0 0 57 0 0 26 48 0 12 34 0 36 16 0 0 0 20 9 0 72 0 93 0 0 125 234 0 0 0 60 0 0 66 97 44 0 211 82 0 87 0 0 54 61 0 0 37 97 42 0 59 53 130 0 0 0 0 255 81 0 57 0 0 0 51 0 5 0 0 38 16 0 0 1 0 0 0 0 0 55 0 0 0 25 0 0 36 47 57 16 0 255 1 0 0 62 32 0 43 0 0 0 0 0 0 5 3 5 0 0 0 16 8 0 0 0 0 0 0 0 0 0 0 0 99 255 255 144 22 0 0 39 8 0 0 3 38 37 6 0 8 49 42 26 0 0 0 0 0 0 0 0 0 0 0 41 27 0 0 0 0 0 0 21 0 0 45 73 51 27 57 4 28 49 49 35 0 0 33 0 0 21 113 211 204 50 0 0 0 0 11 34 27 30 50 24 0 0 78 0 0 19 0 22 0 1 15 0 0 0 0 0 4 15 0 0 0 16 18 0 4 94 65 0 0 21 40 15 20 37 7 0 0 0 0 19 0 21 89 107 78 34 74 0 32 14 0 0 3 0 0 16 6 0 0 0 0 4 0 0 0 0 0 12 110 42 0 0 53 47 3 21 21 0 0 0 24 0 64 21 0 98 68 0 0 13 50 0 0 41 0 0 0 0 42 1 0 40 53 58 0 0 12 138 25 0 0 182 46 0 0 0 0 126 50 56 66 0 0 37 0 0 202 112 12 0 5 3 2 6 6 7 3 2 2 2 3 3 2 1 0 0 0 0 0 0 0 0 0 0 0 0 0 0 0 0 0 0 0 0 0 0 0 0 0 0 0 0 0 0 0 0 0 0 0 0 0 0 0 0 0 0 0 0 0 0 0 0 0 0 0 0 0 0 0 0 0 0 0 0 0 0 0 0 0 0 0 0 0 0 0 0 0 0 0 0 0 0 0 0 0 0 0 0 0 0 0 0 0 0 0 0 0 0 0 0 0 0 0 0 0 0 0 0 0 0 0 0 0 0 0 0 0 0 0 0 0 0 0 0 0 0 0 0 0 0 0 0 0 0 0 0 0 0 0 0 0 0 0 0 0 0 0 0 0 0 0 0 0 0 0 0 0 0 0 0 0 0 0 0 0 0 255
255 0 0 0 0 0 0 0 0 0 0 0 0 0 0 0 0 0 0 0 0 0 0 0 0 0 0 0 0 0 0 0 0 0 0 0 0 0 0 0 0 0 0 0 0 0 0 0 0 0 0 0 0 0 0 0 0 0 0 0 0 0 0 0 0 0 0 0 0 0 0 0 0 0 0 0 0 0 0 0 0 0 0 0 0 0 0 0 0 0 0 0 0 0 0 0 0 0 0 0 0 0 0 4 0 0 5 3 3 7 0 9 28 0 115 174 0 0 52 0 0 0 99 255 0 0 101 0 0 0 0 0 0 13 255 255 83 2 231 216 0 0 236 0 107 0 0 0 0 27 81 0 0 0 0 0 153 30 24 60 106 0 0 0 255 73 50 0 31 154 0 0 40 0 7 34 0 73 0 0 54 0 0 25 0 110 0 116 58 0 22 21 34 255 255 243 0 0 0 0 0 0 18 0 0 0 0 255 149 48 0 0 8 6 0 0 0 7 18 13 4 1 0 0 1 0 0 0 0 0 0 0 0 1 2 3 5 0 2 5 0 36 229 0 0 55 0 8 121 0 52 28 0 26 17 4 10 9 4 0 0 6 13 5 0 0 10 8 7 2 0 0 0 10 20 9 5 0 0 2 7 13 16 4 0 0 0 0 0 0 0 0 7 0 0 0 0 8 15 20 23 11 0 0 0 0 0 0 0 0 3 10 0 3 0 0 0 8 7 8 0 3 19 37 26 19 36 58 0 0 0 86 141 6 0 65 0 44 61 0 0 0 20 0 11 3 2 2 1 3 0 0 0 0 0 0 0 0 0 0 1 5 10 0 0 0 0 4 14 70 14 56 0 43 23 18 3 0 0 0 0 22 14 48 147 0 0 0 30 35 0 0 24 82 187 55 11 66 197 0 0 33 54 0 1 17 10 0 25 2 3 9 0 0 6 0 20 13 19 2 4 0 90 255 18 0 0 12 105 0 4 0 0 255 76 0 94 0 0 54 58 0 0 0 33 84 30 16 151 0 0 104 0 0 255 0 0 255 0 0 0 106 0 0 115 10 20 0 0 6 0 0 0 0 0 25 195 75 0 0 0 0 86 52 0 0 0 0 19 255 0 0 0 48 0 36 0 0 7 0 1 0 1 0 0 12 10 0 0 26 0 0 0 34 26 0 0 0 0 255 255 237 95 3 0 3 2 0 0 0 10 2 0 0 0 0 10 0 0 0 0 0 4 0 0 0 0 12 5 5 8 17 0 0 4 4 7 0 5 0 2 17 29 16 0 0 0 0 0 6 0 9 11 16 0 0 0 0 0 0 0 0 57 168 81 0 0 56 0 0 5 72 0 0 93 68 0 44 35 0 0 53 35 0 0 0 0 37 3 0 25 0 18 57 0 0 0 0 20 0 0 8 16 0 0 0 0 0 38 46 31 19 2 0 5 66 56 0 0 62 0 0 9 0 0 17 0 46 0 0 0 0 26 0 0 34 39 30 0 13 121 40 0 27 17 0 0 0 35 28 3 66 0 6 39 37 0 0 0 90 0 0 0 0 60 0 0 0 71 84 0 0 0 0 0 0 87 13 1 0 11 118 69 0 0 0 0 87 0 0 56 86 0 97 105 0 0 0 4 0 175 56 14 6 5 4 16 0 0 0 0 4 0 0 0 0 2 0 0 0 0 0 0 0 0 0 0 0 0 0 0 0 0 0 0 0 0 0 0 0 0 0 0 0 0 0 0 0 0 0 0 0 0 0 0 0 0 0 0 0 0 0 0 0 0 0 0 0 0 0 0 0 0 0 0 0 0 0 0 0 0 0 0 0 0 0 0 0 0 0 0 0 0 0 0 0 0 0 0 0 0 0 0 0 0 0 0 0 0 0 0 0 0 0 0 0 0 0 0 0 0 0 0 0 0 0 0 0 0 0 0 0 0 0 0 0 0 0 0 0 0 0 0 0 0 0 0 0 0 0 0 0 0 0 0 0 0 0 0 0 0 0 0 0 0 0 0 0 0 0 0 0 0 0 0 0 0 0 0 255
255 0 0 0 0 0 0 0 0 0 0 0 0 0 0 0 0 0 0 0 0 0 0 0 0 0 0 0 0 0 0 0 0 0 0 0 0 0 0 0 0 0 0 0 0 0 0 0 0 0 0 0 0 0 0 0 0 0 0 0 0 0 0 0 0 0 0 0 0 0 0 0 0 0 0 0 0 0 0 0 0 0 0 0 0 0 0 0 0 0 0 0 0 0 0 0 0 0 0 0 0 0 0 3 0 0 3 0 0 3 0 1 6 18 159 42 0 110 62 0 182 0 0 104 0 190 81 12 0 0 41 189 0 0 0 0 25 255 125 0 178 0 0 0 41 72 8 0 0 1 3 74 0 0 0 0 0 7 0 158 234 0 0 172 118 28 0 0 0 0 0 0 0 0 71 113 43 0 0 0 65 0 0 0 0 56 13 0 0 3 247 0 0 0 0 0 0 0 59 0 0 87 255 237 0 0 0 0 255 71 40 0 26 10 0 5 3 4 0 0 0 0 4 2 1 0 0 0 0 0 0 0 0 0 0 0 3 0 0 3 0 19 208 0 0 62 0 11 146 0 21 15 0 18 13 0 3 0 0 1 0 0 0 10 4 0 0 2 2 0 5 3 0 0 18 7 0 0 2 3 0 2 3 6 0 0 1 5 0 0 0 0 10 11 0 0 0 0 0 5 11 5 0 0 0 0 1 0 2 0 7 10 0 3 0 0 0 0 0 0 1 0 7 0 3 0 0 5 54 16 0 0 2 201 145 0 54 0 0 0 45 29 0 0 0 0 4 0 0 11 0 0 0 0 2 0 4 0 0 0 0 1 2 0 1 0 0 0 30 9 0 9 0 45 12 0 8 2 0 0 2 4 1 0 23 92 12 0 0 138 158 62 65 23 0 0 0 0 0 0 0 26 29 0 7 16 13 3 21 3 0 2 0 0 4 0 21 11 5 0 0 0 0 38 132 154 0 0 0 0 0 0 20 255 36 0 100 0 0 15 20 15 0 0 0 114 84 35 0 0 0 122 0 0 255 0 0 255 255 0 22 101 43 0 0 0 0 0 62 158 87 119 0 0 0 4 156 37 0 1 15 0 0 1 47 72 35 0 0 255 122 0 14 67 45 67 8 14 0 0 0 0 3 0 18 0 0 48 18 0 0 90 0 0 0 0 72 255 255 255 40 1 4 0 1 6 1 5 0 0 0 0 0 0 0 0 11 0 5 0 4 2 0 0 15 8 4 9 12 0 9 12 0 0 0 0 2 0 0 0 7 0 5 9 10 10 0 0 0 0 0 6 2 7 0 0 7 0 6 3 3 0 1 27 126 239 2 0 0 36 39 158 0 0 52 12 0 0 0 41 0 0 0 0 1 55 120 235 0 0 35 0 13 17 0 0 81 60 84 19 0 1 0 0 24 0 0 0 3 0 0 0 0 7 23 16 71 126 67 0 0 0 24 0 0 1 0 0 0 67 56 0 0 22 50 29 27 0 0 0 122 55 0 20 25 23 0 0 27 7 0 10 0 0 0 1 1 0 0 28 87 101 41 0 3 0 0 18 52 32 0 0 0 0 94 69 57 1 9 0 0 48 33 0 0 0 0 78 0 0 78 170 0 42 1 0 0 0 17 0 0 159 52 0 12 11 0 22 2 0 0 7 0 0 0 0 3 0 0 0 0 0 0 0 0 0 0 0 0 0 0 0 0 0 0 0 0 0 0 0 0 0 0 0 0 0 0 0 0 0 0 0 0 0 0 0 0 0 0 0 0 0 0 0 0 0 0 0 0 0 0 0 0 0 0 0 0 0 0 0 0 0 0 0 0 0 0 0 0 0 0 0 0 0 0 0 0 0 0 0 0 0 0 0 0 0 0 0 0 0 0 0 0 0 0 0 0 0 0 0 0 0 0 0 0 0 0 0 0 0 0 0 0 0 0 0 0 0 0 0 0 0 0 0 0 0 0 0 0 0 0 0 0 0 0 0 0 0 0 0 0 0 0 0 0 0 0 0 0 0 0 0 0 0 0 0 0 0 0 255
255 0 0 0 0 0 0 0 0 0 0 0 0 0 0 0 0 0 0 0 0 0 0 0 0 0 0 0 0 0 0 0 0 0 0 0 0 0 0 0 0 0 0 0 0 0 0 0 0 0 0 0 0 0 0 0 0 0 0 0 0 0 0 0 0 0 0 0 0 0 0 0 0 0 0 0 0 0 0 0 0 0 0 0 0 0 0 0 0 0 0 0 0 0 0 0 0 0 0 0 0 0 0 3 0 0 3 0 0 3 0 2 0 5 174 64 0 101 0 0 0 0 0 0 120 165 32 56 62 130 87 18 148 255 179 0 0 0 201 24 92 28 131 2 0 105 57 0 66 23 0 91 36 6 2 0 0 0 0 0 255 0 0 255 0 0 0 0 0 0 219 255 135 60 0 48 103 0 0 82 0 0 0 0 10 0 57 0 0 131 250 0 0 0 0 75 105 0 0 0 238 170 85 99 205 255 0 0 147 0 0 0 3 2 7 11 3 1 2 3 3 2 1 0 0 0 0 0 0 0 0 0 0 0 0 0 3 0 0 3 0 12 195 0 0 53 0 0 155 12 4 0 0 0 16 0 3 1 3 0 0 0 0 0 0 7 0 3 3 6 1 0 0 0 1 0 1 0 0 4 0 7 5 12 0 0 4 18 0 0 0 1 8 0 0 4 0 0 0 0 5 9 4 17 0 10 0 0 1 0 0 11 0 1 0 0 1 2 0 2 10 3 5 6 0 0 0 0 0 37 62 0 0 0 29 133 73 25 45 41 0 0 0 68 0 0 0 0 13 3 0 1 5 8 4 2 6 1 7 1 0 0 6 0 0 0 5 0 68 0 0 0 73 29 8 0 17 3 0 0 1 8 7 0 14 55 89 41 0 0 0 57 0 0 0 0 0 0 0 1 0 14 17 0 4 19 18 0 7 0 0 0 3 0 5 0 20 10 19 16 18 0 0 0 173 202 217 0 0 5 0 0 255 191 0 0 97 0 0 13 7 70 44 0 0 0 0 45 0 0 0 47 0 0 255 0 0 255 255 0 0 0 7 47 44 0 0 0 0 52 0 0 0 0 0 21 142 33 0 9 13 8 10 16 7 0 0 22 0 68 255 0 31 37 37 57 0 0 1 12 42 43 43 34 0 36 59 0 0 28 0 0 0 0 182 255 255 186 11 0 1 4 0 5 3 0 0 0 4 0 2 0 4 0 0 0 18 4 1 4 9 8 1 0 18 7 2 0 11 7 0 0 0 0 0 0 0 2 7 0 30 22 15 13 4 7 0 12 0 0 0 0 3 8 0 0 20 19 11 16 17 5 7 0 0 70 182 15 0 0 72 30 0 0 0 0 0 5 0 51 66 0 0 0 0 48 136 179 0 0 33 26 0 0 0 0 95 46 39 0 0 35 27 0 0 0 0 0 1 6 0 11 12 0 0 97 103 0 0 0 7 0 41 0 0 11 0 18 83 140 104 0 0 20 39 0 1 0 0 21 64 64 32 0 18 27 0 0 24 0 0 0 11 0 0 0 0 0 0 0 11 129 100 0 55 0 0 38 93 46 0 0 0 0 91 163 27 2 10 14 0 2 52 89 0 0 0 77 0 0 39 181 0 42 0 53 0 0 0 0 0 107 141 4 22 21 0 24 3 0 0 0 0 0 0 0 3 0 0 0 0 0 0 0 0 0 0 0 0 0 0 0 0 0 0 0 0 0 0 0 0 0 0 0 0 0 0 0 0 0 0 0 0 0 0 0 0 0 0 0 0 0 0 0 0 0 0 0 0 0 0 0 0 0 0 0 0 0 0 0 0 0 0 0 0 0 0 0 0 0 0 0 0 0 0 0 0 0 0 0 0 0 0 0 0 0 0 0 0 0 0 0 0 0 0 0 0 0 0 0 0 0 0 0 0 0 0 0 0 0 0 0 0 0 0 0 0 0 0 0 0 0 0 0 0 0 0 0 0 0 0 0 0 0 0 0 0 0 0 0 0 0 0 0 0 0 0 0 0 0 0 0 0 0 0 0 0 0 0 255
255 0 0 0 0 0 0 0 0 0 0 0 0 0 0 0 0 0 0 0 0 0 0 0 0 0 0 0 0 0 0 0 0 0 0 0 0 0 0 0 0 0 0 0 0 0 0 0 0 0 0 0 0 0 0 0 0 0 0 0 0 0 0 0 0 0 0 0 0 0 0 0 0 0 0 0 0 0 0 0 0 0 0 0 0 0 0 0 0 0 0 0 0 0 0 0 0 0 0 0 0 0 0 3 0 0 3 0 0 3 0 2 2 5 187 73 0 0 0 0 110 175 255 86 43 0 0 32 57 100 0 0 0 0 73 171 40 0 0 174 94 0 106 0 0 51 29 11 68 6 0 47 75 160 0 76 166 0 0 0 255 0 48 242 0 0 0 194 255 0 23 0 0 74 29 114 91 0 0 0 0 0 39 128 185 0 0 0 0 230 68 0 0 62 129 0 0 0 94 255 68 22 0 0 26 121 255 0 105 57 30 18 13 1 0 0 3 0 0 0 0 0 0 0 0 0 0 0 0 0 0 0 0 0 0 0 3 0 0 3 0 8 184 0 0 36 0 0 140 56 17 0 0 0 20 0 2 3 2 6 7 3 0 0 0 4 9 7 0 0 4 10 0 0 2 0 0 0 9 6 0 0 1 3 2 0 3 17 0 2 3 8 0 7 0 17 0 0 0 0 12 12 2 19 0 8 0 0 0 0 5 5 3 0 0 1 1 2 0 0 3 4 4 2 0 3 0 0 60 0 0 74 8 0 0 0 125 84 37 0 0 62 33 0 0 0 0 0 4 7 0 0 1 2 0 0 9 0 0 2 0 0 6 0 4 0 6 1 60 0 0 0 61 15 56 0 5 0 2 5 6 9 10 4 34 0 11 148 67 0 0 0 3 0 0 0 139 51 0 9 0 27 29 0 0 7 0 0 13 1 0 4 0 0 0 0 0 0 0 16 34 32 13 0 0 122 180 255 0 0 0 0 255 100 0 0 59 16 83 69 41 8 17 80 14 0 0 1 0 42 20 1 0 0 255 72 0 0 195 0 0 0 0 115 0 0 0 0 0 36 0 0 0 0 0 9 110 62 0 0 0 0 23 51 0 0 0 37 40 0 255 0 0 47 0 0 0 29 41 17 0 0 0 0 52 0 15 88 0 0 0 0 243 255 255 163 0 0 0 69 4 0 0 0 0 0 0 0 14 13 5 3 13 2 11 2 16 4 7 8 2 1 2 2 19 0 0 0 5 9 1 0 13 7 9 9 12 16 19 0 35 24 8 5 8 0 3 1 3 0 0 0 0 0 0 3 10 10 19 17 11 0 0 0 49 0 107 181 0 0 52 55 0 0 0 0 43 68 0 1 57 0 5 28 0 0 0 0 37 0 14 26 0 0 0 66 13 0 0 0 0 41 41 0 6 0 15 9 16 0 3 14 25 2 53 110 25 0 0 0 53 0 29 32 0 0 35 255 123 51 17 0 0 0 0 0 0 0 59 35 0 42 73 0 2 18 0 0 10 0 0 11 31 0 0 0 3 0 3 29 0 97 101 0 87 0 0 31 100 45 0 17 0 0 0 54 19 0 0 12 0 9 66 141 0 0 0 61 14 0 0 122 65 0 17 127 0 0 0 0 0 0 128 85 0 0 16 0 8 0 0 0 0 0 0 0 2 0 0 0 0 0 0 0 0 0 0 0 0 0 0 0 0 0 0 0 0 0 0 0 0 0 0 0 0 0 0 0 0 0 0 0 0 0 0 0 0 0 0 0 0 0 0 0 0 0 0 0 0 0 0 0 0 0 0 0 0 0 0 0 0 0 0 0 0 0 0 0 0 0 0 0 0 0 0 0 0 0 0 0 0 0 0 0 0 0 0 0 0 0 0 0 0 0 0 0 0 0 0 0 0 0 0 0 0 0 0 0 0 0 0 0 0 0 0 0 0 0 0 0 0 0 0 0 0 0 0 0 0 0 0 0 0 0 0 0 0 0 0 0 0 0 0 0 0 0 0 0 0 0 0 0 0 0 0 0 0 0 0 255
255 0 0 0 0 0 0 0 0 0 0 0 0 0 0 0 0 0 0 0 0 0 0 0 0 0 0 0 0 0 0 0 0 0 0 0 0 0 0 0 0 0 0 0 0 0 0 0 0 0 0 0 0 0 0 0 0 0 0 0 0 0 0 0 0 0 0 0 0 0 0 0 0 0 0 0 0 0 0 0 0 0 0 0 0 0 0 0 0 0 0 0 0 0 0 0 0 0 0 0 0 0 0 3 0 0 3 0 0 3 0 0 0 8 163 0 0 0 0 0 255 255 255 177 52 162 121 148 103 0 0 0 144 81 0 0 158 0 0 0 153 16 84 243 98 5 0 20 0 0 1 11 0 47 0 78 172 0 0 0 162 0 195 0 0 105 48 89 109 0 92 10 0 165 0 0 49 86 0 0 0 130 57 38 0 0 0 0 77 255 0 0 0 20 39 0 24 255 255 170 137 47 67 71 0 0 87 39 0 18 3 0 8 7 0 12 3 0 0 0 0 0 0 0 0 0 0 0 0 0 0 0 0 0 0 0 3 0 0 3 0 7 161 0 0 1 0 0 103 120 19 0 13 0 30 0 13 3 11 13 12 7 0 0 0 0 0 0 5 0 3 0 1 4 5 0 10 8 0 9 0 0 9 0 5 0 1 13 0 0 0 8 0 6 0 20 0 1 0 0 3 5 0 0 0 2 2 0 0 0 0 0 12 0 0 0 7 0 0 0 0 1 6 0 2 0 9 11 35 0 0 0 57 54 0 0 0 34 106 44 0 13 28 0 12 8 2 0 0 0 0 0 0 6 0 0 1 0 0 2 0 0 3 2 0 0 3 16 20 43 43 0 0 0 110 13 7 6 7 0 2 3 5 8 30 17 0 0 123 150 0 0 0 0 97 0 255 168 0 86 0 37 23 0 13 13 0 4 2 0 6 11 4 5 0 0 0 0 0 6 19 20 13 24 0 75 0 219 210 0 0 0 212 92 33 0 7 58 109 71 47 0 0 70 120 28 0 13 31 0 0 0 0 0 226 149 0 0 0 66 19 56 0 48 0 0 38 0 21 74 0 48 0 0 3 0 94 148 37 0 0 0 0 0 41 49 19 0 94 0 255 0 0 100 0 10 9 0 0 5 14 19 52 89 10 0 0 0 0 0 255 255 218 103 35 0 38 78 38 0 0 8 0 0 0 2 0 0 12 0 5 5 5 3 2 0 4 0 0 3 4 2 2 6 0 0 0 0 10 15 4 6 0 12 5 0 0 0 9 0 16 1 0 0 0 0 2 5 6 4 0 0 0 6 0 2 0 3 0 0 0 0 0 0 70 41 0 0 162 44 0 0 10 32 36 0 0 58 0 25 0 0 16 43 0 0 0 0 56 0 1 23 0 0 73 142 7 10 0 0 0 12 0 0 33 29 41 20 13 0 0 0 0 120 141 0 0 0 39 13 30 0 13 0 0 0 0 23 41 0 45 84 0 0 16 17 0 0 19 45 0 22 50 0 0 19 0 0 11 0 0 38 36 17 11 20 0 0 0 59 13 111 52 0 0 0 0 1 60 20 0 48 1 0 0 26 41 0 0 6 0 1 40 66 66 0 0 26 37 0 0 88 88 0 53 85 31 0 0 0 95 0 0 214 53 11 20 0 8 0 0 0 0 0 4 2 1 0 0 0 0 0 0 0 0 0 0 0 0 0 0 0 0 0 0 0 0 0 0 0 0 0 0 0 0 0 0 0 0 0 0 0 0 0 0 0 0 0 0 0 0 0 0 0 0 0 0 0 0 0 0 0 0 0 0 0 0 0 0 0 0 0 0 0 0 0 0 0 0 0 0 0 0 0 0 0 0 0 0 0 0 0 0 0 0 0 0 0 0 0 0 0 0 0 0 0 0 0 0 0 0 0 0 0 0 0 0 0 0 0 0 0 0 0 0 0 0 0 0 0 0 0 0 0 0 0 0 0 0 0 0 0 0 0 0 0 0 0 0 0 0 0 0 0 0 0 0 0 0 0 0 0 0 0 0 0 0 0 0 255
255 0 0 0 0 0 0 0 0 0 0 0 0 0 0 0 0 0 0 0 0 0 0 0 0 0 0 0 0 0 0 0 0 0 0 0 0 0 0 0 0 0 0 0 0 0 0 0 0 0 0 0 0 0 0 0 0 0 0 0 0 0 0 0 0 0 0 0 0 0 0 0 0 0 0 0 0 0 0 0 0 0 0 0 0 0 0 0 0 0 0 0 0 0 0 0 0 0 0 0 0 0 0 3 0 0 3 0 0 3 0 0 21 0 113 180 0 0 134 51 0 0 0 0 0 22 0 34 0 194 255 255 153 112 113 144 0 72 140 0 66 195 179 211 16 0 0 54 0 0 26 0 0 0 3 0 0 32 0 60 255 0 42 0 149 29 0 122 0 0 241 91 0 39 0 129 0 201 0 0 13 133 13 0 0 0 0 18 249 173 0 14 255 81 0 0 0 19 74 84 255 0 40 236 200 104 118 74 53 29 12 0 8 6 9 15 6 1 2 3 3 2 1 0 0 0 0 0 0 0 0 0 0 0 0 0 3 0 0 2 0 0 142 9 0 0 8 0 0 148 17 3 36 0 37 0 10 5 7 0 5 3 2 1 0 0 0 0 2 0 0 0 12 1 0 0 0 3 3 5 0 0 5 0 3 0 6 14 0 2 11 1 0 0 0 17 0 8 0 0 5 0 0 0 10 0 0 0 0 0 0 0 11 0 0 1 6 8 0 2 0 0 0 6 5 13 0 17 0 46 73 5 0 6 28 0 0 0 33 100 55 0 0 44 16 3 4 7 10 2 0 0 0 0 3 0 0 1 0 0 0 0 0 0 0 0 4 14 0 74 101 0 0 0 143 22 0 0 0 3 0 0 3 27 0 50 35 0 37 211 141 61 0 0 114 0 79 0 7 16 11 18 21 0 26 15 3 35 1 0 0 0 1 2 0 0 16 14 0 0 0 8 0 15 83 0 57 48 160 255 0 0 109 128 128 0 0 39 32 0 0 70 112 55 0 12 40 79 3 0 0 18 39 18 67 0 0 0 0 10 0 109 0 0 62 28 90 4 0 0 0 0 0 0 18 18 88 183 111 41 0 0 0 0 6 1 0 0 0 0 200 38 0 86 41 21 0 0 0 39 76 22 0 0 0 0 0 253 255 255 184 130 18 9 0 0 0 0 0 0 0 0 0 0 0 0 0 0 2 0 0 0 0 0 0 0 2 0 0 0 0 3 0 1 0 0 14 11 11 27 15 21 0 5 0 2 0 0 0 0 6 0 0 0 0 0 0 9 0 0 0 0 0 0 0 0 0 0 0 0 0 0 0 0 0 0 19 0 100 225 0 0 0 0 22 0 0 12 0 4 0 0 95 67 0 63 118 17 0 0 0 40 0 0 114 86 0 23 15 0 10 29 4 0 0 0 0 0 19 17 16 29 74 73 12 0 0 0 20 15 0 0 42 0 0 96 0 0 34 57 197 126 0 0 38 0 5 0 0 42 71 12 0 24 2 33 4 0 14 0 0 27 21 4 13 10 0 0 0 53 9 20 23 0 0 0 2 0 0 0 0 24 0 0 36 116 58 0 0 0 0 8 25 0 78 0 0 0 42 0 0 103 36 0 23 28 95 0 0 0 39 0 0 1 155 42 0 24 2 1 1 0 5 2 1 0 0 0 0 0 0 0 0 0 0 0 0 0 0 0 0 0 0 0 0 0 0 0 0 0 0 0 0 0 0 0 0 0 0 0 0 0 0 0 0 0 0 0 0 0 0 0 0 0 0 0 0 0 0 0 0 0 0 0 0 0 0 0 0 0 0 0 0 0 0 0 0 0 0 0 0 0 0 0 0 0 0 0 0 0 0 0 0 0 0 0 0 0 0 0 0 0 0 0 0 0 0 0 0 0 0 0 0 0 0 0 0 0 0 0 0 0 0 0 0 0 0 0 0 0 0 0 0 0 0 0 0 0 0 0 0 0 0 0 0 0 0 0 0 0 0 0 0 0 0 0 0 0 0 0 0 0 0 0 0 0 0 0 0 255
255 0 0 0 0 0 0 0 0 0 0 0 0 0 0 0 0 0 0 0 0 0 0 0 0 0 0 0 0 0 0 0 0 0 0 0 0 0 0 0 0 0 0 0 0 0 0 0 0 0 0 0 0 0 0 0 0 0 0 0 0 0 0 0 0 0 0 0 0 0 0 0 0 0 0 0 0 0 0 0 0 0 0 0 0 0 0 0 0 0 0 0 0 0 0 0 0 0 0 0 0 0 0 3 0 0 3 0 0 3 0 2 23 0 17 255 31 0 128 103 84 0 0 0 0 0 0 0 0 0 0 0 43 99 169 255 255 0 0 0 111 35 0 0 0 0 0 8 37 46 0 0 22 0 58 0 0 4 0 38 255 0 0 0 131 0 0 177 0 0 0 0 13 82 0 0 0 138 133 0 0 10 0 0 53 0 4 146 194 0 0 95 0 85 255 234 0 0 0 0 0 0 0 72 128 90 255 255 249 243 164 78 36 9 0 0 9 4 0 0 0 0 6 4 2 0 0 0 0 0 0 0 0 0 0 0 3 0 0 0 3 0 126 51 0 0 57 0 0 152 16 12 37 0 35 0 3 0 0 0 0 0 4 5 0 1 3 0 3 0 0 7 0 0 0 0 0 13 3 4 3 3 0 2 0 0 0 8 0 0 4 3 0 0 0 28 0 5 0 0 4 0 0 0 2 0 14 0 2 2 0 0 12 5 0 5 0 11 3 0 4 4 1 0 0 6 1 9 52 0 0 2 46 47 27 52 71 0 0 0 113 132 37 0 8 2 6 3 10 0 3 0 0 0 4 9 2 0 0 3 0 4 5 0 2 0 10 10 8 46 90 0 0 0 131 26 0 5 2 0 0 0 6 14 0 0 29 15 0 0 68 255 54 0 0 0 0 0 178 0 15 17 18 0 24 13 0 22 0 0 0 0 9 1 1 0 5 8 3 3 0 1 0 15 0 27 15 22 0 95 255 0 0 111 99 0 0 0 0 0 0 76 163 41 0 0 0 55 0 0 0 72 80 49 25 0 51 0 0 0 0 0 98 0 0 0 0 0 0 18 0 25 0 0 0 27 49 99 72 52 0 28 55 20 0 0 0 4 0 12 51 206 0 0 41 2 18 9 11 0 0 0 0 0 0 202 255 255 85 12 0 0 0 0 0 47 78 61 20 0 0 1 0 0 6 2 10 0 0 0 5 0 0 0 0 0 0 0 2 0 0 1 0 10 0 9 16 15 3 0 0 0 1 0 0 0 0 0 0 0 0 0 0 0 0 0 0 11 0 0 0 1 0 1 0 0 7 2 0 0 1 0 13 6 42 0 88 34 0 144 255 200 0 0 0 26 0 12 0 0 1 94 131 40 22 126 114 12 0 0 0 32 0 0 151 0 0 0 11 0 4 16 28 43 0 0 0 0 24 29 34 45 146 0 0 0 39 0 0 18 0 0 58 0 25 119 19 0 99 22 117 108 0 0 18 0 0 0 0 31 70 16 0 34 0 19 0 0 21 0 0 9 15 0 0 3 0 0 0 39 0 0 0 0 25 0 65 0 0 3 0 20 0 0 52 126 46 2 14 0 0 35 20 0 55 0 0 0 23 0 0 128 23 0 0 37 85 0 0 1 0 60 0 0 112 106 0 28 6 2 0 0 3 0 0 0 0 0 0 0 0 0 0 0 0 0 0 0 0 0 0 0 0 0 0 0 0 0 0 0 0 0 0 0 0 0 0 0 0 0 0 0 0 0 0 0 0 0 0 0 0 0 0 0 0 0 0 0 0 0 0 0 0 0 0 0 0 0 0 0 0 0 0 0 0 0 0 0 0 0 0 0 0 0 0 0 0 0 0 0 0 0 0 0 0 0 0 0 0 0 0 0 0 0 0 0 0 0 0 0 0 0 0 0 0 0 0 0 0 0 0 0 0 0 0 0 0 0 0 0 0 0 0 0 0 0 0 0 0 0 0 0 0 0 0 0 0 0 0 0 0 0 0 0 0 0 0 0 0 0 0 0 0 0 0 0 0 0 0 255
255 0 0 0 0 0 0 0 0 0 0 0 0 0 0 0 0 0 0 0 0 0 0 0 0 0 0 0 0 0 0 0 0 0 0 0 0 0 0 0 0 0 0 0 0 0 0 0 0 0 0 0 0 0 0 0 0 0 0 0 0 0 0 0 0 0 0 0 0 0 0 0 0 0 0 0 0 0 0 0 0 0 0 0 0 0 0 0 0 0 0 0 0 0 0 0 0 0 0 0 0 0 0 3 0 0 3 0 0 3 0 5 0 43 35 193 0 0 108 0 0 0 63 145 210 208 203 147 93 0 0 0 0 0 0 0 0 0 66 0 0 0 0 0 0 101 0 0 0 25 0 44 0 57 0 33 49 0 6 0 0 0 0 140 58 112 67 68 0 46 50 0 39 29 0 52 89 0 10 15 0 0 3 0 0 0 0 0 0 0 0 0 0 0 0 0 255 255 23 0 0 0 0 0 0 0 0 0 0 0 24 148 231 134 51 14 4 0 2 0 0 1 0 0 2 0 0 0 0 0 0 0 0 0 0 0 2 0 0 0 9 0 103 66 0 0 94 0 0 198 43 17 38 0 41 0 0 0 0 0 0 0 0 2 6 4 0 1 0 0 0 0 0 0 0 0 0 5 2 0 0 0 15 5 0 0 3 13 12 20 19 8 0 0 5 28 0 0 0 0 0 10 6 0 0 0 13 9 12 0 0 0 0 0 2 3 16 5 0 0 13 6 6 0 0 0 0 0 0 6 33 13 0 0 0 0 0 68 30 0 0 0 122 160 33 6 17 31 21 0 0 0 0 0 5 2 2 1 0 0 0 0 7 1 0 0 6 0 34 21 84 52 0 0 135 43 0 11 11 4 0 0 0 2 39 7 0 0 26 27 0 29 255 98 0 0 17 0 0 81 26 21 7 0 15 0 0 19 21 5 0 5 3 0 0 0 0 0 0 3 0 0 0 22 73 0 11 0 85 78 81 185 0 8 92 0 0 15 0 37 9 0 0 15 63 34 0 0 0 0 117 110 34 66 101 51 0 0 29 128 78 0 122 0 27 0 30 0 0 8 0 14 0 0 0 37 21 13 32 60 9 67 31 0 0 49 54 0 102 20 0 255 0 0 0 6 0 15 0 0 0 0 34 255 255 226 96 0 0 6 21 0 37 14 21 23 0 0 0 35 0 0 0 0 0 0 0 0 14 8 16 15 17 16 16 17 3 0 0 4 4 9 10 7 0 25 36 46 0 0 0 0 0 0 0 0 0 1 15 20 0 0 0 0 0 0 0 0 0 0 0 12 16 5 0 0 6 0 5 7 6 0 6 0 43 0 0 12 63 0 0 237 255 0 0 0 0 23 0 0 0 63 81 0 0 135 64 0 4 35 0 19 0 16 236 0 0 4 22 0 0 0 0 18 46 22 13 4 8 0 0 22 75 0 0 0 59 28 0 20 68 0 0 25 0 0 0 255 181 0 0 64 0 0 43 33 0 160 229 47 0 19 0 0 0 16 10 27 51 9 0 0 17 0 0 0 0 18 18 52 180 0 24 0 0 0 106 51 0 4 0 35 0 0 46 85 43 15 35 0 0 66 61 0 0 0 1 0 0 0 0 151 88 43 0 70 36 0 0 61 0 69 58 0 0 164 74 0 18 9 0 3 8 4 5 4 4 0 0 0 0 0 0 0 0 0 0 0 0 0 0 0 0 0 0 0 0 0 0 0 0 0 0 0 0 0 0 0 0 0 0 0 0 0 0 0 0 0 0 0 0 0 0 0 0 0 0 0 0 0 0 0 0 0 0 0 0 0 0 0 0 0 0 0 0 0 0 0 0 0 0 0 0 0 0 0 0 0 0 0 0 0 0 0 0 0 0 0 0 0 0 0 0 0 0 0 0 0 0 0 0 0 0 0 0 0 0 0 0 0 0 0 0 0 0 0 0 0 0 0 0 0 0 0 0 0 0 0 0 0 0 0 0 0 0 0 0 0 0 0 0 0 0 0 0 0 0 0 0 0 0 0 0 0 0 0 0 0 0 255
255 0 0 0 0 0 0 0 0 0 0 0 0 0 0 0 0 0 0 0 0 0 0 0 0 0 0 0 0 0 0 0 0 0 0 0 0 0 0 0 0 0 0 0 0 0 0 0 0 0 0 0 0 0 0 0 0 0 0 0 0 0 0 0 0 0 0 0 0 0 0 0 0 0 0 0 0 0 0 0 0 0 0 0 0 0 0 0 0 0 0 0 0 0 0 0 0 0 0 0 0 0 0 3 0 0 3 0 0 3 0 9 0 0 114 0 0 255 0 0 58 49 104 62 38 7 10 48 87 140 203 25 0 0 0 0 0 78 66 0 0 91 255 101 27 0 28 101 0 0 22 44 0 43 7 0 0 0 0 0 0 0 6 27 0 0 15 105 2 0 93 0 60 0 136 0 0 34 66 107 81 0 0 0 4 0 0 95 19 0 0 255 0 112 255 0 0 58 255 175 101 0 0 0 0 0 0 0 0 0 0 0 0 10 155 61 9 1 0 0 3 2 0 6 2 0 0 0 0 0 0 0 0 0 0 0 1 2 3 6 0 10 95 132 0 0 78 21 0 20 39 70 96 0 0 0 29 36 13 0 7 65 40 0 22 11 0 3 1 16 19 11 1 9 1 0 0 0 0 13 0 0 4 0 13 0 7 0 0 0 0 1 3 0 0 0 0 4 4 3 1 0 0 0 21 2 0 0 0 4 14 21 0 0 0 0 0 0 0 11 0 1 0 0 0 0 0 0 16 2 0 0 13 7 16 17 0 17 28 7 0 0 0 0 115 52 0 0 0 62 48 0 10 8 0 0 0 0 12 17 26 0 0 0 0 0 0 31 53 0 76 0 0 0 62 125 33 0 0 0 11 18 22 0 0 0 0 0 6 0 11 37 18 255 77 0 0 39 29 0 31 10 26 35 31 10 0 0 0 0 12 1 0 18 20 14 4 12 3 5 11 9 17 21 0 0 17 23 0 0 0 171 91 0 0 42 21 0 0 22 0 0 0 0 0 0 0 0 0 151 8 0 105 22 31 165 0 0 0 0 15 0 0 0 31 0 0 0 39 107 57 0 43 0 0 51 107 3 0 57 126 0 0 61 94 0 0 0 19 0 0 210 255 0 0 0 0 0 0 0 163 255 255 181 26 0 0 0 5 0 0 0 0 0 0 0 0 6 5 0 0 0 3 10 6 3 13 1 0 0 0 0 0 0 0 0 0 0 0 0 0 0 0 0 31 20 0 0 0 0 3 53 3 6 4 6 4 0 0 0 0 0 0 0 0 0 3 14 0 20 11 0 0 20 28 14 32 14 11 13 10 12 14 3 0 0 0 7 15 11 0 0 108 255 0 0 50 0 0 0 42 10 78 134 107 0 0 0 0 0 0 0 0 0 0 168 120 22 0 14 0 0 0 3 29 47 52 10 19 160 136 20 0 0 33 27 0 0 0 0 0 36 0 0 0 0 161 120 0 0 0 0 96 0 0 0 9 0 0 0 0 0 0 0 74 0 0 0 43 6 0 72 24 0 9 51 64 32 0 37 71 0 0 75 0 0 126 152 0 40 71 0 0 0 0 24 136 0 0 0 0 0 0 77 174 0 0 64 0 71 0 88 76 15 42 0 81 155 0 0 0 0 7 45 0 0 155 2 0 0 7 0 0 0 8 0 6 0 0 0 0 0 0 0 0 0 0 0 0 0 0 0 0 0 0 0 0 0 0 0 0 0 0 0 0 0 0 0 0 0 0 0 0 0 0 0 0 0 0 0 0 0 0 0 0 0 0 0 0 0 0 0 0 0 0 0 0 0 0 0 0 0 0 0 0 0 0 0 0 0 0 0 0 0 0 0 0 0 0 0 0 0 0 0 0 0 0 0 0 0 0 0 0 0 0 0 0 0 0 0 0 0 0 0 0 0 0 0 0 0 0 0 0 0 0 0 0 0 0 0 0 0 0 0 0 0 0 0 0 0 0 0 0 0 0 0 0 0 0 0 0 0 0 0 0 0 0 0 0 0 0 0 0 0 0 0 0 0 0 255
255 0 0 0 0 0 0 0 0 0 0 0 0 0 0 0 0 0 0 0 0 0 0 0 0 0 0 0 0 0 0 0 0 0 0 0 0 0 0 0 0 0 0 0 0 0 0 0 0 0 0 0 0 0 0 0 0 0 0 0 0 0 0 0 0 0 0 0 0 0 0 0 0 0 0 0 0 0 0 0 0 0 0 0 0 0 0 0 0 0 0 0 0 0 0 0 0 0 0 0 0 0 0 3 0 0 3 0 0 3 0 7 0 35 215 0 0 0 0 94 175 138 155 159 155 168 184 211 219 178 225 255 255 91 0 44 0 92 0 0 0 0 0 72 118 0 0 0 0 0 7 0 12 0 0 0 92 147 91 25 167 94 6 0 0 0 19 123 161 0 0 0 8 0 0 51 4 21 0 0 0 6 26 39 79 186 0 0 46 34 75 35 0 255 255 0 0 0 0 0 0 3 25 255 250 255 255 255 255 241 220 149 0 0 0 96 71 12 5 2 1 0 0 3 0 0 0 0 0 0 0 0 0 0 0 0 0 0 0 5 0 8 80 129 0 0 62 19 0 67 32 0 21 0 0 0 0 0 0 8 0 0 0 11 0 0 6 25 27 11 0 0 7 4 0 0 10 4 6 5 0 0 7 0 10 4 5 9 0 1 12 8 15 7 10 24 0 3 0 0 1 0 13 6 16 4 3 3 10 9 2 21 1 0 0 0 0 2 0 0 4 6 0 0 0 4 0 0 3 0 0 2 0 1 1 9 6 19 25 28 0 0 0 0 0 91 211 125 0 0 7 88 0 0 0 13 36 33 19 0 0 0 17 51 58 11 0 0 128 0 96 56 0 0 0 0 49 0 0 0 0 2 8 0 6 6 0 0 8 0 0 12 21 18 109 29 0 0 92 0 10 0 0 0 0 4 2 0 4 0 16 0 0 10 6 0 0 1 0 0 3 0 4 7 35 4 0 11 18 8 0 32 157 45 0 0 63 0 33 0 0 0 0 0 0 0 0 0 43 221 130 0 4 16 27 84 207 0 0 0 0 78 33 0 0 0 33 57 61 45 0 0 0 0 3 0 4 8 0 0 0 0 0 0 18 0 10 70 104 0 0 154 220 0 0 0 0 0 198 255 255 134 0 0 0 9 2 4 6 0 3 0 0 0 0 0 0 0 0 0 6 0 0 0 0 0 0 0 7 0 0 0 0 0 0 0 3 0 10 12 19 18 16 7 0 0 0 4 26 32 34 33 0 0 0 0 0 0 0 0 0 0 2 10 10 12 6 13 0 12 16 0 0 9 9 8 0 1 1 0 0 6 0 3 2 39 38 8 0 0 1 9 16 255 0 0 0 12 0 66 19 0 0 0 0 0 0 0 23 12 0 2 14 0 0 23 67 26 33 21 2 14 8 4 0 0 0 0 0 0 0 0 0 2 51 31 0 0 6 80 0 25 0 38 57 0 181 13 0 0 0 0 0 0 23 32 0 0 12 69 74 45 16 0 13 0 0 3 40 0 0 0 67 0 6 0 0 0 6 210 118 0 0 45 0 0 123 194 0 1 57 0 0 0 0 0 123 48 26 0 0 31 56 34 179 0 0 47 0 37 0 5 115 0 3 0 73 107 0 0 0 0 15 73 0 0 117 92 7 3 8 5 0 3 11 0 6 0 0 0 0 0 0 0 0 0 0 0 0 0 0 0 0 0 0 0 0 0 0 0 0 0 0 0 0 0 0 0 0 0 0 0 0 0 0 0 0 0 0 0 0 0 0 0 0 0 0 0 0 0 0 0 0 0 0 0 0 0 0 0 0 0 0 0 0 0 0 0 0 0 0 0 0 0 0 0 0 0 0 0 0 0 0 0 0 0 0 0 0 0 0 0 0 0 0 0 0 0 0 0 0 0 0 0 0 0 0 0 0 0 0 0 0 0 0 0 0 0 0 0 0 0 0 0 0 0 0 0 0 0 0 0 0 0 0 0 0 0 0 0 0 0 0 0 0 0 0 0 0 0 0 0 0 0 0 0 0 0 0 255
255 0 0 0 0 0 0 0 0 0 0 0 0 0 0 0 0 0 0 0 0 0 0 0 0 0 0 0 0 0 0 0 0 0 0 0 0 0 0 0 0 0 0 0 0 0 0 0 0 0 0 0 0 0 0 0 0 0 0 0 0 0 0 0 0 0 0 0 0 0 0 0 0 0 0 0 0 0 0 0 0 0 0 0 0 0 0 0 0 0 0 0 0 0 0 0 0 0 0 0 0 0 0 3 0 0 3 0 0 3 0 6 0 40 155 0 151 11 80 209 0 0 0 0 0 0 0 0 0 0 0 16 200 255 199 48 0 59 4 0 105 32 0 235 164 16 4 28 53 49 17 0 0 42 47 0 87 99 99 63 18 31 64 66 30 0 0 0 1 91 96 0 5 111 0 0 0 60 60 19 0 0 0 64 0 0 0 0 0 28 135 0 255 255 0 11 255 0 0 255 255 255 205 237 128 17 18 0 35 40 66 122 206 113 0 0 60 18 17 1 0 0 0 2 0 0 0 0 0 0 0 0 0 0 0 0 0 0 0 4 0 7 75 137 0 0 56 10 0 87 38 0 20 9 34 6 27 26 32 25 24 2 0 0 74 35 0 0 0 0 27 40 27 15 10 2 0 0 5 7 0 0 0 0 2 0 0 0 7 9 12 7 7 4 10 19 0 0 3 12 0 5 7 13 0 1 0 1 14 4 7 9 16 12 2 14 3 5 0 0 15 4 6 3 16 7 3 0 2 0 0 0 2 9 12 3 7 1 8 23 46 37 10 0 0 0 0 96 203 88 0 0 52 51 21 0 0 0 0 17 3 0 0 0 0 0 0 5 11 0 66 61 16 29 0 9 65 4 0 0 0 0 3 0 8 3 0 4 6 8 0 10 13 0 135 168 0 0 6 17 21 0 0 0 0 0 8 4 0 4 20 0 0 3 6 3 0 0 0 0 2 0 0 1 29 0 0 0 3 16 0 0 142 255 0 0 0 0 32 0 0 0 0 0 0 0 0 0 0 77 202 21 0 85 21 1 51 67 95 53 0 0 0 105 0 34 54 28 0 0 0 0 0 37 66 14 38 36 12 30 16 41 2 0 0 0 0 0 0 0 132 118 96 57 0 33 255 255 223 86 0 0 10 80 9 2 0 0 2 0 1 1 0 0 0 0 0 0 0 0 4 2 0 7 0 0 9 0 1 0 3 0 0 0 0 0 0 0 23 24 26 24 14 0 0 0 0 6 36 30 9 0 21 7 0 0 2 2 0 0 12 19 18 22 21 16 11 5 0 15 8 0 0 17 12 13 0 1 0 0 0 0 0 0 0 26 22 0 0 0 28 19 14 255 0 0 0 40 0 169 152 31 0 0 0 0 0 0 15 23 0 0 21 0 0 0 0 0 0 0 0 47 62 14 6 0 0 0 0 0 0 0 0 0 0 0 0 0 8 84 25 17 14 0 0 0 47 0 255 161 47 46 0 0 0 0 17 0 20 28 9 0 0 0 0 38 39 20 31 0 0 0 37 0 60 11 22 61 0 122 0 0 2 33 0 0 23 83 0 14 76 0 0 2 0 0 38 139 27 0 0 0 109 0 119 0 0 15 0 43 0 0 197 0 8 0 60 34 0 0 5 0 0 6 2 0 0 194 19 0 12 9 6 0 0 4 2 0 0 0 0 0 0 0 0 0 0 0 0 0 0 0 0 0 0 0 0 0 0 0 0 0 0 0 0 0 0 0 0 0 0 0 0 0 0 0 0 0 0 0 0 0 0 0 0 0 0 0 0 0 0 0 0 0 0 0 0 0 0 0 0 0 0 0 0 0 0 0 0 0 0 0 0 0 0 0 0 0 0 0 0 0 0 0 0 0 0 0 0 0 0 0 0 0 0 0 0 0 0 0 0 0 0 0 0 0 0 0 0 0 0 0 0 0 0 0 0 0 0 0 0 0 0 0 0 0 0 0 0 0 0 0 0 0 0 0 0 0 0 0 0 0 0 0 0 0 0 0 0 0 0 0 0 0 0 0 0 0 0 255
255 0 0 0 0 0 0 0 0 0 0 0 0 0 0 0 0 0 0 0 0 0 0 0 0 0 0 0 0 0 0 0 0 0 0 0 0 0 0 0 0 0 0 0 0 0 0 0 0 0 0 0 0 0 0 0 0 0 0 0 0 0 0 0 0 0 0 0 0 0 0 0 0 0 0 0 0 0 0 0 0 0 0 0 0 0 0 0 0 0 0 0 0 0 0 0 0 0 0 0 0 0 0 3 0 0 3 0 0 3 0 3 6 52 0 44 0 0 8 0 0 0 0 0 0 0 0 0 0 0 0 0 0 0 0 0 0 0 53 0 0 6 0 0 85 14 13 19 49 48 16 0 0 176 255 0 0 0 0 0 0 0 7 22 38 20 0 0 0 33 46 0 41 241 0 0 0 0 0 0 0 0 0 0 49 0 0 134 0 14 203 0 12 0 0 80 0 33 0 255 0 0 0 0 0 114 27 0 0 17 18 0 20 87 121 0 0 0 4 11 5 0 4 1 0 0 0 0 0 0 0 0 0 0 0 0 0 0 0 3 0 7 70 144 0 0 52 0 0 112 69 0 13 14 21 0 0 0 0 0 0 26 2 0 0 0 0 17 19 4 0 0 17 8 0 0 8 0 0 11 0 0 0 0 9 0 0 0 0 0 6 0 0 0 1 9 0 0 8 2 1 0 0 11 0 0 0 0 0 0 0 0 23 6 6 3 9 6 0 0 0 0 0 0 7 11 2 14 0 0 3 1 0 7 9 1 0 0 0 0 24 29 34 40 145 8 0 0 0 234 226 57 0 0 0 15 32 25 19 18 0 15 13 0 0 0 0 9 0 69 142 28 13 40 10 120 69 3 5 2 0 5 0 0 10 2 2 6 5 3 0 7 0 28 0 35 119 0 0 0 39 4 19 19 0 0 0 26 0 7 18 0 0 5 7 1 0 0 6 4 3 2 0 0 20 0 0 0 4 0 0 0 0 158 190 0 0 35 0 0 5 0 0 0 0 3 33 3 0 0 124 64 0 92 0 0 0 42 98 83 0 0 0 0 44 41 4 0 0 0 0 21 0 0 0 0 32 0 0 28 35 35 13 0 23 51 25 0 0 44 117 42 0 0 204 255 111 28 11 46 59 48 0 0 0 0 0 0 0 0 0 0 1 0 0 0 0 1 0 0 25 5 9 9 11 5 15 0 0 0 0 4 0 3 1 6 0 0 12 11 0 0 0 0 26 23 5 0 1 12 3 0 21 3 12 7 10 12 12 11 5 13 14 21 9 6 0 0 0 0 2 0 0 0 0 7 3 0 0 0 0 0 0 0 0 0 0 0 34 35 13 0 157 255 0 0 104 0 51 82 172 49 0 0 0 4 1 13 0 20 0 0 9 0 0 0 0 0 0 0 0 32 24 2 34 0 4 27 27 66 92 76 11 0 0 0 0 23 10 21 0 0 11 0 0 0 255 71 200 110 0 1 0 66 0 0 240 110 89 30 0 5 18 62 0 57 38 0 1 0 6 59 16 0 18 28 96 142 0 0 0 0 1 1 11 0 0 0 0 0 72 0 0 50 0 0 0 128 9 43 13 0 150 0 20 0 0 0 0 17 0 0 196 19 2 0 18 26 0 0 40 0 0 0 50 6 0 155 74 0 0 0 10 2 0 5 1 0 0 0 0 0 0 0 0 0 0 0 0 0 0 0 0 0 0 0 0 0 0 0 0 0 0 0 0 0 0 0 0 0 0 0 0 0 0 0 0 0 0 0 0 0 0 0 0 0 0 0 0 0 0 0 0 0 0 0 0 0 0 0 0 0 0 0 0 0 0 0 0 0 0 0 0 0 0 0 0 0 0 0 0 0 0 0 0 0 0 0 0 0 0 0 0 0 0 0 0 0 0 0 0 0 0 0 0 0 0 0 0 0 0 0 0 0 0 0 0 0 0 0 0 0 0 0 0 0 0 0 0 0 0 0 0 0 0 0 0 0 0 0 0 0 0 0 0 0 0 0 0 0 0 0 0 0 0 0 0 0 0 255
255 0 0 0 0 0 0 0 0 0 0 0 0 0 0 0 0 0 0 0 0 0 0 0 0 0 0 0 0 0 0 0 0 0 0 0 0 0 0 0 0 0 0 0 0 0 0 0 0 0 0 0 0 0 0 0 0 0 0 0 0 0 0 0 0 0 0 0 0 0 0 0 0 0 0 0 0 0 0 0 0 0 0 0 0 0 0 0 0 0 0 0 0 0 0 0 0 0 0 0 0 0 0 3 0 0 3 0 0 3 0 12 21 140 0 0 0 0 11 0 79 86 128 130 143 141 154 153 179 210 255 255 130 0 0 0 79 0 149 66 58 190 48 0 52 71 77 0 0 0 0 49 0 30 81 0 59 0 0 0 90 25 0 0 0 21 18 52 1 0 0 0 255 125 4 249 136 114 0 0 98 184 147 89 255 0 0 0 42 68 90 0 0 167 0 0 0 0 0 0 0 0 58 0 0 94 72 11 32 30 22 0 0 0 34 93 0 0 3 8 3 0 4 1 0 0 0 0 0 0 0 0 0 0 0 0 0 0 0 3 0 0 64 149 0 0 48 0 0 119 62 0 0 0 12 0 51 71 85 86 80 91 94 92 31 21 19 14 11 16 29 14 3 0 2 0 4 0 8 0 0 5 3 0 11 0 12 0 1 0 0 0 0 0 0 0 5 5 7 4 0 0 0 6 2 0 0 0 0 0 0 0 2 0 1 0 9 12 0 8 0 1 0 0 0 9 0 4 14 1 0 0 0 0 0 0 37 28 0 0 0 0 6 0 0 113 216 55 0 0 0 255 246 117 31 0 0 0 5 1 0 17 46 45 40 35 9 0 68 129 42 0 0 0 0 0 76 9 9 10 0 0 0 0 4 5 2 3 1 4 9 10 1 45 0 0 136 65 0 0 25 0 2 27 17 0 0 29 0 10 16 0 0 10 10 0 4 2 2 3 0 0 4 0 18 19 23 16 3 17 9 25 0 19 255 13 0 0 0 0 0 0 0 0 0 0 0 4 0 0 60 76 0 33 0 61 66 10 0 0 10 78 55 0 0 0 0 0 0 0 0 0 35 0 0 0 71 36 0 23 0 0 19 57 49 0 0 0 0 172 0 0 10 0 168 0 0 0 0 0 0 0 23 43 9 0 0 0 0 0 0 0 1 1 3 0 11 3 8 2 9 0 8 0 6 0 0 0 0 0 0 5 6 0 12 6 5 7 27 0 0 0 0 21 0 20 21 16 12 35 48 39 14 7 0 5 12 19 26 27 10 9 0 0 0 0 0 0 3 0 0 0 1 0 0 0 0 0 0 0 0 0 2 0 53 0 0 17 33 0 0 10 255 88 0 48 96 0 65 0 5 0 0 0 6 16 5 38 0 28 12 0 0 0 1 12 142 42 32 46 22 0 0 0 12 0 7 26 0 0 36 26 152 43 0 0 12 40 26 33 0 0 22 0 0 0 255 176 0 0 0 8 0 45 44 40 143 43 25 0 0 8 44 97 0 19 0 0 0 0 0 42 44 0 0 0 0 72 0 0 0 39 0 0 0 19 0 16 0 0 41 0 0 56 0 2 0 77 1 116 93 0 162 62 0 0 26 0 0 0 0 0 88 24 0 0 0 81 60 0 0 32 38 0 7 51 0 0 161 27 0 0 11 1 0 0 2 0 0 0 0 0 0 0 0 0 0 0 0 0 0 0 0 0 0 0 0 0 0 0 0 0 0 0 0 0 0 0 0 0 0 0 0 0 0 0 0 0 0 0 0 0 0 0 0 0 0 0 0 0 0 0 0 0 0 0 0 0 0 0 0 0 0 0 0 0 0 0 0 0 0 0 0 0 0 0 0 0 0 0 0 0 0 0 0 0 0 0 0 0 0 0 0 0 0 0 0 0 0 0 0 0 0 0 0 0 0 0 0 0 0 0 0 0 0 0 0 0 0 0 0 0 0 0 0 0 0 0 0 0 0 0 0 0 0 0 0 0 0 0 0 0 0 0 0 0 0 0 0 0 0 0 0 0 0 0 0 0 0 255
255 0 0 0 0 0 0 0 0 0 0 0 0 0 0 0 0 0 0 0 0 0 0 0 0 0 0 0 0 0 0 0 0 0 0 0 0 0 0 0 0 0 0 0 0 0 0 0 0 0 0 0 0 0 0 0 0 0 0 0 0 0 0 0 0 0 0 0 0 0 0 0 0 0 0 0 0 0 0 0 0 0 0 0 0 0 0 0 0 0 0 0 0 0 0 0 0 0 0 0 0 0 0 3 0 0 3 0 0 3 0 14 0 148 0 0 136 146 101 65 44 11 2 0 0 0 0 0 25 0 0 50 133 230 182 137 162 0 46 99 76 174 208 145 27 158 202 96 63 42 0 0 45 0 0 0 255 27 0 0 0 0 15 61 78 55 0 0 30 0 0 46 255 0 0 0 0 132 157 0 33 179 158 24 0 234 0 0 125 81 0 0 192 0 0 92 0 0 18 211 255 255 255 255 218 0 118 16 17 0 0 32 41 44 0 34 0 10 23 4 2 0 0 1 0 0 0 0 0 0 0 0 0 0 0 0 0 0 0 3 0 0 59 164 0 0 52 0 0 114 51 0 55 68 158 185 189 170 200 241 144 21 63 182 162 102 40 0 0 0 0 0 0 0 0 0 0 0 2 0 14 0 6 0 6 0 10 4 1 6 4 0 0 0 10 0 16 10 25 14 0 0 0 14 5 8 6 9 15 3 0 0 1 0 0 4 0 15 0 11 0 0 0 0 0 0 0 0 16 0 0 0 0 0 0 0 2 15 19 9 12 0 0 0 59 0 0 123 201 0 0 0 32 126 226 168 45 0 0 28 0 37 0 0 0 0 23 12 85 47 0 0 0 0 0 0 47 0 13 13 12 9 0 8 1 0 7 5 1 0 1 0 53 0 4 45 0 53 96 0 0 0 0 13 16 0 0 27 0 4 12 0 0 7 5 0 1 0 0 0 0 0 0 1 0 21 16 11 5 1 4 11 57 0 23 255 26 0 3 11 0 0 0 0 0 0 0 0 72 0 0 141 91 17 0 44 0 22 103 62 0 0 30 22 2 0 0 11 34 34 0 0 0 0 0 0 0 0 0 0 0 0 0 0 0 0 0 0 93 41 0 0 62 40 0 0 0 12 40 33 18 0 0 0 0 0 0 0 1 0 0 2 5 0 0 0 0 1 6 5 0 0 0 0 0 0 0 0 7 0 0 4 2 4 17 8 24 25 27 0 0 0 10 38 0 12 45 20 0 0 0 0 1 0 0 0 0 4 8 2 13 4 1 0 0 0 6 8 11 0 6 13 3 0 0 5 12 11 0 0 3 7 7 1 8 0 4 28 0 0 11 241 195 0 0 60 0 0 0 0 0 0 0 0 10 1 7 50 0 49 31 0 0 0 0 88 123 12 21 40 25 0 0 15 0 0 21 37 0 0 15 0 153 59 0 0 0 0 0 54 22 12 69 0 0 0 0 0 0 36 39 79 7 5 0 0 0 0 0 0 0 0 0 0 0 18 5 0 25 15 0 16 0 0 57 8 0 14 0 0 2 39 0 0 56 68 2 0 0 0 26 0 0 35 0 12 0 62 16 111 56 0 25 0 0 0 41 0 3 0 1 0 18 60 16 0 0 84 129 0 0 48 113 0 0 0 0 0 180 73 22 0 19 10 0 2 3 0 0 0 0 0 0 0 0 0 0 0 0 0 0 0 0 0 0 0 0 0 0 0 0 0 0 0 0 0 0 0 0 0 0 0 0 0 0 0 0 0 0 0 0 0 0 0 0 0 0 0 0 0 0 0 0 0 0 0 0 0 0 0 0 0 0 0 0 0 0 0 0 0 0 0 0 0 0 0 0 0 0 0 0 0 0 0 0 0 0 0 0 0 0 0 0 0 0 0 0 0 0 0 0 0 0 0 0 0 0 0 0 0 0 0 0 0 0 0 0 0 0 0 0 0 0 0 0 0 0 0 0 0 0 0 0 0 0 0 0 0 0 0 0 0 0 0 0 0 0 0 0 0 0 0 0 0 0 0 0 0 0 255
255 0 0 0 0 0 0 0 0 0 0 0 0 0 0 0 0 0 0 0 0 0 0 0 0 0 0 0 0 0 0 0 0 0 0 0 0 0 0 0 0 0 0 0 0 0 0 0 0 0 0 0 0 0 0 0 0 0 0 0 0 0 0 0 0 0 0 0 0 0 0 0 0 0 0 0 0 0 0 0 0 0 0 0 0 0 0 0 0 0 0 0 0 0 0 0 0 0 0 0 0 0 0 3 0 0 3 0 0 3 0 15 0 112 54 0 255 45 0 0 4 0 0 0 26 37 35 33 0 0 0 56 167 255 255 81 26 0 0 0 0 0 0 0 0 76 98 32 99 105 0 0 67 0 0 0 255 0 0 0 0 0 0 0 0 4 15 24 0 0 0 183 255 0 0 0 0 65 150 0 0 9 0 0 0 255 147 0 137 42 0 87 0 0 0 60 0 177 255 177 0 0 0 0 255 0 193 24 0 28 24 4 0 0 0 13 5 15 13 5 3 2 2 1 0 0 0 0 0 0 0 0 0 0 0 0 0 0 0 3 0 1 55 164 0 0 35 0 0 116 43 4 81 56 86 103 0 0 0 0 0 0 0 0 147 216 255 255 255 252 139 56 5 0 0 0 3 0 0 0 3 0 2 0 3 0 0 7 0 3 7 9 0 0 3 1 0 5 12 15 0 0 0 27 4 8 1 5 15 9 6 0 10 2 0 1 5 0 5 0 4 7 0 2 8 0 0 0 13 0 0 7 4 5 2 0 0 0 0 7 15 6 9 3 0 110 106 0 0 197 103 0 0 0 56 231 230 119 46 33 0 37 0 0 0 0 30 41 117 41 0 0 0 120 120 185 15 0 12 19 2 0 0 2 0 0 4 0 2 0 0 0 35 0 31 29 0 5 86 2 0 0 0 0 23 0 0 14 0 0 9 0 0 6 9 0 6 2 0 1 5 0 2 0 0 0 3 0 0 11 0 0 66 0 0 207 163 0 0 28 6 5 30 24 14 29 25 24 53 0 0 86 142 0 0 0 0 0 0 29 40 42 9 0 27 0 0 0 10 17 42 67 64 141 87 19 80 158 119 69 0 0 0 0 0 0 106 223 86 0 46 0 19 42 0 99 0 0 0 0 0 23 44 38 10 0 0 2 5 10 11 7 6 2 4 1 6 0 5 3 0 0 0 1 0 0 2 0 10 1 13 1 0 0 10 19 24 23 0 0 4 25 20 25 0 19 31 0 0 0 0 0 4 0 0 0 0 0 0 0 2 5 0 0 0 4 7 0 15 0 1 5 16 0 0 4 11 4 0 0 0 2 9 7 0 0 6 0 0 30 52 255 0 0 0 20 0 0 33 47 39 30 13 21 19 0 0 9 0 11 1 0 0 0 0 76 2 0 0 0 0 0 0 32 0 0 32 39 0 36 54 0 122 10 0 0 0 0 0 32 0 0 56 0 94 2 0 37 4 0 0 0 23 0 0 0 82 57 87 65 32 43 16 0 4 38 22 12 40 0 0 56 0 0 103 101 56 11 0 0 0 0 0 41 58 57 0 0 0 0 28 0 18 25 0 10 0 37 43 10 0 0 0 0 0 0 30 0 17 0 110 66 0 75 21 16 0 25 120 0 0 0 42 50 0 0 49 0 43 122 38 0 18 10 0 3 3 0 0 0 0 0 0 0 0 0 0 0 0 0 0 0 0 0 0 0 0 0 0 0 0 0 0 0 0 0 0 0 0 0 0 0 0 0 0 0 0 0 0 0 0 0 0 0 0 0 0 0 0 0 0 0 0 0 0 0 0 0 0 0 0 0 0 0 0 0 0 0 0 0 0 0 0 0 0 0 0 0 0 0 0 0 0 0 0 0 0 0 0 0 0 0 0 0 0 0 0 0 0 0 0 0 0 0 0 0 0 0 0 0 0 0 0 0 0 0 0 0 0 0 0 0 0 0 0 0 0 0 0 0 0 0 0 0 0 0 0 0 0 0 0 0 0 0 0 0 0 0 0 0 0 0 0 0 0 0 0 0 0 255
255 0 0 0 0 0 0 0 0 0 0 0 0 0 0 0 0 0 0 0 0 0 0 0 0 0 0 0 0 0 0 0 0 0 0 0 0 0 0 0 0 0 0 0 0 0 0 0 0 0 0 0 0 0 0 0 0 0 0 0 0 0 0 0 0 0 0 0 0 0 0 0 0 0 0 0 0 0 0 0 0 0 0 0 0 0 0 0 0 0 0 0 0 0 0 0 0 0 0 0 0 0 0 2 0 0 2 0 0 2 0 1 4 24 136 0 154 2 14 17 24 8 0 0 0 2 0 9 71 106 183 215 0 0 0 0 0 69 0 0 58 0 0 0 0 0 0 0 49 220 123 76 0 38 84 0 255 121 10 0 0 0 36 52 38 7 0 0 0 0 0 255 89 0 133 11 0 0 0 0 0 26 0 1 0 122 154 49 0 0 48 0 31 8 21 0 0 255 0 0 0 0 0 0 0 0 122 25 6 8 0 20 25 23 17 11 2 0 0 0 2 0 0 0 0 0 0 0 0 0 0 1 2 2 1 0 0 1 2 6 2 0 52 167 0 0 44 0 36 106 0 0 40 0 0 0 0 0 0 0 0 0 0 0 0 0 0 0 0 0 78 120 105 62 51 47 46 18 6 0 23 28 22 7 0 9 12 12 0 0 0 0 0 0 0 0 0 0 5 0 0 0 9 21 0 0 0 0 12 7 0 0 16 5 0 0 8 6 0 0 28 10 14 4 2 5 4 0 2 4 0 1 6 9 9 0 39 10 0 0 0 1 0 2 33 0 0 40 25 0 35 235 0 0 0 0 145 255 209 0 0 0 64 42 37 89 69 49 129 31 41 0 0 0 0 0 13 0 18 23 13 0 0 0 0 0 0 0 0 0 0 0 0 78 1 0 40 32 0 70 0 0 0 18 29 1 0 5 1 12 17 0 0 0 10 0 13 10 4 0 13 25 44 35 19 7 17 0 25 40 6 0 0 0 70 39 107 44 0 0 0 0 0 0 0 0 20 25 98 0 0 0 112 9 86 18 104 27 17 15 0 0 31 0 0 0 0 36 22 0 0 19 55 52 31 51 87 42 33 139 135 101 55 99 172 167 73 0 32 80 23 0 17 2 0 0 0 23 53 47 27 0 0 0 0 0 6 1 3 0 0 0 0 0 0 0 0 0 0 0 0 0 0 10 7 6 0 12 37 63 114 169 179 169 136 122 54 14 0 0 39 16 13 0 28 37 7 0 0 15 53 31 1 0 0 3 8 13 6 0 0 0 0 10 6 18 19 10 34 1 11 36 38 0 0 0 19 4 0 0 0 0 0 0 0 37 18 0 21 143 109 204 0 5 0 2 0 0 230 64 15 0 0 0 10 5 0 0 0 0 0 0 16 0 0 39 23 42 38 0 0 17 24 0 32 7 0 0 0 36 48 0 122 0 0 0 42 55 25 10 0 0 10 0 111 2 0 17 0 16 88 0 0 0 0 0 0 16 27 0 0 5 14 0 2 12 0 0 0 0 0 98 0 0 0 29 41 9 0 0 65 0 0 0 0 0 14 0 0 0 60 44 78 47 0 28 0 17 111 0 0 0 0 0 37 31 26 0 0 0 69 62 0 0 0 29 0 0 174 45 0 0 0 134 0 0 127 0 0 135 95 0 14 16 0 0 2 0 0 0 0 0 0 0 0 0 0 0 0 0 0 0 0 0 0 0 0 0 0 0 0 0 0 0 0 0 0 0 0 0 0 0 0 0 0 0 0 0 0 0 0 0 0 0 0 0 0 0 0 0 0 0 0 0 0 0 0 0 0 0 0 0 0 0 0 0 0 0 0 0 0 0 0 0 0 0 0 0 0 0 0 0 0 0 0 0 0 0 0 0 0 0 0 0 0 0 0 0 0 0 0 0 0 0 0 0 0 0 0 0 0 0 0 0 0 0 0 0 0 0 0 0 0 0 0 0 0 0 0 0 0 0 0 0 0 0 0 0 0 0 0 0 0 0 0 0 0 0 0 0 0 0 0 0 0 0 0 0 0 255
255 0 0 0 0 0 0 0 0 0 0 0 0 0 0 0 0 0 0 0 0 0 0 0 0 0 0 0 0 0 0 0 0 0 0 0 0 0 0 0 0 0 0 0 0 0 0 0 0 0 0 0 0 0 0 0 0 0 0 0 0 0 0 0 0 0 0 0 0 0 0 0 0 0 0 0 0 0 0 0 0 0 0 0 0 0 0 0 0 0 0 0 0 0 0 0 0 0 0 0 0 0 0 1 2 2 1 0 0 1 2 4 19 0 19 4 26 0 0 1 0 0 1 2 0 78 130 108 0 74 0 0 0 0 18 0 10 0 0 0 0 35 25 0 106 37 0 41 0 0 166 196 92 145 44 54 117 94 126 28 12 0 86 38 0 0 0 0 0 0 154 103 102 107 10 134 255 203 193 37 0 127 26 0 0 92 0 0 43 0 2 19 0 0 0 0 0 0 0 255 255 0 255 255 0 0 136 15 15 0 0 0 0 1 15 0 10 6 7 5 2 0 0 0 0 0 0 0 0 0 0 2 0 0 2 0 0 2 0 7 3 0 28 204 0 7 0 0 89 14 120 156 32 0 0 0 0 0 0 0 0 163 110 0 0 0 0 0 0 0 0 0 0 0 20 13 27 45 83 76 42 0 0 52 73 0 0 69 10 29 11 0 1 33 39 9 0 0 12 16 9 6 0 6 7 18 17 0 0 12 16 2 0 0 21 0 0 0 8 5 1 0 0 0 8 0 0 0 0 7 6 5 7 1 0 0 0 0 5 13 6 7 9 15 0 0 0 0 19 28 29 83 74 242 45 0 0 0 214 255 141 24 0 8 0 0 95 58 26 0 17 0 0 0 0 0 64 0 0 2 9 6 14 1 0 0 21 10 0 0 13 18 0 0 5 11 11 7 0 0 127 0 0 0 21 5 0 2 0 0 0 0 11 6 1 0 14 0 0 15 0 0 0 0 0 2 0 0 2 41 31 8 0 0 0 0 141 149 0 0 0 16 39 39 16 10 24 5 110 96 0 0 0 55 96 0 0 17 14 8 6 0 0 0 0 2 0 0 0 12 17 0 0 0 33 59 49 15 0 0 0 6 56 45 0 0 0 22 0 0 0 0 0 0 0 0 7 0 0 0 0 0 6 0 12 1 0 0 0 10 17 23 47 39 27 0 0 0 17 16 7 0 22 0 0 19 50 11 0 110 0 0 0 0 40 102 116 0 0 0 3 0 18 8 29 0 0 0 5 10 0 0 21 13 9 9 0 0 0 9 0 0 0 0 0 0 0 0 0 0 0 0 0 0 0 0 0 0 1 3 10 17 12 11 37 0 0 52 0 145 211 0 0 0 3 0 0 0 96 0 0 0 0 56 0 0 0 0 0 0 0 0 0 0 0 0 0 0 8 5 0 2 0 0 2 5 18 0 0 0 1 30 42 81 0 0 23 0 0 44 41 0 0 1 66 0 0 73 0 17 0 0 0 0 77 174 124 0 0 0 0 0 85 0 97 28 0 6 66 10 0 20 19 90 16 95 30 0 0 6 0 0 0 0 56 135 0 0 35 0 0 43 71 0 0 0 0 0 0 0 0 20 22 14 0 51 39 0 0 245 100 14 0 15 19 71 0 0 254 0 11 0 0 30 15 0 0 97 0 0 101 39 0 0 12 8 5 0 0 0 0 0 0 0 0 0 0 0 0 0 0 0 0 0 0 0 0 0 0 0 0 0 0 0 0 0 0 0 0 0 0 0 0 0 0 0 0 0 0 0 0 0 0 0 0 0 0 0 0 0 0 0 0 0 0 0 0 0 0 0 0 0 0 0 0 0 0 0 0 0 0 0 0 0 0 0 0 0 0 0 0 0 0 0 0 0 0 0 0 0 0 0 0 0 0 0 0 0 0 0 0 0 0 0 0 0 0 0 0 0 0 0 0 0 0 0 0 0 0 0 0 0 0 0 0 0 0 0 0 0 0 0 0 0 0 0 0 0 0 0 0 0 0 0 0 0 0 0 0 0 0 0 0 0 0 0 0 0 0 255
255 0 0 0 0 0 0 0 0 0 0 0 0 0 0 0 0 0 0 0 0 0 0 0 0 0 0 0 0 0 0 0 0 0 0 0 0 0 0 0 0 0 0 0 0 0 0 0 0 0 0 0 0 0 0 0 0 0 0 0 0 0 0 0 0 0 0 0 0 0 0 0 0 0 0 0 0 0 0 0 0 0 0 0 0 0 0 0 0 0 0 0 0 0 0 0 0 0 0 0 0 0 0 0 0 0 0 0 0 0 0 1 13 9 0 0 11 17 2 8 5 0 4 0 80 100 0 0 0 0 0 0 197 255 210 196 239 169 31 0 0 0 0 0 0 26 48 26 0 0 0 0 0 0 0 50 255 255 138 0 230 0 0 39 56 0 0 190 238 0 0 0 52 76 0 18 47 56 141 43 0 38 4 50 0 0 76 120 34 0 133 0 0 63 15 0 0 255 255 205 187 0 0 255 225 65 74 0 4 32 23 19 18 0 21 0 7 0 0 0 0 0 0 0 0 0 0 0 0 0 0 3 0 0 3 0 0 3 0 8 0 7 48 210 0 18 0 0 255 81 0 0 0 0 0 0 36 255 255 255 239 142 141 186 224 238 241 255 245 177 180 190 22 0 0 0 0 0 0 0 50 107 73 0 0 12 37 0 0 0 3 16 7 0 0 0 0 0 13 7 6 0 0 11 0 0 13 0 0 10 10 0 0 17 14 0 0 0 8 0 0 0 0 0 3 9 14 20 0 0 0 6 8 9 0 7 0 0 0 0 2 0 0 1 0 1 1 0 2 2 0 9 78 0 77 203 0 0 0 95 255 255 0 48 71 0 199 0 0 0 0 0 150 133 0 51 27 0 0 6 7 6 9 0 0 0 0 1 0 0 0 0 9 1 0 0 2 1 0 0 45 0 0 0 0 12 15 12 3 3 3 5 12 9 7 6 14 0 0 14 15 0 0 0 8 14 10 0 0 22 18 0 103 64 50 0 37 76 0 0 0 0 6 1 0 0 16 9 0 72 125 0 0 0 0 27 19 23 0 0 0 0 0 0 0 5 53 47 4 0 2 7 24 18 0 0 0 0 0 0 0 0 16 9 0 0 0 4 0 3 0 0 2 6 0 0 11 0 0 0 0 0 0 0 2 0 0 0 0 0 0 0 0 0 0 0 0 3 8 0 0 0 8 24 4 0 0 0 78 0 0 0 0 0 0 0 0 0 90 67 24 0 0 17 30 1 0 0 0 0 0 0 0 0 0 0 0 0 0 0 0 6 0 4 0 0 0 9 0 0 8 0 0 0 1 4 4 0 4 0 1 6 0 2 0 4 22 0 214 149 0 25 0 36 116 118 9 0 3 0 0 41 37 0 0 27 67 0 0 32 57 0 0 0 28 11 17 13 7 3 7 28 13 0 0 8 28 3 0 0 0 0 46 96 0 0 42 47 0 5 0 19 0 0 15 18 0 0 0 28 0 54 143 24 28 4 0 31 110 0 0 0 110 0 0 34 19 0 0 0 0 13 0 0 0 127 108 0 0 0 6 0 23 0 36 74 0 0 30 0 0 31 36 5 0 0 7 0 1 0 0 8 0 0 0 39 15 0 0 149 31 0 27 11 11 43 0 0 148 0 0 0 0 0 12 0 0 89 0 0 101 82 14 7 15 0 7 0 0 0 0 0 0 0 0 0 0 0 0 0 0 0 0 0 0 0 0 0 0 0 0 0 0 0 0 0 0 0 0 0 0 0 0 0 0 0 0 0 0 0 0 0 0 0 0 0 0 0 0 0 0 0 0 0 0 0 0 0 0 0 0 0 0 0 0 0 0 0 0 0 0 0 0 0 0 0 0 0 0 0 0 0 0 0 0 0 0 0 0 0 0 0 0 0 0 0 0 0 0 0 0 0 0 0 0 0 0 0 0 0 0 0 0 0 0 0 0 0 0 0 0 0 0 0 0 0 0 0 0 0 0 0 0 0 0 0 0 0 0 0 0 0 0 0 0 0 0 0 0 0 0 0 0 0 0 0 0 0 0 255
255 0 0 0 0 0 0 0 0 0 0 0 0 0 0 0 0 0 0 0 0 0 0 0 0 0 0 0 0 0 0 0 0 0 0 0 0 0 0 0 0 0 0 0 0 0 0 0 0 0 0 0 0 0 0 0 0 0 0 0 0 0 0 0 0 0 0 0 0 0 0 0 0 0 0 0 0 0 0 0 0 0 0 0 0 0 0 0 0 0 0 0 0 0 0 0 0 0 0 0 0 0 0 0 0 0 0 0 0 0 1 3 0 2 2 12 3 4 0 8 12 0 0 0 145 10 0 0 0 60 188 102 68 2 0 13 33 113 205 104 0 0 0 0 0 0 0 0 41 0 0 0 0 29 0 0 0 0 0 0 0 6 0 0 0 0 170 94 127 38 106 92 43 0 0 34 45 37 58 55 0 79 0 0 62 55 0 0 0 0 0 0 149 0 0 123 255 196 64 1 0 241 0 0 255 57 0 49 0 4 0 23 18 0 16 3 3 0 0 0 0 0 0 0 0 0 0 0 0 0 0 3 0 0 3 0 0 3 0 10 29 13 28 133 0 14 0 0 99 0 0 0 0 39 255 255 255 174 52 0 2 45 37 22 0 0 0 0 9 0 0 0 0 0 2 0 0 0 0 0 0 56 139 118 59 16 26 36 28 35 19 17 0 0 0 34 0 0 0 0 0 0 0 2 0 0 10 0 0 9 7 0 14 14 9 0 0 14 7 0 37 29 29 20 16 11 4 18 0 0 4 0 6 4 7 6 0 0 0 1 0 0 3 0 22 8 0 0 0 0 5 0 55 60 56 65 44 0 0 0 0 255 255 157 38 83 102 0 10 9 0 255 211 0 0 116 9 0 0 10 6 0 8 1 10 0 15 10 4 0 5 0 7 4 0 3 9 4 7 0 7 36 16 0 0 9 33 22 2 0 6 2 11 9 7 0 4 0 0 14 11 1 4 5 14 10 3 0 0 19 21 0 0 0 43 4 19 84 0 0 0 8 11 16 0 0 14 35 0 58 107 35 0 0 0 0 0 0 0 0 0 0 0 0 39 17 34 0 0 5 31 64 24 12 0 0 0 0 0 0 12 0 3 1 3 0 0 0 11 6 2 8 0 0 0 0 6 0 0 0 0 0 0 3 0 0 0 0 0 0 0 0 1 4 15 19 16 1 0 0 0 1 0 0 2 12 28 80 72 126 255 0 27 55 27 0 0 83 142 37 27 20 0 14 14 4 9 10 9 0 0 15 3 0 2 0 0 0 0 1 0 0 0 0 2 2 0 11 0 0 3 1 0 0 0 0 3 0 7 0 2 7 1 5 0 14 0 179 129 0 0 60 0 0 0 12 0 0 32 106 0 0 0 0 0 113 140 0 20 85 105 34 0 20 60 60 10 0 0 0 12 34 14 0 0 1 21 23 11 27 25 0 84 121 0 0 22 44 0 0 0 22 11 0 21 0 0 0 11 53 0 34 131 77 52 0 0 0 65 49 0 0 75 21 0 0 31 0 0 16 41 58 7 69 27 86 35 0 0 33 16 0 31 0 10 20 0 21 0 0 0 0 0 0 0 0 102 92 77 0 0 0 8 0 0 27 15 0 0 119 31 0 47 0 2 38 0 0 143 0 0 0 0 0 12 0 0 21 0 0 26 93 28 2 0 0 7 0 0 0 0 0 0 0 0 0 0 0 0 0 0 0 0 0 0 0 0 0 0 0 0 0 0 0 0 0 0 0 0 0 0 0 0 0 0 0 0 0 0 0 0 0 0 0 0 0 0 0 0 0 0 0 0 0 0 0 0 0 0 0 0 0 0 0 0 0 0 0 0 0 0 0 0 0 0 0 0 0 0 0 0 0 0 0 0 0 0 0 0 0 0 0 0 0 0 0 0 0 0 0 0 0 0 0 0 0 0 0 0 0 0 0 0 0 0 0 0 0 0 0 0 0 0 0 0 0 0 0 0 0 0 0 0 0 0 0 0 0 0 0 0 0 0 0 0 0 0 0 0 0 0 0 0 0 0 0 0 0 0 255
255 0 0 0 0 0 0 0 0 0 0 0 0 0 0 0 0 0 0 0 0 0 0 0 0 0 0 0 0 0 0 0 0 0 0 0 0 0 0 0 0 0 0 0 0 0 0 0 0 0 0 0 0 0 0 0 0 0 0 0 0 0 0 0 0 0 0 0 0 0 0 0 0 0 0 0 0 0 0 0 0 0 0 0 0 0 0 0 0 0 0 0 0 0 0 0 0 0 0 0 0 0 0 0 0 0 0 0 0 0 2 0 0 4 0 5 2 1 0 3 0 20 4 63 104 0 0 0 95 154 61 0 8 48 62 76 37 107 176 182 181 163 97 39 0 0 0 159 0 18 55 41 0 41 0 0 0 0 0 0 0 0 0 0 0 106 219 12 52 0 0 0 92 73 0 0 0 0 0 33 0 39 0 0 0 0 0 0 214 255 0 0 0 0 181 255 0 0 33 15 24 0 252 0 0 255 28 79 46 41 0 0 13 6 8 2 2 0 0 0 0 1 2 2 1 0 0 0 0 0 0 3 0 0 3 0 0 3 0 9 0 0 69 255 0 0 0 0 0 0 61 200 249 174 79 12 17 0 0 0 0 0 0 0 0 4 0 0 3 31 36 23 0 0 32 42 39 18 0 0 0 0 0 29 79 22 10 39 39 8 0 13 9 0 18 53 0 6 5 0 0 0 0 0 0 0 7 0 0 12 9 0 2 1 0 0 6 27 24 23 0 14 9 17 3 0 0 0 0 0 0 0 0 6 0 3 4 2 6 0 0 0 0 0 19 10 3 0 0 3 0 5 0 0 16 46 114 143 0 0 0 0 0 147 255 170 0 0 107 6 0 0 0 0 158 0 24 0 0 1 6 1 4 0 0 2 0 3 2 0 0 0 7 5 7 0 10 11 2 6 0 28 29 0 0 0 0 25 0 0 0 0 0 0 0 0 22 0 0 0 6 8 9 14 8 7 2 0 0 10 6 32 0 0 17 53 6 88 38 0 0 0 4 16 0 0 19 26 48 0 0 39 81 49 0 0 0 0 0 0 0 0 55 61 47 0 0 0 5 35 21 0 0 0 0 0 0 0 8 0 19 0 0 0 0 7 6 0 1 0 2 5 0 0 3 0 9 0 7 0 4 0 0 5 0 0 0 1 15 8 15 9 48 28 9 0 0 0 0 0 0 35 13 0 21 28 13 52 16 0 216 0 0 0 0 53 0 103 129 0 0 24 0 0 22 9 7 8 10 2 0 12 12 2 6 15 9 5 18 19 1 3 1 0 0 0 1 12 0 0 0 0 0 0 5 0 6 0 0 0 2 0 4 4 4 22 65 255 0 0 255 0 0 0 0 0 0 0 0 59 0 0 0 16 36 70 73 7 17 32 53 41 0 0 3 43 0 0 0 0 0 8 2 0 0 3 16 4 11 28 20 1 90 83 0 0 0 12 0 34 56 0 0 40 37 0 0 54 108 75 6 0 0 16 21 0 66 0 6 81 42 19 57 52 0 2 23 1 0 23 42 64 0 157 183 27 0 0 52 35 9 0 23 0 5 0 0 34 0 0 0 0 0 0 0 0 70 82 98 21 0 0 10 8 9 16 41 0 0 105 46 0 30 0 10 43 27 0 126 106 0 9 0 0 33 40 0 0 78 0 0 57 65 14 0 13 3 0 0 0 0 0 0 0 0 0 0 0 0 0 0 0 0 0 0 0 0 0 0 0 0 0 0 0 0 0 0 0 0 0 0 0 0 0 0 0 0 0 0 0 0 0 0 0 0 0 0 0 0 0 0 0 0 0 0 0 0 0 0 0 0 0 0 0 0 0 0 0 0 0 0 0 0 0 0 0 0 0 0 0 0 0 0 0 0 0 0 0 0 0 0 0 0 0 0 0 0 0 0 0 0 0 0 0 0 0 0 0 0 0 0 0 0 0 0 0 0 0 0 0 0 0 0 0 0 0 0 0 0 0 0 0 0 0 0 0 0 0 0 0 0 0 0 0 0 0 0 0 0 0 0 0 0 0 0 0 0 0 0 255
255 0 0 0 0 0 0 0 0 0 0 0 0 0 0 0 0 0 0 0 0 0 0 0 0 0 0 0 0 0 0 0 0 0 0 0 0 0 0 0 0 0 0 0 0 0 0 0 0 0 0 0 0 0 0 0 0 0 0 0 0 0 0 0 0 0 0 0 0 0 0 0 0 0 0 0 0 0 0 0 0 0 0 0 0 0 0 0 0 0 0 0 0 0 0 0 0 0 0 0 0 0 0 0 0 0 0 0 0 0 3 0 0 0 0 0 0 0 0 3 0 19 0 87 25 0 44 0 147 0 0 102 216 247 146 207 212 69 0 0 2 117 94 10 0 14 134 255 0 0 0 0 0 255 243 176 226 108 80 83 255 144 0 0 0 99 190 204 109 46 0 0 0 43 70 43 0 2 0 35 0 0 0 0 124 55 255 205 63 0 0 0 0 255 170 0 151 116 0 11 0 29 210 255 36 0 223 88 165 87 0 7 12 7 9 0 2 0 0 1 2 4 0 0 2 0 0 0 0 0 0 3 0 0 3 0 0 3 0 1 0 26 124 72 0 0 0 143 253 155 67 11 0 0 0 0 0 1 83 112 72 13 1 46 0 25 2 0 0 0 1 0 16 9 2 0 0 14 33 73 0 0 0 0 0 81 120 33 0 0 0 17 41 10 0 0 19 2 7 3 2 0 5 7 10 20 8 0 0 3 25 5 4 6 0 0 0 20 10 20 0 0 0 0 0 9 1 12 6 4 0 0 0 0 0 0 2 0 9 0 4 0 0 0 0 0 4 1 11 10 0 7 0 0 21 79 53 0 0 112 0 0 0 0 0 200 0 38 0 152 54 0 255 255 95 0 21 0 2 3 9 0 5 0 0 0 0 0 0 5 4 5 2 3 0 1 10 0 0 8 0 0 10 34 2 0 0 30 0 0 0 2 2 0 0 0 19 3 11 0 2 4 1 2 3 5 0 0 2 12 20 39 43 5 36 43 0 45 136 0 0 0 0 3 13 0 5 2 1 0 10 58 67 32 24 74 74 92 79 57 43 28 9 0 0 0 16 52 67 34 0 0 0 0 0 10 27 31 15 5 7 0 0 0 4 7 6 0 0 0 0 0 0 0 6 5 10 0 0 1 5 0 5 0 0 6 3 18 9 5 14 2 0 0 0 0 0 0 27 40 0 86 80 57 57 41 0 0 0 0 121 21 133 255 0 0 0 26 153 6 0 12 0 16 21 0 0 0 11 5 5 4 7 5 10 2 0 10 0 0 0 5 0 0 0 0 6 3 0 1 0 0 0 0 7 0 2 0 0 0 1 2 0 0 16 83 222 0 0 112 121 0 0 0 0 47 72 0 0 0 69 0 0 102 83 0 0 15 28 0 0 31 24 0 0 39 0 0 0 0 0 0 0 20 0 17 12 0 0 0 0 24 14 0 0 0 14 0 0 44 60 0 0 0 0 0 0 164 47 27 70 14 0 31 9 0 12 64 63 0 0 4 50 0 126 0 0 22 1 1 0 13 0 38 129 0 0 0 0 0 18 0 0 0 17 23 0 69 0 0 16 64 49 14 46 121 0 1 78 118 57 0 0 0 2 0 44 0 0 78 38 0 46 0 29 12 24 0 37 63 0 0 0 0 32 69 0 0 101 0 0 17 120 23 0 12 1 0 0 0 0 0 0 0 0 0 0 0 0 0 0 0 0 0 0 0 0 0 0 0 0 0 0 0 0 0 0 0 0 0 0 0 0 0 0 0 0 0 0 0 0 0 0 0 0 0 0 0 0 0 0 0 0 0 0 0 0 0 0 0 0 0 0 0 0 0 0 0 0 0 0 0 0 0 0 0 0 0 0 0 0 0 0 0 0 0 0 0 0 0 0 0 0 0 0 0 0 0 0 0 0 0 0 0 0 0 0 0 0 0 0 0 0 0 0 0 0 0 0 0 0 0 0 0 0 0 0 0 0 0 0 0 0 0 0 0 0 0 0 0 0 0 0 0 0 0 0 0 0 0 0 0 0 0 0 0 0 0 0 255
255 0 0 0 0 0 0 0 0 0 0 0 0 0 0 0 0 0 0 0 0 0 0 0 0 0 0 0 0 0 0 0 0 0 0 0 0 0 0 0 0 0 0 0 0 0 0 0 0 0 0 0 0 0 0 0 0 0 0 0 0 0 0 0 0 0 0 0 0 0 0 0 0 0 0 0 0 0 0 0 0 0 0 0 0 0 0 0 0 0 0 0 0 0 0 0 0 0 0 0 0 0 0 0 0 0 0 0 0 0 3 0 0 0 5 5 0 0 0 9 13 23 0 89 38 0 108 0 165 78 162 142 0 0 0 0 0 0 0 0 0 0 0 0 0 147 210 81 22 0 0 0 0 136 24 0 65 42 105 143 58 201 255 24 0 0 0 0 36 167 110 27 0 0 0 0 196 73 0 18 37 48 40 127 94 29 0 0 0 180 249 255 255 107 255 255 238 98 255 212 223 255 152 0 0 214 139 0 0 107 37 10 15 0 0 5 2 1 2 4 0 0 0 0 3 0 0 0 0 0 0 3 0 0 3 0 0 3 0 11 11 38 66 0 0 0 78 164 0 0 14 68 91 81 60 39 65 0 0 0 0 0 0 25 0 35 47 14 1 7 13 0 12 0 0 0 2 27 30 32 89 81 37 0 0 0 0 77 158 92 56 27 0 8 6 0 29 6 11 2 14 6 2 0 23 7 0 0 0 10 20 6 17 12 9 0 0 0 0 0 0 0 3 19 19 7 0 0 11 4 1 0 0 0 0 0 15 6 3 0 0 0 0 0 0 0 3 12 19 9 9 7 0 55 22 0 0 127 76 0 47 0 0 0 0 0 0 179 128 69 164 116 50 0 0 190 27 4 10 5 9 0 0 0 0 0 0 0 0 0 0 6 0 0 0 0 1 0 1 0 9 0 0 55 32 0 0 2 22 12 7 10 7 11 13 3 2 1 0 0 0 7 5 0 0 0 0 0 0 7 7 23 46 34 0 12 0 0 142 15 0 0 0 0 26 21 10 0 37 2 15 36 19 0 0 48 55 72 72 65 44 26 4 0 16 23 37 0 0 0 0 0 27 11 12 19 8 11 8 10 9 0 0 1 9 7 0 8 0 0 0 0 1 4 2 2 7 2 7 0 1 3 9 3 18 15 7 0 0 0 0 0 0 0 17 16 28 20 15 15 35 64 100 54 44 172 193 85 0 0 106 0 0 228 0 0 0 72 109 0 11 16 5 6 2 0 0 0 0 0 0 0 0 0 1 0 0 2 0 0 1 11 0 0 0 0 1 2 1 4 0 0 2 0 10 0 5 0 6 2 10 7 0 7 112 148 0 0 0 227 48 0 0 0 0 6 30 29 46 33 21 0 27 70 25 10 54 38 50 0 0 41 50 0 0 42 0 6 27 31 8 0 5 54 0 22 11 0 0 65 73 149 0 0 0 23 38 0 0 6 0 30 0 0 0 0 27 111 14 0 63 4 0 33 20 46 0 21 0 0 0 0 10 97 73 0 0 31 8 9 28 42 0 0 0 0 0 0 0 29 3 0 5 0 25 52 0 59 0 0 20 126 114 37 29 82 6 0 7 61 20 0 0 2 1 0 37 0 0 62 35 0 58 0 55 6 47 0 22 67 0 0 0 0 7 70 0 0 15 0 0 0 126 38 0 3 2 0 0 0 0 0 0 0 0 0 0 0 0 0 0 0 0 0 0 0 0 0 0 0 0 0 0 0 0 0 0 0 0 0 0 0 0 0 0 0 0 0 0 0 0 0 0 0 0 0 0 0 0 0 0 0 0 0 0 0 0 0 0 0 0 0 0 0 0 0 0 0 0 0 0 0 0 0 0 0 0 0 0 0 0 0 0 0 0 0 0 0 0 0 0 0 0 0 0 0 0 0 0 0 0 0 0 0 0 0 0 0 0 0 0 0 0 0 0 0 0 0 0 0 0 0 0 0 0 0 0 0 0 0 0 0 0 0 0 0 0 0 0 0 0 0 0 0 0 0 0 0 0 0 0 0 0 0 0 0 0 0 0 255
255 0 0 0 0 0 0 0 0 0 0 0 0 0 0 0 0 0 0 0 0 0 0 0 0 0 0 0 0 0 0 0 0 0 0 0 0 0 0 0 0 0 0 0 0 0 0 0 0 0 0 0 0 0 0 0 0 0 0 0 0 0 0 0 0 0 0 0 0 0 0 0 0 0 0 0 0 0 0 0 0 0 0 0 0 0 0 0 0 0 0 0 0 0 0 0 0 0 0 0 0 0 0 0 0 0 0 0 0 0 2 0 1 0 3 3 0 0 9 0 12 0 15 85 73 0 0 0 223 70 0 0 0 0 0 0 0 0 69 122 25 0 0 50 67 107 59 0 60 143 97 0 0 26 0 13 76 0 0 0 0 0 7 248 228 0 0 0 0 49 0 63 180 66 0 0 255 78 0 0 138 146 44 73 0 162 0 107 0 170 159 88 255 0 0 0 0 0 99 0 251 0 0 29 0 0 0 0 0 76 47 0 11 0 7 6 3 2 0 0 0 0 0 0 3 0 0 0 0 0 0 3 0 0 3 0 0 3 0 4 0 25 72 0 92 233 58 0 52 36 0 0 0 0 0 3 0 23 68 58 19 0 13 37 0 0 0 0 10 5 0 1 0 0 9 25 46 38 3 0 0 0 43 117 0 0 0 0 102 98 87 0 0 1 37 15 24 0 0 0 10 0 9 0 0 4 8 0 0 9 2 0 6 12 14 0 0 0 0 0 54 55 49 35 16 0 0 0 2 3 0 4 1 7 0 0 3 0 7 0 1 1 0 16 0 0 0 0 8 4 0 0 0 0 22 77 45 0 13 146 31 92 0 0 0 85 123 0 59 0 54 0 0 120 84 0 7 4 8 9 7 6 11 16 15 2 0 0 7 7 6 0 0 0 0 5 9 3 5 1 6 0 0 19 30 11 0 0 17 0 0 10 3 3 11 0 0 11 11 0 0 6 5 0 0 0 0 1 8 2 1 20 0 0 0 21 0 0 102 0 0 0 0 0 21 13 7 0 74 0 0 0 7 11 0 0 0 0 0 0 6 18 34 41 63 19 0 0 0 0 6 66 53 34 18 12 0 0 7 3 0 1 7 1 10 7 10 0 17 0 9 2 1 6 7 0 3 0 3 3 4 4 1 0 16 0 4 4 2 1 0 0 27 34 47 44 36 16 0 9 71 0 0 0 0 87 237 87 209 28 45 0 0 0 84 161 192 103 34 0 12 20 22 6 0 0 0 0 5 0 0 16 0 0 0 0 0 0 0 0 2 0 0 0 0 0 4 2 9 4 0 0 4 9 2 0 11 1 0 0 4 6 0 47 142 0 0 0 0 106 125 0 93 29 30 0 0 0 16 0 0 0 5 38 0 15 60 20 21 0 0 13 18 9 5 14 5 0 5 22 5 0 0 28 0 5 19 0 22 83 77 102 0 0 10 25 5 2 8 0 0 22 0 0 9 80 47 0 61 0 26 0 0 5 2 63 2 0 0 20 32 0 0 146 0 0 0 40 0 29 96 65 25 0 0 0 0 21 0 101 0 0 42 0 20 57 0 0 0 0 10 48 33 0 0 0 66 0 0 0 0 0 0 14 17 0 40 0 31 74 51 0 31 0 61 0 56 9 58 62 107 0 0 0 0 55 23 0 0 25 0 0 83 80 0 1 3 0 0 0 0 0 0 0 0 0 0 0 0 0 0 0 0 0 0 0 0 0 0 0 0 0 0 0 0 0 0 0 0 0 0 0 0 0 0 0 0 0 0 0 0 0 0 0 0 0 0 0 0 0 0 0 0 0 0 0 0 0 0 0 0 0 0 0 0 0 0 0 0 0 0 0 0 0 0 0 0 0 0 0 0 0 0 0 0 0 0 0 0 0 0 0 0 0 0 0 0 0 0 0 0 0 0 0 0 0 0 0 0 0 0 0 0 0 0 0 0 0 0 0 0 0 0 0 0 0 0 0 0 0 0 0 0 0 0 0 0 0 0 0 0 0 0 0 0 0 0 0 0 0 0 0 0 0 0 0 0 0 0 255
255 0 0 0 0 0 0 0 0 0 0 0 0 0 0 0 0 0 0 0 0 0 0 0 0 0 0 0 0 0 0 0 0 0 0 0 0 0 0 0 0 0 0 0 0 0 0 0 0 0 0 0 0 0 0 0 0 0 0 0 0 0 0 0 0 0 0 0 0 0 0 0 0 0 0 0 0 0 0 0 0 0 0 0 0 0 0 0 0 0 0 0 0 0 0 0 0 0 0 0 0 0 0 0 0 0 0 0 0 0 1 5 0 0 2 2 0 0 0 0 18 0 23 8 33 0 0 253 228 0 0 106 215 255 245 56 0 0 0 167 246 186 129 57 67 9 52 186 0 8 57 0 0 30 0 16 4 0 75 75 76 95 0 1 101 128 178 0 0 0 0 100 175 68 149 181 0 0 0 0 70 0 0 31 0 0 255 255 182 0 243 0 0 255 0 0 0 255 65 0 0 0 0 0 49 130 141 0 0 255 192 55 54 27 20 0 12 8 7 10 10 5 3 0 5 7 7 6 2 3 3 7 0 0 3 1 2 5 0 7 25 17 83 0 32 12 0 100 0 19 60 53 20 0 14 17 3 14 0 0 0 2 0 0 16 3 0 0 0 0 0 0 36 12 0 0 0 16 7 0 19 5 0 1 108 126 0 0 0 0 225 199 77 61 34 0 11 0 0 0 11 1 7 0 0 0 1 0 0 0 4 0 0 0 19 0 0 20 34 37 0 0 0 0 0 0 4 42 0 1 0 15 24 16 2 4 1 0 7 0 13 3 8 14 5 0 0 0 0 0 3 6 55 23 0 0 0 42 26 0 88 0 105 0 0 0 6 61 0 37 0 0 102 0 0 117 13 0 3 0 4 5 26 26 28 1 4 0 12 8 6 0 1 8 3 9 9 0 3 5 4 16 0 0 10 31 0 0 8 0 0 0 2 2 0 0 4 18 23 0 4 20 21 0 9 0 0 10 3 0 0 0 44 65 0 18 0 0 97 10 0 0 0 0 11 22 9 0 6 32 76 48 0 0 24 85 44 61 27 0 0 1 25 45 17 0 0 0 57 89 59 8 0 0 6 1 0 0 0 0 0 0 5 6 0 0 0 0 18 0 0 0 0 1 0 0 12 0 0 0 17 0 13 5 9 0 0 0 0 14 21 49 15 1 0 0 11 73 141 172 217 0 0 21 0 0 0 0 0 0 88 0 0 0 227 106 6 0 36 13 0 0 0 24 0 13 35 45 24 0 9 49 1 28 16 15 18 20 29 30 20 8 4 0 0 0 13 10 6 0 0 0 0 0 0 0 6 1 16 3 0 0 39 197 68 0 92 4 30 207 0 0 0 0 49 37 0 147 174 0 0 0 0 50 0 0 0 0 0 29 44 0 0 8 5 0 19 0 0 15 18 4 6 6 19 41 30 0 0 28 0 0 0 39 76 0 0 10 63 0 25 0 0 0 112 104 1 0 73 0 98 106 7 29 0 0 38 43 0 0 86 89 0 0 18 19 115 92 0 0 98 75 0 0 71 30 7 19 0 0 0 10 64 0 0 28 0 0 45 58 75 12 0 13 20 0 0 0 46 94 133 118 11 0 35 0 34 0 46 88 67 0 24 0 55 0 20 7 21 0 204 0 0 13 0 52 77 0 0 90 6 0 31 116 15 0 5 3 2 1 0 0 0 0 0 0 0 0 0 0 0 0 0 0 0 0 0 0 0 0 0 0 0 0 0 0 0 0 0 0 0 0 0 0 0 0 0 0 0 0 0 0 0 0 0 0 0 0 0 0 0 0 0 0 0 0 0 0 0 0 0 0 0 0 0 0 0 0 0 0 0 0 0 0 0 0 0 0 0 0 0 0 0 0 0 0 0 0 0 0 0 0 0 0 0 0 0 0 0 0 0 0 0 0 0 0 0 0 0 0 0 0 0 0 0 0 0 0 0 0 0 0 0 0 0 0 0 0 0 0 0 0 0 0 0 0 0 0 0 0 0 0 0 0 0 0 0 0 0 0 0 0 0 0 0 0 0 0 0 255
255 0 0 0 0 0 0 0 0 0 0 0 0 0 0 0 0 0 0 0 0 0 0 0 0 0 0 0 0 0 0 0 0 0 0 0 0 0 0 0 0 0 0 0 0 0 0 0 0 0 0 0 0 0 0 0 0 0 0 0 0 0 0 0 0 0 0 0 0 0 0 0 0 0 0 0 0 0 0 0 0 0 0 0 0 0 0 0 0 0 0 0 0 0 0 0 0 0 0 0 0 0 0 0 0 0 0 0 0 0 0 3 4 4 1 1 2 4 5 11 0 28 0 15 74 252 0 0 0 0 184 94 69 39 116 255 255 255 2 0 0 0 87 38 140 0 255 74 26 255 0 0 180 0 0 0 46 82 0 0 0 82 0 35 0 48 0 162 84 0 0 0 0 248 0 249 237 0 0 78 118 44 0 0 0 0 97 0 0 0 0 0 0 255 254 76 0 0 0 0 153 18 149 119 235 181 0 255 64 0 0 27 114 87 30 0 0 2 15 0 0 6 0 5 11 0 0 9 0 0 0 0 0 1 8 7 0 0 7 10 51 0 0 0 49 55 0 0 0 0 0 0 0 17 15 0 0 16 12 0 19 30 48 0 20 5 4 0 14 7 7 0 0 37 47 5 0 0 3 0 6 0 0 0 4 30 108 209 0 0 0 0 255 212 71 64 0 117 19 0 42 34 0 39 17 47 13 0 7 57 0 0 0 0 7 2 6 0 0 0 0 1 6 6 20 11 0 1 0 0 0 0 0 0 9 26 0 2 0 0 0 0 0 0 0 9 4 6 14 1 0 0 0 6 8 19 0 0 3 1 79 0 10 54 0 0 0 2 1 0 0 0 14 18 27 8 20 0 11 8 0 0 0 0 12 5 14 0 0 0 0 22 0 0 0 0 17 5 6 0 21 3 3 0 0 58 66 0 0 0 37 0 0 8 45 0 19 1 0 8 10 6 0 0 10 3 0 0 0 0 4 0 16 24 9 0 1 9 12 16 86 106 0 95 0 61 21 0 3 0 0 4 0 0 0 22 0 0 0 59 74 0 0 0 0 0 45 56 28 9 0 0 14 4 0 0 0 2 14 1 15 0 0 0 0 8 9 0 12 0 10 8 0 0 0 0 6 10 0 0 4 13 21 0 0 0 17 28 0 23 56 0 0 0 85 58 253 0 0 188 121 0 186 169 0 209 0 0 255 0 0 104 0 0 180 69 43 28 3 4 20 7 0 30 0 0 0 0 0 9 8 17 0 0 0 0 12 3 0 0 9 0 11 1 4 0 3 0 0 0 10 5 1 13 12 8 26 0 0 0 60 112 81 53 0 0 0 0 143 84 0 0 0 2 48 72 23 0 0 26 84 16 77 124 48 0 0 0 1 1 4 0 11 27 35 27 7 0 0 6 5 0 0 0 0 0 19 22 0 0 0 0 16 17 0 0 0 12 10 0 0 8 0 50 140 50 0 39 31 0 0 0 0 0 0 0 44 23 15 0 47 87 32 0 0 0 36 97 155 137 22 0 0 38 43 28 125 113 28 60 35 0 13 0 0 13 0 36 190 56 13 0 0 0 0 0 5 56 33 48 114 6 0 51 30 8 2 0 0 90 0 27 0 0 22 0 0 4 0 21 99 0 0 0 0 29 47 0 0 15 0 13 0 126 32 3 0 0 0 2 0 0 0 0 0 0 0 0 0 0 0 0 0 0 0 0 0 0 0 0 0 0 0 0 0 0 0 0 0 0 0 0 0 0 0 0 0 0 0 0 0 0 0 0 0 0 0 0 0 0 0 0 0 0 0 0 0 0 0 0 0 0 0 0 0 0 0 0 0 0 0 0 0 0 0 0 0 0 0 0 0 0 0 0 0 0 0 0 0 0 0 0 0 0 0 0 0 0 0 0 0 0 0 0 0 0 0 0 0 0 0 0 0 0 0 0 0 0 0 0 0 0 0 0 0 0 0 0 0 0 0 0 0 0 0 0 0 0 0 0 0 0 0 0 0 0 0 0 0 0 0 0 0 0 0 0 0 0 0 255
255 0 0 0 0 0 0 0 0 0 0 0 0 0 0 0 0 0 0 0 0 0 0 0 0 0 0 0 0 0 0 0 0 0 0 0 0 0 0 0 0 0 0 0 0 0 0 0 0 0 0 0 0 0 0 0 0 0 0 0 0 0 0 0 0 0 0 0 0 0 0 0 0 0 0 0 0 0 0 0 0 0 0 0 0 0 0 0 0 0 0 0 0 0 0 0 0 0 0 0 0 0 0 0 0 0 0 0 0 0 0 0 0 0 0 0 0 0 0 6 17 0 13 35 139 39 0 0 120 88 47 0 0 0 188 105 0 0 0 0 0 0 0 0 0 80 161 0 0 49 139 153 81 0 0 59 134 33 0 69 0 0 125 14 0 46 133 0 76 81 0 0 0 255 0 255 255 0 0 0 76 0 0 0 255 255 125 0 0 0 0 0 18 63 41 242 69 0 107 143 8 255 0 0 0 0 190 117 0 36 49 0 0 46 161 125 45 25 0 25 17 0 0 0 15 0 0 14 13 0 5 0 9 4 0 0 7 13 12 36 0 0 7 0 0 0 17 87 34 49 26 8 6 10 0 0 0 6 0 0 0 0 3 0 33 10 4 1 0 0 0 0 0 10 16 0 0 0 11 0 8 0 9 0 16 5 8 57 180 25 0 0 0 25 232 228 44 1 78 63 0 0 41 0 8 12 6 0 0 29 43 0 11 1 2 4 7 2 9 7 0 0 6 7 0 0 4 2 0 0 0 0 5 0 1 0 0 4 0 0 0 0 0 6 0 0 0 0 0 0 0 0 11 0 0 2 1 0 0 0 27 20 46 47 9 0 0 0 23 0 1 0 0 22 25 0 22 0 12 18 4 1 10 4 8 3 5 9 0 0 0 12 0 0 0 0 6 9 6 0 19 0 2 14 2 25 34 16 0 0 10 31 0 9 35 2 11 0 0 0 4 5 4 0 6 0 4 0 3 0 6 0 6 13 13 0 0 3 2 7 25 91 0 17 0 38 19 0 53 31 1 0 0 33 33 0 82 11 0 0 0 0 0 0 32 16 20 22 18 11 11 12 0 0 0 0 1 0 0 0 8 0 0 0 0 0 0 0 10 1 11 7 11 6 8 15 0 0 12 2 0 0 0 0 19 56 0 0 38 22 25 0 83 62 32 0 0 0 23 0 20 0 0 29 0 240 20 0 0 52 167 197 0 184 222 0 0 15 9 2 5 5 7 0 0 0 0 0 1 5 3 0 0 0 5 1 15 12 0 0 7 0 0 0 0 0 0 0 0 0 0 0 0 0 3 2 0 53 53 0 22 181 70 0 56 0 0 19 119 0 0 0 29 31 34 16 4 0 0 0 0 0 0 75 47 12 51 68 0 4 20 0 0 4 14 9 0 0 0 18 40 32 44 33 0 41 0 3 105 42 0 19 0 16 3 0 0 16 14 0 13 0 0 24 86 43 0 27 15 4 0 0 18 36 22 0 27 0 0 0 50 134 99 76 0 0 0 35 110 125 6 0 0 33 4 0 67 43 0 0 0 0 39 95 50 0 0 0 90 6 4 0 9 1 12 14 0 30 0 0 0 0 0 0 0 0 0 0 17 104 0 0 0 0 9 0 32 37 0 25 133 5 0 0 0 34 51 0 0 0 3 0 0 78 71 0 4 0 0 3 0 0 0 0 0 0 0 0 0 0 0 0 0 0 0 0 0 0 0 0 0 0 0 0 0 0 0 0 0 0 0 0 0 0 0 0 0 0 0 0 0 0 0 0 0 0 0 0 0 0 0 0 0 0 0 0 0 0 0 0 0 0 0 0 0 0 0 0 0 0 0 0 0 0 0 0 0 0 0 0 0 0 0 0 0 0 0 0 0 0 0 0 0 0 0 0 0 0 0 0 0 0 0 0 0 0 0 0 0 0 0 0 0 0 0 0 0 0 0 0 0 0 0 0 0 0 0 0 0 0 0 0 0 0 0 0 0 0 0 0 0 0 0 0 0 0 0 0 0 0 0 0 0 0 0 0 0 0 0 255
255 0 0 0 0 0 0 0 0 0 0 0 0 0 0 0 0 0 0 0 0 0 0 0 0 0 0 0 0 0 0 0 0 0 0 0 0 0 0 0 0 0 0 0 0 0 0 0 0 0 0 0 0 0 0 0 0 0 0 0 0 0 0 0 0 0 0 0 0 0 0 0 0 0 0 0 0 0 0 0 0 0 0 0 0 0 0 0 0 0 0 0 0 0 0 0 0 0 0 0 0 0 0 0 0 0 0 0 0 0 0 0 0 0 0 0 0 0 0 0 11 0 19 84 0 0 95 0 110 72 0 14 19 82 255 0 0 0 39 0 0 75 144 84 0 121 26 0 0 0 0 17 221 0 0 35 0 122 121 0 0 0 245 0 127 0 0 0 0 0 255 235 0 159 0 0 255 0 0 0 0 0 74 244 0 0 0 0 0 0 0 74 69 119 0 67 255 0 0 0 0 114 0 56 2 19 0 0 0 0 84 44 0 0 2 0 117 84 49 10 20 30 19 31 0 0 3 3 0 0 7 0 8 7 0 0 11 12 9 16 0 0 14 26 16 8 0 0 0 0 0 0 0 16 14 18 0 25 23 0 0 0 14 0 28 7 11 0 0 0 0 0 8 0 0 0 16 9 0 5 2 0 5 4 5 12 12 24 92 14 0 0 0 0 0 36 255 87 72 50 0 6 56 0 13 18 15 1 0 0 8 11 10 0 8 7 7 0 4 19 0 0 5 3 8 0 3 0 0 0 6 5 0 0 0 0 31 9 0 0 0 0 9 21 3 2 4 0 0 0 0 0 15 10 6 6 0 7 4 3 0 43 70 44 58 57 0 0 0 0 31 0 0 2 25 0 11 0 12 15 11 12 12 7 3 0 11 0 0 0 0 13 3 0 0 0 0 0 0 0 30 0 13 47 15 0 23 79 0 0 0 16 22 0 0 25 4 0 0 0 1 12 7 7 6 0 5 6 7 0 0 0 14 9 18 0 0 0 3 21 0 115 0 0 0 10 29 0 0 36 20 0 0 60 61 0 36 0 0 0 0 0 12 39 60 40 31 17 0 0 0 5 0 0 0 0 1 0 3 0 16 1 14 5 6 15 9 10 0 0 1 5 0 0 0 9 0 17 25 7 0 0 0 32 0 102 0 0 21 0 1 10 75 110 14 87 0 162 176 0 16 0 0 0 0 0 0 0 139 255 0 0 0 245 0 0 0 5 26 13 0 12 5 0 2 0 0 3 0 0 0 0 9 0 0 1 0 6 0 0 7 0 0 0 0 0 0 0 3 0 0 0 0 2 0 5 0 0 31 102 113 26 0 0 141 0 0 163 80 0 0 41 14 3 0 0 0 0 0 0 0 0 0 51 38 20 28 15 0 1 8 0 0 0 1 0 7 0 0 0 3 0 0 1 0 83 0 0 170 55 0 9 0 5 0 0 0 4 5 0 0 0 0 4 0 0 0 0 20 1 0 7 14 34 34 19 18 19 6 0 4 36 0 0 0 0 0 0 0 0 0 0 0 28 16 5 59 23 0 0 65 5 0 77 30 0 0 79 51 2 0 0 0 6 9 1 0 46 0 0 0 0 0 0 32 0 0 0 73 135 0 0 0 19 3 0 78 69 0 20 127 0 0 0 0 19 20 0 0 0 35 0 0 17 118 0 5 0 0 3 0 0 0 0 0 0 0 0 0 0 0 0 0 0 0 0 0 0 0 0 0 0 0 0 0 0 0 0 0 0 0 0 0 0 0 0 0 0 0 0 0 0 0 0 0 0 0 0 0 0 0 0 0 0 0 0 0 0 0 0 0 0 0 0 0 0 0 0 0 0 0 0 0 0 0 0 0 0 0 0 0 0 0 0 0 0 0 0 0 0 0 0 0 0 0 0 0 0 0 0 0 0 0 0 0 0 0 0 0 0 0 0 0 0 0 0 0 0 0 0 0 0 0 0 0 0 0 0 0 0 0 0 0 0 0 0 0 0 0 0 0 0 0 0 0 0 0 0 0 0 0 0 0 0 0 0 0 0 0 255
255 0 0 0 0 0 0 0 0 0 0 0 0 0 0 0 0 0 0 0 0 0 0 0 0 0 0 0 0 0 0 0 0 0 0 0 0 0 0 0 0 0 0 0 0 0 0 0 0 0 0 0 0 0 0 0 0 0 0 0 0 0 0 0 0 0 0 0 0 0 0 0 0 0 0 0 0 0 0 0 0 0 0 0 0 0 0 0 0 0 0 0 0 0 0 0 0 0 0 0 0 0 0 0 0 0 0 0 0 0 0 0 0 0 0 0 0 0 0 0 6 19 14 90 0 0 140 122 0 17 0 8 31 159 71 0 0 0 0 0 0 0 0 0 16 0 0 143 255 33 0 0 121 0 119 6 0 240 218 0 0 140 187 0 0 0 0 0 0 28 255 0 0 171 82 0 0 0 39 0 48 164 0 0 0 122 64 154 0 255 255 255 0 255 109 0 130 0 0 0 112 8 242 98 65 255 0 0 66 0 0 0 0 0 0 0 30 28 188 5 0 27 0 18 0 4 1 2 0 0 6 9 0 0 0 22 25 12 0 0 0 10 24 34 54 41 0 0 0 0 0 0 0 7 13 33 0 13 29 5 0 14 25 23 0 0 0 0 0 0 0 10 9 0 0 15 24 0 0 5 0 0 0 2 6 7 8 7 5 125 155 52 0 0 0 0 0 157 216 109 132 5 0 82 0 0 15 40 28 0 0 0 4 9 0 0 0 1 11 33 0 0 1 4 5 2 5 0 5 0 7 0 3 0 0 0 20 18 8 0 0 0 1 0 5 2 0 0 0 0 0 0 2 0 1 6 3 5 0 5 0 19 15 0 20 70 16 0 0 0 16 34 4 0 15 28 0 0 0 3 11 0 0 2 13 1 11 0 9 4 0 0 7 0 0 0 0 1 3 0 37 0 8 23 0 0 6 20 5 0 0 1 51 0 0 3 15 2 5 4 0 0 18 17 8 7 0 0 5 5 2 0 0 16 16 15 0 0 0 27 0 117 27 0 14 0 18 4 0 30 61 0 0 0 0 0 0 0 0 0 35 36 59 74 0 0 0 0 0 0 0 0 0 1 5 3 14 8 9 0 23 3 7 10 13 8 13 15 0 7 5 2 5 2 0 0 9 7 0 0 0 12 27 45 0 54 0 23 28 0 64 36 0 96 53 162 0 175 255 24 66 0 0 0 0 0 255 255 238 123 0 28 0 15 51 54 0 0 20 20 22 13 4 0 9 0 7 0 11 4 0 0 8 0 2 1 1 5 0 0 8 1 0 4 1 2 2 5 0 0 0 0 0 3 3 6 44 0 38 174 59 0 0 99 36 0 23 222 16 0 0 13 0 0 0 0 0 6 23 40 46 0 0 32 27 0 0 0 0 9 16 0 0 0 0 0 39 5 0 1 0 0 0 0 0 29 0 27 109 0 0 0 4 0 2 0 0 2 0 0 0 0 7 49 0 0 23 0 6 0 0 0 0 0 0 0 0 12 12 0 0 0 0 0 19 17 0 0 0 0 0 15 3 30 25 27 20 0 0 0 60 45 0 0 0 0 63 105 32 0 0 0 0 0 4 0 25 43 39 17 27 14 6 0 47 0 0 0 77 122 0 14 0 33 0 0 81 72 0 30 87 0 0 0 0 23 45 0 36 0 52 4 0 0 169 11 4 0 0 3 0 0 0 0 0 0 0 0 0 0 0 0 0 0 0 0 0 0 0 0 0 0 0 0 0 0 0 0 0 0 0 0 0 0 0 0 0 0 0 0 0 0 0 0 0 0 0 0 0 0 0 0 0 0 0 0 0 0 0 0 0 0 0 0 0 0 0 0 0 0 0 0 0 0 0 0 0 0 0 0 0 0 0 0 0 0 0 0 0 0 0 0 0 0 0 0 0 0 0 0 0 0 0 0 0 0 0 0 0 0 0 0 0 0 0 0 0 0 0 0 0 0 0 0 0 0 0 0 0 0 0 0 0 0 0 0 0 0 0 0 0 0 0 0 0 0 0 0 0 0 0 0 0 0 0 0 0 0 0 255
255 0 0 0 0 0 0 0 0 0 0 0 0 0 0 0 0 0 0 0 0 0 0 0 0 0 0 0 0 0 0 0 0 0 0 0 0 0 0 0 0 0 0 0 0 0 0 0 0 0 0 0 0 0 0 0 0 0 0 0 0 0 0 0 0 0 0 0 0 0 0 0 0 0 0 0 0 0 0 0 0 0 0 0 0 0 0 0 0 0 0 0 0 0 0 0 0 0 0 0 0 0 0 0 0 0 0 0 0 0 0 0 0 0 0 0 0 0 0 0 1 14 35 0 0 142 0 28 0 25 27 7 43 67 0 0 20 0 0 0 0 0 0 0 0 0 0 0 0 105 0 0 243 70 0 0 255 163 0 0 88 118 163 0 0 158 255 255 239 255 100 0 0 255 20 0 142 0 0 0 0 0 0 0 255 255 150 255 75 80 0 36 2 255 0 0 24 64 194 212 208 0 0 0 0 251 0 0 98 0 0 0 0 0 0 91 0 0 29 218 161 119 99 51 24 7 2 0 11 10 4 0 6 14 17 11 10 0 0 0 0 19 39 0 0 0 38 97 18 31 16 0 0 13 11 5 0 0 0 0 0 0 0 0 0 0 0 0 0 5 3 8 26 0 0 10 22 0 0 0 13 0 0 0 1 0 0 0 9 74 78 23 4 20 0 0 0 0 0 27 252 201 1 26 0 0 0 12 22 15 3 26 9 5 1 0 0 6 4 23 0 0 2 2 8 2 3 1 7 0 7 6 0 4 0 0 0 8 11 4 12 0 0 0 13 5 0 1 0 0 0 0 0 2 0 5 8 6 5 2 14 11 7 0 32 47 37 90 0 0 0 0 28 0 3 32 3 0 12 19 15 1 7 0 9 3 9 9 10 4 0 0 8 14 2 3 0 0 0 0 22 19 18 0 0 0 40 0 57 9 0 0 60 19 0 0 11 6 1 0 0 0 0 0 10 2 2 8 1 6 9 0 1 3 22 28 0 0 0 31 0 104 97 0 0 0 25 16 21 0 4 0 0 0 0 0 0 0 16 40 32 9 0 0 0 0 0 0 5 1 12 9 0 0 2 0 12 9 11 2 1 7 4 9 0 1 1 0 24 17 19 26 9 12 13 3 20 0 0 0 39 67 62 2 91 0 0 87 76 53 144 0 0 0 0 0 0 0 0 0 0 0 255 255 166 255 247 0 0 0 0 0 13 255 206 97 46 0 0 24 25 0 0 5 3 0 11 10 10 8 11 3 18 11 0 10 2 11 7 0 9 4 7 5 7 4 9 10 0 0 0 0 3 2 0 0 0 100 126 0 0 0 0 72 0 0 118 132 0 0 29 0 0 0 13 24 26 21 32 48 6 0 0 4 0 6 27 0 0 13 18 0 0 0 2 0 17 0 0 17 21 22 34 55 7 0 31 92 0 0 6 0 29 10 2 3 1 0 0 0 0 0 121 135 0 0 68 44 1 0 0 0 0 0 0 0 0 0 24 14 36 29 0 0 0 0 15 63 45 0 0 39 0 7 47 33 0 0 4 43 0 28 0 39 24 0 59 0 74 8 0 0 0 6 3 0 14 0 56 116 58 0 0 0 15 0 0 0 5 61 0 14 10 34 5 0 29 71 0 39 87 0 0 0 0 44 69 0 31 0 31 1 0 0 144 38 2 0 0 3 0 0 0 0 0 0 0 0 0 0 0 0 0 0 0 0 0 0 0 0 0 0 0 0 0 0 0 0 0 0 0 0 0 0 0 0 0 0 0 0 0 0 0 0 0 0 0 0 0 0 0 0 0 0 0 0 0 0 0 0 0 0 0 0 0 0 0 0 0 0 0 0 0 0 0 0 0 0 0 0 0 0 0 0 0 0 0 0 0 0 0 0 0 0 0 0 0 0 0 0 0 0 0 0 0 0 0 0 0 0 0 0 0 0 0 0 0 0 0 0 0 0 0 0 0 0 0 0 0 0 0 0 0 0 0 0 0 0 0 0 0 0 0 0 0 0 0 0 0 0 0 0 0 0 0 0 0 0 0 255
255 0 0 0 0 0 0 0 0 0 0 0 0 0 0 0 0 0 0 0 0 0 0 0 0 0 0 0 0 0 0 0 0 0 0 0 0 0 0 0 0 0 0 0 0 0 0 0 0 0 0 0 0 0 0 0 0 0 0 0 0 0 0 0 0 0 0 0 0 0 0 0 0 0 0 0 0 0 0 0 0 0 0 0 0 0 0 0 0 0 0 0 0 0 0 0 0 0 0 0 0 0 0 0 0 0 0 0 0 0 0 0 0 0 0 0 0 0 0 1 2 2 108 0 91 59 0 14 0 6 16 0 68 94 0 39 255 255 198 255 255 255 255 0 32 23 92 28 0 12 0 0 75 0 87 68 0 0 0 116 67 255 122 0 154 0 0 91 39 236 0 23 0 103 47 0 0 255 255 0 0 0 62 167 0 53 0 0 0 17 48 8 255 0 0 156 185 99 94 27 92 18 116 31 0 255 0 31 0 5 65 46 26 48 62 105 0 0 0 7 152 0 88 0 43 10 9 0 0 0 12 0 13 22 9 0 0 0 0 7 12 5 0 0 0 0 11 20 0 10 12 0 0 15 13 0 24 16 13 1 0 0 0 0 33 7 12 9 9 5 3 5 17 0 0 6 16 0 0 0 23 0 1 1 7 6 5 0 0 0 13 152 130 0 0 57 0 0 0 0 0 97 203 120 58 32 0 0 0 0 4 1 0 0 2 4 0 0 0 12 0 0 3 0 5 5 0 0 6 0 3 0 0 1 3 1 0 0 6 5 7 9 0 0 5 0 0 0 0 0 3 16 0 0 0 0 0 0 0 0 18 0 0 26 41 12 10 68 106 0 0 0 11 4 0 0 25 0 17 21 12 2 10 0 11 4 0 2 12 10 0 0 0 7 7 0 0 0 0 4 0 8 25 0 0 18 75 0 30 60 0 0 43 61 0 24 0 0 0 0 0 0 0 0 13 0 0 0 0 0 0 0 0 6 24 26 8 0 0 25 0 79 152 0 0 0 16 0 12 0 0 0 0 0 12 49 76 63 50 32 14 0 0 0 0 0 2 0 4 0 0 0 12 9 5 0 0 0 1 6 0 2 0 0 7 0 7 0 5 0 0 0 0 0 0 0 26 3 23 47 119 133 79 0 127 30 140 166 99 46 43 21 167 137 180 255 228 0 0 0 0 255 255 0 255 116 0 0 86 154 0 0 255 255 0 134 73 0 0 10 10 0 0 11 4 0 7 9 8 12 10 12 13 5 0 3 11 6 4 0 0 0 0 0 0 0 6 0 0 0 11 2 9 4 5 6 34 154 83 0 0 29 71 0 0 78 126 0 0 0 55 0 0 18 16 11 0 0 0 0 0 0 0 0 0 16 49 22 0 6 18 0 0 8 12 0 0 0 0 9 13 6 16 21 105 0 92 135 0 0 58 0 37 5 0 12 1 0 0 0 0 23 134 106 0 0 1 10 8 8 0 0 5 8 14 24 0 3 20 18 46 85 89 162 0 0 0 0 38 19 0 1 0 0 27 28 0 0 49 129 0 30 0 18 16 0 18 0 101 10 3 8 22 10 1 0 28 0 32 124 6 0 0 34 11 0 0 0 0 63 0 17 20 19 42 0 0 45 0 30 65 0 0 0 0 2 15 0 26 0 9 62 0 0 77 93 2 0 0 3 0 0 0 0 0 0 0 0 0 0 0 0 0 0 0 0 0 0 0 0 0 0 0 0 0 0 0 0 0 0 0 0 0 0 0 0 0 0 0 0 0 0 0 0 0 0 0 0 0 0 0 0 0 0 0 0 0 0 0 0 0 0 0 0 0 0 0 0 0 0 0 0 0 0 0 0 0 0 0 0 0 0 0 0 0 0 0 0 0 0 0 0 0 0 0 0 0 0 0 0 0 0 0 0 0 0 0 0 0 0 0 0 0 0 0 0 0 0 0 0 0 0 0 0 0 0 0 0 0 0 0 0 0 0 0 0 0 0 0 0 0 0 0 0 0 0 0 0 0 0 0 0 0 0 0 0 0 0 0 255
255 0 0 0 0 0 0 0 0 0 0 0 0 0 0 0 0 0 0 0 0 0 0 0 0 0 0 0 0 0 0 0 0 0 0 0 0 0 0 0 0 0 0 0 0 0 0 0 0 0 0 0 0 0 0 0 0 0 0 0 0 0 0 0 0 0 0 0 0 0 0 0 0 0 0 0 0 0 0 0 0 0 0 0 0 0 0 0 0 0 0 0 0 0 0 0 0 0 0 0 0 0 0 0 0 0 0 0 0 0 0 0 0 0 0 0 0 0 0 1 0 19 92 0 88 0 17 27 17 0 0 39 80 137 0 0 189 49 146 240 14 0 0 0 18 58 132 198 209 93 95 161 24 0 0 0 0 104 168 0 0 0 107 255 123 0 255 0 0 255 0 0 0 0 36 119 159 0 119 255 255 168 0 0 0 0 0 74 0 0 80 255 0 0 0 240 180 0 0 190 0 0 47 0 0 129 0 22 125 82 53 0 0 39 108 170 200 255 0 0 41 0 78 0 3 2 21 1 2 1 3 0 31 6 0 0 0 4 1 5 14 7 0 0 36 43 0 0 0 0 0 0 0 26 28 0 38 18 22 14 19 8 2 6 21 13 12 0 9 1 0 0 0 14 5 3 0 7 4 0 26 4 6 0 6 5 3 0 74 50 0 0 26 176 99 0 57 0 0 0 0 0 16 235 101 45 44 0 0 0 0 0 0 0 0 0 0 0 0 6 0 0 4 0 2 0 6 0 0 0 3 0 2 0 1 9 0 0 6 9 3 8 0 14 0 3 2 0 10 8 6 16 0 4 6 0 5 4 0 0 7 0 0 4 8 1 0 0 112 48 0 0 0 0 6 0 12 0 3 14 6 5 2 1 16 0 0 1 3 12 0 2 0 5 8 7 2 0 0 2 0 2 38 8 0 0 42 18 0 107 2 0 0 49 0 33 0 0 0 1 0 0 0 0 11 0 0 0 1 1 7 0 0 0 8 25 18 0 0 6 3 36 155 0 0 0 0 0 0 0 0 0 25 46 64 79 33 26 23 16 15 7 33 36 0 0 1 0 1 0 0 0 12 7 4 2 5 6 0 8 2 0 0 0 0 0 0 0 0 0 0 0 0 0 0 0 21 40 55 48 39 29 0 0 0 0 104 29 103 51 0 17 10 0 0 88 159 0 0 0 0 0 0 0 17 0 0 146 243 125 0 9 16 0 0 0 74 23 40 3 0 0 0 0 4 0 4 3 0 7 2 4 7 4 0 0 1 0 0 2 0 0 0 0 0 0 4 0 12 1 4 0 10 1 0 7 136 11 0 0 14 36 3 20 31 135 28 0 0 5 10 48 4 2 0 0 0 0 0 0 9 0 0 23 0 0 28 5 0 0 0 0 7 26 15 0 9 0 5 0 0 0 0 0 95 14 55 31 0 0 26 0 10 0 0 11 13 0 0 0 0 18 61 5 0 0 0 0 5 0 1 1 10 15 14 20 21 22 0 0 0 32 49 128 101 2 0 0 0 0 0 0 0 0 3 33 0 0 45 85 19 0 19 0 0 0 0 21 70 10 0 9 18 18 0 0 43 0 43 97 0 0 0 30 8 21 13 0 0 115 11 8 3 3 93 0 0 43 54 1 47 0 0 0 0 0 13 0 0 0 0 118 0 0 1 139 5 0 0 3 0 0 0 0 0 0 0 0 0 0 0 0 0 0 0 0 0 0 0 0 0 0 0 0 0 0 0 0 0 0 0 0 0 0 0 0 0 0 0 0 0 0 0 0 0 0 0 0 0 0 0 0 0 0 0 0 0 0 0 0 0 0 0 0 0 0 0 0 0 0 0 0 0 0 0 0 0 0 0 0 0 0 0 0 0 0 0 0 0 0 0 0 0 0 0 0 0 0 0 0 0 0 0 0 0 0 0 0 0 0 0 0 0 0 0 0 0 0 0 0 0 0 0 0 0 0 0 0 0 0 0 0 0 0 0 0 0 0 0 0 0 0 0 0 0 0 0 0 0 0 0 0 0 0 0 0 0 0 0 255
255 0 0 0 0 0 0 0 0 0 0 0 0 0 0 0 0 0 0 0 0 0 0 0 0 0 0 0 0 0 0 0 0 0 0 0 0 0 0 0 0 0 0 0 0 0 0 0 0 0 0 0 0 0 0 0 0 0 0 0 0 0 0 0 0 0 0 0 0 0 0 0 0 0 0 0 0 0 0 0 0 0 0 0 0 0 0 0 0 0 0 0 0 0 0 0 0 0 0 0 0 0 0 0 0 0 0 0 0 0 0 0 0 0 0 0 0 0 0 1 4 15 0 10 51 9 8 0 9 14 0 45 0 12 0 0 255 162 26 0 0 0 18 0 0 0 0 0 255 0 0 0 0 255 255 9 86 59 0 242 89 15 0 0 0 0 255 108 0 135 0 0 0 0 119 255 208 0 0 0 129 255 12 0 255 195 156 138 85 72 166 213 0 0 214 0 0 0 0 162 0 23 167 125 199 111 0 0 25 0 0 149 180 42 0 5 0 110 72 0 0 255 237 53 0 10 70 10 3 2 8 33 2 0 0 6 62 56 0 0 0 35 74 22 0 7 55 74 0 12 22 13 2 0 0 0 34 8 0 0 0 3 2 11 0 2 0 5 26 6 9 0 0 21 31 0 0 20 37 0 19 0 0 0 6 2 7 0 14 0 46 105 88 0 0 122 0 0 0 93 255 0 0 0 192 161 154 47 2 22 18 0 0 0 14 10 8 0 0 0 0 0 0 0 0 0 0 0 3 0 8 6 9 6 6 8 0 0 0 7 0 0 0 11 0 0 14 8 18 14 3 11 0 2 9 13 8 5 0 0 18 29 13 0 0 46 34 0 0 104 117 0 0 0 47 23 0 0 0 3 0 5 0 0 22 0 0 0 4 10 0 0 0 1 12 6 0 0 0 1 0 0 20 45 0 0 43 53 0 143 9 0 0 108 42 17 18 8 30 17 2 0 3 29 5 0 0 0 1 5 11 7 5 0 0 23 13 0 0 0 8 11 154 0 0 0 0 0 0 0 132 140 56 0 0 0 0 0 0 0 0 0 0 0 27 13 11 0 9 9 29 26 21 16 3 6 3 0 0 0 0 0 0 4 12 6 21 4 13 0 0 0 0 16 47 70 0 52 83 32 0 0 5 102 0 0 0 0 95 48 0 0 2 0 0 0 0 92 226 0 0 0 0 0 0 10 255 0 26 119 84 0 130 0 0 0 51 34 106 17 0 11 37 0 15 9 0 0 0 0 0 2 6 0 0 0 0 0 0 0 0 0 0 0 0 0 0 0 0 0 6 5 10 7 0 81 175 0 0 0 27 10 5 125 57 156 0 0 8 0 0 62 76 24 0 0 0 0 7 18 0 0 30 83 29 24 48 11 0 0 0 0 38 52 31 0 9 0 15 20 8 13 58 93 69 80 0 0 0 9 0 0 0 0 0 14 9 0 0 0 0 68 54 0 24 22 0 54 12 11 16 13 16 7 7 0 8 0 0 0 0 0 0 45 152 75 0 21 30 0 0 18 54 0 0 19 0 0 0 0 0 0 31 0 0 0 0 104 41 10 0 0 20 18 0 0 33 11 127 130 0 0 0 0 0 0 0 0 0 138 10 0 0 0 125 0 0 56 112 0 79 0 0 0 1 13 28 0 0 0 0 124 0 0 0 167 8 0 0 3 3 3 2 0 0 0 0 0 0 0 0 0 0 0 0 0 0 0 0 0 0 0 0 0 0 0 0 0 0 0 0 0 0 0 0 0 0 0 0 0 0 0 0 0 0 0 0 0 0 0 0 0 0 0 0 0 0 0 0 0 0 0 0 0 0 0 0 0 0 0 0 0 0 0 0 0 0 0 0 0 0 0 0 0 0 0 0 0 0 0 0 0 0 0 0 0 0 0 0 0 0 0 0 0 0 0 0 0 0 0 0 0 0 0 0 0 0 0 0 0 0 0 0 0 0 0 0 0 0 0 0 0 0 0 0 0 0 0 0 0 0 0 0 0 0 0 0 0 0 0 0 0 0 0 0 0 0 0 0 255
255 0 0 0 0 0 0 0 0 0 0 0 0 0 0 0 0 0 0 0 0 0 0 0 0 0 0 0 0 0 0 0 0 0 0 0 0 0 0 0 0 0 0 0 0 0 0 0 0 0 0 0 0 0 0 0 0 0 0 0 0 0 0 0 0 0 0 0 0 0 0 0 0 0 0 0 0 0 0 0 0 0 0 0 0 0 0 0 0 0 0 0 0 0 0 0 0 0 0 0 0 0 0 0 0 0 0 0 0 0 0 0 0 0 0 0 0 0 0 0 4 9 1 0 0 0 8 16 9 6 4 37 17 29 0 0 255 0 0 232 0 0 0 0 202 113 0 0 91 0 0 255 0 121 121 63 60 0 0 222 243 83 0 203 0 0 255 177 227 47 0 0 0 255 255 212 0 69 0 0 0 181 247 178 142 0 120 26 81 140 255 108 0 161 54 0 107 255 88 0 0 0 0 9 0 139 194 0 112 0 0 0 66 166 145 0 0 35 255 6 0 61 0 93 174 0 90 48 0 0 20 43 0 48 35 0 0 0 37 0 43 0 0 0 0 0 0 0 22 57 2 0 57 110 49 0 0 0 0 0 0 9 14 16 0 0 0 0 0 0 1 9 14 0 0 10 0 0 0 0 0 10 11 0 0 8 0 0 17 0 0 0 0 23 17 41 0 0 0 12 195 116 0 0 0 0 186 255 19 0 116 0 46 0 0 0 9 27 26 12 49 14 17 23 13 8 19 20 0 0 0 0 0 0 0 0 17 8 3 0 0 16 15 52 0 0 0 0 0 0 0 8 2 0 0 0 0 0 6 7 0 0 0 0 0 0 0 17 32 0 28 98 0 0 0 90 0 56 36 0 8 14 0 26 2 0 15 8 3 0 0 29 0 4 0 6 19 14 6 0 8 44 9 48 47 0 0 155 12 0 161 29 0 0 90 70 39 24 0 0 38 26 0 19 0 0 25 22 3 0 0 0 0 0 25 48 27 0 0 21 80 0 145 0 0 0 0 0 231 163 93 0 0 0 17 4 11 3 0 0 0 0 0 0 12 0 2 8 9 0 3 0 7 1 0 0 0 0 0 0 11 39 18 0 0 0 0 0 26 1 0 34 62 0 0 33 17 177 0 0 0 0 0 0 0 3 131 18 229 255 255 0 113 194 139 0 0 0 0 0 255 124 170 0 0 223 255 0 0 0 0 0 255 22 0 0 78 110 76 0 0 27 0 36 0 0 0 1 3 7 3 7 3 0 0 2 9 7 14 0 0 0 8 1 0 2 11 10 0 51 0 0 48 6 0 255 0 0 0 118 0 0 73 0 72 0 0 0 50 0 0 0 0 0 0 0 0 119 161 77 55 25 15 9 0 0 0 64 0 12 16 0 0 19 26 0 27 29 0 0 108 31 0 0 0 0 0 0 0 48 106 0 0 0 8 30 0 9 63 0 0 19 154 5 0 35 0 24 0 0 0 5 0 0 0 0 5 43 48 9 12 38 19 0 46 0 0 136 30 0 71 0 9 0 18 7 14 13 52 159 0 30 19 0 0 69 77 6 0 0 0 32 34 0 0 10 57 0 0 0 0 0 42 34 37 0 36 0 0 154 0 33 0 0 118 18 0 0 153 0 111 0 23 0 0 26 114 56 3 0 0 85 0 0 0 222 23 7 4 3 0 0 2 0 0 0 0 0 0 0 0 0 0 0 0 0 0 0 0 0 0 0 0 0 0 0 0 0 0 0 0 0 0 0 0 0 0 0 0 0 0 0 0 0 0 0 0 0 0 0 0 0 0 0 0 0 0 0 0 0 0 0 0 0 0 0 0 0 0 0 0 0 0 0 0 0 0 0 0 0 0 0 0 0 0 0 0 0 0 0 0 0 0 0 0 0 0 0 0 0 0 0 0 0 0 0 0 0 0 0 0 0 0 0 0 0 0 0 0 0 0 0 0 0 0 0 0 0 0 0 0 0 0 0 0 0 0 0 0 0 0 0 0 0 0 0 0 0 0 0 0 0 0 0 0 0 0 0 0 255
255 0 0 0 0 0 0 0 0 0 0 0 0 0 0 0 0 0 0 0 0 0 0 0 0 0 0 0 0 0 0 0 0 0 0 0 0 0 0 0 0 0 0 0 0 0 0 0 0 0 0 0 0 0 0 0 0 0 0 0 0 0 0 0 0 0 0 0 0 0 0 0 0 0 0 0 0 0 0 0 0 0 0 0 0 0 0 0 0 0 0 0 0 0 0 0 0 0 0 0 0 0 0 0 0 0 0 0 0 0 0 0 0 0 0 0 0 0 0 0 4 7 0 0 0 1 1 3 0 0 13 12 23 48 27 0 150 185 0 255 96 217 255 0 14 255 255 206 246 0 0 62 255 0 0 0 79 0 0 151 154 255 0 0 0 0 201 0 180 86 63 117 0 0 0 0 0 118 188 0 0 0 0 0 0 0 0 0 0 48 0 0 152 28 78 175 19 0 0 255 40 0 0 0 0 18 0 0 0 36 30 0 0 0 122 0 7 0 0 36 43 0 0 101 255 35 0 0 23 25 12 0 0 0 0 8 18 10 17 0 55 0 0 31 18 14 20 0 0 0 0 0 0 0 21 23 0 5 28 24 24 4 0 0 19 13 30 10 0 0 0 10 9 0 0 5 6 0 0 20 0 4 2 0 0 14 11 10 0 8 9 7 39 39 0 0 21 0 21 0 0 255 228 0 0 0 0 55 216 120 92 0 0 17 70 0 0 0 10 0 3 0 0 0 0 8 0 0 18 7 10 10 5 3 0 0 10 8 0 0 3 0 8 21 0 0 1 0 0 0 10 17 0 0 0 0 4 0 0 0 8 0 0 2 5 4 2 6 0 2 26 42 9 0 0 0 65 0 0 0 40 2 0 24 21 5 23 11 7 9 3 15 0 1 0 0 1 0 0 0 0 27 0 14 71 0 0 8 36 32 51 150 0 0 38 14 63 45 15 0 22 4 4 61 0 0 3 1 0 0 1 0 0 0 0 20 11 0 0 1 0 19 224 0 0 0 25 255 9 30 25 0 0 2 21 0 23 12 19 12 11 20 23 15 0 0 0 0 1 0 0 0 11 6 0 1 4 3 3 2 0 2 0 0 0 37 27 0 0 22 56 63 73 95 86 62 200 0 0 9 0 0 172 0 0 248 56 14 0 230 196 0 90 102 0 3 69 0 0 255 255 229 245 0 0 0 0 0 0 0 173 0 255 69 0 0 255 125 47 0 34 27 0 7 0 2 1 1 3 0 5 12 0 0 0 0 5 1 3 0 0 0 0 0 0 0 0 2 4 0 31 0 0 118 162 0 0 0 19 84 0 14 118 101 5 0 0 0 29 0 0 9 52 2 0 0 23 31 3 0 10 0 0 10 11 0 0 41 0 39 51 1 0 0 0 1 0 0 0 24 77 0 0 8 26 0 21 25 0 38 88 13 0 0 0 0 0 0 16 0 0 0 103 97 61 26 0 56 0 0 0 0 0 6 17 0 3 0 0 0 0 0 0 40 40 0 0 6 0 0 63 0 28 34 31 0 0 0 36 126 0 0 0 0 1 0 16 95 0 0 2 4 2 0 0 21 9 0 0 0 0 0 15 3 44 0 49 0 0 151 0 0 2 0 97 54 0 0 120 86 134 0 11 0 0 0 74 25 0 0 0 102 0 0 0 176 55 1 0 5 4 3 4 2 2 0 0 0 0 0 0 0 0 0 0 0 0 0 0 0 0 0 0 0 0 0 0 0 0 0 0 0 0 0 0 0 0 0 0 0 0 0 0 0 0 0 0 0 0 0 0 0 0 0 0 0 0 0 0 0 0 0 0 0 0 0 0 0 0 0 0 0 0 0 0 0 0 0 0 0 0 0 0 0 0 0 0 0 0 0 0 0 0 0 0 0 0 0 0 0 0 0 0 0 0 0 0 0 0 0 0 0 0 0 0 0 0 0 0 0 0 0 0 0 0 0 0 0 0 0 0 0 0 0 0 0 0 0 0 0 0 0 0 0 0 0 0 0 0 0 0 0 0 0 0 0 0 0 0 255
255 0 0 0 0 0 0 0 0 0 0 0 0 0 0 0 0 0 0 0 0 0 0 0 0 0 0 0 0 0 0 0 0 0 0 0 0 0 0 0 0 0 0 0 0 0 0 0 0 0 0 0 0 0 0 0 0 0 0 0 0 0 0 0 0 0 0 0 0 0 0 0 0 0 0 0 0 0 0 0 0 0 0 0 0 0 0 0 0 0 0 0 0 0 0 0 0 0 0 0 0 0 0 0 0 0 0 0 0 0 0 0 0 0 0 0 0 0 0 0 3 2 0 0 6 9 0 5 0 0 8 13 6 55 86 0 29 202 0 170 145 212 215 255 146 0 0 0 0 0 0 206 0 0 0 0 255 95 110 0 0 255 0 0 0 7 255 0 206 0 0 0 0 0 0 33 157 178 118 0 118 255 201 21 255 0 0 34 0 0 0 0 0 0 0 7 5 75 130 73 0 111 128 0 0 0 82 124 0 161 34 0 0 26 13 0 0 0 0 79 210 0 0 0 145 255 0 0 0 31 13 23 0 0 0 23 24 0 0 0 44 0 6 37 4 3 34 0 27 0 33 38 0 0 13 0 0 0 34 36 13 0 0 0 15 14 27 12 6 0 1 9 8 0 0 0 5 3 8 15 0 11 6 0 0 13 9 21 0 0 19 18 30 26 3 20 0 66 31 0 0 213 137 34 0 149 0 0 0 96 255 160 86 0 0 5 20 0 0 29 0 0 0 0 0 8 0 0 15 0 6 0 3 0 3 0 0 0 0 0 4 0 1 0 27 21 0 0 0 0 5 6 4 5 5 0 3 1 0 0 9 1 7 1 2 0 4 9 0 19 31 26 60 70 0 0 47 0 0 7 0 0 22 0 31 0 16 6 13 0 0 2 14 7 1 0 0 8 0 4 0 17 0 4 109 0 0 0 33 72 0 246 0 0 0 0 37 47 45 13 39 0 0 33 0 0 0 0 0 2 6 0 27 0 0 17 29 17 0 22 28 0 0 0 0 255 141 90 0 16 14 0 0 14 15 0 5 0 16 18 25 18 21 18 12 0 12 6 14 5 9 4 13 11 1 1 9 5 3 2 9 0 0 65 38 0 0 78 65 0 0 69 150 83 0 0 154 115 0 144 71 0 0 0 255 255 103 0 34 0 0 0 54 134 0 0 196 0 0 255 255 105 43 0 255 156 25 56 0 255 165 72 0 0 0 255 248 30 0 0 18 0 0 10 0 0 1 5 1 6 0 9 0 0 0 0 0 0 0 0 0 0 2 0 0 0 3 2 10 0 18 23 29 188 111 0 0 10 103 41 0 76 104 73 0 0 0 0 0 0 1 19 33 0 0 25 88 34 6 0 34 0 0 0 14 0 0 16 0 0 30 31 0 0 0 74 0 54 81 81 60 0 0 6 0 0 12 7 0 6 42 0 0 48 18 0 3 29 5 0 0 0 66 56 54 55 0 69 0 27 24 0 0 53 52 8 3 0 0 0 25 0 0 53 95 12 0 0 14 0 47 0 0 0 0 0 0 0 0 2 34 0 0 0 0 0 0 102 0 21 24 0 0 0 0 25 25 0 0 0 0 0 12 0 0 0 31 0 24 162 0 18 25 0 73 125 0 0 45 180 105 0 0 0 0 0 69 9 0 0 0 98 8 0 0 80 92 0 0 0 2 0 5 0 5 0 0 0 0 0 0 0 0 0 0 0 0 0 0 0 0 0 0 0 0 0 0 0 0 0 0 0 0 0 0 0 0 0 0 0 0 0 0 0 0 0 0 0 0 0 0 0 0 0 0 0 0 0 0 0 0 0 0 0 0 0 0 0 0 0 0 0 0 0 0 0 0 0 0 0 0 0 0 0 0 0 0 0 0 0 0 0 0 0 0 0 0 0 0 0 0 0 0 0 0 0 0 0 0 0 0 0 0 0 0 0 0 0 0 0 0 0 0 0 0 0 0 0 0 0 0 0 0 0 0 0 0 0 0 0 0 0 0 0 0 0 0 0 0 0 0 0 0 0 0 0 0 0 0 255
255 0 0 0 0 0 0 0 0 0 0 0 0 0 0 0 0 0 0 0 0 0 0 0 0 0 0 0 0 0 0 0 0 0 0 0 0 0 0 0 0 0 0 0 0 0 0 0 0 0 0 0 0 0 0 0 0 0 0 0 0 0 0 0 0 0 0 0 0 0 0 0 0 0 0 0 0 0 0 0 0 0 0 0 0 0 0 0 0 0 0 0 0 0 0 0 0 0 0 0 0 0 0 0 0 0 0 0 0 0 0 0 0 0 0 0 0 0 0 0 2 0 1 9 4 2 5 3 0 0 0 4 0 12 52 83 0 0 128 153 0 242 32 18 114 22 140 208 0 0 255 124 0 0 0 0 255 0 111 95 0 239 0 0 255 255 0 0 96 0 0 0 255 255 189 55 0 156 0 0 140 176 0 0 255 255 4 0 0 0 184 128 92 154 43 0 0 115 161 0 0 0 29 0 0 38 87 0 75 73 0 0 156 174 100 91 0 0 0 4 255 0 0 0 0 224 201 63 0 29 23 7 64 25 0 6 0 0 0 18 7 0 8 9 0 0 15 0 77 0 11 80 0 7 40 0 0 0 0 0 0 0 10 22 0 0 0 1 9 4 6 0 19 0 0 0 0 3 9 20 0 10 4 0 0 15 14 4 0 7 0 0 0 4 8 53 0 15 0 0 26 0 0 152 0 31 54 0 0 0 0 77 218 83 43 0 4 0 1 0 1 0 4 9 7 12 9 0 0 0 0 0 0 3 5 12 0 0 3 0 0 0 4 0 10 9 12 0 0 0 0 0 1 0 0 0 9 0 0 0 0 0 2 0 0 2 6 15 0 16 0 0 40 99 42 0 0 0 40 52 0 0 52 0 22 0 2 0 0 0 0 0 14 12 0 0 0 0 1 5 0 25 0 7 79 53 0 0 0 55 0 245 0 0 0 0 0 4 32 34 65 13 0 0 19 3 0 0 0 7 4 0 17 4 15 33 30 10 0 0 1 0 61 77 121 125 0 0 4 12 0 0 0 12 11 0 0 0 0 0 0 0 0 0 9 9 2 0 7 1 0 6 0 0 0 0 0 3 0 0 21 0 0 40 7 0 0 40 54 25 7 0 0 0 0 0 0 255 255 0 255 213 0 0 38 0 0 0 181 0 0 0 0 0 0 0 78 132 201 0 0 0 52 212 87 0 85 255 18 25 208 255 137 0 188 191 38 0 0 33 0 0 27 23 0 0 0 0 0 0 0 1 0 0 0 0 0 0 0 0 0 0 1 3 0 0 0 8 0 13 0 45 199 26 0 0 56 103 42 0 22 129 36 0 0 0 17 1 0 0 3 0 0 0 0 23 31 0 9 43 49 2 0 0 0 0 2 31 0 0 0 23 51 27 15 29 25 53 76 70 16 0 0 19 0 0 0 0 0 0 0 0 0 91 37 0 22 53 0 16 0 0 8 0 0 46 29 34 0 51 15 0 0 61 42 3 0 0 0 9 26 24 22 47 152 161 0 0 33 9 21 0 0 21 39 23 35 62 65 0 16 36 16 0 0 20 71 79 0 35 42 0 0 5 32 7 93 0 0 3 0 9 10 0 2 0 1 0 0 114 0 17 37 0 67 150 0 0 0 112 23 0 0 3 29 0 65 4 0 0 0 96 7 0 0 0 148 9 0 0 6 2 7 0 7 0 0 0 0 0 0 0 0 0 0 0 0 0 0 0 0 0 0 0 0 0 0 0 0 0 0 0 0 0 0 0 0 0 0 0 0 0 0 0 0 0 0 0 0 0 0 0 0 0 0 0 0 0 0 0 0 0 0 0 0 0 0 0 0 0 0 0 0 0 0 0 0 0 0 0 0 0 0 0 0 0 0 0 0 0 0 0 0 0 0 0 0 0 0 0 0 0 0 0 0 0 0 0 0 0 0 0 0 0 0 0 0 0 0 0 0 0 0 0 0 0 0 0 0 0 0 0 0 0 0 0 0 0 0 0 0 0 0 0 0 0 0 0 0 0 0 0 0 0 0 0 0 0 0 255
255 0 0 0 0 0 0 0 0 0 0 0 0 0 0 0 0 0 0 0 0 0 0 0 0 0 0 0 0 0 0 0 0 0 0 0 0 0 0 0 0 0 0 0 0 0 0 0 0 0 0 0 0 0 0 0 0 0 0 0 0 0 0 0 0 0 0 0 0 0 0 0 0 0 0 0 0 0 0 0 0 0 0 0 0 0 0 0 0 0 0 0 0 0 0 0 0 0 0 0 0 0 0 0 0 0 0 0 0 0 0 0 0 0 0 0 0 0 0 0 2 5 0 3 0 0 5 0 10 0 5 13 0 6 24 89 0 0 233 0 0 235 26 0 0 0 0 0 0 0 91 0 0 134 255 255 214 0 255 0 0 0 0 139 112 0 0 9 14 163 127 180 248 63 0 0 120 83 0 0 212 55 0 78 0 141 201 0 0 0 159 68 0 0 0 1 0 0 0 255 0 0 0 0 134 0 0 0 0 23 62 56 49 0 0 226 105 239 74 0 206 210 27 27 0 0 210 63 50 42 0 0 0 15 0 0 0 23 42 23 0 0 13 0 0 0 10 4 32 0 0 57 0 3 59 0 35 0 0 0 0 0 1 8 2 0 0 0 14 17 1 0 26 5 4 0 0 4 6 9 0 11 0 0 0 6 0 0 0 5 0 0 0 4 9 54 112 0 14 14 0 0 0 0 41 0 106 94 0 0 0 0 0 168 255 73 0 0 27 0 9 0 10 5 12 14 17 0 11 0 4 0 0 0 2 3 4 1 0 0 1 0 5 0 0 0 6 5 8 0 0 0 0 0 0 3 11 9 6 16 0 0 0 1 0 0 4 0 15 0 0 0 16 40 39 81 0 0 0 51 0 0 55 0 12 0 5 5 11 0 0 3 23 7 2 0 0 0 0 22 0 28 8 1 7 25 16 50 0 7 0 155 175 0 0 19 0 0 5 20 75 48 17 28 30 12 2 3 8 7 5 0 0 0 16 25 1 0 0 0 0 0 103 66 0 0 0 44 15 2 0 0 0 10 6 0 18 4 6 6 3 7 13 18 0 6 4 4 2 0 0 10 0 0 0 0 0 0 0 0 18 30 0 0 0 88 45 0 0 24 95 38 0 75 0 0 0 0 93 12 108 255 156 0 0 104 7 0 0 58 0 0 0 0 0 0 170 62 147 0 0 0 57 149 0 0 0 0 0 0 193 0 0 144 253 85 3 0 49 55 0 0 43 0 5 0 4 0 3 1 0 0 0 0 0 3 0 0 0 7 0 2 0 7 1 3 1 1 1 18 22 136 156 0 0 32 69 42 0 0 66 110 0 0 0 10 21 0 0 6 4 0 0 14 42 20 0 0 0 0 48 14 3 0 0 0 6 55 25 0 0 0 15 0 0 4 25 0 0 0 0 0 7 28 41 41 4 0 15 16 0 0 0 62 0 0 6 35 0 0 0 0 0 0 0 29 2 0 0 44 0 0 0 29 0 0 0 13 15 0 6 35 14 0 45 134 0 0 17 0 0 0 0 0 0 0 13 47 15 0 0 15 8 0 0 37 84 106 0 14 28 2 11 35 27 0 120 0 0 7 6 6 5 0 37 35 4 0 0 59 0 28 26 0 40 78 0 0 0 0 0 0 0 18 26 0 98 49 0 0 0 86 16 0 0 0 194 7 6 0 0 5 6 0 6 0 0 0 0 0 0 0 0 0 0 0 0 0 0 0 0 0 0 0 0 0 0 0 0 0 0 0 0 0 0 0 0 0 0 0 0 0 0 0 0 0 0 0 0 0 0 0 0 0 0 0 0 0 0 0 0 0 0 0 0 0 0 0 0 0 0 0 0 0 0 0 0 0 0 0 0 0 0 0 0 0 0 0 0 0 0 0 0 0 0 0 0 0 0 0 0 0 0 0 0 0 0 0 0 0 0 0 0 0 0 0 0 0 0 0 0 0 0 0 0 0 0 0 0 0 0 0 0 0 0 0 0 0 0 0 0 0 0 0 0 0 0 0 0 0 0 0 0 0 0 0 0 0 0 255
255 0 0 0 0 0 0 0 0 0 0 0 0 0 0 0 0 0 0 0 0 0 0 0 0 0 0 0 0 0 0 0 0 0 0 0 0 0 0 0 0 0 0 0 0 0 0 0 0 0 0 0 0 0 0 0 0 0 0 0 0 0 0 0 0 0 0 0 0 0 0 0 0 0 0 0 0 0 0 0 0 0 0 0 0 0 0 0 0 0 0 0 0 0 0 0 0 0 0 0 0 0 0 0 0 0 0 0 0 0 0 0 0 0 0 0 0 0 0 0 2 0 0 5 1 0 5 0 17 0 13 12 0 8 21 58 0 66 187 0 102 0 13 158 255 125 36 0 99 46 0 0 255 213 126 136 0 0 98 0 0 69 0 0 0 123 49 20 108 200 189 0 0 0 13 158 0 0 0 0 173 0 0 48 112 0 129 114 197 0 0 106 0 255 255 101 95 66 0 24 0 0 176 106 108 0 0 0 0 0 11 0 0 0 0 0 140 208 227 99 2 42 103 209 0 0 118 128 98 0 0 39 0 13 22 0 0 31 24 0 29 2 30 10 0 0 38 10 50 0 13 27 0 0 30 31 27 14 6 11 25 16 0 0 30 14 0 0 7 12 0 0 16 4 9 0 0 7 0 0 0 13 0 0 0 0 0 0 0 9 15 13 16 19 11 15 42 0 18 23 0 0 0 0 236 0 62 0 0 219 35 0 0 0 29 157 135 13 0 29 0 0 0 0 0 0 0 0 38 12 14 14 12 7 1 0 0 0 5 3 6 4 0 1 0 0 21 16 27 10 5 16 0 0 0 4 4 9 3 24 0 0 0 0 4 0 2 0 0 0 0 20 6 0 2 76 104 0 0 2 53 0 2 36 12 1 9 9 5 6 16 5 3 5 6 0 0 0 1 22 0 20 24 0 0 0 12 43 5 0 11 57 255 0 0 19 0 0 0 0 20 44 53 102 26 12 8 3 10 8 1 2 0 0 29 28 16 0 0 0 56 45 5 0 0 58 42 0 17 0 0 0 0 4 5 0 24 10 14 8 1 9 17 16 2 2 2 0 0 1 0 7 0 0 0 6 7 8 0 0 22 0 0 22 14 0 3 39 59 0 109 230 255 226 45 0 0 0 0 255 130 0 8 240 0 0 0 0 119 255 144 0 172 255 61 0 255 42 0 140 87 0 0 0 255 255 48 0 255 255 0 0 0 255 88 0 40 0 17 0 0 17 56 0 19 9 0 0 0 0 2 10 0 5 6 0 2 0 0 17 0 0 7 5 0 0 7 6 29 0 143 148 0 0 0 33 29 18 3 35 77 20 0 0 0 8 12 0 0 24 19 13 0 18 73 42 0 0 0 0 26 8 4 0 0 0 2 44 12 22 19 5 0 0 27 95 98 0 0 0 0 0 18 0 75 66 0 0 36 24 0 0 0 22 0 0 9 10 0 0 58 0 0 0 37 72 0 3 0 73 0 0 4 26 0 0 0 32 12 0 0 7 0 0 0 62 0 0 8 9 32 18 15 0 0 0 0 0 0 0 36 0 0 0 0 0 0 23 0 0 0 0 28 37 10 0 59 0 0 0 0 0 1 0 0 12 0 0 0 43 57 124 28 14 0 0 0 0 0 0 0 0 0 0 0 0 161 108 0 16 0 73 28 0 0 0 234 26 10 0 0 8 4 0 4 0 0 0 0 0 0 0 0 0 0 0 0 0 0 0 0 0 0 0 0 0 0 0 0 0 0 0 0 0 0 0 0 0 0 0 0 0 0 0 0 0 0 0 0 0 0 0 0 0 0 0 0 0 0 0 0 0 0 0 0 0 0 0 0 0 0 0 0 0 0 0 0 0 0 0 0 0 0 0 0 0 0 0 0 0 0 0 0 0 0 0 0 0 0 0 0 0 0 0 0 0 0 0 0 0 0 0 0 0 0 0 0 0 0 0 0 0 0 0 0 0 0 0 0 0 0 0 0 0 0 0 0 0 0 0 0 0 0 0 0 0 0 0 0 0 0 0 0 0 0 0 0 0 0 255
255 0 0 0 0 0 0 0 0 0 0 0 0 0 0 0 0 0 0 0 0 0 0 0 0 0 0 0 0 0 0 0 0 0 0 0 0 0 0 0 0 0 0 0 0 0 0 0 0 0 0 0 0 0 0 0 0 0 0 0 0 0 0 0 0 0 0 0 0 0 0 0 0 0 0 0 0 0 0 0 0 0 0 0 0 0 0 0 0 0 0 0 0 0 0 0 0 0 0 0 0 0 0 0 0 0 0 0 0 0 0 0 0 0 0 0 0 0 0 0 3 0 0 0 4 2 5 0 7 0 5 4 3 0 29 26 71 51 156 255 225 49 59 168 0 136 3 0 81 10 255 0 0 37 48 0 0 0 26 171 169 131 236 255 183 103 148 56 134 0 40 0 0 0 0 110 0 0 255 255 76 0 0 31 55 0 118 0 30 255 129 171 0 0 0 0 178 71 24 255 0 0 59 0 30 40 29 0 0 0 0 0 0 125 32 0 0 0 0 136 0 0 183 12 52 0 0 156 91 0 0 95 0 18 24 20 13 0 0 0 52 0 15 11 0 22 47 0 89 49 47 13 0 0 0 26 0 7 24 10 24 9 1 0 0 8 14 12 10 0 3 2 0 4 12 0 0 8 6 0 0 4 3 0 0 7 4 0 0 3 15 13 22 22 10 0 0 18 19 0 76 0 0 154 60 0 0 13 93 0 0 1 0 0 0 47 206 42 0 77 0 0 0 0 0 0 0 0 13 7 10 12 8 0 3 0 0 0 4 0 2 2 0 1 0 3 4 7 21 12 5 29 0 1 3 0 6 3 4 10 0 8 0 0 0 0 3 2 0 0 8 14 10 0 0 0 129 6 0 0 15 0 0 21 7 0 0 10 9 13 2 7 0 7 12 7 3 0 0 1 0 0 18 0 0 0 0 0 37 0 7 22 255 0 0 0 0 0 0 0 0 0 8 49 26 0 11 4 0 0 8 10 12 11 31 37 27 0 13 37 0 53 48 0 0 0 20 0 16 0 0 2 1 4 3 7 0 0 2 0 0 0 0 0 1 0 3 0 0 0 0 0 0 7 7 3 15 14 4 0 30 0 33 106 66 0 0 142 155 10 124 172 0 0 43 255 238 17 0 29 202 155 18 134 255 0 0 0 216 80 18 0 2 147 20 0 255 112 0 141 0 0 0 0 207 230 255 0 0 116 0 0 149 23 22 0 18 0 0 0 0 35 39 0 11 1 0 2 0 0 0 9 0 0 4 0 2 0 0 22 0 0 2 6 0 0 7 5 8 49 132 0 0 0 102 0 28 31 53 68 23 0 0 0 0 0 0 0 0 0 10 0 0 0 25 21 18 23 25 0 0 0 0 0 0 0 0 16 0 14 42 14 0 2 33 73 112 0 0 24 0 0 18 0 3 33 0 0 28 1 0 22 17 0 10 35 13 3 24 0 75 0 22 30 87 111 0 31 0 96 13 0 52 42 0 37 24 7 0 0 0 4 0 0 15 54 0 0 6 24 64 27 58 46 12 39 34 11 35 110 4 0 0 4 0 0 0 0 17 0 0 2 15 0 0 30 23 0 0 0 0 0 1 0 0 31 0 0 0 16 58 119 0 3 0 0 0 0 11 0 0 27 0 0 0 0 199 80 0 30 0 81 38 0 0 0 207 16 18 2 0 8 4 0 4 0 0 0 0 0 0 0 0 0 0 0 0 0 0 0 0 0 0 0 0 0 0 0 0 0 0 0 0 0 0 0 0 0 0 0 0 0 0 0 0 0 0 0 0 0 0 0 0 0 0 0 0 0 0 0 0 0 0 0 0 0 0 0 0 0 0 0 0 0 0 0 0 0 0 0 0 0 0 0 0 0 0 0 0 0 0 0 0 0 0 0 0 0 0 0 0 0 0 0 0 0 0 0 0 0 0 0 0 0 0 0 0 0 0 0 0 0 0 0 0 0 0 0 0 0 0 0 0 0 0 0 0 0 0 0 0 0 0 0 0 0 0 0 0 0 0 0 0 0 0 0 0 0 0 255
255 0 0 0 0 0 0 0 0 0 0 0 0 0 0 0 0 0 0 0 0 0 0 0 0 0 0 0 0 0 0 0 0 0 0 0 0 0 0 0 0 0 0 0 0 0 0 0 0 0 0 0 0 0 0 0 0 0 0 0 0 0 0 0 0 0 0 0 0 0 0 0 0 0 0 0 0 0 0 0 0 0 0 0 0 0 0 0 0 0 0 0 0 0 0 0 0 0 0 0 0 0 0 0 0 0 0 0 0 0 0 0 0 0 0 0 0 0 0 0 2 0 0 0 0 2 0 1 10 0 12 10 0 0 56 80 84 0 60 0 0 60 3 0 0 0 194 255 0 0 167 0 24 197 0 0 0 15 255 255 0 142 78 25 0 0 99 69 22 0 0 0 255 192 0 0 0 8 255 0 0 9 203 85 83 0 25 21 0 167 0 0 0 0 87 116 0 27 99 154 82 0 144 46 20 0 82 30 6 145 255 97 0 0 30 150 144 0 0 156 0 0 48 0 0 60 0 52 32 45 31 0 36 0 0 7 25 0 7 22 46 0 0 8 36 60 48 0 58 39 0 0 54 64 0 0 0 0 0 15 8 1 17 60 0 0 22 14 0 0 4 53 0 4 12 0 0 13 2 0 0 0 5 0 0 15 12 0 24 11 0 0 0 15 7 5 57 0 35 0 0 39 0 0 0 255 4 0 45 0 78 0 110 0 0 0 0 13 68 4 34 13 2 0 0 0 10 15 0 0 0 1 10 17 11 10 0 5 12 8 20 9 1 0 5 0 0 0 0 0 5 19 0 0 0 0 0 2 0 0 0 0 0 9 7 0 1 0 11 14 0 0 0 30 32 0 0 126 10 0 0 40 26 0 13 0 14 8 0 3 13 0 18 15 29 21 8 0 11 14 22 0 9 43 14 29 33 0 11 0 0 25 174 0 0 33 24 39 27 0 0 0 0 9 92 24 29 20 3 0 2 25 6 0 0 0 0 0 13 30 19 0 0 10 43 0 0 0 0 0 0 0 8 0 10 17 0 0 0 9 3 1 0 0 15 0 1 0 5 7 1 1 0 0 0 0 0 0 0 0 0 66 27 0 0 113 83 0 0 0 61 69 0 37 31 0 132 65 0 0 0 0 0 29 90 0 0 0 0 0 0 0 242 170 55 0 20 0 0 155 0 255 255 255 0 148 255 0 0 179 229 245 139 99 0 51 0 0 35 46 24 0 0 9 0 1 1 0 0 0 0 12 0 17 16 3 0 0 0 14 0 0 0 0 0 0 0 7 0 231 105 0 0 15 22 13 7 0 40 85 0 0 0 0 0 0 4 1 0 0 0 0 105 0 0 0 28 39 22 0 0 0 3 25 34 41 12 0 0 9 68 80 106 86 0 0 0 0 0 34 0 0 43 0 0 20 0 0 21 0 0 28 0 0 0 56 0 0 23 0 0 0 0 0 0 139 73 10 0 70 0 0 35 0 0 46 64 0 0 9 60 52 51 63 159 108 0 0 0 0 23 0 0 0 3 88 57 0 0 113 0 0 28 6 11 30 84 82 47 13 5 21 0 0 0 106 48 0 0 17 14 0 14 0 0 44 6 0 0 0 0 37 0 0 0 0 0 0 0 0 0 42 0 0 22 0 236 31 0 35 0 104 64 0 0 0 186 20 25 16 0 11 7 0 3 0 0 0 0 0 0 0 0 0 0 0 0 0 0 0 0 0 0 0 0 0 0 0 0 0 0 0 0 0 0 0 0 0 0 0 0 0 0 0 0 0 0 0 0 0 0 0 0 0 0 0 0 0 0 0 0 0 0 0 0 0 0 0 0 0 0 0 0 0 0 0 0 0 0 0 0 0 0 0 0 0 0 0 0 0 0 0 0 0 0 0 0 0 0 0 0 0 0 0 0 0 0 0 0 0 0 0 0 0 0 0 0 0 0 0 0 0 0 0 0 0 0 0 0 0 0 0 0 0 0 0 0 0 0 0 0 0 0 0 0 0 0 0 0 0 0 0 0 0 0 0 0 0 0 255
255 0 0 0 0 0 0 0 0 0 0 0 0 0 0 0 0 0 0 0 0 0 0 0 0 0 0 0 0 0 0 0 0 0 0 0 0 0 0 0 0 0 0 0 0 0 0 0 0 0 0 0 0 0 0 0 0 0 0 0 0 0 0 0 0 0 0 0 0 0 0 0 0 0 0 0 0 0 0 0 0 0 0 0 0 0 0 0 0 0 0 0 0 0 0 0 0 0 0 0 0 0 0 0 0 0 0 0 0 0 0 0 0 0 0 0 0 0 0 0 1 5 0 0 5 2 4 3 0 1 20 0 50 46 101 0 0 109 0 0 255 0 0 0 0 173 63 0 0 68 0 0 49 0 0 88 0 150 184 145 119 0 28 59 0 0 73 4 0 0 0 174 0 73 137 217 0 0 158 8 0 42 0 0 0 25 146 0 0 154 0 0 129 130 67 0 0 99 107 0 0 61 8 0 79 0 0 240 20 0 0 252 106 0 0 0 0 0 0 0 0 255 159 0 0 0 0 255 9 0 0 0 0 44 0 0 51 0 0 0 37 64 0 18 27 0 121 0 0 0 0 54 0 0 77 17 21 12 29 0 0 0 37 51 0 3 8 0 0 19 20 0 33 0 0 14 25 0 0 22 7 4 1 13 11 14 9 0 21 0 0 0 0 0 0 0 0 0 0 4 37 39 21 0 0 212 152 0 4 100 29 0 0 0 0 229 93 0 0 24 74 34 10 37 0 0 51 6 6 0 0 12 0 0 0 26 0 0 0 0 0 0 0 2 8 3 18 15 8 0 0 0 1 9 20 3 0 0 0 18 17 9 0 0 0 0 12 0 14 0 6 0 0 0 0 17 0 73 73 0 0 0 6 0 13 0 0 14 21 10 0 0 7 0 0 0 0 4 0 0 0 3 14 8 0 0 0 7 8 0 0 0 255 65 0 0 64 9 0 0 45 0 0 0 74 107 92 32 25 21 0 24 0 0 1 21 20 8 0 0 0 3 2 0 0 0 10 18 0 0 0 1 3 0 0 0 5 3 0 0 7 4 10 0 0 1 10 3 0 0 0 0 24 0 0 67 50 0 0 3 0 14 18 13 106 255 194 0 0 0 0 0 0 255 255 108 0 63 147 0 0 0 0 56 0 16 0 0 0 0 0 201 68 113 0 0 199 22 0 99 0 136 201 0 0 0 0 0 255 255 108 1 15 0 0 0 0 4 0 0 0 18 30 13 10 11 0 0 4 0 0 0 12 0 0 0 14 3 0 2 0 12 40 21 0 19 56 2 99 223 0 0 13 46 73 35 0 89 85 0 0 0 36 2 25 0 1 5 0 0 0 0 66 18 25 1 0 0 3 25 0 19 3 0 0 16 19 7 10 0 0 0 0 0 0 0 0 19 6 0 13 59 23 0 0 93 0 80 0 0 57 33 0 15 27 0 0 0 0 17 11 22 0 0 0 0 9 25 23 0 0 0 45 55 26 0 0 29 20 0 0 0 7 17 62 0 0 0 0 0 67 0 0 0 0 0 0 0 49 115 0 0 1 0 106 0 21 116 0 0 0 0 0 20 0 102 0 0 13 32 0 0 0 0 52 189 89 0 0 7 0 0 0 0 10 27 0 0 12 0 0 0 0 85 0 0 143 25 0 54 0 0 114 0 0 0 69 142 0 12 0 0 9 2 2 0 0 0 0 0 0 0 0 0 0 0 0 0 0 0 0 0 0 0 0 0 0 0 0 0 0 0 0 0 0 0 0 0 0 0 0 0 0 0 0 0 0 0 0 0 0 0 0 0 0 0 0 0 0 0 0 0 0 0 0 0 0 0 0 0 0 0 0 0 0 0 0 0 0 0 0 0 0 0 0 0 0 0 0 0 0 0 0 0 0 0 0 0 0 0 0 0 0 0 0 0 0 0 0 0 0 0 0 0 0 0 0 0 0 0 0 0 0 0 0 0 0 0 0 0 0 0 0 0 0 0 0 0 0 0 0 0 0 0 0 0 0 0 0 0 0 0 0 0 0 0 0 0 0 255
255 0 0 0 0 0 0 0 0 0 0 0 0 0 0 0 0 0 0 0 0 0 0 0 0 0 0 0 0 0 0 0 0 0 0 0 0 0 0 0 0 0 0 0 0 0 0 0 0 0 0 0 0 0 0 0 0 0 0 0 0 0 0 0 0 0 0 0 0 0 0 0 0 0 0 0 0 0 0 0 0 0 0 0 0 0 0 0 0 0 0 0 0 0 0 0 0 0 0 0 0 0 0 0 0 0 0 0 0 0 0 0 0 0 0 0 0 0 0 0 1 5 0 0 3 0 3 1 0 0 1 45 109 9 0 0 69 0 0 255 7 0 255 201 99 45 0 0 21 0 97 0 44 68 143 154 0 0 0 62 255 255 38 0 0 158 0 0 25 103 0 62 0 0 0 200 0 0 251 0 0 0 0 0 117 214 0 0 36 0 156 19 99 255 202 0 56 132 46 197 0 73 80 0 21 24 0 90 0 0 0 0 255 0 0 109 0 0 22 132 0 225 164 0 0 0 0 255 32 41 73 44 11 64 0 15 37 0 9 0 0 73 0 22 36 0 72 0 53 64 1 56 16 0 27 0 0 0 22 52 16 16 21 0 29 0 0 15 3 0 0 0 17 0 0 15 22 0 0 13 4 0 0 0 5 7 0 0 5 0 0 8 15 27 19 35 53 45 23 7 8 0 0 0 0 0 0 0 13 25 0 0 0 0 180 161 36 67 90 0 0 0 8 62 25 0 27 0 0 0 0 22 27 5 4 15 0 6 0 0 6 5 0 0 0 0 0 0 10 0 2 9 0 7 12 0 0 0 0 0 13 3 0 0 1 8 2 0 25 0 2 0 0 5 0 4 0 30 34 3 0 0 0 27 28 1 0 15 13 13 15 0 26 9 6 4 18 15 0 4 0 2 6 5 0 0 4 15 14 26 26 0 157 137 0 0 0 3 67 1 0 0 0 15 0 0 0 48 124 50 0 0 0 9 10 9 0 6 6 2 4 4 0 0 0 0 0 8 0 0 1 0 0 2 0 0 5 0 0 0 8 4 12 0 6 7 2 0 0 0 4 1 39 17 26 25 0 4 47 70 0 42 6 0 19 0 0 67 255 114 35 0 0 0 2 111 0 30 110 0 13 41 0 0 0 0 255 172 255 0 0 255 210 0 0 147 71 114 183 89 41 0 0 0 0 255 0 0 0 22 0 0 1 0 7 0 0 10 10 0 6 15 3 0 9 0 0 0 3 0 7 0 7 0 0 2 7 0 0 1 0 0 0 0 41 0 0 58 208 0 0 0 31 9 0 4 111 48 0 0 0 0 0 0 21 0 0 9 0 0 0 0 27 2 0 0 0 4 7 3 12 8 6 0 0 18 18 19 19 21 6 0 0 0 0 0 0 0 0 0 6 0 0 20 5 35 0 0 0 145 70 49 0 0 0 0 0 5 0 0 0 0 0 0 18 0 17 0 0 0 0 0 10 6 5 2 66 0 0 60 135 6 0 0 29 26 45 0 0 10 54 0 3 52 54 10 24 45 41 36 0 0 61 0 13 0 25 67 0 0 42 0 2 80 0 33 0 0 0 0 0 52 0 0 97 76 31 0 0 0 0 0 23 0 0 0 0 108 78 0 0 0 0 68 0 0 109 0 0 20 0 0 136 28 0 0 27 183 0 16 0 0 9 1 1 0 0 0 0 0 0 0 0 0 0 0 0 0 0 0 0 0 0 0 0 0 0 0 0 0 0 0 0 0 0 0 0 0 0 0 0 0 0 0 0 0 0 0 0 0 0 0 0 0 0 0 0 0 0 0 0 0 0 0 0 0 0 0 0 0 0 0 0 0 0 0 0 0 0 0 0 0 0 0 0 0 0 0 0 0 0 0 0 0 0 0 0 0 0 0 0 0 0 0 0 0 0 0 0 0 0 0 0 0 0 0 0 0 0 0 0 0 0 0 0 0 0 0 0 0 0 0 0 0 0 0 0 0 0 0 0 0 0 0 0 0 0 0 0 0 0 0 0 0 0 0 0 0 0 255
255 0 0 0 0 0 0 0 0 0 0 0 0 0 0 0 0 0 0 0 0 0 0 0 0 0 0 0 0 0 0 0 0 0 0 0 0 0 0 0 0 0 0 0 0 0 0 0 0 0 0 0 0 0 0 0 0 0 0 0 0 0 0 0 0 0 0 0 0 0 0 0 0 0 0 0 0 0 0 0 0 0 0 0 0 0 0 0 0 0 0 0 0 0 0 0 0 0 0 0 0 0 0 0 0 0 0 0 0 0 0 0 0 0 0 0 0 0 0 0 2 0 0 0 3 1 5 6 24 30 11 75 1 0 0 0 0 0 136 255 0 0 132 255 0 148 0 0 39 51 0 41 165 150 15 0 83 0 0 0 0 22 113 130 0 224 65 0 23 183 185 16 0 0 48 255 255 0 0 60 169 165 67 139 0 57 0 185 165 2 9 214 29 0 0 0 42 46 90 32 0 22 90 0 0 40 91 0 137 0 0 161 255 0 0 0 0 0 0 0 0 0 34 14 0 0 0 255 0 0 38 0 0 22 0 25 1 19 67 46 0 47 0 0 20 0 0 28 28 57 0 7 46 15 29 0 33 0 0 2 0 15 26 0 84 0 0 22 21 0 0 22 15 0 0 9 10 0 0 16 3 0 0 0 0 0 0 0 7 4 1 0 9 14 13 45 0 0 0 6 47 52 45 38 0 0 6 91 1 0 0 0 199 255 225 0 0 0 0 26 0 0 53 101 12 0 0 17 0 0 0 5 17 8 1 0 8 7 0 0 1 0 9 0 0 0 0 0 2 0 15 13 0 0 13 3 0 0 0 0 12 6 2 0 2 0 0 0 15 0 0 0 0 8 3 2 15 4 41 74 17 0 0 11 21 0 4 0 0 0 4 10 20 6 7 14 11 16 3 15 0 0 0 0 1 13 4 12 12 17 35 0 57 255 0 0 51 0 0 0 103 96 0 0 0 82 30 0 0 42 92 0 26 9 7 9 6 0 0 0 0 0 0 0 0 0 0 0 0 2 6 0 0 4 2 6 6 0 2 0 2 1 2 0 4 5 0 0 0 4 6 12 0 20 22 0 1 28 40 16 0 77 0 0 0 0 0 255 0 29 95 0 0 0 0 49 0 71 240 0 0 0 0 15 0 0 255 191 255 0 40 75 0 0 76 156 0 0 88 96 0 0 71 0 0 255 144 0 0 32 76 0 21 14 0 13 0 11 6 7 1 15 14 0 6 0 0 0 4 0 0 0 1 0 1 9 3 0 0 5 17 33 0 0 58 0 0 229 150 0 0 78 0 37 0 61 124 0 0 0 20 14 0 0 20 0 0 0 0 0 12 20 23 0 0 0 1 0 9 0 16 0 0 4 6 5 0 21 0 0 0 0 0 0 0 52 0 0 0 0 0 0 0 21 4 0 56 0 55 202 4 94 0 3 0 0 17 37 7 0 0 103 85 78 65 2 23 0 0 1 22 8 2 0 0 0 0 0 0 0 0 0 0 0 36 70 227 0 0 36 0 0 0 4 18 0 0 0 0 0 0 15 70 0 0 2 72 24 0 4 64 0 10 111 0 0 59 0 10 0 0 33 0 0 183 38 55 37 0 0 0 0 19 48 0 0 27 193 109 10 0 0 0 67 0 0 57 0 0 24 0 0 107 48 0 0 0 209 10 12 0 7 7 0 2 0 0 0 0 0 0 0 0 0 0 0 0 0 0 0 0 0 0 0 0 0 0 0 0 0 0 0 0 0 0 0 0 0 0 0 0 0 0 0 0 0 0 0 0 0 0 0 0 0 0 0 0 0 0 0 0 0 0 0 0 0 0 0 0 0 0 0 0 0 0 0 0 0 0 0 0 0 0 0 0 0 0 0 0 0 0 0 0 0 0 0 0 0 0 0 0 0 0 0 0 0 0 0 0 0 0 0 0 0 0 0 0 0 0 0 0 0 0 0 0 0 0 0 0 0 0 0 0 0 0 0 0 0 0 0 0 0 0 0 0 0 0 0 0 0 0 0 0 0 0 0 0 0 0 255
255 0 0 0 0 0 0 0 0 0 0 0 0 0 0 0 0 0 0 0 0 0 0 0 0 0 0 0 0 0 0 0 0 0 0 0 0 0 0 0 0 0 0 0 0 0 0 0 0 0 0 0 0 0 0 0 0 0 0 0 0 0 0 0 0 0 0 0 0 0 0 0 0 0 0 0 0 0 0 0 0 0 0 0 0 0 0 0 0 0 0 0 0 0 0 0 0 0 0 0 0 0 0 0 0 0 0 0 0 0 0 0 0 0 0 0 0 0 0 0 3 0 0 2 5 3 0 5 0 88 51 97 0 0 0 0 20 149 52 215 0 0 0 0 0 243 76 38 131 170 0 255 49 96 0 0 0 0 67 0 0 0 0 76 231 140 0 0 8 0 29 0 0 157 81 0 0 178 243 128 0 0 67 0 25 21 255 27 0 86 0 255 104 0 0 0 41 0 0 0 0 69 107 0 0 87 198 42 128 199 0 255 192 0 96 0 0 0 0 143 0 58 0 0 101 0 147 200 0 0 0 0 0 0 0 28 0 0 96 41 0 32 56 0 21 30 0 61 0 32 0 0 70 27 25 0 60 0 0 0 0 13 36 0 48 0 0 14 21 1 0 22 9 0 1 7 4 0 0 0 11 0 0 0 0 0 1 2 11 12 13 0 0 0 0 1 0 0 0 0 0 0 0 0 38 0 3 3 0 0 128 255 255 126 12 0 29 0 0 88 20 0 0 16 30 64 14 0 8 0 0 0 2 0 2 0 10 0 4 9 3 7 6 12 0 0 3 4 8 4 3 8 0 0 18 7 14 1 0 0 3 6 5 0 1 0 0 0 19 0 0 0 3 4 1 0 15 0 8 68 49 0 0 0 25 0 10 5 0 0 10 22 4 0 0 1 8 1 0 27 0 0 0 0 7 13 3 16 7 0 12 0 0 255 0 0 0 0 0 0 0 0 0 78 82 0 0 0 32 56 6 6 6 0 0 0 0 0 0 0 0 0 3 2 6 0 0 0 5 0 1 1 4 9 0 7 1 0 1 0 6 0 1 0 8 0 0 0 12 18 11 15 0 0 0 2 55 48 0 0 0 27 75 44 79 61 0 0 0 130 131 0 0 1 0 0 81 47 0 0 0 129 255 255 0 255 255 0 0 181 0 0 0 255 255 0 0 233 88 0 0 77 0 0 0 255 169 0 0 217 142 8 40 0 0 34 0 6 5 0 0 15 0 0 10 0 0 2 0 3 2 0 0 0 4 16 0 0 0 12 2 30 24 0 0 37 92 255 0 0 0 63 0 68 109 93 0 0 0 0 55 5 0 13 5 0 0 0 0 0 12 51 14 0 0 0 10 3 10 0 18 0 0 12 16 0 0 6 0 0 0 0 10 45 68 131 0 95 101 0 0 0 20 0 0 0 25 0 154 6 0 81 0 7 0 0 1 13 2 0 21 179 128 79 59 0 48 0 16 28 32 9 0 0 0 0 2 93 155 0 0 55 61 46 40 15 236 0 0 77 0 0 13 44 46 0 0 37 24 0 12 0 0 0 0 71 90 0 0 0 29 0 0 61 0 0 113 0 8 16 0 0 0 0 160 0 98 45 0 0 27 0 0 109 57 0 1 97 37 102 0 0 0 47 0 0 23 0 54 35 0 0 49 37 0 0 0 240 13 9 0 5 6 0 3 0 0 0 0 0 0 0 0 0 0 0 0 0 0 0 0 0 0 0 0 0 0 0 0 0 0 0 0 0 0 0 0 0 0 0 0 0 0 0 0 0 0 0 0 0 0 0 0 0 0 0 0 0 0 0 0 0 0 0 0 0 0 0 0 0 0 0 0 0 0 0 0 0 0 0 0 0 0 0 0 0 0 0 0 0 0 0 0 0 0 0 0 0 0 0 0 0 0 0 0 0 0 0 0 0 0 0 0 0 0 0 0 0 0 0 0 0 0 0 0 0 0 0 0 0 0 0 0 0 0 0 0 0 0 0 0 0 0 0 0 0 0 0 0 0 0 0 0 0 0 0 0 0 0 255
255 0 0 0 0 0 0 0 0 0 0 0 0 0 0 0 0 0 0 0 0 0 0 0 0 0 0 0 0 0 0 0 0 0 0 0 0 0 0 0 0 0 0 0 0 0 0 0 0 0 0 0 0 0 0 0 0 0 0 0 0 0 0 0 0 0 0 0 0 0 0 0 0 0 0 0 0 0 0 0 0 0 0 0 0 0 0 0 0 0 0 0 0 0 0 0 0 0 0 0 0 0 0 0 0 0 0 0 0 0 0 0 0 0 0 0 0 0 0 1 5 3 0 0 0 5 0 8 15 22 0 101 0 0 0 0 255 0 0 194 0 63 19 0 189 90 0 172 185 0 0 255 0 52 0 193 86 0 242 114 216 255 0 0 255 216 0 0 0 0 0 0 0 112 65 0 0 0 166 177 69 0 18 0 138 125 0 0 0 142 87 0 0 185 116 92 61 0 0 0 217 0 0 0 0 2 123 10 67 255 0 54 255 0 94 30 67 68 1 84 0 0 0 0 0 0 255 54 0 63 0 80 0 39 39 27 0 0 47 0 0 30 87 0 29 70 0 54 11 78 0 0 49 0 0 0 0 0 29 54 30 19 1 0 0 1 0 0 11 25 15 0 22 0 0 7 0 0 0 0 10 2 5 0 0 0 3 20 0 7 5 0 0 0 0 11 9 27 15 13 21 22 1 0 38 0 0 0 0 50 156 103 0 0 80 155 28 0 10 83 213 0 0 0 13 149 33 8 33 12 6 0 0 2 9 0 18 4 0 2 2 6 3 4 9 5 0 2 0 0 0 0 0 0 2 11 9 11 0 1 0 0 1 3 8 7 2 0 7 0 0 0 3 6 5 0 6 0 0 1 49 44 0 0 14 0 18 22 0 0 14 20 0 0 2 6 6 4 4 24 0 7 0 0 0 3 7 5 15 0 0 43 0 255 0 0 0 43 39 0 0 9 16 0 0 0 0 132 177 46 0 29 1 0 2 0 0 0 0 0 0 6 0 10 12 2 6 0 0 1 10 0 3 2 7 8 4 1 0 2 0 3 0 1 0 0 0 9 20 22 9 5 0 15 9 25 65 18 0 0 128 0 0 0 0 0 0 0 18 17 1 0 0 84 0 0 0 0 0 0 107 255 183 0 0 90 156 9 0 0 0 255 6 0 0 0 0 255 0 0 0 127 0 0 0 0 0 0 213 189 30 0 21 0 0 34 0 13 0 0 0 8 9 0 3 1 1 0 0 5 0 0 0 0 1 13 0 0 0 16 0 0 29 0 0 113 185 0 0 10 0 35 7 30 109 0 0 0 0 12 11 2 0 0 4 0 0 0 0 0 23 54 8 8 0 2 5 7 16 0 18 0 0 12 17 0 0 0 56 24 13 22 34 42 33 35 17 88 93 45 0 0 0 0 0 37 0 0 195 0 0 24 0 0 0 0 0 0 0 0 0 64 0 0 0 0 42 0 40 12 0 0 0 0 5 0 42 0 16 1 25 67 0 13 0 0 64 0 0 75 0 6 0 1 11 0 0 0 42 37 43 0 0 0 0 33 27 0 20 0 14 0 0 20 0 30 80 0 0 41 0 0 0 20 114 0 142 12 0 0 0 0 53 86 74 0 0 0 0 128 0 0 0 6 4 6 0 0 43 7 0 0 52 48 0 0 0 255 20 0 0 4 7 0 2 0 0 0 0 0 0 0 0 0 0 0 0 0 0 0 0 0 0 0 0 0 0 0 0 0 0 0 0 0 0 0 0 0 0 0 0 0 0 0 0 0 0 0 0 0 0 0 0 0 0 0 0 0 0 0 0 0 0 0 0 0 0 0 0 0 0 0 0 0 0 0 0 0 0 0 0 0 0 0 0 0 0 0 0 0 0 0 0 0 0 0 0 0 0 0 0 0 0 0 0 0 0 0 0 0 0 0 0 0 0 0 0 0 0 0 0 0 0 0 0 0 0 0 0 0 0 0 0 0 0 0 0 0 0 0 0 0 0 0 0 0 0 0 0 0 0 0 0 0 0 0 0 0 0 255
255 0 0 0 0 0 0 0 0 0 0 0 0 0 0 0 0 0 0 0 0 0 0 0 0 0 0 0 0 0 0 0 0 0 0 0 0 0 0 0 0 0 0 0 0 0 0 0 0 0 0 0 0 0 0 0 0 0 0 0 0 0 0 0 0 0 0 0 0 0 0 0 0 0 0 0 0 0 0 0 0 0 0 0 0 0 0 0 0 0 0 0 0 0 0 0 0 0 0 0 0 0 0 0 0 0 0 0 0 0 0 0 0 0 0 0 0 0 0 2 0 0 0 0 1 8 3 8 152 0 0 0 44 0 0 55 61 0 107 178 0 50 171 228 20 0 0 171 0 0 235 41 0 255 33 145 255 0 94 0 0 255 14 0 0 39 0 0 0 221 61 136 178 0 14 255 0 0 0 6 255 225 125 133 0 11 0 0 179 123 145 0 0 62 130 118 0 105 29 0 193 0 0 0 0 0 0 0 139 9 0 152 9 0 51 1 20 54 0 13 0 184 255 255 0 190 229 0 0 67 0 62 0 48 14 26 0 0 40 0 0 0 55 0 0 53 0 0 71 80 0 7 16 0 1 0 28 0 24 45 0 0 11 14 0 14 10 0 0 15 15 0 23 0 0 0 2 2 0 0 2 9 5 8 3 0 1 32 0 0 0 4 0 12 21 68 0 1 0 0 11 10 1 13 0 35 13 0 122 205 63 0 53 0 70 144 0 0 0 107 50 0 4 0 0 0 0 152 26 27 18 0 0 6 17 12 0 6 1 10 7 8 4 0 16 0 2 5 2 0 0 0 16 0 5 11 7 0 0 4 0 0 0 0 10 0 2 7 2 0 0 0 0 1 2 0 8 25 0 0 30 94 29 0 0 0 19 14 9 2 0 0 10 6 7 8 3 6 11 25 15 19 0 0 0 3 0 3 49 0 0 44 15 251 0 0 121 0 0 2 48 0 0 0 0 139 255 141 0 1 28 9 0 0 5 12 1 4 13 15 0 8 7 1 11 7 10 4 0 0 5 4 11 5 7 0 4 0 0 0 3 6 6 6 0 0 2 3 23 16 0 0 19 56 16 0 0 0 0 108 147 0 119 255 146 108 88 0 0 0 0 116 255 214 0 0 35 44 0 0 0 91 110 53 0 9 147 0 0 0 0 255 255 0 0 35 0 0 0 0 0 0 0 255 103 0 0 0 243 88 0 0 34 0 0 20 1 11 0 0 0 0 2 0 0 1 0 0 3 9 1 0 13 0 2 11 0 0 0 5 31 0 15 23 17 194 128 0 0 125 0 70 130 0 0 0 0 8 0 0 3 41 22 0 3 0 0 0 0 0 6 37 8 1 10 10 0 0 2 0 24 1 0 9 25 6 5 0 39 0 0 2 25 14 0 0 70 0 0 91 50 0 0 53 0 134 0 0 85 34 133 0 0 0 0 3 0 0 0 0 0 35 0 0 0 0 4 0 0 0 0 0 0 11 15 0 41 0 79 0 0 100 18 154 16 0 0 0 0 0 0 0 0 0 0 0 0 0 0 32 39 0 0 136 0 0 0 20 39 0 22 5 14 29 0 107 88 0 0 50 0 0 0 29 128 34 191 0 0 44 0 0 143 34 6 4 31 0 0 73 50 0 0 0 5 11 0 0 0 0 0 0 102 70 0 0 0 255 27 0 8 6 0 8 1 0 0 0 0 0 0 0 0 0 0 0 0 0 0 0 0 0 0 0 0 0 0 0 0 0 0 0 0 0 0 0 0 0 0 0 0 0 0 0 0 0 0 0 0 0 0 0 0 0 0 0 0 0 0 0 0 0 0 0 0 0 0 0 0 0 0 0 0 0 0 0 0 0 0 0 0 0 0 0 0 0 0 0 0 0 0 0 0 0 0 0 0 0 0 0 0 0 0 0 0 0 0 0 0 0 0 0 0 0 0 0 0 0 0 0 0 0 0 0 0 0 0 0 0 0 0 0 0 0 0 0 0 0 0 0 0 0 0 0 0 0 0 0 0 0 0 0 0 0 0 0 0 0 0 255
255 0 0 0 0 0 0 0 0 0 0 0 0 0 0 0 0 0 0 0 0 0 0 0 0 0 0 0 0 0 0 0 0 0 0 0 0 0 0 0 0 0 0 0 0 0 0 0 0 0 0 0 0 0 0 0 0 0 0 0 0 0 0 0 0 0 0 0 0 0 0 0 0 0 0 0 0 0 0 0 0 0 0 0 0 0 0 0 0 0 0 0 0 0 0 0 0 0 0 0 0 0 0 0 0 0 0 0 0 0 0 0 0 0 0 0 0 0 0 3 0 0 0 0 2 1 0 49 222 0 0 0 62 27 55 113 0 66 114 0 0 157 37 33 0 0 180 13 0 0 255 42 81 255 78 0 0 0 119 56 50 0 0 0 255 92 39 167 19 219 0 0 217 0 0 254 47 63 0 0 0 27 0 0 50 0 105 0 0 0 31 66 68 0 93 134 0 51 178 0 47 6 48 63 1 13 65 109 68 0 0 255 0 141 226 57 13 76 0 0 0 0 0 0 0 255 116 0 0 69 0 0 0 29 0 0 54 12 39 31 0 0 9 0 0 18 0 0 61 28 0 9 0 0 62 3 73 0 0 0 0 0 28 59 0 3 9 3 2 0 0 0 31 0 0 0 13 10 12 0 0 3 10 3 0 0 4 12 0 0 0 0 0 6 15 55 3 7 0 0 0 0 0 0 0 0 0 0 0 0 0 0 0 0 0 57 165 20 0 204 0 0 107 31 0 0 0 91 20 3 28 0 0 5 9 7 0 0 0 0 0 0 1 0 13 0 0 8 0 0 0 0 6 0 0 0 5 13 2 13 0 1 0 0 0 0 1 0 6 0 0 0 0 3 0 0 0 28 11 0 0 62 38 31 0 0 0 0 2 0 2 0 12 0 0 0 0 0 15 15 1 1 3 0 0 0 0 24 23 23 0 8 16 186 54 0 0 0 0 41 0 0 0 0 255 159 6 0 42 20 0 0 0 1 1 2 4 4 3 3 0 0 10 6 7 0 9 2 0 0 5 0 5 5 0 0 8 0 0 1 5 0 0 2 0 0 7 12 2 0 0 0 0 64 0 0 0 0 0 73 124 0 0 0 0 0 0 79 177 0 0 105 114 56 0 0 0 0 0 0 147 126 0 0 0 38 187 0 77 255 255 103 0 0 255 255 0 153 255 255 255 0 2 255 255 19 0 255 137 43 0 33 35 0 46 0 1 7 3 0 0 7 7 0 0 1 2 2 5 0 0 0 26 0 0 0 5 0 3 9 35 0 3 38 129 98 0 0 69 40 9 57 62 0 0 0 50 30 6 0 15 45 40 0 5 0 0 0 0 0 0 8 2 1 12 7 0 0 1 0 7 6 2 0 0 14 10 0 0 0 0 1 10 0 0 0 41 0 0 53 66 0 0 14 0 83 0 0 0 106 87 0 16 2 25 67 45 0 0 0 82 100 27 40 35 0 9 13 0 0 0 0 12 16 7 14 22 132 255 0 0 206 141 228 3 0 0 6 0 0 0 36 26 21 42 69 44 2 0 77 4 0 17 222 0 0 0 28 16 0 31 0 4 61 0 54 66 0 8 20 0 0 0 0 128 12 146 0 0 57 0 0 164 0 0 23 23 20 10 0 114 0 0 0 18 43 0 67 4 0 0 23 101 51 0 0 0 255 25 0 9 11 0 14 0 0 0 0 0 0 0 0 0 0 0 0 0 0 0 0 0 0 0 0 0 0 0 0 0 0 0 0 0 0 0 0 0 0 0 0 0 0 0 0 0 0 0 0 0 0 0 0 0 0 0 0 0 0 0 0 0 0 0 0 0 0 0 0 0 0 0 0 0 0 0 0 0 0 0 0 0 0 0 0 0 0 0 0 0 0 0 0 0 0 0 0 0 0 0 0 0 0 0 0 0 0 0 0 0 0 0 0 0 0 0 0 0 0 0 0 0 0 0 0 0 0 0 0 0 0 0 0 0 0 0 0 0 0 0 0 0 0 0 0 0 0 0 0 0 0 0 0 0 0 0 0 0 0 0 255
255 0 0 0 0 0 0 0 0 0 0 0 0 0 0 0 0 0 0 0 0 0 0 0 0 0 0 0 0 0 0 0 0 0 0 0 0 0 0 0 0 0 0 0 0 0 0 0 0 0 0 0 0 0 0 0 0 0 0 0 0 0 0 0 0 0 0 0 0 0 0 0 0 0 0 0 0 0 0 0 0 0 0 0 0 0 0 0 0 0 0 0 0 0 0 0 0 0 0 0 0 0 0 0 0 0 0 0 0 0 0 1 2 2 1 0 0 0 0 6 3 4 0 5 15 12 17 121 0 0 0 0 124 108 80 0 83 13 55 23 0 170 0 0 24 255 252 0 0 137 190 255 0 0 0 73 92 77 179 0 0 0 185 230 122 0 0 211 119 22 227 0 211 255 0 92 0 0 0 0 0 0 0 5 255 0 50 0 67 8 55 0 19 0 0 96 97 0 75 102 0 0 19 0 0 0 96 177 0 0 255 91 0 0 0 0 47 70 0 0 0 166 61 0 0 255 0 4 14 83 0 35 29 60 0 0 54 46 19 37 17 63 66 39 0 47 73 0 70 0 0 0 0 0 96 11 50 0 0 45 10 11 13 12 8 0 0 32 16 0 0 34 37 3 0 0 9 12 11 0 0 1 20 19 7 0 0 0 24 25 32 11 0 0 0 0 0 0 0 0 0 13 48 79 52 172 94 78 200 84 0 0 0 0 0 0 0 0 0 208 0 0 0 0 43 95 0 0 129 107 90 22 0 0 0 3 7 0 0 8 11 10 12 0 10 9 10 4 16 5 17 6 18 0 0 0 4 14 7 16 0 0 0 3 2 1 0 0 8 10 2 0 8 6 7 12 0 11 30 0 0 0 33 119 0 0 6 21 12 15 10 0 6 0 0 0 0 0 2 13 9 4 0 0 0 0 19 40 0 54 0 0 22 152 157 0 0 84 0 0 0 0 255 255 114 87 33 0 3 8 0 8 0 0 0 0 0 0 0 0 3 0 0 0 0 0 0 0 0 0 0 0 0 0 0 0 11 0 0 0 15 9 0 0 0 0 4 0 0 0 0 10 0 96 10 0 145 183 12 0 36 0 16 89 98 0 0 0 12 0 2 93 0 47 0 0 255 255 70 183 134 0 0 0 0 0 0 0 251 216 255 0 130 0 0 0 0 0 103 120 223 0 240 52 0 0 255 124 0 0 0 40 0 0 58 0 5 17 16 13 8 15 9 0 8 7 0 6 11 0 0 0 29 0 0 0 4 2 1 0 0 19 0 60 241 0 0 11 82 0 132 68 0 0 0 71 0 0 4 2 7 0 5 22 8 4 0 6 5 0 13 14 30 21 31 16 0 0 0 0 0 6 4 0 0 14 6 0 27 9 17 36 19 0 0 31 0 44 51 0 5 81 54 0 0 0 19 32 0 60 0 0 0 0 0 30 19 0 0 0 97 44 0 4 15 0 32 98 0 0 4 16 23 5 0 20 0 0 57 0 6 231 0 0 0 0 0 45 0 0 52 187 87 55 75 134 65 0 0 0 0 0 42 255 25 68 26 0 0 0 15 0 9 136 66 42 64 0 0 0 0 0 0 0 108 0 70 0 0 24 0 65 130 0 18 49 0 24 62 0 131 0 0 0 5 47 0 95 23 0 0 7 79 24 0 0 0 255 10 0 7 10 0 15 3 2 1 0 0 0 0 0 0 0 0 0 0 0 0 0 0 0 0 0 0 0 0 0 0 0 0 0 0 0 0 0 0 0 0 0 0 0 0 0 0 0 0 0 0 0 0 0 0 0 0 0 0 0 0 0 0 0 0 0 0 0 0 0 0 0 0 0 0 0 0 0 0 0 0 0 0 0 0 0 0 0 0 0 0 0 0 0 0 0 0 0 0 0 0 0 0 0 0 0 0 0 0 0 0 0 0 0 0 0 0 0 0 0 0 0 0 0 0 0 0 0 0 0 0 0 0 0 0 0 0 0 0 0 0 0 0 0 0 0 0 0 0 0 0 0 0 0 0 0 0 0 0 0 0 255
255 0 0 0 0 0 0 0 0 0 0 0 0 0 0 0 0 0 0 0 0 0 0 0 0 0 0 0 0 0 0 0 0 0 0 0 0 0 0 0 0 0 0 0 0 0 0 0 0 0 0 0 0 0 0 0 0 0 0 0 0 0 0 0 0 0 0 0 0 0 0 0 0 0 0 0 0 0 0 0 0 0 0 0 0 0 0 0 0 0 0 0 0 0 0 0 0 0 0 0 0 0 0 0 0 0 0 0 0 0 0 2 0 0 2 0 0 0 0 5 0 8 0 0 25 0 62 164 0 49 77 0 88 98 68 8 0 0 222 0 39 48 0 132 108 51 0 0 49 43 128 192 0 0 0 236 213 144 0 0 138 121 72 156 0 0 255 168 0 0 0 0 255 0 0 84 0 105 25 131 255 200 0 0 0 108 155 0 0 0 6 59 205 18 0 0 0 0 0 255 0 6 20 14 57 0 0 0 22 78 0 0 71 0 0 0 198 88 0 0 36 154 84 0 0 209 0 18 12 0 85 0 49 0 0 67 65 14 0 0 9 0 0 83 25 0 90 24 33 0 0 92 0 0 0 0 27 0 5 0 0 20 0 12 12 0 0 16 4 16 29 11 0 0 0 4 37 27 15 0 0 15 29 0 0 9 37 14 57 12 0 0 0 0 0 4 94 115 140 165 180 186 178 195 172 188 188 154 128 138 191 250 217 250 0 0 0 80 135 255 91 0 29 43 24 154 0 0 0 0 23 31 32 52 21 0 2 0 2 7 0 0 11 54 6 0 0 0 5 15 2 0 22 8 2 13 10 8 0 0 38 23 0 0 0 0 8 29 3 0 0 0 10 0 0 1 0 1 7 0 1 10 10 47 115 0 0 116 0 62 32 0 16 26 18 13 58 15 0 0 3 9 39 19 0 0 0 32 45 24 0 72 0 36 255 0 0 0 0 0 255 255 178 0 0 0 0 0 0 0 1 15 0 0 0 0 0 3 0 0 0 2 8 7 7 10 0 1 37 21 27 18 23 13 14 0 8 16 24 0 0 0 4 0 13 0 0 99 0 29 21 71 65 0 0 0 176 89 8 0 0 59 255 204 255 115 255 0 19 0 0 0 0 11 0 0 255 134 252 157 0 0 255 255 255 0 0 0 255 255 255 0 0 0 0 129 0 0 1 0 0 0 0 0 0 172 87 2 0 0 0 0 0 0 11 1 13 0 0 0 3 22 0 0 0 0 9 4 0 0 1 0 4 6 10 12 0 0 0 0 54 0 91 235 0 0 0 132 0 63 36 0 0 10 52 3 0 0 0 23 8 0 0 0 3 0 0 0 0 0 0 0 0 0 0 0 0 0 2 34 15 26 0 10 43 0 0 8 0 0 16 42 41 38 0 0 0 35 0 0 101 75 0 0 0 0 69 73 0 0 42 0 31 230 0 0 123 72 23 0 175 49 60 33 0 0 0 9 66 0 0 46 19 0 35 135 0 0 0 0 0 0 0 0 0 7 0 9 0 87 111 50 0 11 18 9 60 174 98 0 40 0 0 0 136 187 0 10 32 63 12 0 96 51 0 0 0 0 29 0 0 120 148 0 0 0 0 0 7 0 0 0 106 18 0 0 33 0 0 25 49 64 0 0 225 77 0 164 87 0 0 0 145 0 0 0 0 243 38 8 5 7 5 4 0 0 2 0 0 0 0 0 0 0 0 0 0 0 0 0 0 0 0 0 0 0 0 0 0 0 0 0 0 0 0 0 0 0 0 0 0 0 0 0 0 0 0 0 0 0 0 0 0 0 0 0 0 0 0 0 0 0 0 0 0 0 0 0 0 0 0 0 0 0 0 0 0 0 0 0 0 0 0 0 0 0 0 0 0 0 0 0 0 0 0 0 0 0 0 0 0 0 0 0 0 0 0 0 0 0 0 0 0 0 0 0 0 0 0 0 0 0 0 0 0 0 0 0 0 0 0 0 0 0 0 0 0 0 0 0 0 0 0 0 0 0 0 0 0 0 0 0 0 0 0 0 0 0 0 255
255 0 0 0 0 0 0 0 0 0 0 0 0 0 0 0 0 0 0 0 0 0 0 0 0 0 0 0 0 0 0 0 0 0 0 0 0 0 0 0 0 0 0 0 0 0 0 0 0 0 0 0 0 0 0 0 0 0 0 0 0 0 0 0 0 0 0 0 0 0 0 0 0 0 0 0 0 0 0 0 0 0 0 0 0 0 0 0 0 0 0 0 0 0 0 0 0 0 0 0 0 0 0 0 0 0 0 0 0 0 0 2 0 0 2 0 0 0 0 5 13 0 0 49 25 0 78 0 0 101 192 0 178 72 15 120 0 91 149 0 31 82 88 0 0 0 0 128 0 72 151 197 83 0 0 19 0 0 50 128 190 0 177 93 0 0 255 0 0 0 0 125 255 0 0 92 52 46 0 255 148 0 100 0 0 255 255 51 0 17 0 0 0 0 0 0 0 0 150 255 0 69 15 17 82 94 61 110 35 0 0 23 86 0 0 253 237 0 0 0 59 0 0 0 255 255 30 0 0 0 77 0 31 0 0 0 0 0 0 0 0 29 25 41 0 0 15 0 0 0 79 46 0 3 74 14 74 24 63 19 0 15 0 0 76 2 0 0 0 0 1 18 0 1 0 2 0 6 4 0 61 6 0 0 0 29 18 0 0 0 0 8 48 48 75 108 23 27 25 5 0 0 0 0 0 0 0 0 0 0 0 0 34 151 81 115 0 191 217 255 4 0 17 115 24 0 0 73 0 0 31 119 60 0 0 68 0 0 2 24 23 5 11 16 65 48 39 38 5 0 0 0 16 0 0 0 3 9 1 0 17 7 9 8 5 4 4 15 3 0 0 4 13 0 0 14 0 5 13 0 2 12 9 0 115 0 0 0 60 50 4 0 0 0 0 0 9 0 0 40 7 5 26 5 0 0 0 20 0 50 15 51 0 0 209 0 0 0 14 255 212 0 0 50 4 0 6 0 4 1 6 13 0 1 0 0 0 1 5 0 2 4 0 0 0 3 0 0 5 0 9 3 15 5 0 0 15 7 18 0 0 16 25 3 42 0 44 18 0 0 54 50 0 0 162 64 216 0 0 255 0 0 0 0 111 0 94 154 0 0 0 0 0 0 0 0 230 0 42 0 0 255 181 0 0 79 239 203 0 254 0 0 77 0 0 0 0 0 19 0 255 255 111 0 58 255 0 18 4 3 0 0 0 0 2 0 20 5 0 0 11 13 11 0 0 2 14 6 0 0 0 0 2 0 0 0 6 6 3 0 0 34 151 122 0 0 8 89 85 50 0 0 0 0 2 0 46 28 0 0 0 19 78 121 0 0 8 48 31 0 0 0 0 0 36 67 52 37 14 15 0 0 0 0 22 4 0 46 14 17 0 0 0 0 0 25 29 8 0 27 53 5 0 0 0 0 47 25 0 0 13 0 17 249 187 166 96 0 0 0 60 6 15 0 3 40 19 0 34 0 45 16 0 4 49 60 90 0 0 0 0 0 26 48 6 22 0 0 0 68 85 7 0 0 0 0 0 48 50 76 0 0 0 0 0 0 0 0 0 0 0 0 72 6 0 0 36 0 0 0 0 96 148 86 0 7 8 10 22 0 0 0 79 9 0 0 15 0 0 13 0 71 0 0 185 32 0 112 75 0 0 0 150 0 5 0 0 246 37 2 0 2 0 0 0 0 3 0 0 0 0 0 0 0 0 0 0 0 0 0 0 0 0 0 0 0 0 0 0 0 0 0 0 0 0 0 0 0 0 0 0 0 0 0 0 0 0 0 0 0 0 0 0 0 0 0 0 0 0 0 0 0 0 0 0 0 0 0 0 0 0 0 0 0 0 0 0 0 0 0 0 0 0 0 0 0 0 0 0 0 0 0 0 0 0 0 0 0 0 0 0 0 0 0 0 0 0 0 0 0 0 0 0 0 0 0 0 0 0 0 0 0 0 0 0 0 0 0 0 0 0 0 0 0 0 0 0 0 0 0 0 0 0 0 0 0 0 0 0 0 0 0 0 0 0 0 0 0 0 255
255 0 0 0 0 0 0 0 0 0 0 0 0 0 0 0 0 0 0 0 0 0 0 0 0 0 0 0 0 0 0 0 0 0 0 0 0 0 0 0 0 0 0 0 0 0 0 0 0 0 0 0 0 0 0 0 0 0 0 0 0 0 0 0 0 0 0 0 0 0 0 0 0 0 0 0 0 0 0 0 0 0 0 0 0 0 0 0 0 0 0 0 0 0 0 0 0 0 0 0 0 0 0 0 0 0 0 0 0 0 0 1 2 2 1 0 0 0 1 5 5 18 17 53 0 53 156 0 0 80 32 0 168 95 0 23 0 159 52 0 24 0 157 0 0 183 179 149 23 200 41 0 253 0 0 0 0 0 201 124 0 0 47 0 0 255 255 0 0 20 0 210 0 0 26 88 29 0 0 23 0 0 255 0 0 255 255 0 61 0 0 0 0 0 255 165 6 0 0 5 0 0 3 32 17 15 117 251 123 134 54 90 0 139 40 74 32 0 50 0 44 25 0 0 195 42 0 0 12 0 71 26 66 36 23 26 2 0 0 46 0 26 43 0 0 21 0 0 0 61 80 0 0 0 24 44 0 0 63 19 0 30 0 0 77 18 0 0 0 0 1 16 0 7 11 4 0 0 0 4 32 0 0 37 58 6 0 0 0 0 8 50 85 68 42 66 2 20 10 0 0 0 0 0 0 0 0 0 0 0 0 0 0 0 9 82 0 0 0 185 73 0 0 49 40 27 0 0 0 24 37 0 0 92 89 0 0 0 2 24 11 0 0 0 0 0 26 24 18 0 0 15 6 0 0 0 11 4 3 0 3 3 13 16 11 12 0 0 2 0 7 17 8 0 0 6 0 7 5 0 2 12 0 0 73 168 0 0 100 0 0 76 0 32 10 0 0 0 0 14 3 1 28 18 0 0 0 10 10 66 0 40 13 0 62 0 0 200 255 119 32 74 25 0 0 0 0 0 0 0 0 0 0 0 1 0 0 0 2 0 7 1 0 9 1 4 5 1 3 0 1 0 9 0 0 0 0 0 1 0 0 0 5 0 0 0 73 0 40 28 130 0 0 0 71 0 255 143 0 0 0 0 0 0 248 59 0 94 75 205 156 47 0 20 255 118 255 172 101 0 3 255 0 0 19 19 0 0 0 0 0 0 255 255 0 22 255 255 147 255 173 128 255 117 97 139 0 0 4 7 0 0 0 0 0 0 16 2 0 0 12 10 1 3 0 0 0 5 0 0 12 5 3 0 0 0 12 14 8 0 0 125 162 0 0 0 55 36 11 0 0 0 59 51 20 35 0 0 17 23 19 0 0 0 56 34 23 39 40 28 87 107 118 60 38 12 0 0 0 0 52 51 0 0 0 0 0 48 0 0 0 11 54 55 31 0 47 0 16 75 1 0 0 22 0 25 2 0 2 0 0 0 0 0 0 117 84 0 8 12 34 60 83 14 0 27 0 0 0 19 64 0 0 14 30 0 39 0 0 0 0 15 25 0 14 27 0 0 41 112 99 0 20 0 0 11 0 0 42 196 0 0 14 5 0 0 0 0 18 19 0 0 54 0 0 0 1 0 4 70 74 81 84 169 0 4 0 0 32 0 0 0 57 35 22 0 11 16 0 21 0 104 0 0 124 3 0 86 44 0 0 0 95 0 0 0 0 241 41 6 0 4 0 0 0 0 3 0 0 0 0 0 0 0 0 0 0 0 0 0 0 0 0 0 0 0 0 0 0 0 0 0 0 0 0 0 0 0 0 0 0 0 0 0 0 0 0 0 0 0 0 0 0 0 0 0 0 0 0 0 0 0 0 0 0 0 0 0 0 0 0 0 0 0 0 0 0 0 0 0 0 0 0 0 0 0 0 0 0 0 0 0 0 0 0 0 0 0 0 0 0 0 0 0 0 0 0 0 0 0 0 0 0 0 0 0 0 0 0 0 0 0 0 0 0 0 0 0 0 0 0 0 0 0 0 0 0 0 0 0 0 0 0 0 0 0 0 0 0 0 0 0 0 0 0 0 0 0 0 255
255 0 0 0 0 0 0 0 0 0 0 0 0 0 0 0 0 0 0 0 0 0 0 0 0 0 0 0 0 0 0 0 0 0 0 0 0 0 0 0 0 0 0 0 0 0 0 0 0 0 0 0 0 0 0 0 0 0 0 0 0 0 0 0 0 0 0 0 0 0 0 0 0 0 0 0 0 0 0 0 0 0 0 0 0 0 0 0 0 0 0 0 0 0 0 0 0 0 0 0 0 0 0 0 0 0 0 0 0 0 0 0 0 0 0 0 0 1 3 0 0 36 0 102 0 70 130 0 104 24 0 0 142 95 0 0 14 28 0 0 166 0 71 0 0 255 0 32 0 61 0 0 235 91 83 19 0 126 133 0 0 227 255 0 0 255 7 25 0 135 96 169 0 0 160 115 97 0 181 0 59 22 151 15 0 0 255 0 0 0 0 255 175 84 100 0 20 194 0 0 70 64 131 150 22 0 0 0 6 217 154 130 0 127 146 0 0 0 95 0 0 100 0 0 255 9 45 0 9 19 0 0 0 0 37 36 56 0 0 1 4 0 0 0 14 101 0 0 80 65 0 0 30 0 0 53 0 0 18 0 0 42 0 9 18 8 0 0 27 27 0 0 13 13 8 0 0 0 5 7 0 0 20 41 6 0 0 0 116 63 51 22 6 0 0 0 0 0 0 0 0 5 12 7 18 19 24 31 40 37 39 58 0 0 0 0 0 0 0 0 87 0 0 0 0 63 0 0 157 139 43 0 0 107 150 35 22 0 0 0 1 0 0 0 0 0 0 0 0 2 23 36 0 0 4 0 6 0 4 0 0 1 4 10 12 0 0 0 0 0 12 14 6 0 0 14 0 2 19 3 0 7 9 0 0 195 0 0 89 0 20 0 0 36 31 9 36 7 0 0 7 0 13 13 12 8 0 0 60 31 0 52 77 0 0 0 176 255 87 0 0 34 0 29 0 0 0 0 0 0 2 5 3 0 4 6 0 3 0 0 6 4 4 6 0 0 0 0 0 0 0 5 7 1 0 0 0 0 0 0 0 0 5 12 0 0 32 0 42 105 99 0 101 140 136 0 2 255 45 216 0 6 0 0 0 0 0 0 0 173 210 155 70 0 217 0 0 0 0 0 0 0 0 0 255 255 0 0 152 119 239 255 124 221 0 165 255 7 62 0 0 0 130 129 0 0 0 19 0 0 0 0 0 0 1 4 5 0 0 9 19 5 0 5 0 0 0 0 0 0 0 0 11 13 4 0 0 2 4 0 53 154 50 0 0 64 51 0 0 0 0 14 10 0 0 0 0 0 0 23 35 44 64 57 0 0 0 0 0 0 0 0 0 0 0 0 0 0 0 0 0 0 0 16 85 46 0 0 72 9 0 0 0 0 7 11 4 0 66 100 0 0 0 29 0 47 0 0 24 2 0 5 35 0 0 0 0 0 0 0 0 25 90 50 9 16 10 11 0 13 44 0 0 30 40 3 0 0 0 15 0 22 17 0 0 0 0 0 129 94 63 0 22 0 24 37 0 0 25 123 0 0 0 0 0 0 105 106 71 39 16 45 40 0 0 39 0 0 26 87 70 8 0 161 0 4 0 0 32 0 0 0 39 51 61 0 7 26 4 12 51 149 0 0 45 0 0 68 12 0 0 0 69 0 7 0 0 232 27 10 0 3 0 0 0 0 3 0 0 0 0 0 0 0 0 0 0 0 0 0 0 0 0 0 0 0 0 0 0 0 0 0 0 0 0 0 0 0 0 0 0 0 0 0 0 0 0 0 0 0 0 0 0 0 0 0 0 0 0 0 0 0 0 0 0 0 0 0 0 0 0 0 0 0 0 0 0 0 0 0 0 0 0 0 0 0 0 0 0 0 0 0 0 0 0 0 0 0 0 0 0 0 0 0 0 0 0 0 0 0 0 0 0 0 0 0 0 0 0 0 0 0 0 0 0 0 0 0 0 0 0 0 0 0 0 0 0 0 0 0 0 0 0 0 0 0 0 0 0 0 0 0 0 0 0 0 0 0 0 255
255 0 0 0 0 0 0 0 0 0 0 0 0 0 0 0 0 0 0 0 0 0 0 0 0 0 0 0 0 0 0 0 0 0 0 0 0 0 0 0 0 0 0 0 0 0 0 0 0 0 0 0 0 0 0 0 0 0 0 0 0 0 0 0 0 0 0 0 0 0 0 0 0 0 0 0 0 0 0 0 0 0 0 0 0 0 0 0 0 0 0 0 0 0 0 0 0 0 0 0 0 0 0 0 0 0 0 0 0 0 0 0 0 0 0 0 0 2 0 2 21 9 0 142 54 13 10 186 44 0 105 38 93 0 0 106 143 0 0 0 255 82 47 0 0 84 0 0 0 89 0 0 244 0 6 0 180 234 0 39 255 119 0 0 255 253 0 0 0 120 21 62 82 0 126 205 252 41 169 0 188 0 0 170 57 0 0 97 0 187 255 136 236 0 232 0 0 179 50 45 0 0 0 41 216 173 66 53 0 0 0 165 157 0 233 0 36 0 0 0 0 44 0 0 255 28 54 0 0 40 6 53 0 0 48 60 56 0 0 26 19 0 7 0 60 99 0 91 32 19 0 0 102 64 0 69 18 0 16 0 0 17 0 0 0 17 0 0 37 21 0 0 28 3 0 0 12 14 0 16 11 39 0 0 0 0 18 36 60 25 0 0 8 17 28 24 27 21 2 4 0 0 0 0 25 0 0 0 0 0 7 17 46 34 16 0 30 24 17 0 0 12 115 6 0 0 0 0 72 0 0 16 0 0 0 160 77 20 0 0 1 25 47 52 0 0 0 0 0 1 0 0 0 4 14 7 11 4 0 6 0 5 0 0 3 0 0 11 0 0 0 9 4 0 0 19 0 9 15 4 1 11 22 7 0 47 145 0 0 139 113 0 0 2 0 0 24 38 4 0 3 0 2 25 17 9 0 0 0 40 8 20 0 0 0 133 180 0 0 84 28 0 0 4 0 0 0 0 0 0 0 0 0 3 0 0 3 0 1 8 0 1 0 0 0 0 0 0 2 2 0 11 9 4 0 0 0 7 12 10 12 1 9 0 0 75 21 32 44 172 0 0 42 24 110 13 0 14 0 52 255 192 234 0 0 29 67 63 0 145 47 0 43 0 107 63 0 117 0 0 255 255 0 0 156 129 0 0 157 130 59 0 0 165 0 0 64 27 0 0 0 0 0 0 34 0 0 61 0 0 3 3 0 3 7 18 2 0 0 4 8 1 0 4 0 10 11 5 0 0 0 0 0 17 20 0 0 0 7 9 193 86 0 0 46 122 3 0 0 0 4 9 3 12 50 107 45 40 0 0 0 0 0 0 0 0 0 0 0 0 0 0 5 0 0 0 0 0 0 0 0 0 0 0 0 0 0 25 0 57 114 92 20 0 0 0 0 4 107 79 0 0 40 0 4 47 0 0 27 13 0 44 77 0 3 0 0 0 0 0 0 0 0 22 55 48 75 132 0 3 18 17 11 57 64 115 0 0 0 0 0 0 34 15 0 0 0 0 93 39 28 0 0 8 32 5 0 34 27 7 0 0 0 0 0 23 157 68 0 0 0 52 30 0 0 24 0 0 0 0 24 49 53 161 0 0 0 0 39 0 0 0 9 27 35 0 0 7 0 0 44 116 0 0 19 0 0 43 29 0 0 0 82 17 49 0 0 234 26 2 0 10 5 0 0 0 3 0 0 0 0 0 0 0 0 0 0 0 0 0 0 0 0 0 0 0 0 0 0 0 0 0 0 0 0 0 0 0 0 0 0 0 0 0 0 0 0 0 0 0 0 0 0 0 0 0 0 0 0 0 0 0 0 0 0 0 0 0 0 0 0 0 0 0 0 0 0 0 0 0 0 0 0 0 0 0 0 0 0 0 0 0 0 0 0 0 0 0 0 0 0 0 0 0 0 0 0 0 0 0 0 0 0 0 0 0 0 0 0 0 0 0 0 0 0 0 0 0 0 0 0 0 0 0 0 0 0 0 0 0 0 0 0 0 0 0 0 0 0 0 0 0 0 0 0 0 0 0 0 255
255 0 0 0 0 0 0 0 0 0 0 0 0 0 0 0 0 0 0 0 0 0 0 0 0 0 0 0 0 0 0 0 0 0 0 0 0 0 0 0 0 0 0 0 0 0 0 0 0 0 0 0 0 0 0 0 0 0 0 0 0 0 0 0 0 0 0 0 0 0 0 0 0 0 0 0 0 0 0 0 0 0 0 0 0 0 0 0 0 0 0 0 0 0 0 0 0 0 0 0 0 0 0 0 0 0 0 0 0 0 0 0 0 0 0 0 0 3 0 8 16 56 0 0 0 20 2 34 0 0 2 0 0 0 0 150 17 23 180 0 79 255 81 0 134 207 0 47 104 116 0 78 133 0 100 0 71 144 0 92 147 0 0 0 255 0 0 0 180 104 11 22 157 0 0 0 15 0 0 0 0 0 88 168 175 255 68 0 0 107 183 65 0 0 255 255 0 0 147 36 98 5 0 0 0 0 0 58 0 0 0 69 109 0 144 0 16 59 0 33 0 77 0 0 255 0 0 0 0 53 67 27 51 48 38 13 0 0 36 68 4 0 66 35 22 0 0 152 0 64 0 0 72 103 9 10 60 8 14 0 8 53 0 0 6 43 0 0 26 23 0 4 18 0 0 0 10 13 10 30 0 0 0 0 0 32 73 36 0 0 0 0 0 8 4 0 19 8 0 0 0 1 0 0 29 14 0 0 0 0 0 0 0 0 54 0 9 0 39 0 0 7 43 74 13 0 0 0 0 0 4 44 0 0 0 0 172 77 72 34 12 11 38 36 46 29 11 8 18 29 11 1 0 0 0 6 0 2 7 4 9 11 8 3 4 6 7 31 0 0 0 8 13 2 0 22 0 16 4 0 0 6 6 12 0 0 255 0 0 0 162 111 58 72 17 0 1 29 17 19 1 0 0 14 13 14 0 0 0 95 33 0 0 1 80 114 0 29 56 0 0 54 26 0 0 0 0 0 0 0 3 6 2 0 3 0 0 3 7 7 0 0 0 0 0 0 0 0 15 2 9 6 6 7 6 19 0 0 0 0 0 0 0 0 2 88 3 77 62 194 0 0 255 206 52 10 0 0 62 0 64 0 121 168 5 0 0 0 0 0 0 0 6 0 0 0 0 255 228 54 170 147 93 0 9 0 140 255 158 16 0 0 0 0 0 0 0 255 0 176 83 0 0 0 27 29 8 0 0 0 0 0 5 1 8 17 0 0 0 18 17 0 0 0 4 0 12 0 0 0 3 0 0 13 9 0 0 18 27 67 246 0 0 0 112 58 0 0 0 0 34 3 4 0 0 0 0 0 0 0 0 0 124 240 255 255 255 255 255 255 255 255 255 255 255 255 255 255 255 255 255 255 116 0 0 0 0 0 0 0 0 0 58 70 23 0 0 54 94 24 0 0 19 0 21 10 0 0 24 14 0 56 0 0 0 0 0 110 178 192 0 0 0 0 43 16 0 0 26 0 0 11 8 30 34 127 0 0 0 0 0 0 19 0 39 0 0 0 15 0 14 37 0 0 5 0 0 71 76 0 0 64 56 10 0 16 107 22 0 0 7 94 35 0 0 0 13 0 0 0 135 168 20 0 0 0 0 14 47 0 0 0 35 34 32 0 0 8 0 10 0 62 0 0 42 18 0 20 49 0 0 0 86 9 31 0 0 237 28 7 0 6 3 0 0 0 3 0 0 0 0 0 0 0 0 0 0 0 0 0 0 0 0 0 0 0 0 0 0 0 0 0 0 0 0 0 0 0 0 0 0 0 0 0 0 0 0 0 0 0 0 0 0 0 0 0 0 0 0 0 0 0 0 0 0 0 0 0 0 0 0 0 0 0 0 0 0 0 0 0 0 0 0 0 0 0 0 0 0 0 0 0 0 0 0 0 0 0 0 0 0 0 0 0 0 0 0 0 0 0 0 0 0 0 0 0 0 0 0 0 0 0 0 0 0 0 0 0 0 0 0 0 0 0 0 0 0 0 0 0 0 0 0 0 0 0 0 0 0 0 0 0 0 0 0 0 0 0 0 255
255 0 0 0 0 0 0 0 0 0 0 0 0 0 0 0 0 0 0 0 0 0 0 0 0 0 0 0 0 0 0 0 0 0 0 0 0 0 0 0 0 0 0 0 0 0 0 0 0 0 0 0 0 0 0 0 0 0 0 0 0 0 0 0 0 0 0 0 0 0 0 0 0 0 0 0 0 0 0 0 0 0 0 0 0 0 0 0 0 0 0 0 0 0 0 0 0 0 0 0 0 0 0 0 0 0 0 0 0 0 0 0 0 0 0 0 0 2 0 7 0 67 26 0 0 0 116 0 0 0 0 0 0 0 0 2 0 0 134 19 0 136 60 0 99 0 65 180 0 0 141 0 0 0 150 39 0 0 0 111 63 0 0 255 52 0 0 0 111 104 159 235 234 68 0 0 0 19 96 89 60 0 82 0 2 0 0 0 181 133 51 55 0 0 0 255 0 0 0 0 0 64 0 0 0 0 0 128 106 5 0 0 0 0 0 0 0 115 42 38 0 114 0 0 255 0 16 40 0 0 0 0 8 0 0 0 0 0 0 22 0 34 34 56 0 0 37 56 0 85 34 0 32 44 0 0 18 0 13 0 13 63 0 26 0 59 0 0 33 14 0 35 0 0 0 1 11 11 0 33 0 0 0 12 63 70 37 0 0 16 12 0 0 0 0 0 0 0 0 0 6 15 21 16 38 21 14 8 15 5 0 5 0 0 75 0 40 0 16 0 37 4 0 14 106 44 0 0 0 29 19 0 0 42 0 0 28 24 65 41 0 0 0 0 0 0 0 0 8 13 25 31 0 0 6 0 10 0 0 10 0 9 4 3 6 1 5 18 14 1 0 0 12 0 0 6 0 0 7 0 0 8 7 7 8 0 202 131 0 0 24 128 66 75 51 0 0 0 0 11 0 0 0 0 4 5 2 0 99 14 0 0 0 111 44 0 7 82 0 0 73 13 0 66 0 0 3 0 9 4 0 5 0 0 1 3 0 1 0 0 0 3 0 0 0 0 0 4 5 1 0 0 2 9 4 12 0 0 0 5 0 0 0 0 0 39 0 17 83 64 0 0 0 0 75 0 0 89 0 0 73 0 3 169 9 0 59 0 0 0 0 255 255 101 9 0 0 255 222 0 0 0 197 196 0 0 255 0 0 0 0 0 0 102 64 0 0 255 0 22 0 0 39 118 0 0 112 0 10 0 0 0 4 5 0 20 0 0 0 18 12 0 0 0 9 0 11 2 0 0 0 5 0 4 0 0 1 34 30 103 34 0 0 46 30 0 0 0 32 44 34 0 0 0 0 0 0 0 194 255 255 255 255 168 129 70 30 5 0 0 13 17 42 11 2 0 0 0 36 62 0 109 234 255 255 255 199 128 0 0 0 0 0 0 35 52 27 42 23 0 0 0 0 0 35 0 0 31 10 0 6 12 28 0 3 0 0 134 40 0 102 52 0 0 0 0 0 0 29 0 0 0 0 0 20 87 0 0 0 58 39 11 0 0 47 0 0 58 14 0 0 56 0 0 0 0 0 46 51 0 109 219 128 111 91 18 57 9 0 0 84 106 0 0 17 0 22 0 0 0 170 121 0 0 0 7 5 7 28 0 0 0 59 37 21 6 28 11 0 25 9 47 0 0 44 3 0 31 70 0 0 0 90 0 9 0 0 239 28 2 0 4 3 0 0 0 3 0 0 0 0 0 0 0 0 0 0 0 0 0 0 0 0 0 0 0 0 0 0 0 0 0 0 0 0 0 0 0 0 0 0 0 0 0 0 0 0 0 0 0 0 0 0 0 0 0 0 0 0 0 0 0 0 0 0 0 0 0 0 0 0 0 0 0 0 0 0 0 0 0 0 0 0 0 0 0 0 0 0 0 0 0 0 0 0 0 0 0 0 0 0 0 0 0 0 0 0 0 0 0 0 0 0 0 0 0 0 0 0 0 0 0 0 0 0 0 0 0 0 0 0 0 0 0 0 0 0 0 0 0 0 0 0 0 0 0 0 0 0 0 0 0 0 0 0 0 0 0 0 255
255 0 0 0 0 0 0 0 0 0 0 0 0 0 0 0 0 0 0 0 0 0 0 0 0 0 0 0 0 0 0 0 0 0 0 0 0 0 0 0 0 0 0 0 0 0 0 0 0 0 0 0 0 0 0 0 0 0 0 0 0 0 0 0 0 0 0 0 0 0 0 0 0 0 0 0 0 0 0 0 0 0 0 0 0 0 0 0 0 0 0 0 0 0 0 0 0 0 0 0 0 0 0 0 0 0 0 0 0 0 0 1 1 1 0 0 1 2 4 5 16 0 75 110 0 0 255 138 0 255 72 0 236 200 0 0 0 0 0 102 0 0 2 185 0 0 143 0 173 255 0 12 199 0 0 255 150 0 121 210 0 0 143 255 0 0 0 97 109 181 81 0 0 161 0 16 2 0 0 0 91 143 0 55 171 0 0 255 255 0 0 0 0 0 0 255 255 0 0 170 0 140 65 76 235 0 0 0 80 0 68 0 0 132 0 0 0 76 5 75 138 0 0 0 255 16 6 61 7 39 104 0 9 10 6 0 5 38 49 29 34 64 3 29 0 0 88 0 81 31 0 0 12 2 13 124 0 0 39 19 38 62 0 7 0 65 0 0 50 40 0 17 0 13 24 16 3 0 0 24 0 0 4 70 48 0 4 93 18 25 2 0 1 46 58 34 0 0 0 0 0 0 1 0 0 0 0 0 0 0 0 0 39 0 0 0 62 0 21 11 0 103 19 0 58 106 43 0 0 0 0 6 10 0 14 18 0 0 109 121 34 0 0 19 0 1 19 13 0 0 0 0 7 22 26 29 25 23 5 7 0 4 2 4 13 10 8 5 32 4 0 0 6 0 0 0 0 0 0 0 0 0 0 3 17 0 0 255 0 0 0 0 69 146 173 89 44 33 50 60 33 1 0 7 32 27 3 20 1 0 0 45 110 59 0 26 0 0 30 22 0 0 20 0 0 8 2 2 0 0 0 13 0 0 0 0 5 3 1 0 5 0 6 5 0 10 17 17 4 0 0 0 0 0 0 0 1 0 0 17 35 46 69 77 0 0 6 0 52 0 0 0 0 48 81 0 0 255 0 0 0 18 0 27 0 0 5 0 0 0 50 209 33 10 201 0 0 10 206 0 0 158 102 0 119 255 60 33 211 250 0 0 255 255 216 154 35 23 10 54 0 20 0 0 3 5 49 0 13 0 5 4 0 0 5 22 3 0 0 23 25 0 0 0 0 0 15 1 0 0 0 11 1 9 0 0 31 68 73 193 0 0 0 137 0 0 0 40 0 0 0 0 0 0 174 255 255 255 226 119 20 0 0 0 0 0 0 0 0 0 0 0 0 0 22 19 13 0 0 0 58 48 0 0 0 65 106 194 198 255 255 72 0 0 0 0 82 121 15 0 58 22 0 45 34 0 0 63 0 0 26 0 0 0 0 0 0 86 0 0 0 38 77 20 0 12 47 16 35 29 68 19 0 15 87 81 112 0 0 0 30 19 35 38 28 0 0 239 80 48 0 19 6 0 8 64 67 51 0 0 51 62 0 0 47 0 0 0 0 22 175 119 0 0 0 0 35 0 0 0 123 30 0 27 25 23 0 0 0 0 0 50 21 11 0 0 16 0 0 11 80 84 0 0 0 0 0 48 102 0 0 0 104 0 22 0 0 242 26 6 4 10 4 0 0 0 2 0 0 0 0 0 0 0 0 0 0 0 0 0 0 0 0 0 0 0 0 0 0 0 0 0 0 0 0 0 0 0 0 0 0 0 0 0 0 0 0 0 0 0 0 0 0 0 0 0 0 0 0 0 0 0 0 0 0 0 0 0 0 0 0 0 0 0 0 0 0 0 0 0 0 0 0 0 0 0 0 0 0 0 0 0 0 0 0 0 0 0 0 0 0 0 0 0 0 0 0 0 0 0 0 0 0 0 0 0 0 0 0 0 0 0 0 0 0 0 0 0 0 0 0 0 0 0 0 0 0 0 0 0 0 0 0 0 0 0 0 0 0 0 0 0 0 0 0 0 0 0 0 255
255 0 0 0 0 0 0 0 0 0 0 0 0 0 0 0 0 0 0 0 0 0 0 0 0 0 0 0 0 0 0 0 0 0 0 0 0 0 0 0 0 0 0 0 0 0 0 0 0 0 0 0 0 0 0 0 0 0 0 0 0 0 0 0 0 0 0 0 0 0 0 0 0 0 0 0 0 0 0 0 0 0 0 0 0 0 0 0 0 0 0 0 0 0 0 0 0 0 0 0 0 0 0 0 0 0 0 0 0 0 0 2 0 2 0 0 2 0 3 9 2 26 0 83 255 0 0 158 45 237 0 0 255 0 0 101 0 0 0 0 0 0 188 46 0 185 35 0 160 22 0 255 112 0 0 0 77 142 0 0 148 0 26 255 0 0 192 182 20 0 0 101 0 0 73 0 79 255 0 0 234 0 11 120 2 0 74 255 0 0 4 0 0 177 0 0 255 0 0 0 0 255 12 9 34 198 166 0 101 0 75 68 34 80 8 200 24 46 5 0 0 75 0 28 255 25 0 0 0 14 46 37 33 0 0 5 35 0 0 23 73 0 16 23 12 0 195 0 125 0 0 65 0 0 20 0 0 72 55 0 0 0 12 50 0 0 46 68 24 0 0 50 35 0 0 11 0 0 32 0 0 44 67 26 10 31 8 0 0 0 0 0 16 11 0 0 8 102 48 0 34 5 0 35 0 0 0 16 16 10 2 0 13 0 0 0 0 0 0 0 0 0 0 0 5 22 69 174 59 0 0 0 50 0 0 44 44 0 0 4 187 104 8 5 0 2 6 0 0 43 69 3 0 0 18 13 0 0 0 38 0 0 0 0 17 0 0 48 17 0 0 0 3 41 27 13 71 22 0 0 0 4 12 10 0 20 0 190 179 0 0 0 0 0 0 126 144 43 0 0 66 0 0 2 15 0 11 115 0 0 99 56 0 0 7 0 6 0 5 0 8 14 0 3 0 0 0 0 0 0 0 0 7 9 2 0 0 0 0 0 11 5 0 0 0 0 0 0 1 0 4 22 18 0 0 0 4 33 102 0 42 51 0 0 96 117 15 83 57 0 0 0 0 0 0 2 0 0 0 24 85 0 137 19 42 0 186 92 0 0 43 26 0 0 33 102 0 0 0 0 39 129 133 255 255 35 0 0 0 255 0 110 107 0 0 0 0 187 15 26 37 25 19 32 8 0 0 0 10 0 9 3 0 0 0 14 0 0 5 8 4 13 10 0 24 0 0 0 0 0 0 38 14 47 2 0 18 138 72 48 0 0 25 43 0 0 11 0 0 0 0 123 223 234 155 37 0 0 0 0 0 0 14 16 0 1 2 10 8 9 6 16 0 3 12 0 0 20 16 0 0 0 15 25 11 0 0 3 2 12 111 219 251 198 0 0 0 0 0 0 0 0 0 0 0 45 1 0 75 3 0 80 0 4 53 60 91 52 0 15 10 41 0 0 22 47 24 36 55 32 0 0 0 0 0 0 45 85 0 0 0 25 0 14 0 0 0 8 117 67 0 15 41 0 158 0 5 111 0 0 57 7 0 0 26 51 25 0 104 27 74 99 0 0 0 0 75 54 0 0 27 34 0 0 0 0 2 0 0 1 55 63 3 0 4 31 35 0 0 0 26 173 0 28 57 24 0 0 210 104 0 0 170 0 38 0 0 213 17 11 0 0 4 2 3 2 1 0 0 0 0 0 0 0 0 0 0 0 0 0 0 0 0 0 0 0 0 0 0 0 0 0 0 0 0 0 0 0 0 0 0 0 0 0 0 0 0 0 0 0 0 0 0 0 0 0 0 0 0 0 0 0 0 0 0 0 0 0 0 0 0 0 0 0 0 0 0 0 0 0 0 0 0 0 0 0 0 0 0 0 0 0 0 0 0 0 0 0 0 0 0 0 0 0 0 0 0 0 0 0 0 0 0 0 0 0 0 0 0 0 0 0 0 0 0 0 0 0 0 0 0 0 0 0 0 0 0 0 0 0 0 0 0 0 0 0 0 0 0 0 0 0 0 0 0 0 0 0 0 255
255 0 0 0 0 0 0 0 0 0 0 0 0 0 0 0 0 0 0 0 0 0 0 0 0 0 0 0 0 0 0 0 0 0 0 0 0 0 0 0 0 0 0 0 0 0 0 0 0 0 0 0 0 0 0 0 0 0 0 0 0 0 0 0 0 0 0 0 0 0 0 0 0 0 0 0 0 0 0 0 0 0 0 0 0 0 0 0 0 0 0 0 0 0 0 0 0 0 0 0 0 0 0 0 0 0 0 0 0 0 0 3 0 3 0 0 3 0 3 8 0 10 13 5 0 0 0 255 0 0 0 220 167 0 255 12 185 207 110 31 0 0 0 0 0 80 0 226 178 0 0 31 99 0 219 0 0 0 0 0 100 0 0 255 0 0 255 192 0 0 150 255 0 174 119 0 0 21 61 173 140 0 178 184 0 0 0 189 0 77 0 0 173 255 18 0 255 55 47 0 191 0 0 0 0 18 200 0 0 52 118 0 0 38 96 226 0 0 0 0 101 114 0 0 255 0 0 0 0 0 0 0 98 38 0 0 0 0 0 29 0 40 0 27 11 0 64 23 0 0 92 87 0 28 21 6 54 0 0 0 42 19 0 0 0 25 0 0 0 33 31 0 0 0 24 53 0 0 2 0 13 24 17 0 0 12 23 12 15 4 0 0 0 0 0 0 0 32 0 0 34 20 0 56 0 6 3 17 23 17 0 0 17 11 0 0 10 12 2 0 13 3 8 0 4 14 7 31 75 23 0 0 8 28 13 15 0 21 0 0 0 138 133 0 34 0 0 27 39 0 0 0 71 43 2 4 19 27 21 12 27 49 34 26 49 9 0 15 57 27 24 6 3 0 0 0 0 0 55 68 47 3 0 10 0 0 20 85 203 0 0 0 118 0 0 0 2 113 157 114 0 0 105 41 0 95 169 0 0 15 54 13 0 13 4 0 0 0 0 0 2 0 0 0 0 6 12 7 2 7 5 3 2 0 0 0 0 4 0 2 0 0 6 0 1 1 0 2 18 0 0 0 0 0 0 32 0 0 48 0 0 73 0 0 83 0 135 33 3 9 0 76 0 26 0 0 0 0 0 0 0 0 0 0 0 0 235 0 0 255 241 45 80 0 0 0 255 232 211 0 255 255 55 0 0 0 92 5 0 0 0 255 255 0 77 0 0 3 176 62 25 15 0 15 13 6 3 0 24 1 1 2 1 0 0 10 0 0 0 0 0 0 0 12 0 0 0 6 0 0 0 24 0 0 9 71 120 75 0 42 0 97 76 0 0 0 0 0 124 88 103 93 76 63 58 27 0 0 7 13 8 0 3 14 0 8 0 0 9 5 5 16 0 3 11 0 1 9 11 0 2 7 2 4 5 2 0 9 0 0 0 15 49 152 236 255 73 0 0 0 0 0 0 37 0 45 139 39 0 75 44 0 0 63 136 0 0 52 30 0 0 30 27 27 35 0 0 0 0 0 0 0 0 0 0 0 0 0 0 0 0 0 0 34 47 0 52 198 11 0 36 0 0 103 0 0 170 103 0 118 19 7 0 0 1 31 21 0 13 50 0 0 0 0 0 0 0 0 0 0 0 0 0 68 0 0 0 0 0 86 102 16 20 0 0 9 9 0 0 0 46 114 0 0 57 27 0 0 172 20 0 0 113 0 47 0 0 212 19 15 0 9 4 0 0 0 0 0 0 0 0 0 0 0 0 0 0 0 0 0 0 0 0 0 0 0 0 0 0 0 0 0 0 0 0 0 0 0 0 0 0 0 0 0 0 0 0 0 0 0 0 0 0 0 0 0 0 0 0 0 0 0 0 0 0 0 0 0 0 0 0 0 0 0 0 0 0 0 0 0 0 0 0 0 0 0 0 0 0 0 0 0 0 0 0 0 0 0 0 0 0 0 0 0 0 0 0 0 0 0 0 0 0 0 0 0 0 0 0 0 0 0 0 0 0 0 0 0 0 0 0 0 0 0 0 0 0 0 0 0 0 0 0 0 0 0 0 0 0 0 0 0 0 0 0 0 0 0 0 255
255 0 0 0 0 0 0 0 0 0 0 0 0 0 0 0 0 0 0 0 0 0 0 0 0 0 0 0 0 0 0 0 0 0 0 0 0 0 0 0 0 0 0 0 0 0 0 0 0 0 0 0 0 0 0 0 0 0 0 0 0 0 0 0 0 0 0 0 0 0 0 0 0 0 0 0 0 0 0 0 0 0 0 0 0 0 0 0 0 0 0 0 0 0 0 0 0 0 0 0 0 0 0 0 0 0 0 0 0 0 0 3 0 3 0 0 3 0 3 7 14 0 31 71 31 0 212 214 0 0 0 255 163 0 0 179 85 14 0 46 101 0 0 45 255 14 13 255 0 0 0 0 0 0 169 0 0 0 64 255 255 0 0 255 75 20 0 0 0 255 255 0 0 18 39 75 4 166 161 161 0 0 193 0 0 0 0 11 0 177 0 0 174 6 0 0 84 0 201 50 55 101 0 2 0 70 88 0 0 137 0 0 0 0 0 0 0 0 0 0 77 101 0 0 255 56 57 51 33 20 8 0 39 29 48 26 11 0 0 0 0 51 22 0 139 8 62 115 0 0 112 1 0 34 0 72 0 0 0 1 50 0 0 37 18 40 0 0 0 45 38 0 13 0 21 0 0 0 23 31 34 13 7 0 0 0 0 25 23 9 0 0 0 0 0 0 33 0 0 0 29 0 0 29 0 0 0 3 19 16 0 0 1 14 11 19 26 30 13 0 0 0 0 0 0 0 0 0 72 91 30 0 0 23 42 0 0 24 0 0 0 0 40 120 0 36 62 0 0 0 51 67 0 0 0 0 0 0 0 0 0 4 0 0 0 0 0 0 20 0 13 17 6 0 0 0 37 2 0 0 6 23 4 0 0 0 22 0 255 0 0 8 0 0 0 0 0 0 8 180 149 118 44 2 64 20 0 0 94 50 37 11 0 4 0 0 0 0 0 0 4 2 3 2 8 1 2 1 11 3 6 16 1 7 8 2 6 4 3 9 0 0 7 1 0 1 8 9 0 0 0 0 0 0 0 69 0 0 76 11 0 44 0 0 100 255 255 0 0 192 96 39 255 255 0 0 19 0 0 25 141 252 121 222 93 0 0 0 132 194 0 8 255 0 68 255 255 255 255 0 18 0 0 0 0 223 255 0 32 77 99 3 0 0 0 72 0 112 54 66 20 0 0 0 0 0 0 0 16 6 5 7 15 1 1 2 0 0 0 0 0 5 5 18 0 0 1 6 8 0 0 0 0 0 46 111 122 29 0 0 0 88 0 0 0 0 0 39 111 82 80 43 10 0 0 0 16 11 17 13 3 0 4 5 5 8 12 4 7 6 0 7 0 10 0 0 0 7 7 0 3 2 5 10 6 5 3 26 6 0 22 1 0 0 21 51 153 255 186 0 0 0 129 0 47 100 56 0 0 12 0 0 0 22 62 17 6 0 0 38 0 0 0 0 0 0 0 0 109 116 179 214 229 232 230 249 255 255 255 255 140 0 0 0 0 10 0 0 67 69 0 39 17 145 0 0 177 0 0 138 1 0 0 0 0 14 31 46 45 97 0 0 74 122 24 52 72 57 0 0 0 0 0 0 0 33 45 0 0 103 82 0 39 0 0 0 6 6 6 11 114 61 0 0 52 0 0 0 176 0 0 64 75 0 64 0 0 208 7 12 0 4 3 0 0 0 0 0 0 0 0 0 0 0 0 0 0 0 0 0 0 0 0 0 0 0 0 0 0 0 0 0 0 0 0 0 0 0 0 0 0 0 0 0 0 0 0 0 0 0 0 0 0 0 0 0 0 0 0 0 0 0 0 0 0 0 0 0 0 0 0 0 0 0 0 0 0 0 0 0 0 0 0 0 0 0 0 0 0 0 0 0 0 0 0 0 0 0 0 0 0 0 0 0 0 0 0 0 0 0 0 0 0 0 0 0 0 0 0 0 0 0 0 0 0 0 0 0 0 0 0 0 0 0 0 0 0 0 0 0 0 0 0 0 0 0 0 0 0 0 0 0 0 0 0 0 0 0 0 255
255 0 0 0 0 0 0 0 0 0 0 0 0 0 0 0 0 0 0 0 0 0 0 0 0 0 0 0 0 0 0 0 0 0 0 0 0 0 0 0 0 0 0 0 0 0 0 0 0 0 0 0 0 0 0 0 0 0 0 0 0 0 0 0 0 0 0 0 0 0 0 0 0 0 0 0 0 0 0 0 0 0 0 0 0 0 0 0 0 0 0 0 0 0 0 0 0 0 0 0 0 0 0 0 0 0 0 0 0 0 0 3 0 3 0 0 3 0 3 6 15 0 9 51 4 100 181 71 0 0 255 96 255 0 0 255 0 0 0 0 232 151 0 106 38 0 0 10 0 0 144 161 79 0 214 84 255 57 123 255 220 14 0 255 15 0 0 255 255 216 0 0 0 0 183 188 31 221 0 0 0 0 127 96 0 0 255 147 0 0 130 104 0 0 210 47 189 0 29 0 57 255 95 0 0 32 98 0 0 60 0 0 117 0 0 0 75 0 0 0 0 0 0 12 255 9 0 0 0 0 8 35 0 0 21 16 21 25 1 0 0 0 49 0 0 109 0 0 0 92 91 0 4 0 0 50 0 90 75 0 13 39 33 40 30 2 14 59 18 0 0 53 0 8 14 0 0 0 31 112 0 0 3 25 24 0 0 0 0 0 0 0 2 3 9 0 40 0 0 0 20 0 0 0 0 0 0 0 0 0 0 17 0 0 0 0 6 5 0 0 3 0 0 0 0 0 0 0 0 74 58 0 0 0 21 0 9 0 22 109 5 0 0 109 148 26 0 0 24 81 4 0 0 0 0 0 0 0 0 0 0 0 0 0 0 0 0 0 0 0 0 0 0 0 0 0 32 0 0 0 0 0 10 3 0 15 1 10 211 63 0 9 0 0 40 22 0 0 0 0 108 159 82 64 144 0 0 137 58 23 9 0 0 9 0 0 0 0 2 0 5 1 1 0 0 0 6 0 5 0 0 10 0 4 4 15 12 4 7 8 0 0 5 0 0 0 0 3 0 0 16 29 31 7 6 39 0 0 82 53 0 32 38 0 0 0 0 44 233 30 0 0 55 255 0 0 245 0 177 255 207 0 0 0 0 0 0 0 255 28 14 32 0 0 128 67 0 0 0 0 36 0 77 86 0 0 0 0 176 0 0 0 0 0 0 114 0 145 163 0 0 0 0 0 0 0 0 0 0 0 0 0 19 24 14 11 4 18 10 3 0 0 0 11 0 0 3 2 13 0 3 0 33 75 105 39 13 31 0 0 41 0 0 0 34 50 75 202 0 7 9 10 0 0 27 15 24 0 6 8 0 0 6 0 11 0 0 0 3 5 0 0 10 12 4 0 0 5 0 0 8 4 0 0 0 5 0 11 0 0 31 44 0 0 0 0 65 84 255 255 91 0 0 0 6 192 66 0 0 0 0 0 182 18 0 0 41 0 0 71 68 0 0 0 154 255 255 255 132 92 83 52 33 17 16 32 30 0 6 127 255 255 255 0 0 0 0 53 58 75 65 0 0 30 0 0 4 0 26 27 0 0 0 0 0 15 28 48 88 0 0 0 48 0 0 53 40 59 12 2 27 0 0 0 36 88 143 46 0 0 1 0 30 0 0 0 0 9 11 31 131 0 0 0 67 0 0 8 149 0 0 128 42 0 90 0 0 205 2 9 0 0 3 0 0 0 0 0 0 0 0 0 0 0 0 0 0 0 0 0 0 0 0 0 0 0 0 0 0 0 0 0 0 0 0 0 0 0 0 0 0 0 0 0 0 0 0 0 0 0 0 0 0 0 0 0 0 0 0 0 0 0 0 0 0 0 0 0 0 0 0 0 0 0 0 0 0 0 0 0 0 0 0 0 0 0 0 0 0 0 0 0 0 0 0 0 0 0 0 0 0 0 0 0 0 0 0 0 0 0 0 0 0 0 0 0 0 0 0 0 0 0 0 0 0 0 0 0 0 0 0 0 0 0 0 0 0 0 0 0 0 0 0 0 0 0 0 0 0 0 0 0 0 0 0 0 0 0 0 255
255 0 0 0 0 0 0 0 0 0 0 0 0 0 0 0 0 0 0 0 0 0 0 0 0 0 0 0 0 0 0 0 0 0 0 0 0 0 0 0 0 0 0 0 0 0 0 0 0 0 0 0 0 0 0 0 0 0 0 0 0 0 0 0 0 0 0 0 0 0 0 0 0 0 0 0 0 0 0 0 0 0 0 0 0 0 0 0 0 0 0 0 0 0 0 0 0 0 0 0 0 0 0 0 0 0 0 0 0 0 0 3 0 3 0 0 3 0 3 6 0 0 29 0 0 56 56 169 0 0 255 160 0 0 255 227 35 3 0 0 145 82 0 72 0 33 0 216 255 0 255 24 42 129 185 93 32 28 0 0 0 0 0 0 221 232 255 255 131 0 0 34 0 188 0 113 93 99 0 86 0 0 0 11 0 255 184 20 0 0 66 225 43 255 255 0 69 0 132 88 151 0 30 48 0 0 156 0 0 221 30 0 26 21 56 29 0 0 59 27 0 0 0 0 255 0 0 0 0 20 7 3 0 0 0 0 0 17 63 94 0 0 112 16 0 0 0 0 0 181 130 0 105 0 85 8 9 31 0 0 25 68 22 0 5 0 0 50 24 0 0 53 0 0 20 24 30 15 0 17 0 0 0 41 31 0 0 0 2 0 6 2 14 15 0 20 0 0 8 31 5 0 0 0 18 1 0 0 0 0 7 37 0 0 0 7 5 6 0 0 0 0 2 0 0 2 9 11 0 31 82 24 0 0 0 52 0 0 0 0 46 36 0 0 79 4 73 116 1 0 0 0 77 56 85 67 17 0 0 23 0 43 17 12 62 51 32 68 25 0 0 0 0 0 0 0 0 2 71 63 18 0 0 13 0 61 0 64 82 218 0 0 83 0 0 0 54 43 0 0 0 0 114 54 0 0 99 109 0 0 0 0 0 7 12 0 2 5 0 0 3 0 3 0 0 0 0 0 0 0 8 11 0 2 2 0 5 8 0 9 0 0 8 0 0 0 0 0 0 0 18 46 33 19 0 20 58 0 4 31 4 35 119 138 25 21 0 0 50 0 89 94 0 255 179 203 232 36 100 0 0 0 0 0 24 255 0 0 255 0 0 0 0 102 89 0 0 0 82 0 0 0 0 0 97 86 2 0 255 31 154 255 0 0 0 0 9 183 147 29 0 4 20 18 16 16 12 27 0 0 0 0 17 11 7 1 0 0 5 9 1 0 0 5 0 0 3 2 5 15 17 20 50 87 77 14 0 11 0 0 0 0 0 80 96 55 41 0 31 8 12 14 12 32 28 0 14 0 0 0 0 0 0 5 1 0 0 0 0 1 0 0 7 0 2 6 0 0 0 0 16 0 0 0 0 0 8 2 23 0 0 19 0 20 63 47 0 0 0 24 255 255 31 0 0 2 116 30 0 0 39 0 156 111 43 0 11 73 15 0 0 0 0 55 155 146 53 7 25 16 4 0 0 0 0 4 0 1 44 0 0 3 194 241 255 0 0 0 186 0 0 30 14 17 31 0 0 89 75 21 0 3 0 13 12 5 5 47 137 0 0 0 0 0 6 0 0 25 105 73 2 0 0 33 22 15 64 63 10 0 0 43 0 0 0 0 5 16 8 52 43 0 0 17 99 0 0 137 82 0 0 155 5 0 89 0 0 204 0 7 1 0 3 0 0 0 0 0 0 0 0 0 0 0 0 0 0 0 0 0 0 0 0 0 0 0 0 0 0 0 0 0 0 0 0 0 0 0 0 0 0 0 0 0 0 0 0 0 0 0 0 0 0 0 0 0 0 0 0 0 0 0 0 0 0 0 0 0 0 0 0 0 0 0 0 0 0 0 0 0 0 0 0 0 0 0 0 0 0 0 0 0 0 0 0 0 0 0 0 0 0 0 0 0 0 0 0 0 0 0 0 0 0 0 0 0 0 0 0 0 0 0 0 0 0 0 0 0 0 0 0 0 0 0 0 0 0 0 0 0 0 0 0 0 0 0 0 0 0 0 0 0 0 0 0 0 0 0 0 255
255 0 0 0 0 0 0 0 0 0 0 0 0 0 0 0 0 0 0 0 0 0 0 0 0 0 0 0 0 0 0 0 0 0 0 0 0 0 0 0 0 0 0 0 0 0 0 0 0 0 0 0 0 0 0 0 0 0 0 0 0 0 0 0 0 0 0 0 0 0 0 0 0 0 0 0 0 0 0 0 0 0 0 0 0 0 0 0 0 0 0 0 0 0 0 0 0 0 0 0 0 0 0 0 0 0 0 0 0 0 0 3 0 3 0 0 3 0 3 6 5 21 47 35 17 170 0 159 0 0 255 255 0 0 255 40 0 78 14 0 118 17 0 169 87 0 0 0 0 0 0 2 0 0 0 0 0 0 0 0 211 255 255 198 114 0 0 0 0 168 0 154 89 157 0 0 0 0 0 206 0 0 61 0 1 255 0 0 0 31 185 26 0 65 0 0 255 0 0 0 0 9 129 0 0 0 8 0 255 255 19 0 0 0 0 0 0 0 105 113 91 43 0 0 255 28 7 27 54 54 20 0 61 50 29 0 0 15 38 59 16 81 0 205 0 0 145 255 0 0 147 83 117 0 111 21 15 0 0 0 26 0 0 42 2 0 0 0 16 43 35 22 0 9 0 0 37 36 0 7 19 6 7 0 2 17 8 16 3 20 22 23 17 4 0 17 0 0 34 47 0 0 12 0 34 17 8 0 0 0 10 57 0 0 2 8 4 0 0 0 3 0 6 0 11 2 7 22 0 0 52 87 9 0 0 36 0 15 0 0 0 40 0 0 0 23 159 11 0 0 28 144 163 75 20 8 33 52 40 19 13 64 39 15 62 58 28 48 23 0 0 0 16 32 12 2 0 0 0 0 12 50 11 0 20 45 0 91 0 255 0 0 0 0 36 19 0 0 0 13 0 0 0 0 0 131 112 0 7 7 0 0 7 15 0 0 16 0 10 0 7 0 0 0 10 2 8 11 6 0 10 14 0 2 0 9 0 1 0 0 1 2 14 0 0 0 0 0 6 0 9 5 10 4 3 32 0 10 0 48 43 11 40 0 0 0 118 0 0 0 0 0 0 0 0 102 235 88 159 0 0 255 255 87 255 255 195 0 20 0 0 5 0 131 0 0 15 81 255 249 176 0 0 111 0 179 44 0 0 0 31 0 255 232 0 25 255 137 53 0 0 0 11 6 4 12 17 28 7 12 7 0 0 0 0 0 0 0 0 7 4 2 0 7 0 3 0 0 2 16 20 38 21 0 0 74 63 0 0 0 0 0 85 118 0 0 58 0 22 0 0 0 0 0 0 0 19 0 2 7 3 17 7 5 3 9 14 11 2 5 10 0 19 0 0 8 5 0 0 0 14 1 0 0 1 3 0 0 72 0 0 0 0 0 0 0 0 26 78 39 0 52 216 255 0 0 0 73 0 0 81 0 23 18 47 30 20 0 0 0 18 184 255 157 4 0 0 0 0 0 0 0 0 0 2 0 85 0 0 31 65 79 70 24 226 255 0 0 0 162 143 0 105 166 0 0 0 159 0 47 0 0 19 28 34 0 0 68 0 0 0 50 0 136 222 0 0 64 46 0 0 0 66 178 37 0 0 22 39 0 0 44 0 0 0 0 0 15 12 80 0 0 0 0 68 0 0 110 10 0 0 122 0 0 66 0 0 194 0 7 1 0 3 0 0 0 0 0 0 0 0 0 0 0 0 0 0 0 0 0 0 0 0 0 0 0 0 0 0 0 0 0 0 0 0 0 0 0 0 0 0 0 0 0 0 0 0 0 0 0 0 0 0 0 0 0 0 0 0 0 0 0 0 0 0 0 0 0 0 0 0 0 0 0 0 0 0 0 0 0 0 0 0 0 0 0 0 0 0 0 0 0 0 0 0 0 0 0 0 0 0 0 0 0 0 0 0 0 0 0 0 0 0 0 0 0 0 0 0 0 0 0 0 0 0 0 0 0 0 0 0 0 0 0 0 0 0 0 0 0 0 0 0 0 0 0 0 0 0 0 0 0 0 0 0 0 0 0 0 255
255 0 0 0 0 0 0 0 0 0 0 0 0 0 0 0 0 0 0 0 0 0 0 0 0 0 0 0 0 0 0 0 0 0 0 0 0 0 0 0 0 0 0 0 0 0 0 0 0 0 0 0 0 0 0 0 0 0 0 0 0 0 0 0 0 0 0 0 0 0 0 0 0 0 0 0 0 0 0 0 0 0 0 0 0 0 0 0 0 0 0 0 0 0 0 0 0 0 0 0 0 0 0 0 0 0 0 0 0 0 0 3 0 3 0 0 3 0 3 3 2 0 0 19 0 210 0 0 0 0 252 249 0 73 186 3 0 0 0 32 160 7 0 102 0 0 255 0 0 32 0 51 0 0 0 64 48 15 140 255 255 255 0 0 0 0 7 0 255 0 0 255 108 12 81 0 0 0 0 166 6 125 252 0 0 255 0 140 0 0 240 39 146 36 0 0 200 0 0 119 0 211 107 0 8 0 0 55 255 0 0 0 0 0 0 12 0 0 24 0 14 32 0 0 255 0 0 0 0 0 0 0 34 14 39 47 46 25 0 0 0 3 0 19 0 0 115 255 0 0 171 48 18 0 26 13 0 0 0 26 15 0 0 95 17 5 0 0 16 46 53 22 12 43 0 0 5 18 0 56 16 24 9 0 0 21 25 3 6 10 8 8 7 5 0 26 0 0 32 22 0 5 59 0 5 4 12 2 5 0 1 26 0 10 7 3 0 0 0 0 2 0 0 0 8 2 8 13 2 0 0 64 34 0 0 0 23 0 16 40 0 0 0 99 0 0 0 0 22 255 231 60 48 0 0 0 4 42 22 0 0 17 0 0 11 4 0 0 4 0 0 6 31 39 40 27 120 0 0 0 0 56 20 0 36 0 0 34 0 192 49 0 23 0 0 1 52 51 2 0 101 0 0 0 174 122 0 0 13 4 0 0 5 1 1 0 5 0 9 0 7 0 3 0 17 6 4 1 9 9 12 7 0 3 0 1 0 3 0 3 0 7 10 0 0 0 5 0 60 1 0 0 0 0 0 8 0 81 0 0 49 28 0 0 147 0 122 25 0 0 0 140 151 0 0 9 49 0 0 0 126 255 148 0 0 0 0 0 243 253 242 255 0 0 0 0 255 121 0 0 58 0 76 255 0 0 0 135 0 0 0 0 114 255 0 117 41 82 0 111 0 0 3 0 0 6 0 0 7 5 8 11 0 0 0 1 0 0 6 11 0 0 0 21 0 5 0 0 0 4 20 38 0 0 0 35 1 0 0 0 0 34 94 7 0 0 73 28 29 18 27 29 29 45 40 18 21 0 2 12 7 14 4 7 9 0 9 13 3 3 8 3 7 0 0 11 15 0 0 1 10 0 0 0 1 12 1 0 0 0 12 53 51 40 38 0 76 0 0 0 27 75 82 135 244 0 0 0 7 0 0 0 43 0 0 42 16 0 0 15 243 87 0 0 19 84 55 24 20 19 22 31 37 34 19 0 0 0 0 2 0 0 0 43 0 29 255 255 0 0 0 104 81 122 0 0 132 39 0 0 0 0 9 19 13 0 0 81 0 0 0 0 0 142 132 0 47 0 0 0 0 0 0 7 42 0 0 0 13 7 0 2 0 8 0 0 0 12 17 128 0 0 58 0 14 0 0 17 0 0 43 92 0 0 41 0 12 172 0 8 0 0 3 0 0 0 0 0 0 0 0 0 0 0 0 0 0 0 0 0 0 0 0 0 0 0 0 0 0 0 0 0 0 0 0 0 0 0 0 0 0 0 0 0 0 0 0 0 0 0 0 0 0 0 0 0 0 0 0 0 0 0 0 0 0 0 0 0 0 0 0 0 0 0 0 0 0 0 0 0 0 0 0 0 0 0 0 0 0 0 0 0 0 0 0 0 0 0 0 0 0 0 0 0 0 0 0 0 0 0 0 0 0 0 0 0 0 0 0 0 0 0 0 0 0 0 0 0 0 0 0 0 0 0 0 0 0 0 0 0 0 0 0 0 0 0 0 0 0 0 0 0 0 0 0 0 0 0 0 255
255 0 0 0 0 0 0 0 0 0 0 0 0 0 0 0 0 0 0 0 0 0 0 0 0 0 0 0 0 0 0 0 0 0 0 0 0 0 0 0 0 0 0 0 0 0 0 0 0 0 0 0 0 0 0 0 0 0 0 0 0 0 0 0 0 0 0 0 0 0 0 0 0 0 0 0 0 0 0 0 0 0 0 0 0 0 0 0 0 0 0 0 0 0 0 0 0 0 0 0 0 0 0 0 0 0 0 0 0 0 0 3 0 3 0 1 4 0 3 3 7 0 93 59 0 123 13 34 0 0 8 252 72 0 176 13 0 76 0 23 189 18 0 0 0 0 255 52 0 255 0 184 226 211 144 30 30 0 0 0 0 0 115 89 0 255 7 255 255 0 180 111 0 0 0 0 1 191 34 255 255 0 0 124 0 255 0 0 153 0 174 124 0 0 0 0 153 0 205 255 0 0 0 0 243 76 0 111 62 0 0 11 0 107 63 0 0 0 58 33 69 94 0 0 255 90 33 25 18 38 33 60 38 0 0 0 16 13 0 0 1 49 218 0 0 232 0 30 174 0 255 8 0 36 0 0 2 43 0 0 4 20 10 22 16 0 0 67 42 0 0 0 0 51 0 0 42 49 0 7 0 6 18 0 0 9 0 0 0 0 0 0 0 0 12 63 0 0 48 0 0 14 96 0 0 0 11 7 0 0 0 0 0 0 6 0 0 0 0 0 22 11 1 0 0 0 0 1 72 0 0 49 46 0 0 8 19 0 8 15 51 2 0 0 0 0 0 21 255 117 0 15 2 5 35 45 62 33 0 0 0 23 2 0 7 12 0 0 55 48 45 27 6 0 0 0 30 52 61 0 0 0 0 40 43 0 62 0 0 99 184 0 0 0 2 0 0 0 0 13 0 0 0 255 180 2 34 30 8 0 0 0 0 0 5 20 0 0 0 0 13 5 6 0 8 0 0 0 0 1 0 10 9 13 4 0 0 0 0 7 2 7 5 0 0 0 4 30 95 62 44 48 33 4 0 0 0 191 0 0 7 146 147 0 80 148 199 159 0 0 255 211 116 255 170 0 0 0 0 19 0 146 20 0 0 255 0 206 46 0 0 0 255 55 255 0 255 168 0 0 187 0 0 0 0 0 103 255 35 0 0 0 0 135 129 120 0 44 61 0 34 31 2 0 0 15 13 0 0 0 3 1 0 0 0 4 3 11 10 2 0 0 0 14 0 0 0 0 0 14 41 75 15 88 80 8 0 0 0 0 40 70 0 0 57 0 0 43 0 6 27 0 0 0 4 0 2 0 0 0 6 5 0 0 0 0 0 0 0 0 3 0 8 0 0 19 20 0 0 13 27 15 0 0 8 14 3 0 39 0 5 41 0 0 15 10 12 6 27 0 0 0 15 0 181 255 0 0 0 0 0 113 115 96 4 0 0 0 70 240 11 11 39 41 44 0 0 0 23 13 0 0 0 0 0 0 0 51 50 0 51 53 0 18 25 0 0 164 241 13 0 176 31 0 0 153 197 0 82 0 5 0 0 7 2 0 0 59 98 60 2 0 0 0 28 0 18 53 26 0 0 0 0 30 4 20 47 0 0 0 40 51 0 15 19 0 0 0 28 161 0 0 92 0 15 7 7 44 0 0 53 71 0 0 22 0 20 151 0 3 0 0 2 0 0 0 0 0 0 0 0 0 0 0 0 0 0 0 0 0 0 0 0 0 0 0 0 0 0 0 0 0 0 0 0 0 0 0 0 0 0 0 0 0 0 0 0 0 0 0 0 0 0 0 0 0 0 0 0 0 0 0 0 0 0 0 0 0 0 0 0 0 0 0 0 0 0 0 0 0 0 0 0 0 0 0 0 0 0 0 0 0 0 0 0 0 0 0 0 0 0 0 0 0 0 0 0 0 0 0 0 0 0 0 0 0 0 0 0 0 0 0 0 0 0 0 0 0 0 0 0 0 0 0 0 0 0 0 0 0 0 0 0 0 0 0 0 0 0 0 0 0 0 0 0 0 0 0 0 255
255 0 0 0 0 0 0 0 0 0 0 0 0 0 0 0 0 0 0 0 0 0 0 0 0 0 0 0 0 0 0 0 0 0 0 0 0 0 0 0 0 0 0 0 0 0 0 0 0 0 0 0 0 0 0 0 0 0 0 0 0 0 0 0 0 0 0 0 0 0 0 0 0 0 0 0 0 0 0 0 0 0 0 0 0 0 0 0 0 0 0 0 0 0 0 0 0 0 0 0 0 0 0 0 0 0 0 0 0 0 0 3 0 3 0 2 0 0 3 3 4 0 111 0 0 0 125 214 0 0 51 166 255 0 34 255 140 0 108 250 131 0 0 0 170 0 129 229 138 50 0 226 53 76 0 0 28 17 0 0 0 0 255 255 0 0 0 137 0 0 0 3 129 221 195 255 255 139 0 115 118 150 41 255 0 0 255 32 125 0 0 11 0 63 0 217 248 0 0 0 0 0 0 70 76 23 0 0 0 0 0 0 0 0 0 0 107 0 69 78 0 0 0 0 255 0 0 10 0 52 44 69 0 74 113 0 28 0 55 77 42 0 91 0 0 58 0 255 255 0 255 0 153 0 0 43 59 0 0 6 0 0 10 0 0 97 0 0 54 0 0 50 65 0 0 142 0 31 0 5 21 10 0 0 0 22 12 0 0 2 13 10 18 42 23 7 4 21 0 0 23 24 0 0 54 16 0 0 18 19 0 0 24 2 0 0 1 0 0 0 13 7 6 10 21 1 14 8 0 0 53 0 39 71 0 0 9 0 101 0 35 0 0 28 0 74 255 247 47 0 0 38 44 50 30 0 0 1 40 54 30 0 24 35 8 11 39 0 0 0 0 0 20 27 0 0 15 0 32 133 117 0 0 0 0 6 44 0 0 127 115 0 0 94 0 0 50 6 74 0 0 85 255 108 0 0 1 4 0 0 2 7 0 0 0 0 8 7 11 0 0 0 0 8 0 8 22 18 0 0 0 4 0 0 0 4 26 25 4 0 2 5 16 0 10 15 14 0 0 0 0 0 57 38 0 26 0 0 65 0 0 89 0 0 255 80 0 123 0 0 68 90 0 0 139 102 0 35 0 31 0 0 0 138 0 0 0 68 0 70 226 101 0 45 255 0 0 0 11 109 112 225 0 0 180 145 0 22 0 157 0 0 0 67 173 0 0 7 0 48 10 5 23 21 26 22 21 39 35 9 0 22 32 13 9 22 36 24 12 10 25 16 2 0 0 66 9 0 27 49 0 19 0 88 65 0 0 0 2 93 3 2 0 0 21 14 5 22 4 0 0 5 16 23 10 5 0 0 2 0 1 1 9 10 4 6 0 1 4 2 0 3 0 1 3 8 8 14 0 0 0 0 0 6 16 0 0 19 0 6 0 0 0 0 0 0 2 6 8 16 0 0 20 18 0 127 255 176 0 0 0 8 0 22 0 0 0 217 193 0 0 0 0 0 0 2 18 12 0 0 8 11 11 19 19 23 5 1 0 0 0 0 0 1 0 28 0 0 129 203 0 0 0 0 0 139 0 11 0 0 0 15 48 0 0 0 69 91 192 144 0 0 117 0 0 0 0 0 33 22 30 38 0 0 0 0 0 30 17 0 0 12 23 35 0 0 11 21 5 166 0 0 15 72 44 0 58 66 0 0 87 98 0 0 150 0 129 42 20 6 4 4 2 1 0 0 0 0 0 0 0 0 0 0 0 0 0 0 0 0 0 0 0 0 0 0 0 0 0 0 0 0 0 0 0 0 0 0 0 0 0 0 0 0 0 0 0 0 0 0 0 0 0 0 0 0 0 0 0 0 0 0 0 0 0 0 0 0 0 0 0 0 0 0 0 0 0 0 0 0 0 0 0 0 0 0 0 0 0 0 0 0 0 0 0 0 0 0 0 0 0 0 0 0 0 0 0 0 0 0 0 0 0 0 0 0 0 0 0 0 0 0 0 0 0 0 0 0 0 0 0 0 0 0 0 0 0 0 0 0 0 0 0 0 0 0 0 0 0 0 0 0 0 0 0 0 0 0 0 255
255 0 0 0 0 0 0 0 0 0 0 0 0 0 0 0 0 0 0 0 0 0 0 0 0 0 0 0 0 0 0 0 0 0 0 0 0 0 0 0 0 0 0 0 0 0 0 0 0 0 0 0 0 0 0 0 0 0 0 0 0 0 0 0 0 0 0 0 0 0 0 0 0 0 0 0 0 0 0 0 0 0 0 0 0 0 0 0 0 0 0 0 0 0 0 0 0 0 0 0 0 0 0 0 0 0 0 0 0 0 0 3 0 3 0 3 0 0 3 7 17 14 134 0 0 77 72 255 0 0 255 193 30 136 0 0 92 0 18 16 0 0 0 0 199 0 0 0 0 0 0 255 0 0 0 0 0 102 152 140 255 0 0 255 20 0 0 0 0 0 0 101 0 124 178 33 17 0 0 0 0 9 0 0 0 0 255 0 0 0 0 0 14 207 51 64 0 0 115 0 0 0 0 127 0 143 207 118 0 151 64 0 0 0 0 0 245 38 0 117 145 69 0 0 255 94 14 68 50 0 4 0 0 10 0 0 88 39 74 0 0 0 26 0 59 1 0 156 50 0 255 0 0 0 0 0 0 0 0 0 47 105 96 0 0 47 0 0 7 0 17 53 21 0 0 79 0 6 2 0 32 10 31 30 24 12 25 94 0 19 10 5 1 8 4 0 11 12 0 0 0 7 24 0 25 19 2 15 4 1 16 0 21 3 0 0 2 0 0 0 11 0 4 0 8 6 11 14 0 0 37 0 12 38 0 0 53 48 78 75 0 0 255 245 255 240 87 0 0 0 20 31 0 0 0 0 0 0 0 0 19 0 17 33 0 9 32 0 67 34 5 0 0 0 9 8 32 0 0 0 41 62 12 0 0 0 23 20 0 39 60 92 0 0 38 19 0 0 0 0 51 122 145 38 0 7 0 0 0 0 4 0 2 0 0 2 0 1 0 8 0 0 3 0 4 3 0 5 0 0 6 7 28 15 5 5 13 2 2 0 0 14 0 0 0 11 5 0 0 0 0 0 0 0 0 55 12 0 101 0 0 255 165 0 0 223 0 0 0 0 0 38 186 4 0 0 0 71 0 0 0 124 33 0 0 94 32 0 255 0 0 208 0 0 0 0 0 167 255 4 0 0 0 216 255 84 0 0 0 0 0 0 240 236 47 0 0 61 0 9 0 3 5 11 5 3 10 11 14 0 0 1 17 0 0 8 17 9 2 0 13 0 0 0 0 64 7 0 27 69 0 0 15 103 35 0 0 0 30 0 0 2 0 0 11 2 0 4 10 0 0 7 0 0 1 0 2 0 3 3 2 0 0 6 0 3 0 0 3 3 0 6 0 2 0 0 0 2 0 0 27 0 2 17 14 0 0 0 8 2 0 0 2 5 0 0 4 6 1 0 0 0 0 26 10 0 7 255 255 0 0 79 93 0 0 51 184 49 0 28 0 19 19 12 0 11 7 0 3 2 0 7 5 4 3 6 7 6 10 6 3 10 8 13 0 21 8 0 39 149 50 22 0 0 144 100 13 85 27 0 0 18 0 0 49 10 37 0 56 68 0 0 19 0 23 0 19 4 42 18 0 0 0 64 71 0 0 0 0 0 24 49 0 0 10 39 50 63 19 89 0 0 36 12 0 0 29 0 0 0 105 71 0 0 10 0 172 53 20 2 2 3 0 3 0 0 0 0 0 0 0 0 0 0 0 0 0 0 0 0 0 0 0 0 0 0 0 0 0 0 0 0 0 0 0 0 0 0 0 0 0 0 0 0 0 0 0 0 0 0 0 0 0 0 0 0 0 0 0 0 0 0 0 0 0 0 0 0 0 0 0 0 0 0 0 0 0 0 0 0 0 0 0 0 0 0 0 0 0 0 0 0 0 0 0 0 0 0 0 0 0 0 0 0 0 0 0 0 0 0 0 0 0 0 0 0 0 0 0 0 0 0 0 0 0 0 0 0 0 0 0 0 0 0 0 0 0 0 0 0 0 0 0 0 0 0 0 0 0 0 0 0 0 0 0 0 0 0 0 255
255 0 0 0 0 0 0 0 0 0 0 0 0 0 0 0 0 0 0 0 0 0 0 0 0 0 0 0 0 0 0 0 0 0 0 0 0 0 0 0 0 0 0 0 0 0 0 0 0 0 0 0 0 0 0 0 0 0 0 0 0 0 0 0 0 0 0 0 0 0 0 0 0 0 0 0 0 0 0 0 0 0 0 0 0 0 0 0 0 0 0 0 0 0 0 0 0 0 0 0 0 0 0 0 0 0 0 0 0 0 0 3 0 3 0 3 0 0 3 7 0 0 82 0 0 174 0 255 0 0 146 133 0 255 0 0 217 110 255 165 0 0 0 138 255 0 0 0 219 0 0 255 128 0 0 0 104 12 0 94 255 0 0 48 0 68 188 0 0 133 8 0 0 0 0 0 0 0 0 0 0 4 102 233 203 0 255 0 0 0 0 36 39 13 0 0 0 0 141 0 0 221 156 98 0 0 15 0 0 155 133 22 176 200 131 195 58 109 0 210 255 35 0 0 255 207 0 0 28 0 13 0 0 5 0 0 58 0 36 0 105 91 0 0 38 0 19 109 0 0 116 0 14 50 0 0 137 103 32 0 23 25 0 0 35 117 22 0 37 51 52 82 0 0 3 11 28 0 41 0 0 0 20 66 21 0 0 122 0 24 10 3 0 5 0 0 1 4 0 0 0 12 19 0 0 13 9 14 0 0 2 0 6 3 0 0 0 0 0 0 0 0 0 0 0 0 2 0 0 0 23 0 27 46 0 17 42 0 0 0 0 255 255 0 11 0 0 25 34 16 0 0 0 22 49 39 11 7 44 73 6 0 7 15 0 0 31 22 23 14 0 0 0 0 7 33 41 44 0 0 12 112 53 0 0 0 0 16 0 3 56 193 0 0 48 67 0 0 0 0 232 133 60 0 0 19 0 3 0 0 0 0 0 1 2 0 0 0 0 0 0 0 0 0 13 0 1 4 12 3 1 0 23 17 7 0 6 8 1 0 25 0 0 20 51 29 0 5 47 50 96 125 39 0 6 82 48 14 45 0 0 0 154 0 0 0 0 0 0 0 0 0 0 6 0 34 41 223 255 101 0 0 0 0 0 0 0 255 255 74 0 0 77 255 56 0 0 0 0 0 33 0 0 0 0 0 0 0 92 0 0 255 214 92 0 0 11 24 0 28 4 4 0 0 0 0 0 0 0 0 0 0 13 0 3 0 8 0 0 0 0 0 0 0 0 33 21 0 75 126 13 0 68 15 0 0 0 33 48 0 3 19 6 0 28 10 0 10 29 0 15 4 4 5 6 0 3 0 3 7 1 0 3 0 0 3 0 0 3 3 0 3 0 0 0 4 0 2 0 0 35 5 0 9 7 0 0 0 20 0 0 11 14 0 0 15 3 7 2 13 0 0 0 17 0 85 39 34 255 255 0 0 0 0 39 175 152 25 0 46 0 22 14 8 0 7 3 0 3 0 0 1 2 3 3 7 0 0 3 0 0 2 0 12 0 27 25 0 3 91 127 255 0 0 248 0 0 13 10 0 31 23 0 0 31 0 0 0 80 16 0 0 0 0 55 0 0 0 0 18 27 0 0 34 110 59 31 48 56 50 11 0 96 26 9 0 0 93 223 255 0 0 66 0 20 5 134 30 0 0 53 50 0 0 51 0 191 41 20 0 9 6 0 5 0 0 0 0 0 0 0 0 0 0 0 0 0 0 0 0 0 0 0 0 0 0 0 0 0 0 0 0 0 0 0 0 0 0 0 0 0 0 0 0 0 0 0 0 0 0 0 0 0 0 0 0 0 0 0 0 0 0 0 0 0 0 0 0 0 0 0 0 0 0 0 0 0 0 0 0 0 0 0 0 0 0 0 0 0 0 0 0 0 0 0 0 0 0 0 0 0 0 0 0 0 0 0 0 0 0 0 0 0 0 0 0 0 0 0 0 0 0 0 0 0 0 0 0 0 0 0 0 0 0 0 0 0 0 0 0 0 0 0 0 0 0 0 0 0 0 0 0 0 0 0 0 0 0 0 255
255 0 0 0 0 0 0 0 0 0 0 0 0 0 0 0 0 0 0 0 0 0 0 0 0 0 0 0 0 0 0 0 0 0 0 0 0 0 0 0 0 0 0 0 0 0 0 0 0 0 0 0 0 0 0 0 0 0 0 0 0 0 0 0 0 0 0 0 0 0 0 0 0 0 0 0 0 0 0 0 0 0 0 0 0 0 0 0 0 0 0 0 0 0 0 0 0 0 0 0 0 0 0 0 0 0 0 0 0 0 0 3 0 3 0 3 0 0 3 13 22 30 111 51 0 30 0 17 0 0 92 0 0 176 0 0 228 0 32 63 0 0 0 0 28 18 58 0 255 0 0 160 0 25 97 12 0 0 134 126 42 0 16 0 81 255 0 15 0 87 243 0 0 0 0 0 0 0 255 82 0 0 0 233 255 40 0 0 230 0 255 231 73 0 34 83 9 80 156 186 32 230 162 49 255 0 37 0 0 0 2 24 17 141 183 64 8 98 0 0 0 0 17 0 59 255 0 0 0 0 29 38 0 90 102 12 68 0 55 40 0 42 0 70 0 0 0 0 119 0 47 47 38 67 57 0 135 54 0 0 40 0 0 73 38 85 0 0 0 0 0 9 0 0 73 0 54 0 62 0 0 0 11 24 0 0 0 36 0 0 0 0 4 14 8 8 0 0 0 12 23 33 3 0 0 0 0 0 0 0 0 3 15 1 0 0 4 4 0 0 0 0 0 0 0 0 3 0 17 0 31 0 49 51 0 61 0 0 0 0 176 255 0 0 0 0 5 0 0 0 0 0 10 14 36 27 3 0 11 29 0 0 1 6 0 0 2 18 0 0 0 3 10 29 11 39 0 55 37 0 0 22 31 0 94 0 0 0 10 17 26 100 91 0 0 50 0 0 0 176 68 8 0 0 25 16 0 7 0 0 0 3 0 0 3 8 0 0 9 5 0 0 6 0 11 0 0 3 0 11 0 0 0 0 0 0 0 1 8 2 24 0 0 100 109 0 0 95 0 0 76 108 17 0 24 0 62 129 237 228 6 96 237 0 0 0 0 0 255 197 255 130 0 9 0 0 0 56 149 16 0 230 115 0 31 0 0 13 94 0 0 0 0 237 185 255 0 0 160 203 255 255 219 0 99 72 0 255 0 0 255 235 0 0 0 56 37 0 0 7 3 0 1 3 0 0 0 0 0 0 0 0 0 8 0 0 10 0 0 0 0 4 0 0 0 0 12 48 104 65 5 51 108 0 0 0 43 1 0 29 0 12 10 0 32 15 0 17 16 0 6 5 8 2 0 0 2 1 3 1 0 0 0 1 0 3 0 0 3 3 0 1 0 5 8 8 6 2 0 0 1 0 0 0 2 7 8 6 13 0 0 21 22 0 0 17 6 4 8 0 3 6 0 3 52 0 0 0 0 215 204 0 0 101 255 67 0 2 43 0 0 4 8 0 0 6 0 0 7 5 7 2 0 0 0 5 0 0 0 0 0 0 0 16 0 5 15 7 0 19 41 180 149 0 8 0 0 0 0 0 109 49 80 29 31 49 36 95 174 0 0 29 1 0 18 0 16 0 0 0 59 20 33 137 33 11 0 0 0 0 0 0 0 0 0 0 0 0 0 0 0 0 0 0 0 0 0 0 0 133 115 11 0 0 0 0 189 24 3 0 5 8 0 7 0 0 0 0 0 0 0 0 0 0 0 0 0 0 0 0 0 0 0 0 0 0 0 0 0 0 0 0 0 0 0 0 0 0 0 0 0 0 0 0 0 0 0 0 0 0 0 0 0 0 0 0 0 0 0 0 0 0 0 0 0 0 0 0 0 0 0 0 0 0 0 0 0 0 0 0 0 0 0 0 0 0 0 0 0 0 0 0 0 0 0 0 0 0 0 0 0 0 0 0 0 0 0 0 0 0 0 0 0 0 0 0 0 0 0 0 0 0 0 0 0 0 0 0 0 0 0 0 0 0 0 0 0 0 0 0 0 0 0 0 0 0 0 0 0 0 0 0 0 0 0 0 0 0 0 255
255 0 0 0 0 0 0 0 0 0 0 0 0 0 0 0 0 0 0 0 0 0 0 0 0 0 0 0 0 0 0 0 0 0 0 0 0 0 0 0 0 0 0 0 0 0 0 0 0 0 0 0 0 0 0 0 0 0 0 0 0 0 0 0 0 0 0 0 0 0 0 0 0 0 0 0 0 0 0 0 0 0 0 0 0 0 0 0 0 0 0 0 0 0 0 0 0 0 0 0 0 0 0 0 0 0 0 0 0 0 0 3 0 3 0 3 0 0 3 9 0 0 69 34 0 119 0 255 255 0 255 0 0 140 66 163 47 0 112 89 0 0 0 39 14 38 0 0 148 0 39 146 0 149 255 32 0 0 94 58 24 0 41 255 0 0 0 255 255 0 247 0 65 0 154 255 255 152 255 0 0 0 0 0 0 222 90 0 86 0 117 33 108 51 101 69 31 0 0 237 0 0 0 0 140 0 0 0 0 0 0 0 0 23 68 20 125 0 84 0 0 159 137 0 0 255 0 103 0 43 0 30 0 34 0 0 83 0 45 0 0 83 25 137 13 63 145 93 255 120 28 67 40 30 0 0 0 0 16 82 89 0 0 124 16 4 0 0 38 0 22 28 0 0 107 0 55 0 41 0 0 15 17 0 10 31 0 0 0 0 0 0 13 5 10 10 23 10 1 0 9 0 0 0 19 0 0 0 0 13 0 0 18 0 2 0 3 8 9 3 3 0 0 0 0 0 0 0 39 0 14 0 40 37 0 58 63 168 0 0 255 0 0 12 113 50 0 0 0 11 0 0 0 0 0 0 0 0 0 0 9 0 17 26 0 0 0 0 0 0 31 55 44 44 12 18 0 0 8 0 0 0 35 53 79 35 0 0 0 0 0 4 122 11 0 0 0 0 118 183 0 22 0 0 25 0 0 10 0 1 0 1 1 0 4 7 0 0 8 2 3 0 6 2 7 0 0 6 13 17 0 0 0 0 0 6 0 8 0 0 0 0 14 66 30 0 0 85 0 0 0 0 0 74 111 21 0 0 0 118 146 89 93 41 194 255 0 0 66 54 0 234 44 0 0 0 0 0 0 0 0 0 201 46 152 0 0 0 78 0 0 0 51 254 10 39 0 255 227 0 0 0 109 255 255 41 0 0 0 255 195 0 44 0 0 31 17 9 12 0 0 0 0 3 0 0 0 0 7 1 0 1 3 4 0 0 5 0 0 0 0 0 3 0 35 0 37 80 22 0 0 111 0 0 0 0 75 0 0 29 0 7 0 0 26 9 0 9 0 0 10 8 9 3 3 0 0 1 4 3 1 1 0 0 0 3 0 0 3 3 0 2 2 0 5 6 0 0 0 0 8 2 0 0 6 8 8 3 8 0 0 23 17 0 0 7 3 0 7 3 5 3 4 4 0 0 33 76 0 0 119 155 0 64 46 0 0 5 5 0 0 0 5 0 4 6 10 0 3 0 0 6 0 0 0 3 0 0 0 4 0 0 0 0 0 0 10 12 5 0 0 0 226 1 0 40 60 7 11 0 0 0 115 5 0 116 0 234 116 0 0 23 0 0 0 0 0 0 63 148 129 48 46 90 0 0 0 0 0 0 0 0 0 0 76 150 63 163 255 132 179 151 158 0 0 0 0 0 0 0 0 0 41 1 0 0 223 22 8 0 13 11 0 12 2 0 0 0 0 0 0 0 0 0 0 0 0 0 0 0 0 0 0 0 0 0 0 0 0 0 0 0 0 0 0 0 0 0 0 0 0 0 0 0 0 0 0 0 0 0 0 0 0 0 0 0 0 0 0 0 0 0 0 0 0 0 0 0 0 0 0 0 0 0 0 0 0 0 0 0 0 0 0 0 0 0 0 0 0 0 0 0 0 0 0 0 0 0 0 0 0 0 0 0 0 0 0 0 0 0 0 0 0 0 0 0 0 0 0 0 0 0 0 0 0 0 0 0 0 0 0 0 0 0 0 0 0 0 0 0 0 0 0 0 0 0 0 0 0 0 0 0 0 0 0 0 0 0 0 255
255 0 0 0 0 0 0 0 0 0 0 0 0 0 0 0 0 0 0 0 0 0 0 0 0 0 0 0 0 0 0 0 0 0 0 0 0 0 0 0 0 0 0 0 0 0 0 0 0 0 0 0 0 0 0 0 0 0 0 0 0 0 0 0 0 0 0 0 0 0 0 0 0 0 0 0 0 0 0 0 0 0 0 0 0 0 0 0 0 0 0 0 0 0 0 0 0 0 0 0 0 0 0 0 0 0 0 0 0 0 0 3 0 3 0 3 0 0 3 17 18 25 67 124 0 0 0 0 206 70 50 143 45 79 136 0 0 120 255 63 0 0 0 255 81 254 150 54 197 0 166 0 112 8 10 46 0 0 19 96 255 255 255 13 0 0 68 255 202 34 243 0 0 62 81 237 123 0 0 0 66 108 57 0 0 213 255 0 0 0 0 0 0 0 0 0 43 42 0 0 255 0 0 202 0 0 37 0 0 35 0 0 40 0 0 162 0 0 40 10 10 101 19 0 0 255 13 98 0 81 0 32 0 17 0 0 102 22 78 5 47 41 0 0 0 126 57 81 0 0 35 52 39 33 0 0 9 89 96 50 0 0 0 82 38 14 0 70 99 17 56 38 0 32 86 0 27 0 1 0 0 15 10 0 18 78 45 0 16 0 0 0 11 3 0 0 63 15 0 0 0 0 0 0 27 0 0 0 14 20 10 0 17 3 2 0 6 0 4 5 0 0 0 0 4 9 1 0 48 0 0 0 26 13 0 26 52 0 0 0 255 0 0 189 0 0 0 29 45 33 0 0 10 10 15 15 33 33 40 28 33 0 29 42 0 0 18 0 0 13 39 25 7 0 0 0 28 0 0 10 34 23 0 3 0 65 43 0 0 0 0 19 7 167 0 0 0 25 159 35 0 38 20 0 17 0 0 22 0 0 0 0 0 3 9 2 4 9 14 6 6 2 4 5 2 0 0 0 5 1 3 0 1 15 13 23 1 0 0 0 11 57 63 0 0 0 22 19 9 18 19 6 93 135 165 98 0 90 0 0 48 40 33 184 0 255 89 0 0 0 46 237 124 0 41 167 60 0 0 0 0 255 255 51 148 130 255 163 0 0 0 0 0 255 145 0 0 255 94 0 0 28 0 0 0 58 0 0 144 255 40 0 70 26 16 0 0 0 32 11 1 1 1 4 5 3 1 4 2 10 3 0 3 0 0 0 0 0 0 0 0 0 3 0 63 12 69 93 0 0 0 154 0 0 0 0 0 15 10 0 1 17 0 0 12 8 0 18 0 0 0 3 0 1 0 1 2 0 8 6 4 0 2 3 0 3 0 0 3 3 0 4 0 0 0 0 3 1 0 0 16 7 5 0 0 1 0 0 0 2 6 7 1 0 3 12 3 6 0 0 6 0 8 8 0 89 66 0 22 51 7 63 117 0 0 7 40 0 0 26 0 9 13 3 3 11 16 1 0 0 0 0 0 0 0 0 0 0 0 0 0 4 5 0 25 8 0 0 13 31 2 0 56 182 0 0 0 43 89 0 0 0 52 4 28 82 0 28 0 0 0 0 0 26 0 0 255 175 136 0 0 0 0 0 0 0 0 102 213 255 255 255 255 255 255 217 95 163 255 240 249 255 255 255 255 255 255 255 163 191 0 0 0 0 0 0 213 13 9 0 7 13 0 0 2 0 0 0 0 0 0 0 0 0 0 0 0 0 0 0 0 0 0 0 0 0 0 0 0 0 0 0 0 0 0 0 0 0 0 0 0 0 0 0 0 0 0 0 0 0 0 0 0 0 0 0 0 0 0 0 0 0 0 0 0 0 0 0 0 0 0 0 0 0 0 0 0 0 0 0 0 0 0 0 0 0 0 0 0 0 0 0 0 0 0 0 0 0 0 0 0 0 0 0 0 0 0 0 0 0 0 0 0 0 0 0 0 0 0 0 0 0 0 0 0 0 0 0 0 0 0 0 0 0 0 0 0 0 0 0 0 0 0 0 0 0 0 0 0 0 0 0 0 0 0 0 0 0 0 255
255 0 0 0 0 0 0 0 0 0 0 0 0 0 0 0 0 0 0 0 0 0 0 0 0 0 0 0 0 0 0 0 0 0 0 0 0 0 0 0 0 0 0 0 0 0 0 0 0 0 0 0 0 0 0 0 0 0 0 0 0 0 0 0 0 0 0 0 0 0 0 0 0 0 0 0 0 0 0 0 0 0 0 0 0 0 0 0 0 0 0 0 0 0 0 0 0 0 0 0 0 0 0 0 0 0 0 0 0 0 0 3 0 3 0 3 0 0 3 11 0 2 70 104 0 0 0 0 0 101 0 146 76 0 175 0 0 0 0 0 0 0 0 0 0 255 255 99 0 57 255 0 0 65 193 24 0 222 255 217 0 0 0 0 0 255 253 0 0 132 27 0 0 28 6 0 0 0 0 234 18 0 0 255 0 0 120 0 0 0 0 14 0 0 0 0 90 125 48 0 143 0 8 122 0 93 0 0 0 101 0 0 0 0 0 0 0 0 0 0 0 0 0 55 0 255 156 0 0 36 33 16 38 93 94 36 122 12 107 108 83 146 49 98 184 179 59 0 0 41 125 0 0 0 0 50 0 0 7 0 0 0 97 108 0 0 0 11 11 0 0 0 0 64 43 0 0 21 0 12 0 0 1 0 2 9 3 12 8 9 0 6 12 0 0 0 37 3 0 0 0 0 0 2 6 0 0 0 8 9 7 0 8 2 0 0 5 3 10 0 0 1 14 10 9 12 0 0 41 0 0 0 14 5 0 0 0 0 255 211 127 0 0 255 0 47 61 11 0 0 6 74 0 0 0 0 0 0 0 0 34 0 16 35 0 6 23 19 0 9 19 0 0 0 0 0 70 2 0 5 38 9 0 0 0 62 61 8 25 0 0 38 0 122 0 0 77 140 29 0 0 16 0 0 1 0 0 29 0 6 0 0 0 0 0 0 0 0 9 1 1 0 2 4 0 10 10 0 0 0 0 0 15 16 11 11 0 0 0 0 51 49 45 0 0 31 44 0 21 36 43 52 119 89 0 0 0 0 113 17 24 0 0 0 134 213 255 0 0 0 51 0 23 0 96 177 0 0 2 0 232 38 94 0 0 0 255 255 0 211 76 87 221 148 0 0 0 255 0 0 0 211 15 0 0 0 255 198 122 91 0 0 0 0 16 1 0 0 0 41 0 0 0 3 5 2 0 0 0 7 9 0 3 15 2 0 0 4 3 9 0 0 0 0 12 18 71 17 0 52 61 0 0 0 28 0 0 25 33 0 15 23 0 0 21 8 0 30 0 0 0 6 3 12 8 3 0 0 6 2 0 0 5 8 0 3 0 0 3 3 0 7 0 0 0 0 0 0 2 0 12 13 11 0 0 8 4 0 0 17 20 0 0 9 14 0 2 5 0 0 2 0 0 12 46 18 0 0 84 12 0 31 21 32 25 0 0 0 6 23 0 3 8 0 6 14 18 0 0 2 0 2 0 2 0 0 2 0 0 2 0 0 4 0 14 0 0 0 6 42 37 0 0 255 0 0 0 0 34 20 118 46 11 98 119 26 0 0 0 0 36 0 0 30 0 0 117 0 0 0 0 23 217 255 255 255 255 231 140 32 0 0 0 0 0 0 20 0 0 0 0 0 8 0 119 41 121 158 91 206 251 252 253 137 32 0 136 41 14 5 7 14 0 15 2 0 0 0 0 0 0 0 0 0 0 0 0 0 0 0 0 0 0 0 0 0 0 0 0 0 0 0 0 0 0 0 0 0 0 0 0 0 0 0 0 0 0 0 0 0 0 0 0 0 0 0 0 0 0 0 0 0 0 0 0 0 0 0 0 0 0 0 0 0 0 0 0 0 0 0 0 0 0 0 0 0 0 0 0 0 0 0 0 0 0 0 0 0 0 0 0 0 0 0 0 0 0 0 0 0 0 0 0 0 0 0 0 0 0 0 0 0 0 0 0 0 0 0 0 0 0 0 0 0 0 0 0 0 0 0 0 0 0 0 0 0 0 0 0 0 0 0 0 0 0 0 0 0 0 255
255 0 0 0 0 0 0 0 0 0 0 0 0 0 0 0 0 0 0 0 0 0 0 0 0 0 0 0 0 0 0 0 0 0 0 0 0 0 0 0 0 0 0 0 0 0 0 0 0 0 0 0 0 0 0 0 0 0 0 0 0 0 0 0 0 0 0 0 0 0 0 0 0 0 0 0 0 0 0 0 0 0 0 0 0 0 0 0 0 0 0 0 0 0 0 0 0 0 0 0 0 0 0 0 0 0 0 0 0 0 1 4 0 4 1 3 0 0 5 18 15 32 0 0 0 0 220 107 0 231 255 0 0 0 67 173 0 107 134 0 0 93 75 0 0 0 0 255 50 0 51 0 0 1 10 0 102 173 0 0 0 0 223 0 228 233 0 0 14 0 0 0 202 46 255 0 0 136 0 201 114 0 49 55 0 0 0 174 41 108 255 162 144 89 100 149 0 0 4 0 0 0 33 0 79 99 0 0 0 0 0 0 0 114 169 0 0 133 138 152 255 0 0 110 0 121 255 0 57 86 103 0 11 55 11 0 25 0 0 0 0 0 0 0 197 52 108 88 104 60 218 86 115 35 0 92 56 0 0 7 0 0 4 14 0 8 0 24 42 36 107 0 0 109 26 55 8 73 0 67 14 0 28 45 0 0 0 103 10 0 0 0 10 0 0 0 0 0 0 42 66 43 12 8 0 0 10 3 0 0 0 0 15 14 6 0 10 0 0 0 0 0 14 17 29 15 3 0 60 0 0 0 48 0 0 0 137 255 230 25 0 0 94 0 37 0 0 0 20 28 0 0 22 25 18 0 0 0 0 0 0 0 0 0 0 0 33 28 0 0 16 7 0 0 21 63 0 0 5 1 0 0 4 0 0 44 29 56 109 0 0 0 13 0 0 0 222 170 0 67 0 32 0 0 23 27 0 0 3 0 0 0 0 0 3 9 0 7 14 15 12 1 19 16 18 21 18 1 0 0 0 10 12 18 8 0 0 0 0 0 85 0 0 32 66 9 0 0 29 24 0 1 74 0 0 143 0 0 0 12 114 181 0 0 11 145 0 46 255 88 0 9 13 0 0 0 0 47 255 0 186 249 36 0 0 0 255 0 0 107 209 245 134 0 0 0 0 0 0 102 0 255 255 0 0 0 142 44 80 0 34 0 0 23 9 15 56 39 0 0 7 10 8 1 0 3 10 0 8 20 11 0 11 23 23 0 0 0 13 14 0 0 1 27 20 73 106 0 0 132 79 0 0 0 11 37 29 0 0 0 0 10 0 0 14 5 0 45 0 0 0 13 0 7 4 2 0 0 3 3 11 8 6 10 0 2 0 2 12 14 7 11 0 1 4 0 0 2 6 0 0 9 12 0 0 21 18 1 0 33 34 0 0 19 35 7 10 9 0 0 8 29 28 24 0 0 80 88 0 0 59 9 0 33 13 0 0 35 50 1 11 11 7 0 0 1 0 0 10 1 3 0 0 5 0 0 11 7 3 9 0 14 6 2 0 12 6 0 5 37 12 0 0 204 105 0 45 0 0 0 93 87 0 0 0 0 22 0 15 0 0 0 4 0 0 0 0 0 140 255 255 234 157 123 16 0 0 0 0 0 29 41 93 0 0 0 103 84 34 32 93 26 37 0 36 0 0 0 0 0 0 0 0 15 24 0 0 0 0 17 39 21 0 12 4 4 1 5 6 6 3 5 5 4 1 0 0 0 2 2 2 0 0 0 0 0 0 0 0 0 0 0 0 0 0 0 0 0 0 0 0 0 0 0 0 0 0 0 0 0 0 0 0 0 0 0 0 0 0 0 0 0 0 0 0 0 0 0 0 0 0 0 0 0 0 0 0 0 0 0 0 0 0 0 0 0 0 0 0 0 0 0 0 0 0 0 0 0 0 0 0 0 0 0 0 0 0 0 0 0 0 0 0 0 0 0 0 0 0 0 0 0 0 0 0 0 0 0 0 0 0 0 0 0 0 0 0 0 0 0 0 0 0 0 0 0 0 0 0 0 0 0 0 0 0 0 0 0 0 255
255 0 0 0 0 0 0 0 0 0 0 0 0 0 0 0 0 0 0 0 0 0 0 0 0 0 0 0 0 0 0 0 0 0 0 0 0 0 0 0 0 0 0 0 0 0 0 0 0 0 0 0 0 0 0 0 0 0 0 0 0 0 0 0 0 0 0 0 0 0 0 0 0 0 0 0 0 0 0 0 0 0 0 0 0 0 0 0 0 0 0 0 0 0 0 0 0 0 0 0 0 0 0 0 0 0 0 0 0 0 1 0 0 0 2 3 0 0 0 2 0 85 63 121 61 13 0 145 0 0 255 11 0 0 0 245 0 0 71 28 0 0 255 115 0 0 179 33 0 0 255 38 0 0 0 0 211 0 80 86 0 0 255 66 174 0 1 26 0 255 0 46 255 187 255 0 32 0 78 255 0 0 0 0 0 2 0 0 255 218 0 0 0 0 12 0 36 95 139 191 110 116 103 0 123 238 22 0 169 0 17 152 175 131 0 0 32 240 223 182 255 0 0 50 0 0 171 71 0 0 20 0 0 0 0 0 0 0 0 0 0 0 0 0 0 0 0 0 0 0 0 0 52 71 52 82 0 0 8 113 52 0 0 102 0 0 0 31 47 0 0 0 0 169 38 0 125 0 0 0 3 6 23 59 113 91 0 0 0 77 28 0 74 68 0 35 0 19 0 0 7 0 0 15 1 0 0 0 16 14 8 8 0 0 0 0 0 0 17 22 9 8 5 0 0 4 4 0 68 0 0 36 0 0 0 255 190 53 0 0 0 44 39 0 0 11 17 0 0 4 37 0 0 0 23 16 0 16 49 56 0 67 45 0 10 25 0 39 7 0 0 19 42 9 0 7 28 0 0 0 32 29 14 20 0 35 17 0 0 97 64 0 0 0 0 223 15 0 47 1 0 0 1 0 2 0 0 0 14 4 9 11 1 9 0 4 0 0 0 0 0 0 0 0 0 0 1 0 0 0 8 27 0 0 9 0 0 0 43 99 26 0 78 19 0 175 0 0 0 17 10 13 0 0 0 0 0 128 104 0 162 124 0 182 127 255 0 0 0 0 0 0 0 0 0 0 0 72 255 0 0 131 0 0 0 0 193 0 0 255 200 0 125 0 0 0 0 28 72 255 67 0 0 0 0 5 206 22 15 20 6 47 54 34 24 42 28 2 1 9 0 0 0 13 8 0 0 3 0 0 1 0 0 0 0 0 50 11 0 0 6 22 20 0 0 84 97 0 126 162 0 0 29 23 0 0 24 0 0 45 18 29 5 0 34 20 0 3 12 5 13 6 0 0 8 7 0 11 20 0 0 0 0 0 0 2 6 0 0 0 0 17 0 0 0 19 18 0 0 0 21 17 0 0 22 18 0 11 11 5 0 0 6 0 0 0 0 0 0 0 0 0 0 5 0 0 41 0 19 0 12 0 0 14 61 17 0 0 0 0 3 0 0 0 0 5 0 0 0 1 0 0 0 0 0 0 0 0 0 0 0 0 0 4 0 0 0 0 0 0 12 57 0 0 192 0 0 23 14 51 80 0 0 177 0 0 40 0 33 0 0 0 0 0 0 211 213 255 213 115 67 0 0 0 0 40 0 20 22 0 64 0 0 45 75 45 0 0 0 0 0 52 0 0 70 35 0 94 130 73 108 113 109 0 0 41 11 9 0 0 0 0 29 17 0 8 1 0 0 1 0 0 0 0 9 10 8 4 3 0 2 0 0 0 0 0 0 0 0 0 0 0 0 0 0 0 0 0 0 0 0 0 0 0 0 0 0 0 0 0 0 0 0 0 0 0 0 0 0 0 0 0 0 0 0 0 0 0 0 0 0 0 0 0 0 0 0 0 0 0 0 0 0 0 0 0 0 0 0 0 0 0 0 0 0 0 0 0 0 0 0 0 0 0 0 0 0 0 0 0 0 0 0 0 0 0 0 0 0 0 0 0 0 0 0 0 0 0 0 0 0 0 0 0 0 0 0 0 0 0 0 0 0 0 0 0 0 0 0 0 0 0 0 0 0 0 0 0 0 255
255 0 0 0 0 0 0 0 0 0 0 0 0 0 0 0 0 0 0 0 0 0 0 0 0 0 0 0 0 0 0 0 0 0 0 0 0 0 0 0 0 0 0 0 0 0 0 0 0 0 0 0 0 0 0 0 0 0 0 0 0 0 0 0 0 0 0 0 0 0 0 0 0 0 0 0 0 0 0 0 0 0 0 0 0 0 0 0 0 0 0 0 0 0 0 0 0 0 0 0 0 0 0 0 0 0 0 0 0 0 1 4 0 0 3 3 0 0 7 6 32 71 0 197 255 0 0 127 0 0 0 89 0 0 0 164 164 66 255 152 0 0 255 65 0 255 255 0 0 36 228 0 138 0 0 170 108 0 118 67 0 0 255 60 66 0 17 0 0 147 207 0 221 255 0 0 255 0 0 96 55 0 0 0 0 0 0 0 18 0 0 0 0 0 0 0 0 0 0 84 5 61 53 0 0 0 0 24 0 0 0 0 0 0 0 62 0 0 0 0 255 233 0 0 0 41 102 0 0 22 27 0 16 18 0 2 0 7 4 13 0 5 4 0 0 0 0 0 6 0 0 0 0 0 10 76 0 27 52 6 0 47 116 147 23 0 0 18 18 0 0 0 0 255 0 0 33 112 0 11 61 2 0 0 0 0 23 76 0 41 0 0 39 25 0 36 0 0 0 20 20 0 0 8 0 4 0 0 2 4 0 11 0 0 6 1 5 1 4 0 7 10 10 0 4 15 8 0 0 93 0 94 0 0 136 188 0 34 34 0 0 50 37 15 0 1 22 4 1 0 0 0 0 0 0 0 0 1 7 6 0 57 13 0 26 30 0 69 0 0 10 10 11 0 0 23 7 2 0 12 12 0 0 0 0 24 16 0 0 59 48 14 0 0 94 114 0 0 79 0 10 0 0 0 5 4 0 0 4 4 0 0 0 2 0 0 10 2 0 1 3 0 3 0 0 2 12 3 0 0 0 31 9 11 0 0 0 0 0 29 0 0 20 0 0 100 44 180 0 9 58 82 0 0 162 0 0 0 149 0 0 36 0 0 122 250 0 0 0 169 204 43 0 0 0 6 0 48 255 79 0 0 0 0 0 66 216 0 255 79 23 77 0 80 83 0 255 255 22 0 40 12 0 0 11 189 163 0 7 12 0 0 0 0 0 0 0 0 0 0 15 0 6 18 17 0 0 4 3 0 0 1 6 6 4 0 14 0 1 24 29 0 0 27 94 36 19 24 73 0 0 0 3 0 0 0 16 0 0 28 0 1 0 0 16 0 0 0 10 0 0 4 7 0 5 5 0 5 13 1 0 0 12 2 0 0 15 11 10 4 9 0 6 0 0 6 14 0 0 0 10 23 0 0 23 18 0 14 0 6 5 3 0 0 4 8 18 13 6 21 34 21 19 24 13 0 20 0 81 0 2 0 0 10 16 25 2 0 0 0 9 6 0 0 2 19 17 16 5 2 3 3 0 6 0 1 0 4 1 0 4 0 5 11 0 0 7 4 2 0 4 27 30 0 145 102 0 69 0 62 0 68 56 0 0 0 15 43 0 0 0 0 0 255 255 232 78 80 0 0 0 0 0 11 65 86 0 14 52 23 87 0 0 6 15 0 0 0 8 0 67 0 0 0 0 2 0 0 6 0 0 0 23 89 78 26 12 72 0 36 19 0 22 0 0 11 4 10 0 11 12 0 21 8 0 0 0 0 6 5 4 0 0 0 0 0 0 0 0 0 0 0 0 0 0 0 0 0 0 0 0 0 0 0 0 0 0 0 0 0 0 0 0 0 0 0 0 0 0 0 0 0 0 0 0 0 0 0 0 0 0 0 0 0 0 0 0 0 0 0 0 0 0 0 0 0 0 0 0 0 0 0 0 0 0 0 0 0 0 0 0 0 0 0 0 0 0 0 0 0 0 0 0 0 0 0 0 0 0 0 0 0 0 0 0 0 0 0 0 0 0 0 0 0 0 0 0 0 0 0 0 0 0 0 0 0 0 0 0 0 0 0 0 0 0 0 0 0 0 255
255 0 0 0 0 0 0 0 0 0 0 0 0 0 0 0 0 0 0 0 0 0 0 0 0 0 0 0 0 0 0 0 0 0 0 0 0 0 0 0 0 0 0 0 0 0 0 0 0 0 0 0 0 0 0 0 0 0 0 0 0 0 0 0 0 0 0 0 0 0 0 0 0 0 0 0 0 0 0 0 0 0 0 0 0 0 0 0 0 0 0 0 0 0 0 0 0 0 0 0 0 0 0 0 0 0 0 0 0 0 0 3 0 0 5 4 0 0 5 0 0 63 0 0 162 0 0 0 83 216 0 0 255 0 0 12 0 0 252 255 0 0 0 0 0 78 0 0 0 161 37 119 0 10 233 142 0 151 255 0 0 0 255 22 0 22 180 158 0 49 7 0 114 0 0 255 247 119 90 0 0 0 59 219 0 0 0 0 0 0 20 44 20 0 0 0 0 0 0 0 0 0 0 0 0 0 0 122 47 86 32 16 89 148 89 127 0 0 0 0 0 0 80 245 202 106 39 0 0 33 22 0 0 0 0 0 0 0 0 15 0 17 7 0 8 0 0 0 0 0 0 0 0 0 0 0 0 110 140 37 0 0 0 0 21 3 9 31 10 0 0 0 0 255 0 0 0 176 44 42 32 0 0 0 0 15 17 59 0 22 0 0 13 0 0 43 14 0 9 59 0 2 30 0 0 0 0 0 5 16 3 6 0 0 2 10 6 8 0 0 0 5 7 0 7 15 17 5 0 67 0 0 0 67 252 51 0 14 39 11 0 17 16 0 0 8 13 38 24 0 0 0 0 0 0 0 9 16 10 0 0 56 5 0 43 33 0 90 0 1 28 12 0 0 0 21 0 1 13 4 0 0 0 0 0 17 5 0 15 49 43 58 0 24 151 60 0 29 61 0 16 0 0 0 0 4 0 0 0 1 0 0 10 0 5 0 11 0 0 0 0 0 8 2 0 0 0 0 7 6 1 18 0 0 0 0 0 0 0 2 0 40 35 0 74 0 0 28 64 0 100 255 208 0 255 255 0 0 0 0 0 63 255 30 0 0 0 85 124 77 3 0 0 0 0 0 0 180 57 0 242 0 0 0 129 255 48 0 0 0 178 12 0 0 0 0 67 155 0 0 111 255 255 0 226 177 76 0 0 15 0 6 3 0 0 0 0 0 0 2 12 1 3 11 8 0 0 0 31 3 0 0 3 6 2 0 0 0 0 31 31 0 0 61 127 0 0 177 0 0 0 0 13 20 10 3 28 3 0 37 0 15 0 0 18 3 0 9 0 0 0 7 2 0 2 1 0 2 11 0 0 4 11 5 0 0 7 12 11 8 0 0 24 0 0 7 6 0 0 11 0 20 0 0 24 16 0 16 0 0 7 3 0 0 0 5 10 0 0 0 30 17 0 0 5 0 0 0 46 0 19 0 32 0 0 48 42 0 0 0 5 0 0 0 0 0 3 16 0 2 2 0 1 3 5 12 0 0 9 4 3 0 4 4 0 6 2 2 0 6 7 4 45 0 45 205 0 0 0 68 84 216 60 0 0 18 0 0 0 0 104 255 255 220 0 40 31 32 0 0 9 0 0 0 8 38 0 0 40 3 43 0 34 0 0 33 23 0 0 39 27 0 0 18 0 11 69 0 0 0 22 0 0 37 70 55 1 113 69 90 82 61 66 39 38 27 18 8 4 0 0 0 0 0 6 14 12 11 4 0 8 2 1 0 0 0 0 0 0 0 0 0 0 0 0 0 0 0 0 0 0 0 0 0 0 0 0 0 0 0 0 0 0 0 0 0 0 0 0 0 0 0 0 0 0 0 0 0 0 0 0 0 0 0 0 0 0 0 0 0 0 0 0 0 0 0 0 0 0 0 0 0 0 0 0 0 0 0 0 0 0 0 0 0 0 0 0 0 0 0 0 0 0 0 0 0 0 0 0 0 0 0 0 0 0 0 0 0 0 0 0 0 0 0 0 0 0 0 0 0 0 0 0 0 0 0 0 0 0 0 0 0 0 0 0 0 0 0 0 255
255 0 0 0 0 0 0 0 0 0 0 0 0 0 0 0 0 0 0 0 0 0 0 0 0 0 0 0 0 0 0 0 0 0 0 0 0 0 0 0 0 0 0 0 0 0 0 0 0 0 0 0 0 0 0 0 0 0 0 0 0 0 0 0 0 0 0 0 0 0 0 0 0 0 0 0 0 0 0 0 0 0 0 0 0 0 0 0 0 0 0 0 0 0 0 0 0 0 0 0 0 0 0 0 0 0 0 0 0 0 0 3 0 0 0 0 4 2 3 0 16 136 0 0 122 0 151 0 96 255 0 0 132 29 98 148 175 0 0 0 255 0 103 27 11 42 0 138 0 72 0 154 43 255 244 127 0 0 0 0 9 0 57 0 0 10 119 185 73 88 241 0 0 0 0 155 36 87 13 0 0 0 39 0 95 255 31 0 133 62 0 232 164 0 0 0 0 0 0 0 0 0 0 0 41 58 0 91 118 178 33 0 70 190 119 117 0 0 0 0 115 157 111 16 79 39 26 48 28 0 0 11 0 0 0 0 0 0 9 18 0 13 10 3 0 0 0 0 0 0 13 36 29 6 0 0 0 0 0 41 36 0 0 0 0 0 0 22 22 15 14 0 0 123 0 112 0 97 88 0 21 9 47 63 53 32 0 0 0 0 0 10 3 0 0 53 21 0 7 54 0 0 61 0 3 13 0 0 0 15 11 0 0 0 5 4 10 2 0 10 0 2 8 0 0 11 3 0 32 0 8 0 0 255 75 0 5 16 14 0 0 0 0 0 50 0 0 0 21 0 0 20 0 0 8 0 0 17 16 0 0 69 7 0 51 18 0 54 0 10 25 0 0 0 0 8 0 0 5 3 0 0 0 16 0 0 0 0 13 1 0 0 57 60 27 0 10 1 0 0 0 2 0 0 5 5 4 0 0 0 0 2 0 0 3 0 26 7 0 0 5 12 7 0 10 0 0 5 21 7 1 0 0 0 0 0 0 9 2 22 0 0 0 0 115 1 6 0 67 255 118 0 9 0 17 255 0 0 62 0 0 83 39 0 0 46 0 0 48 0 0 0 230 255 255 240 224 214 0 0 0 37 255 255 255 128 0 110 0 0 0 0 0 255 121 10 255 155 0 43 204 0 0 117 68 36 0 0 0 27 0 9 21 12 6 4 3 9 14 26 0 0 0 0 0 0 0 0 31 0 0 0 0 4 0 0 15 0 0 0 5 20 19 68 22 0 0 156 0 0 22 0 17 16 9 0 19 0 0 32 0 24 2 0 29 17 0 29 0 0 0 2 0 0 3 0 0 4 8 0 0 4 13 0 0 0 0 6 7 9 0 0 27 7 0 1 1 0 3 19 0 25 0 0 24 14 0 20 0 0 19 1 1 0 0 11 0 0 0 0 0 0 0 0 6 33 41 0 0 0 44 0 23 0 0 31 45 18 0 0 3 3 10 6 0 0 0 2 0 0 0 0 0 4 4 0 0 0 2 3 0 0 9 4 0 5 1 3 0 0 3 0 33 0 0 101 236 0 84 69 79 0 0 0 0 0 0 0 18 255 255 120 0 49 73 0 0 0 8 56 62 0 0 57 0 0 12 24 3 0 11 28 0 100 88 0 0 50 52 0 0 0 0 54 0 2 62 39 8 0 26 38 0 0 0 10 0 0 0 0 0 0 70 0 75 17 19 59 55 21 29 26 0 5 3 4 6 0 0 0 2 0 2 0 0 0 0 0 0 0 0 0 0 0 0 0 0 0 0 0 0 0 0 0 0 0 0 0 0 0 0 0 0 0 0 0 0 0 0 0 0 0 0 0 0 0 0 0 0 0 0 0 0 0 0 0 0 0 0 0 0 0 0 0 0 0 0 0 0 0 0 0 0 0 0 0 0 0 0 0 0 0 0 0 0 0 0 0 0 0 0 0 0 0 0 0 0 0 0 0 0 0 0 0 0 0 0 0 0 0 0 0 0 0 0 0 0 0 0 0 0 0 0 0 0 0 0 0 0 0 0 0 0 0 0 0 0 0 0 255
255 0 0 0 0 0 0 0 0 0 0 0 0 0 0 0 0 0 0 0 0 0 0 0 0 0 0 0 0 0 0 0 0 0 0 0 0 0 0 0 0 0 0 0 0 0 0 0 0 0 0 0 0 0 0 0 0 0 0 0 0 0 0 0 0 0 0 0 0 0 0 0 0 0 0 0 0 0 0 0 0 0 0 0 0 0 0 0 0 0 0 0 0 0 0 0 0 0 0 0 0 0 0 0 0 0 0 0 0 0 0 2 0 0 0 0 4 2 3 8 10 57 90 69 194 0 0 0 0 0 60 23 0 182 255 93 255 0 0 37 234 255 163 202 49 146 110 179 101 19 0 0 156 0 0 0 41 0 0 0 201 0 83 26 0 0 0 0 0 213 0 0 0 0 0 34 0 0 0 0 222 32 0 0 242 174 0 0 118 0 0 255 116 20 22 49 0 90 143 0 79 77 148 60 0 0 0 60 0 0 0 0 104 123 0 0 0 0 221 255 100 0 0 0 0 0 0 34 22 0 0 3 0 0 0 2 0 4 0 10 8 3 0 0 0 0 2 0 31 22 0 0 0 0 0 0 0 0 0 0 0 0 38 168 0 0 0 0 6 23 16 0 0 17 248 134 0 152 100 0 81 26 19 0 0 0 1 33 0 0 20 47 15 0 0 42 28 0 0 37 0 0 63 0 10 11 2 0 0 12 14 0 16 0 3 0 1 0 6 25 0 0 3 0 7 19 0 0 0 0 50 0 176 198 0 0 37 20 1 0 14 19 9 0 54 0 0 0 38 8 0 18 0 27 40 0 0 0 15 9 0 52 11 0 43 0 0 3 2 9 1 0 10 18 10 0 0 0 0 9 8 7 8 14 12 0 0 23 4 0 0 0 134 35 0 0 36 0 0 19 1 2 0 0 0 0 8 0 0 0 0 0 2 5 12 0 20 3 0 1 0 5 9 10 22 4 0 2 22 14 10 0 0 11 1 0 0 27 57 79 79 0 0 0 0 19 163 73 47 50 0 0 0 57 0 0 0 33 69 0 0 255 255 63 0 241 0 0 49 25 0 0 255 78 39 81 0 0 255 0 0 214 255 173 124 0 0 243 0 0 0 129 255 136 0 0 33 0 0 0 0 116 109 0 14 8 0 0 31 12 0 0 14 4 2 0 0 0 0 0 0 3 0 0 4 9 15 12 22 0 0 0 0 8 6 0 7 10 0 0 37 103 59 0 0 20 104 0 0 0 3 0 0 13 19 0 16 1 0 18 0 29 7 0 27 11 0 32 0 2 0 4 0 3 0 1 0 3 3 0 0 6 10 0 16 0 0 0 5 9 2 0 16 10 0 0 0 0 8 23 0 26 2 0 16 24 0 3 0 0 14 9 3 0 0 18 14 1 14 16 7 0 0 0 84 55 62 21 0 0 0 18 0 8 6 0 14 47 9 0 0 0 0 10 8 0 0 0 0 5 0 0 4 2 1 4 8 13 13 0 0 0 0 0 0 1 6 7 1 0 0 0 46 27 5 0 255 0 0 33 0 0 16 0 0 0 187 255 255 121 0 0 0 0 3 81 0 0 0 23 0 0 25 98 0 11 65 58 44 30 0 19 0 0 0 12 12 0 0 0 21 78 38 7 31 0 0 33 83 0 0 0 46 36 0 0 0 11 0 0 0 0 0 0 0 0 0 17 47 33 57 89 56 32 13 0 0 0 10 8 6 0 3 0 0 0 0 0 0 0 0 0 0 0 0 0 0 0 0 0 0 0 0 0 0 0 0 0 0 0 0 0 0 0 0 0 0 0 0 0 0 0 0 0 0 0 0 0 0 0 0 0 0 0 0 0 0 0 0 0 0 0 0 0 0 0 0 0 0 0 0 0 0 0 0 0 0 0 0 0 0 0 0 0 0 0 0 0 0 0 0 0 0 0 0 0 0 0 0 0 0 0 0 0 0 0 0 0 0 0 0 0 0 0 0 0 0 0 0 0 0 0 0 0 0 0 0 0 0 0 0 0 0 0 0 0 0 0 0 255
255 0 0 0 0 0 0 0 0 0 0 0 0 0 0 0 0 0 0 0 0 0 0 0 0 0 0 0 0 0 0 0 0 0 0 0 0 0 0 0 0 0 0 0 0 0 0 0 0 0 0 0 0 0 0 0 0 0 0 0 0 0 0 0 0 0 0 0 0 0 0 0 0 0 0 0 0 0 0 0 0 0 0 0 0 0 0 0 0 0 0 0 0 0 0 0 0 0 0 0 0 0 0 0 0 0 0 0 0 0 0 1 2 5 0 0 5 0 0 10 0 0 33 94 0 0 0 23 207 0 0 255 0 255 82 0 0 0 0 222 0 0 0 0 0 0 0 0 181 57 112 28 62 87 129 0 0 0 98 0 41 30 141 0 0 0 39 57 255 0 0 183 255 153 235 26 0 0 140 232 190 0 97 255 0 0 0 172 101 0 0 242 0 0 0 60 0 0 30 114 27 13 53 11 16 0 0 0 12 0 0 19 44 0 0 0 237 191 166 86 18 56 76 20 49 0 0 0 0 0 0 0 0 0 0 2 0 0 0 0 0 0 0 0 0 0 3 0 6 0 0 0 0 0 6 15 54 53 20 0 0 0 0 0 0 17 1 0 8 23 10 0 0 255 255 0 0 121 43 36 51 24 5 0 0 9 22 49 0 0 33 64 0 0 7 12 10 0 0 0 0 0 46 0 0 5 1 0 0 20 20 0 21 0 0 0 0 0 5 22 0 14 18 6 15 23 7 1 0 97 0 0 255 11 64 0 3 0 0 28 49 43 0 0 0 0 0 25 53 28 0 0 0 44 40 0 0 0 28 21 3 32 25 1 13 0 0 0 45 0 0 4 25 21 0 3 13 25 18 7 13 23 5 0 0 0 0 15 2 0 0 0 11 22 19 0 0 0 0 6 0 0 0 0 3 0 1 0 2 3 1 6 0 4 0 0 6 2 0 1 0 8 5 0 10 2 0 3 12 9 5 0 0 0 9 0 0 27 73 60 176 116 142 5 0 67 174 161 0 0 0 149 0 187 0 0 180 144 98 0 0 74 168 0 0 135 0 4 43 0 0 229 0 0 0 23 38 0 211 0 95 135 0 0 35 0 0 255 0 255 255 37 143 0 0 176 95 0 0 145 168 0 0 0 32 6 19 30 17 0 0 6 10 6 0 0 0 0 0 0 22 8 13 0 12 18 12 20 0 3 0 0 0 0 0 0 0 19 23 22 75 129 34 0 0 146 79 0 0 62 0 29 0 10 10 0 8 6 0 23 0 5 1 0 7 0 0 14 0 0 6 0 0 0 6 7 0 0 5 0 0 9 9 0 39 7 0 0 5 13 11 9 1 12 8 0 0 8 11 12 0 31 3 0 10 20 0 0 0 0 6 8 12 6 5 3 28 4 15 13 14 0 0 0 163 62 49 160 47 0 0 51 0 13 16 0 0 46 43 0 0 0 0 15 20 0 0 0 0 0 0 0 0 0 0 1 0 0 0 0 0 0 0 5 0 0 4 0 0 0 1 0 23 0 79 0 143 212 0 0 0 0 0 0 230 255 231 255 61 0 5 11 4 0 8 24 95 0 0 2 0 6 27 0 90 0 0 0 14 31 0 0 0 0 0 35 55 0 0 75 54 104 0 0 71 6 0 0 26 38 0 0 0 88 86 0 24 78 18 66 62 0 40 0 0 0 0 0 0 0 0 0 59 26 38 37 17 13 12 0 8 0 3 0 0 0 0 0 0 0 0 0 0 0 0 0 0 0 0 0 0 0 0 0 0 0 0 0 0 0 0 0 0 0 0 0 0 0 0 0 0 0 0 0 0 0 0 0 0 0 0 0 0 0 0 0 0 0 0 0 0 0 0 0 0 0 0 0 0 0 0 0 0 0 0 0 0 0 0 0 0 0 0 0 0 0 0 0 0 0 0 0 0 0 0 0 0 0 0 0 0 0 0 0 0 0 0 0 0 0 0 0 0 0 0 0 0 0 0 0 0 0 0 0 0 0 0 0 0 0 0 0 0 0 0 0 0 0 0 255
255 0 0 0 0 0 0 0 0 0 0 0 0 0 0 0 0 0 0 0 0 0 0 0 0 0 0 0 0 0 0 0 0 0 0 0 0 0 0 0 0 0 0 0 0 0 0 0 0 0 0 0 0 0 0 0 0 0 0 0 0 0 0 0 0 0 0 0 0 0 0 0 0 0 0 0 0 0 0 0 0 0 0 0 0 0 0 0 0 0 0 0 0 0 0 0 0 0 0 0 0 0 0 0 0 0 0 0 0 0 0 1 1 4 0 0 6 0 0 13 0 18 25 134 0 0 244 118 174 32 0 255 0 64 0 0 0 0 255 0 255 255 255 255 28 27 0 0 240 29 0 255 0 0 255 78 20 35 207 0 0 0 128 0 0 114 184 143 120 0 255 31 0 0 0 179 187 197 173 36 0 44 50 0 0 0 0 156 0 0 0 0 0 0 0 0 0 0 0 14 0 0 0 0 97 131 0 0 52 135 174 0 0 0 13 255 182 86 0 0 0 8 0 0 27 23 0 0 0 0 2 9 2 0 4 0 5 0 0 10 0 0 0 0 0 0 0 0 0 0 1 23 37 29 1 0 0 0 12 0 9 44 14 0 0 26 28 0 0 19 8 0 0 255 0 0 0 0 0 14 0 0 21 37 43 35 14 0 0 0 33 31 0 0 35 0 0 0 3 0 0 8 10 0 0 8 7 0 0 15 13 0 5 0 11 0 0 3 7 10 0 13 14 2 9 13 7 4 15 45 0 47 255 0 63 0 0 0 0 24 29 17 0 8 0 0 3 37 39 24 0 7 0 43 37 0 0 14 40 12 26 0 26 36 0 0 32 0 47 0 0 30 27 0 0 39 0 12 10 0 0 16 7 0 0 0 9 6 0 0 14 34 0 2 37 7 0 0 13 0 2 0 0 0 14 7 2 0 0 0 3 0 0 0 5 16 0 0 0 6 1 4 0 0 7 0 0 1 2 4 0 0 0 0 0 0 0 24 30 0 9 0 88 82 26 176 0 122 0 0 239 116 0 57 88 0 0 0 0 48 15 0 15 0 34 40 0 0 0 0 0 255 255 0 0 0 0 0 0 0 0 153 179 102 0 0 173 200 26 0 0 0 10 255 255 222 101 0 120 249 86 0 0 0 5 0 8 5 0 1 28 14 6 23 24 9 5 18 15 0 10 13 10 0 0 17 12 5 0 0 7 0 1 0 7 19 0 0 27 65 62 8 0 0 0 130 0 0 4 17 20 24 0 20 15 0 14 14 0 23 0 16 2 0 8 0 0 28 0 0 0 1 3 0 13 3 0 5 0 0 1 13 10 0 25 12 7 4 0 2 10 14 0 8 11 0 0 11 8 1 0 35 14 0 5 19 0 0 30 0 0 0 14 7 8 0 30 0 0 0 0 0 0 0 108 5 0 144 46 51 0 0 0 7 16 0 3 39 29 41 0 0 0 0 20 7 2 13 0 0 4 0 1 3 0 0 4 3 7 0 0 0 0 9 0 0 1 0 0 0 0 2 0 0 54 0 0 255 0 0 0 0 12 255 186 0 73 0 0 25 32 31 52 34 0 0 39 0 7 42 3 27 17 0 64 0 0 0 0 16 0 0 0 71 76 0 0 123 125 0 0 0 0 0 22 15 0 19 0 75 92 0 0 0 32 0 0 0 0 20 40 0 14 17 0 18 22 0 0 0 0 0 0 0 21 69 74 41 0 0 14 0 2 0 0 0 0 0 0 0 0 0 0 0 0 0 0 0 0 0 0 0 0 0 0 0 0 0 0 0 0 0 0 0 0 0 0 0 0 0 0 0 0 0 0 0 0 0 0 0 0 0 0 0 0 0 0 0 0 0 0 0 0 0 0 0 0 0 0 0 0 0 0 0 0 0 0 0 0 0 0 0 0 0 0 0 0 0 0 0 0 0 0 0 0 0 0 0 0 0 0 0 0 0 0 0 0 0 0 0 0 0 0 0 0 0 0 0 0 0 0 0 0 0 0 0 0 0 0 0 0 0 0 0 0 0 0 0 0 255
255 0 0 0 0 0 0 0 0 0 0 0 0 0 0 0 0 0 0 0 0 0 0 0 0 0 0 0 0 0 0 0 0 0 0 0 0 0 0 0 0 0 0 0 0 0 0 0 0 0 0 0 0 0 0 0 0 0 0 0 0 0 0 0 0 0 0 0 0 0 0 0 0 0 0 0 0 0 0 0 0 0 0 0 0 0 0 0 0 0 0 0 0 0 0 0 0 0 0 0 0 0 0 0 0 0 0 0 0 0 0 1 0 3 0 0 4 0 0 11 0 9 0 158 0 0 255 59 138 114 0 255 0 0 152 194 0 0 55 0 0 0 0 17 0 1 0 0 138 47 0 255 136 0 0 0 68 0 74 0 0 0 138 0 63 196 154 0 0 0 255 0 0 44 0 0 0 23 108 33 0 177 107 0 0 255 255 0 0 35 0 0 206 95 0 0 96 105 0 0 0 0 13 0 1 6 0 5 0 84 52 0 0 184 255 109 0 25 33 44 55 15 0 24 0 0 14 0 0 0 12 10 0 0 0 0 8 1 0 0 4 3 0 0 3 12 5 0 37 9 0 0 3 7 8 18 40 35 0 0 0 9 0 0 0 1 34 0 0 9 22 0 0 206 0 75 0 0 159 33 0 0 0 0 0 0 0 0 0 0 43 18 0 0 52 0 0 41 15 0 37 58 24 18 1 32 15 0 0 18 18 0 0 0 3 15 19 20 9 0 0 1 0 0 0 4 0 0 2 0 0 255 120 0 0 47 23 5 0 14 0 0 0 46 0 0 23 37 31 22 36 73 0 14 0 0 0 11 40 4 7 0 16 57 0 0 62 0 36 0 0 47 45 0 0 86 0 0 0 0 0 20 22 0 12 28 22 0 0 0 0 27 64 0 0 29 15 0 0 0 6 1 0 0 9 2 3 0 0 0 0 0 5 3 7 7 0 0 0 0 12 16 2 2 6 6 3 0 0 0 0 0 0 4 2 0 34 60 6 0 0 0 46 50 25 71 0 0 151 0 0 0 100 40 79 0 0 0 0 0 0 0 0 0 0 44 30 0 0 225 144 0 146 0 0 58 51 255 255 255 255 0 0 0 0 0 203 37 186 255 154 0 0 31 0 0 0 0 0 101 23 0 0 18 20 0 0 0 0 12 29 0 0 7 24 3 5 31 36 14 24 26 5 0 0 8 1 0 0 5 0 0 0 0 0 3 0 0 16 125 89 0 0 59 104 114 0 0 114 0 47 4 0 18 2 0 0 6 13 34 0 31 28 19 33 5 0 43 4 5 1 0 5 9 40 35 6 0 0 0 3 7 0 0 0 0 6 4 0 0 0 0 0 27 26 9 3 14 19 0 0 49 12 0 5 37 0 0 46 15 0 0 22 14 0 0 58 5 0 0 16 0 0 0 0 0 0 0 0 128 39 0 34 10 16 29 31 6 0 37 0 0 0 0 23 0 0 11 5 0 5 1 4 6 0 1 0 0 0 0 0 0 0 6 0 0 7 7 0 3 14 3 0 27 21 0 57 247 76 0 0 255 255 0 0 184 67 0 0 0 0 0 0 0 16 60 0 0 70 52 0 0 64 34 43 0 88 0 0 0 0 84 151 0 0 78 89 0 0 107 0 0 74 115 0 0 77 67 31 32 42 78 70 0 0 0 97 3 0 18 68 0 31 76 0 24 68 25 0 6 12 0 0 0 0 0 0 31 69 33 14 7 5 2 1 1 1 1 0 2 3 3 1 0 0 0 0 0 0 0 0 0 0 0 0 0 0 0 0 0 0 0 0 0 0 0 0 0 0 0 0 0 0 0 0 0 0 0 0 0 0 0 0 0 0 0 0 0 0 0 0 0 0 0 0 0 0 0 0 0 0 0 0 0 0 0 0 0 0 0 0 0 0 0 0 0 0 0 0 0 0 0 0 0 0 0 0 0 0 0 0 0 0 0 0 0 0 0 0 0 0 0 0 0 0 0 0 0 0 0 0 0 0 0 0 0 0 0 0 0 0 0 0 0 0 0 0 0 0 255
255 0 0 0 0 0 0 0 0 0 0 0 0 0 0 0 0 0 0 0 0 0 0 0 0 0 0 0 0 0 0 0 0 0 0 0 0 0 0 0 0 0 0 0 0 0 0 0 0 0 0 0 0 0 0 0 0 0 0 0 0 0 0 0 0 0 0 0 0 0 0 0 0 0 0 0 0 0 0 0 0 0 0 0 0 0 0 0 0 0 0 0 0 0 0 0 0 0 0 0 0 0 0 0 0 0 0 0 0 0 0 1 1 2 2 2 2 4 0 1 15 3 36 50 29 0 0 48 189 38 33 148 0 74 255 34 0 50 255 255 46 0 0 0 0 255 0 52 110 0 0 111 132 0 0 0 183 149 0 0 116 0 255 0 34 33 0 76 0 55 0 0 10 219 133 21 255 255 0 0 135 251 33 0 0 41 115 0 0 0 0 162 249 0 64 83 38 122 189 173 0 0 19 0 0 47 0 0 0 0 0 0 255 255 0 23 0 0 0 0 0 0 0 4 10 1 0 0 20 7 3 0 14 12 7 0 0 0 5 8 0 0 0 0 0 5 2 8 0 2 18 31 33 14 0 0 0 0 0 4 0 0 9 40 0 0 0 19 34 17 7 18 0 157 112 115 0 0 69 70 130 29 0 0 0 0 0 0 0 0 0 0 0 37 15 0 0 2 8 4 0 0 0 0 0 0 0 0 14 5 7 0 0 1 6 1 0 0 0 7 19 0 0 20 27 0 0 37 9 0 0 255 0 34 0 0 31 10 0 0 30 42 16 0 0 33 54 13 0 0 0 8 0 0 12 46 30 45 34 0 0 14 0 0 31 9 0 58 0 0 49 19 11 28 0 58 0 32 20 9 0 0 1 0 38 0 22 0 0 20 80 0 4 0 0 0 0 0 6 6 0 0 0 0 1 4 3 5 23 25 10 0 0 8 0 0 1 6 0 0 0 0 0 0 3 0 0 11 1 0 0 13 11 0 0 0 7 0 0 38 0 74 0 0 243 203 0 255 0 43 0 0 22 0 59 214 247 255 255 0 0 119 104 41 0 0 0 0 0 0 0 74 0 0 255 194 155 107 181 168 114 255 0 0 0 0 0 0 0 0 0 0 255 238 0 0 7 133 187 43 0 12 43 0 3 0 12 15 5 3 7 15 14 7 0 1 10 0 0 0 0 0 0 0 0 0 0 0 0 0 24 32 0 0 0 19 6 69 105 21 0 0 0 33 0 0 0 49 16 0 29 0 0 0 19 21 13 0 0 0 22 0 0 0 0 0 15 39 0 0 0 15 3 0 0 0 0 41 38 0 0 13 27 25 1 6 0 0 4 33 0 0 0 0 0 0 0 0 0 2 0 0 19 27 0 0 0 44 0 1 0 0 0 0 0 3 1 0 5 27 48 34 0 0 32 66 66 0 76 36 108 0 0 0 29 0 0 61 0 66 48 11 0 0 0 23 14 0 0 0 0 0 0 0 0 2 7 6 1 0 11 2 8 4 43 0 0 4 11 0 0 16 13 12 20 0 0 87 92 0 255 255 0 19 187 4 0 41 9 33 50 25 14 26 27 39 0 20 0 0 10 99 96 42 0 0 0 30 68 40 13 28 81 0 88 0 57 0 0 153 43 0 28 0 0 0 55 0 0 0 0 0 0 59 94 0 0 9 47 5 0 0 0 115 0 0 0 45 24 0 0 44 0 0 0 0 0 0 32 91 22 2 15 11 11 4 0 1 0 2 0 0 1 1 3 3 2 0 0 0 0 0 0 0 0 0 0 0 0 0 0 0 0 0 0 0 0 0 0 0 0 0 0 0 0 0 0 0 0 0 0 0 0 0 0 0 0 0 0 0 0 0 0 0 0 0 0 0 0 0 0 0 0 0 0 0 0 0 0 0 0 0 0 0 0 0 0 0 0 0 0 0 0 0 0 0 0 0 0 0 0 0 0 0 0 0 0 0 0 0 0 0 0 0 0 0 0 0 0 0 0 0 0 0 0 0 0 0 0 0 0 0 0 0 0 0 0 0 0 255
255 0 0 0 0 0 0 0 0 0 0 0 0 0 0 0 0 0 0 0 0 0 0 0 0 0 0 0 0 0 0 0 0 0 0 0 0 0 0 0 0 0 0 0 0 0 0 0 0 0 0 0 0 0 0 0 0 0 0 0 0 0 0 0 0 0 0 0 0 0 0 0 0 0 0 0 0 0 0 0 0 0 0 0 0 0 0 0 0 0 0 0 0 0 0 0 0 0 0 0 0 0 0 0 0 0 0 0 0 0 0 1 1 1 0 0 0 2 0 0 15 0 0 68 179 0 0 0 63 0 0 0 148 255 187 0 0 175 0 0 16 0 41 0 0 255 27 0 124 0 0 94 0 255 0 0 0 83 71 97 20 0 255 13 208 211 73 5 0 69 0 0 5 127 17 0 67 79 0 70 74 118 0 0 0 0 0 0 4 184 211 154 0 0 0 255 132 0 249 0 7 168 44 50 109 0 0 54 0 0 28 255 0 0 93 0 0 1 3 18 8 2 0 0 0 0 0 0 9 0 1 5 0 0 0 3 2 0 0 9 0 0 0 0 0 7 6 0 4 4 0 2 4 10 2 9 0 11 7 7 10 5 0 21 9 0 0 0 0 5 0 0 0 0 0 0 0 0 0 0 10 20 58 63 60 71 58 8 58 51 22 0 2 25 0 0 0 26 32 7 0 0 0 0 0 0 0 0 5 8 5 0 0 0 9 1 5 0 2 0 26 0 4 24 27 8 0 52 0 0 190 189 0 0 11 15 6 0 0 7 12 8 0 0 31 5 1 0 0 0 0 49 14 0 10 21 0 0 13 5 0 16 0 0 29 0 0 49 0 0 38 2 0 0 0 11 0 7 2 1 0 0 0 0 24 0 6 0 0 21 44 0 4 0 0 0 0 0 2 0 3 0 0 0 0 0 0 0 0 0 0 0 0 17 13 15 0 0 1 2 6 5 9 11 2 0 6 5 14 0 0 7 0 21 36 0 0 0 0 47 0 30 0 0 0 22 0 255 0 0 30 0 0 0 0 17 118 255 255 0 211 255 121 255 208 0 0 0 222 255 180 255 0 141 117 0 0 0 0 152 0 140 250 255 255 255 155 0 0 2 0 0 255 136 122 0 197 82 0 0 0 3 20 10 0 0 10 0 0 0 0 7 7 0 0 0 0 0 0 0 4 3 0 6 0 0 0 0 18 0 0 0 19 26 5 0 22 105 115 0 0 22 62 117 0 0 0 16 0 0 21 0 14 0 4 10 17 9 1 0 90 45 43 12 0 0 0 0 45 51 70 62 43 48 58 76 0 0 0 0 0 0 0 0 0 28 31 0 0 0 13 39 22 8 0 0 0 6 8 10 0 14 0 2 1 0 12 9 0 0 0 8 3 8 4 2 23 0 0 0 0 0 60 107 206 147 89 0 76 145 187 0 0 0 41 0 0 29 0 26 16 21 0 0 0 18 8 0 0 3 9 0 0 0 1 0 5 0 0 0 0 0 2 0 0 0 0 12 13 13 5 11 0 0 74 123 0 0 92 180 141 0 0 161 49 0 94 0 0 0 17 14 6 9 6 0 66 9 7 77 31 0 0 0 0 0 0 0 0 0 0 52 7 0 43 14 31 62 0 0 150 0 0 0 105 0 0 172 0 20 34 19 18 62 54 0 0 90 72 0 0 18 30 20 0 0 0 26 22 0 0 88 0 26 71 86 63 0 0 0 149 44 0 0 0 11 10 10 7 6 5 3 1 2 0 0 4 0 0 0 0 0 0 0 0 0 0 0 0 0 0 0 0 0 0 0 0 0 0 0 0 0 0 0 0 0 0 0 0 0 0 0 0 0 0 0 0 0 0 0 0 0 0 0 0 0 0 0 0 0 0 0 0 0 0 0 0 0 0 0 0 0 0 0 0 0 0 0 0 0 0 0 0 0 0 0 0 0 0 0 0 0 0 0 0 0 0 0 0 0 0 0 0 0 0 0 0 0 0 0 0 0 0 0 0 0 0 0 0 0 0 0 0 0 0 0 0 0 0 255
255 0 0 0 0 0 0 0 0 0 0 0 0 0 0 0 0 0 0 0 0 0 0 0 0 0 0 0 0 0 0 0 0 0 0 0 0 0 0 0 0 0 0 0 0 0 0 0 0 0 0 0 0 0 0 0 0 0 0 0 0 0 0 0 0 0 0 0 0 0 0 0 0 0 0 0 0 0 0 0 0 0 0 0 0 0 0 0 0 0 0 0 0 0 0 0 0 0 0 0 0 0 0 0 0 0 0 0 0 0 0 2 0 4 2 1 0 2 5 0 22 0 1 18 233 0 60 242 0 167 255 6 0 0 0 0 93 255 0 51 33 0 148 255 0 0 0 0 30 104 255 0 40 5 207 175 0 0 108 216 218 0 203 55 34 0 0 82 2 30 43 95 207 255 4 0 151 0 0 246 0 0 0 183 255 94 16 0 0 178 255 201 0 255 0 100 75 87 222 0 23 113 0 0 0 0 0 47 0 9 255 195 0 9 51 0 0 0 0 0 1 0 0 0 0 0 3 1 1 5 11 0 0 2 0 4 17 3 0 0 0 0 7 7 6 9 4 0 17 6 0 0 3 0 0 1 0 0 0 0 0 0 0 6 23 12 0 0 0 0 0 0 0 28 232 157 18 86 113 62 0 0 26 0 6 31 18 0 34 14 0 0 2 38 29 16 0 27 42 1 0 5 4 0 0 0 2 0 0 0 0 0 0 2 5 7 2 3 0 3 14 0 0 6 26 3 0 32 0 0 255 77 0 0 55 1 0 1 0 11 13 15 0 0 66 0 0 7 13 0 0 59 8 0 21 28 0 0 14 29 0 19 0 0 27 0 0 25 0 0 35 5 0 0 0 14 3 0 0 0 0 0 0 0 0 17 0 0 17 41 22 19 0 0 1 0 0 0 1 0 4 0 7 0 0 0 0 0 0 1 2 0 8 15 12 23 0 0 4 3 6 2 1 12 4 0 7 12 9 0 0 0 0 47 34 0 0 56 76 78 112 95 166 41 0 0 0 0 0 0 204 0 0 0 0 71 0 165 0 0 169 254 0 0 112 0 0 255 255 0 0 255 39 255 0 0 0 94 0 0 199 212 27 0 0 101 255 171 0 35 0 0 123 39 102 179 105 0 0 9 55 11 0 14 7 4 9 6 0 0 0 0 8 0 0 0 0 0 1 0 0 2 0 0 0 0 0 0 23 0 0 0 8 25 13 0 73 128 47 0 0 62 64 8 0 0 0 40 0 0 18 0 6 0 0 0 2 13 14 0 0 0 7 14 61 117 134 129 94 102 72 40 24 41 77 105 121 126 129 101 92 62 35 4 0 0 0 24 48 44 0 0 4 0 11 0 0 0 4 25 0 18 0 0 9 27 11 0 0 0 7 12 9 2 0 0 16 0 0 40 5 0 0 44 99 110 255 0 106 98 57 91 75 0 28 21 0 29 0 0 16 28 18 0 0 0 0 0 4 0 3 0 8 0 1 1 6 5 0 0 0 3 0 0 0 9 15 7 0 0 0 0 0 0 0 0 0 0 133 214 17 0 0 0 36 0 14 32 18 7 0 0 0 0 15 41 0 0 0 75 38 0 0 111 114 62 37 69 67 41 47 82 0 0 0 0 0 159 36 0 0 19 0 0 149 7 0 75 0 11 22 28 31 0 0 0 71 7 0 12 35 26 25 58 61 45 5 0 0 0 13 9 46 15 7 14 0 0 0 0 0 0 60 62 19 0 0 0 1 0 5 1 0 2 0 0 4 0 0 0 0 0 0 0 0 0 0 0 0 0 0 0 0 0 0 0 0 0 0 0 0 0 0 0 0 0 0 0 0 0 0 0 0 0 0 0 0 0 0 0 0 0 0 0 0 0 0 0 0 0 0 0 0 0 0 0 0 0 0 0 0 0 0 0 0 0 0 0 0 0 0 0 0 0 0 0 0 0 0 0 0 0 0 0 0 0 0 0 0 0 0 0 0 0 0 0 0 0 0 0 0 0 0 0 0 0 0 0 0 0 0 0 0 0 0 0 0 0 0 255
255 0 0 0 0 0 0 0 0 0 0 0 0 0 0 0 0 0 0 0 0 0 0 0 0 0 0 0 0 0 0 0 0 0 0 0 0 0 0 0 0 0 0 0 0 0 0 0 0 0 0 0 0 0 0 0 0 0 0 0 0 0 0 0 0 0 0 0 0 0 0 0 0 0 0 0 0 0 0 0 0 0 0 0 0 0 0 0 0 0 0 0 0 0 0 0 0 0 0 0 0 0 0 0 0 0 0 0 0 0 0 3 0 0 0 2 1 3 0 0 0 13 19 0 50 0 0 255 0 80 0 0 162 197 0 0 255 200 0 53 62 0 134 254 0 0 26 82 0 0 255 0 76 0 214 63 0 0 219 31 0 0 0 0 0 0 0 11 0 0 0 71 30 112 0 0 0 0 151 0 0 0 213 255 0 0 0 0 0 0 123 50 103 26 62 103 0 0 255 0 6 0 0 0 0 26 48 0 0 255 217 0 0 56 0 28 0 0 0 0 0 0 0 0 0 7 26 0 0 17 7 0 0 2 0 2 13 4 1 10 0 0 0 0 2 9 5 1 12 6 2 0 0 0 0 0 2 0 0 0 0 0 4 5 0 11 0 0 0 0 1 0 0 0 119 120 0 17 0 0 0 35 59 3 0 27 31 0 12 0 0 0 5 45 32 22 0 24 28 0 0 25 24 0 0 0 0 1 0 4 0 0 0 0 5 8 1 4 0 6 10 3 11 14 22 1 0 0 0 0 255 0 0 0 64 0 0 0 9 7 3 0 0 0 55 0 0 37 58 14 0 32 0 0 0 18 0 0 36 34 0 13 0 0 35 2 0 21 0 0 60 6 0 23 0 72 0 8 0 0 0 0 2 15 0 30 0 0 49 42 0 26 0 0 1 0 0 0 0 0 17 0 2 5 0 0 1 0 14 16 19 1 0 15 3 0 0 0 20 4 15 0 5 5 3 0 7 12 11 0 0 0 6 49 0 0 14 117 54 0 0 0 68 134 255 255 195 249 0 0 203 250 255 229 0 0 109 6 0 7 0 45 0 0 0 97 255 38 0 0 0 0 0 0 0 0 6 0 0 0 23 198 0 163 255 0 0 0 0 14 177 102 103 75 0 38 0 0 0 52 57 0 0 27 13 9 17 11 9 11 10 10 24 7 0 0 5 7 3 5 4 2 2 5 0 0 0 0 0 6 20 0 0 0 13 64 98 46 0 0 47 108 0 0 0 0 33 31 0 0 19 0 25 0 0 0 0 6 40 56 27 58 60 0 2 36 22 0 0 0 0 0 0 0 0 0 0 0 0 0 26 90 123 116 145 72 0 0 0 0 30 31 8 6 13 6 0 0 4 33 0 17 0 0 0 30 19 0 24 7 9 4 15 1 0 0 21 0 0 34 53 0 0 0 4 27 255 0 52 0 0 0 129 0 1 52 0 2 0 0 12 31 35 0 0 0 11 4 7 0 2 2 3 2 3 3 7 0 0 0 0 0 1 0 30 18 23 0 0 4 14 7 52 0 0 0 36 162 103 0 0 0 19 0 17 0 0 67 22 11 0 0 0 10 20 54 0 44 39 0 0 0 2 35 49 5 1 35 28 0 0 0 68 67 60 14 0 0 52 22 0 28 75 0 94 3 0 0 0 0 0 22 29 0 0 0 43 0 0 47 42 8 0 0 29 97 61 0 0 54 33 0 16 0 0 0 0 0 1 57 0 0 13 71 84 33 0 0 0 0 0 4 4 4 4 3 2 0 0 0 0 0 0 0 0 0 0 0 0 0 0 0 0 0 0 0 0 0 0 0 0 0 0 0 0 0 0 0 0 0 0 0 0 0 0 0 0 0 0 0 0 0 0 0 0 0 0 0 0 0 0 0 0 0 0 0 0 0 0 0 0 0 0 0 0 0 0 0 0 0 0 0 0 0 0 0 0 0 0 0 0 0 0 0 0 0 0 0 0 0 0 0 0 0 0 0 0 0 0 0 0 0 0 0 0 0 0 0 0 0 0 0 0 0 0 0 0 0 0 255
255 0 0 0 0 0 0 0 0 0 0 0 0 0 0 0 0 0 0 0 0 0 0 0 0 0 0 0 0 0 0 0 0 0 0 0 0 0 0 0 0 0 0 0 0 0 0 0 0 0 0 0 0 0 0 0 0 0 0 0 0 0 0 0 0 0 0 0 0 0 0 0 0 0 0 0 0 0 0 0 0 0 0 0 0 0 0 0 0 0 0 0 0 0 0 0 0 0 0 0 0 0 0 0 0 0 0 0 0 0 0 3 0 0 0 3 2 0 0 1 14 0 27 41 53 0 0 7 0 60 88 22 255 63 0 72 219 23 18 106 0 0 0 0 166 255 10 0 0 0 164 0 96 48 0 0 94 0 28 65 0 111 255 224 183 72 160 0 96 16 0 32 0 100 0 0 0 0 255 0 0 0 255 0 0 0 19 0 0 0 154 255 240 88 66 255 0 0 0 0 0 0 0 0 162 112 0 0 255 38 0 6 22 13 19 27 0 0 0 0 3 0 0 0 31 30 24 0 0 8 6 0 15 8 0 0 2 8 7 10 19 9 0 0 0 0 0 2 8 5 0 0 4 5 0 0 7 0 0 0 0 0 5 10 0 19 30 3 0 0 10 30 59 0 76 140 30 59 38 122 65 23 25 20 0 0 0 34 20 11 0 0 4 14 0 0 0 21 12 0 0 17 37 2 0 7 9 7 8 8 1 0 0 0 0 4 5 9 0 6 5 0 4 0 4 10 0 0 0 255 178 0 20 0 32 0 0 5 3 0 0 0 11 16 38 0 0 36 51 18 0 15 0 0 0 8 0 18 38 12 0 23 0 0 34 0 0 35 0 0 61 1 0 32 0 63 6 5 0 0 0 0 3 9 0 20 0 0 57 26 0 22 0 2 1 0 4 0 8 0 10 5 7 7 6 11 16 18 1 22 10 4 5 13 3 0 0 0 20 9 5 0 0 0 12 0 0 0 0 0 0 0 0 0 0 0 74 82 0 0 0 0 0 0 0 0 255 211 92 160 176 109 0 255 199 33 182 68 0 5 0 0 20 0 0 156 23 85 255 162 0 0 255 154 255 0 0 0 0 0 84 201 0 41 100 0 0 78 167 74 99 93 119 73 0 0 0 4 18 21 0 0 6 37 6 0 2 0 17 14 14 9 23 11 5 15 15 4 0 0 3 3 0 3 0 0 0 0 0 16 21 2 0 23 34 135 57 0 0 42 136 30 0 0 0 23 32 0 0 17 13 0 21 19 38 30 14 8 22 36 25 45 12 0 0 0 0 0 0 15 39 25 11 31 35 11 0 0 0 0 0 0 0 0 1 71 136 99 31 0 2 28 0 2 2 0 0 0 0 32 0 17 11 0 0 15 10 0 43 17 16 11 2 0 0 0 39 17 0 0 13 59 32 0 0 0 0 0 27 206 37 163 132 0 9 61 0 9 7 0 0 25 29 0 0 0 1 28 7 0 5 0 6 3 2 3 9 7 5 10 7 5 4 0 1 0 0 0 10 23 34 35 0 0 0 81 147 55 0 0 26 0 154 75 0 38 68 0 0 0 24 55 55 34 0 0 0 24 0 0 0 22 56 0 0 0 0 0 3 0 0 0 10 0 78 45 0 0 38 0 141 0 35 21 2 0 0 45 0 3 0 29 80 0 0 25 0 70 90 0 0 39 51 0 0 0 0 0 0 53 28 0 0 0 0 39 74 38 22 36 50 0 0 0 8 87 57 21 5 8 4 0 0 3 7 2 0 0 0 0 0 0 0 0 0 0 0 0 0 0 0 0 0 0 0 0 0 0 0 0 0 0 0 0 0 0 0 0 0 0 0 0 0 0 0 0 0 0 0 0 0 0 0 0 0 0 0 0 0 0 0 0 0 0 0 0 0 0 0 0 0 0 0 0 0 0 0 0 0 0 0 0 0 0 0 0 0 0 0 0 0 0 0 0 0 0 0 0 0 0 0 0 0 0 0 0 0 0 0 0 0 0 0 0 0 0 0 0 0 0 0 0 0 0 0 0 0 0 0 255
255 0 0 0 0 0 0 0 0 0 0 0 0 0 0 0 0 0 0 0 0 0 0 0 0 0 0 0 0 0 0 0 0 0 0 0 0 0 0 0 0 0 0 0 0 0 0 0 0 0 0 0 0 0 0 0 0 0 0 0 0 0 0 0 0 0 0 0 0 0 0 0 0 0 0 0 0 0 0 0 0 0 0 0 0 0 0 0 0 0 0 0 0 0 0 0 0 0 0 0 0 0 0 0 0 0 0 0 0 0 0 3 0 0 0 3 3 0 0 0 12 0 3 58 94 157 0 17 105 161 39 84 255 0 0 0 0 101 90 255 0 0 199 14 0 255 255 0 0 0 246 0 0 0 0 65 255 0 0 119 255 255 214 0 0 0 173 139 159 111 112 45 0 149 99 84 118 142 255 39 0 0 0 0 0 0 0 0 0 16 0 4 0 0 0 255 150 0 0 0 0 25 39 0 94 0 0 142 229 0 0 64 25 17 40 0 0 0 3 21 18 4 0 0 76 26 6 0 0 0 0 0 10 10 0 0 0 5 3 10 15 0 0 0 0 0 0 1 0 0 4 9 3 0 0 0 7 0 0 2 0 0 4 17 0 4 27 22 0 0 0 9 9 0 0 63 6 0 0 53 12 0 0 1 0 0 0 0 18 8 0 7 24 19 0 0 4 18 0 0 0 0 0 0 4 13 13 5 0 0 0 13 6 7 6 10 9 13 2 4 0 2 13 0 0 10 0 0 0 255 20 37 24 0 0 22 6 2 4 0 0 0 7 27 26 0 0 10 18 0 0 38 17 0 0 4 3 19 17 0 0 23 0 4 38 5 0 47 0 0 42 0 0 13 0 0 30 3 0 0 0 8 5 0 5 1 0 0 46 18 0 3 0 0 0 0 0 7 1 0 7 0 4 4 2 7 11 23 0 2 0 0 2 15 7 0 5 7 2 3 10 0 0 0 24 7 0 0 0 0 0 0 93 49 0 0 41 26 4 96 0 0 103 0 0 0 255 0 0 79 51 203 0 60 0 0 0 130 75 0 0 0 14 0 74 255 130 11 0 142 0 255 0 0 183 88 0 0 237 255 74 0 0 0 0 0 0 190 96 0 0 20 99 0 44 2 38 36 0 0 0 14 16 0 0 0 0 0 0 6 3 0 7 10 0 6 9 3 1 0 10 0 0 0 10 2 4 0 31 0 0 0 47 90 74 100 0 0 0 99 73 0 0 2 0 23 0 0 5 13 5 16 0 0 35 34 10 0 0 0 0 0 0 0 0 0 18 0 0 0 0 0 0 0 0 0 77 72 56 11 0 0 0 0 0 0 0 84 148 137 24 0 0 4 9 8 0 0 0 7 0 5 21 0 0 0 0 0 23 0 0 0 0 8 15 26 0 37 36 0 0 35 62 40 81 21 0 0 0 157 59 21 49 0 22 49 0 18 6 10 32 24 25 12 0 0 0 26 0 11 0 2 1 5 12 5 1 0 0 0 2 0 0 0 14 0 0 15 30 10 0 0 0 0 62 79 75 0 0 0 67 0 122 25 0 47 0 0 6 0 0 0 4 0 0 9 0 0 0 0 13 73 55 0 62 17 11 49 51 33 57 79 0 0 0 0 108 0 110 35 3 0 65 36 0 0 103 72 0 24 0 13 92 9 0 82 5 34 68 0 0 40 122 0 36 0 0 77 76 0 0 9 41 4 22 78 80 2 0 0 57 25 0 0 0 0 40 81 33 13 5 8 0 0 0 6 1 0 0 0 0 0 0 0 0 0 0 0 0 0 0 0 0 0 0 0 0 0 0 0 0 0 0 0 0 0 0 0 0 0 0 0 0 0 0 0 0 0 0 0 0 0 0 0 0 0 0 0 0 0 0 0 0 0 0 0 0 0 0 0 0 0 0 0 0 0 0 0 0 0 0 0 0 0 0 0 0 0 0 0 0 0 0 0 0 0 0 0 0 0 0 0 0 0 0 0 0 0 0 0 0 0 0 0 0 0 0 0 0 0 0 0 0 0 0 0 0 0 0 255
255 0 0 0 0 0 0 0 0 0 0 0 0 0 0 0 0 0 0 0 0 0 0 0 0 0 0 0 0 0 0 0 0 0 0 0 0 0 0 0 0 0 0 0 0 0 0 0 0 0 0 0 0 0 0 0 0 0 0 0 0 0 0 0 0 0 0 0 0 0 0 0 0 0 0 0 0 0 0 0 0 0 0 0 0 0 0 0 0 0 0 0 0 0 0 0 0 0 0 0 0 0 0 0 0 0 0 0 0 0 0 3 0 0 0 3 3 0 0 0 17 13 20 29 3 0 174 0 45 87 0 51 74 0 0 48 0 206 22 248 0 0 255 186 0 0 9 0 39 0 169 0 0 0 37 105 0 4 106 0 0 0 0 0 106 153 62 0 0 0 0 0 0 0 0 0 0 0 0 0 0 0 0 255 0 0 17 175 255 214 0 0 0 142 0 0 255 89 30 33 0 255 125 79 0 0 4 255 0 0 0 0 46 83 16 0 0 0 22 36 22 0 0 0 91 11 0 0 14 0 0 19 4 2 0 0 0 0 0 0 7 0 0 1 0 0 3 0 0 0 0 0 0 0 0 0 6 0 1 5 0 0 0 7 5 0 0 26 15 0 0 15 0 0 0 75 97 2 24 0 36 21 34 40 42 40 50 10 6 0 0 0 16 16 18 33 3 3 0 5 0 0 0 6 3 6 14 0 0 0 0 22 0 0 0 0 11 6 0 0 0 7 0 0 0 16 0 0 0 255 0 62 0 0 0 19 5 2 0 0 3 0 6 26 0 8 9 5 0 0 0 25 35 0 0 11 0 10 23 0 0 21 3 0 30 0 0 44 0 0 36 0 0 15 0 0 37 0 0 0 8 13 3 0 37 0 0 32 20 0 4 2 0 0 0 0 0 5 0 0 7 0 0 2 0 4 1 13 0 0 0 0 0 14 8 6 0 0 0 0 4 0 0 0 45 7 0 0 0 0 13 22 97 82 0 0 0 24 47 162 0 0 148 73 108 0 255 0 47 0 0 0 0 0 0 0 0 0 0 0 0 0 0 0 0 0 162 255 0 0 0 191 101 0 0 30 0 255 0 0 201 0 0 0 3 255 108 52 0 0 0 179 142 0 12 0 0 0 0 4 20 31 0 0 11 0 0 0 1 0 0 0 5 0 0 0 0 2 0 0 0 0 0 0 0 6 6 1 27 0 0 0 57 106 15 0 0 0 2 38 0 0 0 56 0 34 0 0 22 9 0 31 0 0 0 0 0 0 0 0 53 21 4 6 6 9 10 10 0 40 63 33 22 40 45 13 0 0 0 8 20 1 8 93 0 0 0 0 0 39 97 89 5 0 0 0 5 7 0 0 23 0 0 17 7 0 0 27 0 0 0 0 4 0 9 17 0 17 41 16 0 6 7 0 18 69 114 0 0 10 91 91 0 0 17 6 7 40 0 28 48 0 6 46 28 0 0 23 0 0 0 0 0 0 0 0 0 0 0 0 4 9 2 0 46 0 5 30 10 0 0 0 28 144 127 49 50 57 14 6 26 100 0 0 23 47 0 61 67 6 0 0 0 0 6 68 76 65 33 31 34 4 0 0 38 6 2 9 0 0 0 24 82 113 0 0 65 0 8 0 0 0 106 0 48 24 110 0 0 32 0 0 64 1 0 60 83 0 0 90 15 8 92 58 64 23 29 69 41 0 0 45 58 8 0 9 0 0 0 0 0 24 103 51 0 0 0 23 39 9 19 8 0 0 0 0 1 0 0 0 0 0 0 0 0 0 0 0 0 0 0 0 0 0 0 0 0 0 0 0 0 0 0 0 0 0 0 0 0 0 0 0 0 0 0 0 0 0 0 0 0 0 0 0 0 0 0 0 0 0 0 0 0 0 0 0 0 0 0 0 0 0 0 0 0 0 0 0 0 0 0 0 0 0 0 0 0 0 0 0 0 0 0 0 0 0 0 0 0 0 0 0 0 0 0 0 0 0 0 0 0 0 0 0 0 0 0 0 0 0 0 0 0 0 0 0 0 0 0 255
255 0 0 0 0 0 0 0 0 0 0 0 0 0 0 0 0 0 0 0 0 0 0 0 0 0 0 0 0 0 0 0 0 0 0 0 0 0 0 0 0 0 0 0 0 0 0 0 0 0 0 0 0 0 0 0 0 0 0 0 0 0 0 0 0 0 0 0 0 0 0 1 2 3 3 3 3 3 3 7 8 8 3 1 1 3 7 12 19 24 22 14 7 7 10 10 7 4 3 3 3 2 1 0 0 1 2 3 3 3 3 4 0 0 0 6 6 0 7 9 2 0 0 84 115 0 255 142 18 115 18 106 0 0 0 62 0 255 149 32 0 0 117 242 213 0 56 162 157 0 0 25 255 255 0 0 0 0 0 0 0 46 255 255 196 149 0 0 44 0 61 0 65 26 0 26 0 0 0 0 208 76 0 0 0 0 156 149 0 0 0 0 0 255 255 0 0 0 0 35 106 193 0 92 0 0 255 7 13 6 0 0 45 70 69 132 0 19 25 23 16 0 0 39 81 0 0 0 22 0 0 19 0 0 0 0 0 0 0 0 4 13 20 30 33 17 5 0 0 0 0 0 0 0 1 4 0 0 0 0 6 3 2 3 16 0 0 28 41 0 0 35 0 51 0 0 9 0 109 45 21 32 0 0 0 9 33 0 95 41 31 7 0 0 0 0 0 0 0 0 20 0 0 28 20 22 22 11 0 0 8 33 0 0 0 0 3 0 0 0 11 33 20 11 0 33 0 0 255 181 0 8 0 43 26 0 0 0 0 13 15 6 0 10 0 10 40 35 14 0 0 0 14 0 0 23 0 14 42 23 0 32 37 21 20 0 0 42 0 0 34 0 8 88 13 0 29 0 0 0 0 0 0 0 68 0 0 48 4 0 27 0 0 1 0 0 0 1 0 0 5 0 6 4 0 0 0 0 0 0 0 0 0 0 8 0 9 0 0 0 32 41 28 0 85 48 0 0 0 0 30 69 0 0 0 0 111 164 84 19 0 136 165 73 246 0 0 91 0 44 26 0 0 0 34 255 255 0 0 255 255 98 0 0 23 77 76 23 0 106 191 255 212 0 143 0 200 255 20 0 0 0 0 0 101 183 0 0 129 46 137 66 0 33 23 21 33 25 35 19 0 0 37 57 49 22 6 8 9 1 0 0 0 0 0 0 0 0 3 12 0 0 0 0 0 0 0 0 0 0 0 24 106 114 6 0 0 62 82 13 0 0 0 0 0 37 0 0 29 0 0 0 83 0 0 0 0 32 52 34 51 0 0 25 51 15 0 7 18 45 41 0 0 0 23 1 23 13 17 2 0 0 8 160 0 77 103 0 0 0 0 115 84 17 0 0 16 13 0 0 64 0 0 30 30 0 0 47 2 9 0 0 0 0 3 10 49 0 0 0 0 5 8 10 0 0 68 129 0 0 53 183 0 0 3 0 0 16 0 28 38 0 0 41 28 0 0 54 0 18 14 9 15 6 14 19 8 0 0 6 0 4 2 0 25 0 0 23 0 0 0 0 102 3 0 17 9 0 0 120 3 56 0 70 7 54 31 0 0 0 20 55 83 53 43 34 0 30 23 0 0 58 80 92 0 0 16 28 4 0 0 0 0 60 0 0 16 23 0 0 0 25 21 0 113 0 0 10 0 54 0 0 55 4 0 43 16 0 2 52 0 0 2 0 0 8 29 0 0 7 54 11 0 0 0 29 18 0 0 4 0 0 0 0 33 40 0 0 70 19 33 18 13 0 0 7 2 1 2 3 3 3 3 3 3 3 2 1 0 0 0 0 0 0 0 0 0 0 0 0 0 0 0 0 0 0 0 0 0 0 0 0 0 0 0 0 0 0 0 0 0 0 0 0 0 0 0 0 0 0 0 0 0 0 0 0 0 0 0 0 0 0 0 0 0 0 0 0 0 0 0 0 0 0 0 0 0 0 0 0 0 0 0 0 0 0 0 0 0 0 0 0 0 0 0 0 0 0 0 0 0 0 0 0 0 0 0 0 0 0 0 0 0 0 0 0 0 0 0 255
255 0 0 0 0 0 0 0 0 0 0 0 0 0 0 0 0 0 0 0 0 0 0 0 0 0 0 0 0 0 0 0 0 0 0 0 0 0 0 0 0 0 0 0 0 0 0 0 0 0 0 0 0 0 0 0 0 0 0 0 0 0 0 0 0 0 0 0 0 0 0 2 0 0 0 0 0 0 0 1 0 0 0 5 6 0 0 0 0 0 0 0 4 0 0 0 0 0 0 0 0 0 1 0 0 2 0 0 0 0 0 0 4 5 0 0 0 0 0 0 0 32 0 62 98 0 0 0 197 0 0 81 0 0 162 0 0 164 83 197 0 0 183 255 14 0 55 0 97 0 159 255 0 0 0 102 146 109 57 128 255 224 105 3 0 0 0 0 0 7 24 20 26 20 23 40 17 20 20 6 18 61 137 193 0 0 0 0 0 175 185 244 0 0 0 0 0 0 66 228 202 25 0 0 0 255 87 26 0 0 40 46 71 3 0 90 16 0 30 39 11 0 0 126 0 14 22 5 2 5 0 0 11 2 0 16 27 11 5 1 0 0 0 0 0 1 22 27 20 0 0 0 0 0 7 15 0 23 48 14 0 0 6 30 3 23 28 21 0 0 0 16 0 0 1 11 4 5 0 0 16 26 0 8 71 62 33 45 0 0 55 0 87 0 74 51 73 49 97 58 0 34 69 0 25 10 0 0 19 9 0 0 0 9 0 0 10 16 26 41 7 0 0 0 0 63 0 0 255 20 0 1 0 0 0 4 0 11 3 0 0 19 25 17 0 0 4 7 0 0 1 29 8 7 27 28 0 0 6 46 0 53 0 0 85 1 0 0 0 34 40 0 0 0 0 0 36 0 0 0 1 8 4 0 27 0 0 60 12 0 29 0 2 5 0 5 0 8 2 3 4 1 0 0 0 4 0 0 25 6 1 7 22 9 0 0 0 0 0 0 0 0 0 14 0 0 0 0 0 0 0 1 0 39 0 0 255 97 0 0 0 0 255 235 255 135 0 130 0 0 212 36 0 34 0 0 78 0 126 130 112 226 228 0 0 0 15 78 0 255 34 0 119 0 0 0 0 0 86 56 87 0 255 255 87 21 0 0 255 69 0 0 0 0 0 0 7 0 0 0 0 0 0 0 0 0 0 2 8 12 21 33 22 0 0 5 29 23 7 4 47 0 0 43 43 0 0 67 7 23 87 116 25 0 0 0 0 42 7 0 0 0 27 0 3 0 33 49 0 0 18 0 16 0 0 1 33 19 5 0 0 25 0 22 0 29 191 0 0 12 58 0 39 0 100 0 0 68 43 0 56 46 0 71 0 0 0 0 21 0 0 0 66 27 38 38 18 4 4 7 0 18 28 0 0 29 26 0 8 0 1 6 27 17 0 0 12 15 25 0 0 0 0 0 44 0 0 88 69 0 0 0 0 0 0 37 41 12 0 16 0 34 0 17 91 24 0 0 0 0 0 0 0 11 3 0 0 24 22 0 0 0 0 20 46 0 0 63 0 0 233 51 0 79 19 54 12 0 23 64 0 0 0 0 0 0 0 9 0 0 53 75 12 0 0 0 29 42 48 3 48 29 0 0 0 0 3 35 70 0 0 0 101 51 0 20 50 26 17 110 0 71 98 39 28 0 0 28 4 42 95 43 67 54 0 195 0 0 54 0 54 0 70 0 25 52 30 3 0 27 36 14 38 55 45 13 12 40 35 0 31 13 14 0 0 0 0 0 0 0 66 81 15 0 16 3 10 4 0 0 0 0 0 0 0 0 0 2 0 0 0 0 0 0 0 0 0 0 0 0 0 0 0 0 0 0 0 0 0 0 0 0 0 0 0 0 0 0 0 0 0 0 0 0 0 0 0 0 0 0 0 0 0 0 0 0 0 0 0 0 0 0 0 0 0 0 0 0 0 0 0 0 0 0 0 0 0 0 0 0 0 0 0 0 0 0 0 0 0 0 0 0 0 0 0 0 0 0 0 0 0 0 0 0 0 0 0 0 0 0 0 0 0 0 0 0 0 0 0 255
255 0 0 0 0 0 0 0 0 0 0 0 0 0 0 0 0 0 0 0 0 0 0 0 0 0 0 0 0 0 0 0 0 0 0 0 0 0 0 0 0 0 0 0 0 0 0 0 0 0 0 0 0 0 0 0 0 0 0 0 0 0 0 0 0 0 0 0 0 0 0 3 0 0 0 0 0 0 0 4 5 0 12 0 0 4 5 0 29 18 26 7 15 0 33 28 12 2 6 3 3 2 1 0 0 3 0 0 0 0 0 0 2 3 0 1 1 0 5 6 6 30 0 57 170 0 0 0 214 113 0 98 22 110 0 0 0 88 0 176 206 0 0 170 0 0 29 0 0 255 255 0 0 0 255 204 0 131 225 156 0 0 0 0 0 0 0 0 0 0 0 0 0 0 0 6 0 0 6 18 20 7 0 0 177 72 0 0 0 0 0 0 59 0 0 41 114 137 109 253 96 0 28 0 14 171 81 0 0 5 11 6 52 28 0 51 35 0 9 30 0 0 0 138 0 0 0 0 0 3 0 1 11 4 0 3 0 0 0 0 0 0 0 0 0 0 0 0 38 10 7 0 3 0 0 0 32 22 0 0 0 0 0 0 27 0 0 6 59 70 19 0 54 18 0 0 0 0 0 0 0 0 0 0 0 0 0 0 0 0 18 0 2 0 46 45 51 0 4 0 0 13 100 30 27 28 16 0 0 0 28 79 13 3 4 3 12 14 8 24 20 14 21 0 12 26 0 0 255 5 2 0 2 7 0 6 0 6 2 0 0 6 11 2 0 0 14 18 0 0 0 19 4 0 16 15 0 0 24 22 0 53 0 11 44 0 0 12 0 9 18 0 0 8 8 0 25 0 0 6 10 12 5 0 0 0 13 41 0 0 31 0 0 2 0 0 0 0 0 3 6 6 0 0 0 2 4 8 9 0 0 0 7 1 3 0 20 18 13 0 0 0 0 0 0 0 0 0 0 2 8 15 0 54 132 0 96 0 0 76 0 0 255 187 0 0 0 53 59 0 38 0 0 50 0 36 0 25 255 231 37 0 170 0 0 255 255 143 70 255 33 0 0 82 0 0 0 0 255 63 94 140 30 255 215 255 35 202 22 0 0 0 0 0 0 15 15 0 6 7 8 11 9 5 5 8 8 11 2 7 4 10 19 0 0 7 11 6 0 0 0 0 9 0 0 0 0 0 0 20 104 78 0 0 0 0 27 69 12 0 0 0 18 0 11 7 0 0 0 0 1 0 0 0 0 23 14 5 34 41 0 29 0 41 0 0 82 37 0 37 141 0 37 19 77 0 0 80 49 0 0 7 62 0 13 7 0 0 36 35 0 0 0 11 82 23 0 0 10 2 0 10 18 0 0 13 4 0 29 13 7 8 25 37 22 0 13 12 20 0 0 6 3 0 32 7 10 26 13 0 0 0 43 0 0 38 19 3 7 10 0 8 0 0 47 38 0 0 4 13 13 0 0 12 6 0 36 19 0 10 68 33 0 0 0 15 103 0 0 168 29 39 0 68 0 41 0 0 27 30 0 0 0 0 0 0 0 8 58 38 71 13 0 0 51 0 0 17 0 0 13 35 0 0 27 20 0 0 35 0 0 55 0 0 0 0 25 0 0 0 36 32 0 0 0 25 11 44 16 0 0 0 0 0 0 20 0 0 55 10 2 7 106 82 0 0 16 14 10 11 8 0 0 6 10 0 0 0 0 0 54 21 17 0 0 0 0 25 0 0 0 0 66 27 6 0 5 1 1 1 0 0 0 0 0 0 0 3 0 0 0 0 0 0 0 0 0 0 0 0 0 0 0 0 0 0 0 0 0 0 0 0 0 0 0 0 0 0 0 0 0 0 0 0 0 0 0 0 0 0 0 0 0 0 0 0 0 0 0 0 0 0 0 0 0 0 0 0 0 0 0 0 0 0 0 0 0 0 0 0 0 0 0 0 0 0 0 0 0 0 0 0 0 0 0 0 0 0 0 0 0 0 0 0 0 0 0 0 0 0 0 0 0 0 0 0 0 0 0 255
255 0 0 0 0 0 0 0 0 0 0 0 0 0 0 0 0 0 0 0 0 0 0 0 0 0 0 0 0 0 0 0 0 0 0 0 0 0 0 0 0 0 0 0 0 0 0 0 0 0 0 0 0 0 0 0 0 0 0 0 0 0 0 0 0 0 0 0 0 0 0 3 0 0 0 0 0 0 0 4 4 11 6 0 12 21 23 22 0 0 2 8 8 0 0 0 0 0 8 4 2 1 0 0 0 2 0 0 0 0 0 3 1 3 0 0 0 0 3 4 5 12 0 56 62 0 10 0 0 235 245 0 0 255 0 103 9 255 0 76 114 134 100 0 255 255 0 5 91 0 0 151 255 0 0 166 186 161 0 0 0 0 0 0 0 13 18 19 0 0 0 0 0 0 0 0 0 0 6 11 20 18 8 8 1 134 119 24 12 52 47 74 61 34 43 0 22 118 0 0 35 0 0 0 255 9 43 0 0 31 34 1 36 32 2 12 62 3 0 19 0 0 4 109 0 0 5 0 0 4 2 0 2 0 0 0 0 0 0 13 0 0 0 0 0 2 0 0 19 18 23 17 8 7 0 0 0 0 0 18 38 57 36 17 0 0 1 9 0 0 0 0 0 0 0 0 0 0 0 0 0 0 0 0 0 0 0 0 0 0 0 0 0 0 0 0 0 0 17 106 70 34 0 0 0 0 4 32 65 45 0 0 6 2 7 14 3 17 0 13 3 0 42 0 37 0 0 255 153 0 0 0 4 8 11 4 0 6 0 0 0 8 6 0 0 11 10 5 3 6 2 0 26 0 0 12 2 15 20 0 11 23 0 42 0 0 52 38 0 0 11 0 0 5 3 0 0 0 0 13 26 23 10 8 0 0 35 31 0 1 26 0 2 1 3 0 0 0 1 5 0 1 0 0 0 0 0 5 7 0 2 0 10 4 0 0 0 0 0 0 5 2 0 0 0 3 10 8 0 0 17 8 86 29 50 46 255 12 0 0 80 0 0 0 0 0 185 255 180 0 0 6 3 13 0 34 0 0 74 32 0 0 0 167 255 255 0 10 18 73 26 116 44 170 0 22 131 0 255 0 0 0 0 0 0 166 41 0 0 0 0 0 0 0 0 0 11 3 12 20 14 3 0 0 0 0 7 3 9 3 0 0 16 0 3 31 22 0 0 0 0 9 31 0 0 17 20 0 31 92 133 17 0 0 9 0 32 16 0 0 0 10 8 0 0 36 0 0 5 30 6 0 0 0 33 38 23 5 0 0 34 66 20 24 0 0 96 68 0 0 115 0 0 65 15 0 0 134 6 0 0 59 175 0 0 5 46 28 17 18 0 0 0 0 23 40 9 2 0 0 0 14 15 0 0 13 13 0 8 0 0 0 0 0 12 12 7 12 16 0 0 7 30 26 10 34 36 0 0 37 34 0 64 0 0 32 19 11 20 0 8 0 0 0 17 70 24 0 0 5 9 5 0 0 1 0 9 0 0 0 51 0 0 9 19 12 0 0 70 93 65 26 54 24 0 52 0 0 68 0 28 5 0 0 0 5 0 0 37 0 0 0 0 9 71 0 8 40 0 0 18 41 0 0 7 27 0 0 18 43 36 42 0 0 26 0 14 16 7 0 37 0 0 0 91 66 1 0 110 0 30 27 42 72 14 21 83 58 30 36 0 0 0 4 16 43 72 76 64 39 34 47 0 0 2 0 0 13 16 7 25 0 0 0 17 34 30 49 0 0 0 0 77 98 41 32 0 0 0 4 1 0 0 9 0 0 0 3 0 0 0 0 0 0 0 0 0 0 0 0 0 0 0 0 0 0 0 0 0 0 0 0 0 0 0 0 0 0 0 0 0 0 0 0 0 0 0 0 0 0 0 0 0 0 0 0 0 0 0 0 0 0 0 0 0 0 0 0 0 0 0 0 0 0 0 0 0 0 0 0 0 0 0 0 0 0 0 0 0 0 0 0 0 0 0 0 0 0 0 0 0 0 0 0 0 0 0 0 0 0 0 0 0 0 0 0 0 0 0 255
255 0 0 0 0 0 0 0 0 0 0 0 0 0 0 0 0 0 0 0 0 0 0 0 0 0 0 0 0 0 0 0 0 0 0 0 0 0 0 0 0 0 0 0 0 0 0 0 0 0 0 0 0 0 0 0 0 0 0 0 0 0 0 0 0 0 0 0 0 0 0 3 0 0 0 0 0 0 0 5 0 4 23 0 0 52 100 76 150 98 43 3 0 0 24 18 11 0 0 0 0 5 2 0 0 1 2 3 3 3 2 1 0 2 0 0 0 0 4 6 0 11 15 28 0 0 60 114 0 0 255 28 0 0 0 0 36 255 0 51 0 0 255 0 0 159 198 0 0 255 0 228 198 0 33 17 0 0 0 18 3 12 16 19 20 2 0 0 7 14 5 0 0 0 2 0 0 0 0 0 0 0 23 38 0 47 125 105 0 0 0 57 0 60 121 0 0 132 36 0 78 0 0 0 255 0 0 0 17 51 24 0 21 35 25 0 77 41 0 5 0 0 44 34 0 10 23 0 0 5 0 0 0 0 0 8 16 14 1 19 9 9 13 15 14 17 1 0 0 0 7 10 0 0 0 0 0 15 17 12 0 0 0 0 12 37 36 0 0 0 0 0 0 0 97 183 236 253 215 138 85 103 70 40 56 3 0 41 0 49 0 25 0 55 0 0 0 0 0 0 0 0 31 127 79 47 0 0 0 8 24 8 0 6 9 8 20 8 0 13 0 0 31 0 58 0 0 255 42 5 3 0 3 0 10 0 9 5 0 0 1 0 0 0 9 6 0 8 8 9 0 0 47 0 0 14 0 6 19 0 25 0 0 53 0 0 77 17 0 0 1 1 0 0 0 0 1 0 0 9 10 8 0 5 0 13 44 18 0 11 16 0 2 0 0 0 0 0 0 6 0 0 0 0 0 2 5 5 7 6 9 1 8 11 1 6 0 0 0 0 28 35 40 40 0 14 23 10 0 0 0 3 0 57 72 0 255 255 0 0 0 0 0 37 255 255 0 0 116 0 3 0 0 15 0 60 0 49 0 0 13 109 0 255 201 0 0 25 0 0 0 0 0 0 60 34 53 0 71 211 109 0 0 0 0 136 26 0 0 25 21 4 0 0 5 0 17 9 7 8 13 9 0 0 0 0 1 0 0 0 0 0 0 0 0 13 3 0 0 0 38 0 0 35 36 0 0 58 118 113 60 0 0 0 42 70 0 0 0 0 1 7 0 0 0 32 0 0 104 55 0 0 74 7 0 10 39 34 0 0 0 45 85 47 0 0 47 93 0 0 172 0 0 132 9 0 3 105 0 0 119 57 69 0 0 32 78 23 0 0 1 18 23 0 0 56 134 19 0 18 0 11 23 0 0 22 20 0 6 0 0 0 0 0 0 0 6 4 0 0 0 3 21 36 0 14 13 0 0 38 44 4 29 0 15 15 0 25 41 0 0 0 17 0 0 77 81 0 0 4 4 4 0 0 0 0 0 12 0 0 0 0 0 66 14 0 0 181 121 0 78 0 36 0 8 78 0 0 91 0 58 22 19 12 4 10 0 0 26 0 0 0 0 0 9 19 46 49 14 0 16 31 14 0 0 14 0 0 38 34 0 0 22 5 15 1 0 15 42 21 0 0 0 55 89 0 0 0 15 0 0 0 0 15 0 0 0 0 0 24 0 84 23 1 0 0 0 0 0 0 0 0 40 35 45 22 7 13 9 0 26 0 0 0 15 21 14 7 0 72 0 0 16 0 6 75 21 3 0 0 3 2 0 0 0 0 0 3 0 0 0 0 0 0 0 0 0 0 0 0 0 0 0 0 0 0 0 0 0 0 0 0 0 0 0 0 0 0 0 0 0 0 0 0 0 0 0 0 0 0 0 0 0 0 0 0 0 0 0 0 0 0 0 0 0 0 0 0 0 0 0 0 0 0 0 0 0 0 0 0 0 0 0 0 0 0 0 0 0 0 0 0 0 0 0 0 0 0 0 0 0 0 0 0 0 0 0 0 0 0 0 0 0 0 0 0 0 0 0 255
255 0 0 0 0 0 0 0 0 0 0 0 0 0 0 0 0 0 0 0 0 0 0 0 0 0 0 0 0 0 0 0 0 0 0 0 0 0 0 0 0 0 0 0 0 0 0 0 0 0 0 0 0 0 0 0 0 0 0 0 0 0 0 0 0 0 0 0 0 0 0 3 0 0 0 0 0 0 0 6 0 5 32 0 0 11 0 0 63 60 129 152 116 62 29 0 11 10 2 0 0 0 3 1 2 3 3 3 3 3 3 2 1 1 4 0 7 6 0 0 13 0 18 27 0 83 23 0 0 0 202 0 129 0 0 0 0 0 0 233 0 0 255 77 0 0 226 106 0 255 172 0 0 0 0 0 0 74 50 0 0 0 0 4 4 0 0 1 0 0 0 0 0 5 9 24 0 0 0 0 0 0 16 23 60 0 0 104 105 0 0 0 0 0 0 0 0 0 0 0 57 0 0 255 68 0 0 0 50 59 0 0 0 44 35 0 50 41 0 0 0 0 74 16 0 15 20 3 0 0 0 0 0 0 0 21 19 10 0 3 30 23 7 10 0 6 0 0 0 0 0 1 0 0 0 1 22 7 0 0 0 0 28 77 66 0 0 0 0 0 130 198 170 153 167 133 111 83 56 15 50 60 28 43 87 64 38 82 7 60 6 75 32 141 49 0 120 3 0 0 0 0 0 0 0 0 22 32 0 0 1 41 14 9 7 19 27 16 0 22 0 0 13 0 60 0 0 255 0 0 0 0 5 0 6 0 14 7 1 0 0 6 0 0 9 0 0 0 12 4 0 0 44 0 19 19 0 0 10 0 28 3 0 39 7 0 72 0 8 0 0 7 6 0 0 0 0 5 0 0 0 0 0 3 0 35 40 5 0 14 13 0 0 0 3 0 0 6 0 2 0 0 0 0 0 4 2 9 6 0 10 6 8 3 5 0 39 26 0 0 0 6 11 8 0 9 23 3 0 9 6 35 0 1 0 0 54 255 255 0 24 139 110 0 0 0 0 0 106 0 0 0 0 0 0 0 0 0 0 0 0 0 0 255 0 0 79 0 0 94 31 34 0 0 0 0 0 0 0 149 255 16 255 245 85 120 0 52 0 0 3 0 3 33 41 6 22 9 0 0 0 0 1 4 0 0 2 0 1 0 0 0 19 0 3 13 0 0 0 16 24 0 0 9 20 0 10 124 83 0 0 0 0 15 26 41 0 0 0 0 18 0 0 0 0 11 0 0 134 38 0 33 42 6 0 5 28 51 54 64 0 0 69 99 0 0 0 172 0 0 154 10 0 76 0 0 90 60 0 0 168 0 0 0 70 62 50 0 0 33 48 57 98 0 0 0 104 41 0 31 0 20 22 0 0 23 17 0 26 5 10 24 16 0 0 17 0 0 0 0 0 0 2 21 0 0 0 0 0 0 17 16 17 0 16 9 0 17 37 0 6 0 35 0 0 61 82 0 0 0 0 8 3 2 0 8 0 52 39 0 0 25 28 26 0 0 178 97 0 81 0 0 21 0 0 52 0 37 79 0 38 8 2 0 0 3 14 13 40 24 13 37 61 11 0 0 0 0 0 0 0 11 27 4 0 0 0 18 48 0 0 0 82 0 0 18 0 0 24 23 9 0 0 0 0 0 0 54 0 0 0 0 0 0 0 0 5 0 0 42 0 19 0 0 0 0 0 0 0 0 0 0 37 38 49 30 8 0 0 0 31 11 5 4 14 0 0 0 0 85 29 0 0 0 0 73 73 23 5 1 0 0 1 7 0 0 0 3 0 0 0 0 0 0 0 0 0 0 0 0 0 0 0 0 0 0 0 0 0 0 0 0 0 0 0 0 0 0 0 0 0 0 0 0 0 0 0 0 0 0 0 0 0 0 0 0 0 0 0 0 0 0 0 0 0 0 0 0 0 0 0 0 0 0 0 0 0 0 0 0 0 0 0 0 0 0 0 0 0 0 0 0 0 0 0 0 0 0 0 0 0 0 0 0 0 0 0 0 0 0 0 0 0 0 0 0 0 0 0 255
255 0 0 0 0 0 0 0 0 0 0 0 0 0 0 0 0 0 0 0 0 0 0 0 0 0 0 0 0 0 0 0 0 0 0 0 0 0 0 0 0 0 0 0 0 0 0 0 0 0 0 0 0 0 0 0 0 0 0 0 0 0 0 0 0 0 0 0 0 0 0 3 0 0 0 0 0 0 0 7 4 34 0 0 37 59 0 0 0 0 0 59 136 132 101 60 36 10 5 3 3 0 5 3 0 0 0 0 0 0 0 0 3 2 5 0 0 0 0 0 6 0 16 0 40 134 4 41 0 0 183 57 0 30 220 170 235 0 0 0 255 0 6 185 0 250 255 0 0 0 0 0 2 0 38 30 7 0 0 1 16 19 16 0 0 0 21 37 0 0 0 0 0 0 10 25 0 8 5 18 19 15 0 3 36 0 0 13 84 142 37 0 85 83 157 88 97 162 57 60 0 0 0 255 0 0 0 6 52 49 0 0 0 31 25 0 18 15 0 0 11 33 92 36 0 8 22 11 0 9 2 6 4 11 4 17 16 0 0 0 12 5 0 0 0 0 0 0 15 2 8 3 0 0 0 0 0 0 0 29 64 52 0 0 0 0 0 172 255 255 196 121 134 102 76 52 46 57 65 51 69 61 18 57 53 60 21 66 64 56 0 36 27 79 44 0 130 136 153 159 128 0 0 0 0 0 0 0 0 8 0 0 0 0 6 10 3 7 7 4 8 0 2 32 29 0 0 255 0 2 0 0 2 0 0 0 23 0 0 4 12 0 0 11 0 0 0 1 0 0 0 0 22 0 28 33 0 0 3 17 11 20 0 9 9 0 22 0 71 13 3 11 18 2 0 17 0 8 0 0 0 0 0 0 0 41 26 0 7 16 0 11 0 2 0 0 0 2 0 4 1 0 0 7 0 0 0 3 0 0 0 0 0 0 0 0 25 6 0 0 0 0 0 0 0 2 25 7 17 30 38 119 55 0 0 0 19 248 212 0 255 145 175 0 0 0 40 0 27 0 0 0 0 67 24 0 0 0 0 73 0 0 255 124 55 71 26 0 0 255 151 255 255 111 0 0 35 0 34 0 0 180 80 0 189 0 0 12 2 5 11 5 19 33 37 17 8 7 0 0 0 0 1 1 6 15 5 0 9 3 0 0 28 0 0 11 1 0 12 42 0 41 17 0 20 90 110 144 0 0 0 0 53 51 0 0 0 0 0 7 12 0 0 0 12 0 0 0 53 0 0 75 0 5 20 3 0 0 7 38 126 0 0 46 117 0 0 118 0 0 40 60 0 57 0 0 230 0 0 79 97 0 0 125 134 41 0 0 9 78 35 0 0 3 0 0 0 30 51 20 0 9 11 0 0 0 6 0 0 0 0 16 24 0 0 20 7 0 0 0 5 0 0 4 27 0 8 22 1 0 0 26 36 12 32 26 0 0 18 0 7 13 37 0 0 37 42 52 0 0 0 1 5 1 1 12 0 26 0 0 29 53 0 0 0 144 177 0 16 53 0 97 31 0 15 0 0 43 29 0 0 0 0 0 2 16 10 31 0 83 58 0 0 37 11 0 30 0 6 9 0 0 27 0 22 4 0 10 36 0 0 65 78 0 0 59 37 0 26 0 78 8 0 0 0 0 0 62 90 0 74 56 8 22 0 27 11 53 67 31 0 0 0 0 0 0 24 39 39 16 18 20 0 0 0 0 0 10 22 0 0 0 0 0 17 37 22 0 0 61 25 0 12 0 0 0 94 27 35 10 10 0 8 4 0 0 0 3 0 0 0 0 0 0 0 0 0 0 0 0 0 0 0 0 0 0 0 0 0 0 0 0 0 0 0 0 0 0 0 0 0 0 0 0 0 0 0 0 0 0 0 0 0 0 0 0 0 0 0 0 0 0 0 0 0 0 0 0 0 0 0 0 0 0 0 0 0 0 0 0 0 0 0 0 0 0 0 0 0 0 0 0 0 0 0 0 0 0 0 0 0 0 0 0 0 0 0 0 0 0 0 0 0 0 0 0 0 0 0 255
255 0 0 0 0 0 0 0 0 0 0 0 0 0 0 0 0 0 0 0 0 0 0 0 0 0 0 0 0 0 0 0 0 0 0 0 0 0 0 0 0 0 0 0 0 0 0 0 0 0 0 0 0 0 0 0 0 0 0 0 0 0 0 0 0 0 0 0 0 0 0 3 0 0 0 0 0 0 1 23 0 23 0 0 60 115 29 0 74 0 0 0 0 0 73 166 53 8 12 6 0 0 12 3 3 0 0 0 0 0 0 0 5 0 0 0 0 1 1 1 9 0 21 0 0 58 0 169 46 51 7 255 0 0 0 49 57 181 154 14 18 0 0 235 159 0 0 0 102 0 0 19 0 20 45 0 0 54 11 0 21 9 0 0 0 0 0 0 33 34 31 26 19 13 0 0 0 4 11 26 21 13 0 3 0 45 60 0 0 80 99 0 0 0 35 0 52 190 59 0 0 0 167 150 0 0 0 0 40 50 0 0 6 11 2 1 5 0 39 0 0 61 60 47 0 10 27 6 0 6 0 8 7 2 0 0 2 0 0 0 0 0 0 0 0 0 0 0 2 7 0 5 2 5 0 0 24 13 13 4 0 0 0 0 83 114 196 117 43 0 45 37 7 28 48 52 69 98 98 89 115 108 86 85 113 70 34 102 85 74 75 51 50 36 58 45 39 50 15 30 126 125 105 233 133 4 0 0 0 0 32 28 8 0 0 0 0 0 0 6 2 0 0 61 0 0 145 255 0 0 0 0 3 8 0 0 24 0 0 4 16 0 0 31 0 0 3 0 9 0 0 20 0 0 32 26 0 0 9 19 0 63 0 0 28 0 0 0 61 9 0 7 13 3 0 12 0 0 2 0 0 0 3 0 4 56 18 0 16 0 0 34 0 0 0 0 0 0 4 3 0 0 0 0 4 7 4 13 0 3 0 0 0 0 0 0 0 0 0 0 0 0 12 25 7 18 11 0 17 35 29 132 0 0 188 134 0 0 0 0 201 0 0 0 66 0 0 0 0 0 0 122 255 255 255 255 0 0 0 255 114 172 97 0 0 18 0 0 0 184 0 0 0 123 0 0 0 71 210 142 0 186 0 0 31 2 64 33 43 28 14 14 21 1 0 0 0 6 0 0 8 3 4 0 0 7 1 2 8 2 4 0 15 0 0 12 3 0 1 36 0 40 36 0 35 92 54 15 0 0 0 27 25 31 0 0 0 0 0 5 2 0 0 0 0 0 10 0 0 0 14 42 15 7 9 4 0 0 0 0 191 0 0 0 100 126 0 0 158 0 0 172 0 119 117 0 255 0 55 158 0 0 9 106 11 0 0 0 26 42 0 0 0 50 26 0 0 25 46 0 0 6 0 0 0 7 12 0 0 0 0 0 8 0 0 0 15 0 0 5 15 0 0 3 7 0 0 7 11 0 0 16 26 0 13 31 0 0 7 0 0 23 0 0 23 12 0 190 0 0 0 0 9 3 0 0 0 0 0 0 36 0 0 0 14 208 0 0 117 0 10 105 0 0 35 0 0 58 0 0 16 0 0 0 7 9 2 7 0 47 22 0 0 39 11 16 49 0 43 47 0 0 14 0 13 29 0 0 0 0 0 69 30 0 18 79 17 12 52 0 54 36 0 0 70 55 6 4 33 0 35 3 29 7 0 44 0 0 21 0 0 0 96 124 0 0 0 0 7 9 0 0 0 0 0 0 7 42 49 20 0 0 0 0 9 35 39 38 12 12 10 18 35 25 0 0 6 0 28 19 9 0 12 6 0 0 0 3 0 0 0 0 0 0 0 0 0 0 0 0 0 0 0 0 0 0 0 0 0 0 0 0 0 0 0 0 0 0 0 0 0 0 0 0 0 0 0 0 0 0 0 0 0 0 0 0 0 0 0 0 0 0 0 0 0 0 0 0 0 0 0 0 0 0 0 0 0 0 0 0 0 0 0 0 0 0 0 0 0 0 0 0 0 0 0 0 0 0 0 0 0 0 0 0 0 0 0 0 0 0 0 0 0 0 0 0 0 0 0 255
255 0 0 0 0 0 0 0 0 0 0 0 0 0 0 0 0 0 0 0 0 0 0 0 0 0 0 0 0 0 0 0 0 0 0 0 0 0 0 0 0 0 0 0 0 0 0 0 0 0 0 0 0 0 0 0 0 0 0 0 0 0 1 2 4 6 8 8 7 5 5 6 1 6 7 4 4 19 46 79 0 78 85 0 0 57 84 68 0 15 30 56 0 0 0 0 225 150 104 63 16 4 0 0 21 12 9 7 8 6 5 1 9 1 5 5 2 0 0 4 10 0 29 0 54 60 0 35 0 255 0 0 0 0 164 51 0 4 0 115 60 97 148 0 0 0 0 0 21 0 0 0 12 0 0 0 35 20 0 45 0 0 0 22 35 36 6 0 0 0 0 0 9 11 15 15 18 15 2 0 0 0 9 24 57 0 9 52 4 30 130 239 0 0 0 0 0 0 0 39 0 0 255 26 0 66 0 7 10 26 0 0 0 0 0 7 0 0 93 0 0 122 45 8 0 25 46 27 4 0 0 0 15 5 0 14 15 9 22 59 0 6 3 9 7 11 3 0 0 0 0 14 32 37 12 0 19 26 9 0 0 0 0 117 159 76 69 46 52 53 41 43 37 48 52 39 0 0 0 0 0 0 0 0 0 0 0 61 0 0 76 64 156 25 119 142 71 94 38 32 68 86 7 94 55 183 188 20 0 0 0 0 29 5 0 0 0 5 13 25 0 0 0 73 0 0 255 189 0 0 5 8 29 28 31 10 40 0 0 7 19 10 13 68 0 12 16 0 1 0 16 35 0 0 34 40 0 0 1 0 0 74 0 0 34 1 39 41 29 0 0 0 0 0 0 0 0 0 0 19 25 30 13 0 26 46 18 0 37 0 0 31 0 0 0 0 0 0 1 0 3 1 8 8 6 0 0 5 0 6 14 9 8 2 9 23 0 14 23 17 0 0 0 19 6 27 0 0 27 66 0 89 0 0 214 0 0 0 255 0 0 0 0 0 21 0 0 146 150 0 0 19 44 0 0 0 157 93 0 0 0 189 89 0 0 152 151 14 0 22 192 0 0 103 166 0 0 255 215 63 118 0 25 96 0 66 0 5 0 0 0 2 1 0 0 5 0 0 0 19 29 31 17 0 0 2 7 7 0 0 2 12 15 0 0 1 0 0 0 32 30 0 0 33 118 66 0 0 0 15 66 17 0 1 0 0 2 10 6 0 0 12 10 6 0 27 131 51 0 1 82 0 106 0 0 0 102 147 57 0 0 101 137 0 0 255 186 0 255 23 0 255 53 120 117 0 255 0 83 226 0 103 168 0 0 0 9 115 123 52 17 45 0 17 0 0 0 65 45 0 0 27 32 0 0 28 35 8 76 5 0 13 35 12 0 8 25 0 0 18 34 28 27 49 0 19 13 4 8 20 20 3 0 0 0 38 0 0 19 25 24 28 0 0 50 0 0 188 0 0 0 0 21 10 1 0 24 0 4 84 59 0 0 0 233 0 8 0 0 88 3 0 0 0 32 0 0 81 0 0 71 48 37 15 10 0 0 0 0 42 3 0 51 3 0 64 0 0 29 41 0 0 49 0 0 53 29 0 4 53 2 0 0 0 12 36 0 0 48 0 33 76 54 0 22 11 0 18 0 0 9 0 69 66 0 114 15 0 65 0 36 0 12 0 24 44 15 0 0 0 0 0 82 49 10 0 0 0 0 0 111 75 30 0 0 0 0 0 0 0 0 15 1 20 57 16 0 0 57 68 21 0 0 9 0 4 2 6 1 0 0 0 0 0 0 0 0 0 0 0 0 0 0 0 0 0 0 0 0 0 0 0 0 0 0 0 0 0 0 0 0 0 0 0 0 0 0 0 0 0 0 0 0 0 0 0 0 0 0 0 0 0 0 0 0 0 0 0 0 0 0 0 0 0 0 0 0 0 0 0 0 0 0 0 0 0 0 0 0 0 0 0 0 0 0 0 0 0 0 0 0 0 0 0 0 0 0 0 0 0 0 0 0 0 0 0 0 0 0 255
255 0 0 0 0 0 0 0 0 0 0 0 0 0 0 0 0 0 0 0 0 0 0 0 0 0 0 0 0 0 0 0 0 0 0 0 0 0 0 0 0 0 0 0 0 0 0 0 0 0 0 0 0 0 0 0 0 0 0 0 0 0 2 0 1 0 0 0 0 0 9 3 15 0 0 0 44 65 44 15 23 0 0 0 2 0 20 112 0 0 0 0 30 0 0 0 0 0 64 170 188 111 40 0 0 0 0 0 0 0 1 3 1 7 0 0 8 14 5 0 0 0 12 0 0 182 0 56 60 185 104 0 78 199 44 0 79 151 114 27 46 62 0 0 0 0 34 29 0 0 0 0 15 3 1 0 0 0 9 0 22 9 14 10 12 8 13 14 4 25 23 19 13 1 0 0 0 0 0 4 26 14 14 21 4 14 12 1 14 10 0 45 159 0 0 2 0 0 0 0 0 0 255 0 7 14 0 30 0 25 53 40 58 36 0 0 0 118 0 21 0 0 12 59 40 16 1 0 0 9 8 0 21 20 0 0 0 0 0 0 0 0 4 16 22 29 0 0 13 0 0 37 0 0 38 59 9 0 0 0 0 179 232 153 88 95 66 55 23 80 127 97 114 28 0 0 0 0 0 0 0 0 0 0 0 0 0 0 0 0 0 0 0 0 0 0 0 45 99 103 74 67 53 64 97 100 19 131 255 80 0 0 0 26 0 0 47 0 0 97 12 6 0 5 0 0 255 159 35 19 0 0 0 0 0 0 0 0 18 14 9 8 0 0 0 0 19 15 21 15 1 0 17 0 0 0 0 12 17 27 48 0 13 55 15 17 34 0 1 0 3 31 15 0 0 28 37 22 19 20 0 0 0 0 67 9 0 0 0 0 0 0 0 0 2 1 9 12 12 8 22 3 0 0 7 10 8 15 19 11 4 0 4 0 0 0 0 9 12 0 0 0 5 32 0 62 0 101 0 161 78 235 0 0 0 0 0 0 0 0 192 255 51 14 255 20 152 0 0 0 0 255 255 74 2 136 0 255 169 255 246 0 0 38 15 0 0 0 0 223 146 154 0 0 0 0 255 210 0 32 0 0 0 0 0 0 0 0 9 6 12 4 6 8 9 0 26 19 16 6 0 0 0 0 38 2 0 0 0 14 0 10 0 22 25 0 5 20 0 0 0 2 97 120 0 0 0 0 0 1 29 77 21 0 0 11 0 0 0 0 29 14 0 22 0 0 0 0 60 46 0 0 10 7 55 43 0 0 33 203 0 0 0 167 0 0 0 0 62 255 0 0 0 0 0 0 88 0 224 0 16 246 0 0 0 48 125 30 0 0 0 0 0 22 18 11 25 0 0 121 65 0 0 32 21 0 4 0 17 6 0 8 3 0 0 18 4 0 5 0 0 0 0 0 0 0 0 0 0 0 24 37 9 18 21 11 7 0 0 0 19 0 0 14 12 3 18 129 51 0 0 0 25 0 39 0 3 20 0 65 0 0 0 210 59 0 0 0 37 32 0 13 0 27 38 72 107 0 0 83 0 0 57 0 53 64 121 52 11 0 75 34 7 33 0 55 0 0 2 55 36 0 0 42 0 0 17 53 5 0 0 84 0 20 12 0 1 12 21 1 25 0 0 3 20 0 3 44 0 0 28 0 55 0 0 19 118 44 131 75 59 122 75 0 65 51 59 48 51 55 51 22 23 38 23 0 24 113 76 0 62 0 0 0 31 0 0 0 32 0 65 21 0 61 4 0 0 0 0 30 52 15 0 16 5 0 0 0 1 0 0 0 0 0 0 0 0 0 0 0 0 0 0 0 0 0 0 0 0 0 0 0 0 0 0 0 0 0 0 0 0 0 0 0 0 0 0 0 0 0 0 0 0 0 0 0 0 0 0 0 0 0 0 0 0 0 0 0 0 0 0 0 0 0 0 0 0 0 0 0 0 0 0 0 0 0 0 0 0 0 0 0 0 0 0 0 0 0 0 0 0 0 0 0 0 0 0 0 0 0 0 0 0 0 0 0 0 0 0 255
255 0 0 0 0 0 0 0 0 0 0 0 0 0 0 0 0 0 0 0 0 0 0 0 0 0 0 0 0 0 0 0 0 0 0 0 0 0 0 0 0 0 0 0 0 0 0 0 0 0 0 0 0 0 0 0 0 0 0 0 0 0 3 4 0 10 7 4 0 0 0 0 0 0 42 77 78 37 0 0 75 44 45 0 0 21 40 86 0 0 0 0 13 0 0 0 0 0 0 0 0 51 186 161 86 27 2 0 25 25 13 0 0 10 14 3 3 0 0 0 8 1 25 46 50 120 0 73 255 49 0 0 0 0 0 0 77 78 65 38 0 0 0 114 0 5 0 9 13 10 10 13 0 0 0 0 0 0 0 0 8 0 0 0 2 0 0 0 0 0 0 0 0 0 0 0 14 1 0 4 0 0 0 8 5 3 9 4 4 12 9 0 174 70 0 13 62 80 44 0 0 0 239 0 0 0 0 4 0 27 21 0 27 8 0 21 5 52 52 38 134 0 2 60 6 22 15 4 0 0 1 0 15 10 0 0 0 7 0 5 0 0 0 5 4 10 4 0 0 6 23 0 0 51 22 0 0 0 0 87 151 79 60 76 0 36 90 107 80 0 0 0 0 0 0 0 10 38 37 0 19 17 0 0 30 19 0 0 0 0 17 40 0 0 0 20 0 0 0 0 0 58 99 71 0 71 75 3 100 240 85 0 0 0 0 29 35 41 88 0 0 0 0 18 0 0 144 223 9 2 0 2 0 4 1 3 0 1 0 4 1 0 0 17 0 16 20 0 0 7 2 0 27 19 17 20 20 11 6 30 0 0 0 16 0 0 0 0 16 2 0 14 25 16 17 23 5 0 2 16 0 0 0 1 40 1 3 6 0 2 0 0 2 0 6 0 3 0 10 0 11 3 0 3 0 0 0 0 0 0 0 0 0 0 0 0 0 0 0 0 0 9 28 50 93 0 0 0 0 0 0 255 255 39 0 0 0 0 0 181 255 184 230 26 0 187 154 0 0 0 0 255 255 0 0 0 0 8 178 126 255 0 0 21 0 0 0 0 255 176 0 165 21 0 86 255 94 7 26 39 0 0 6 8 8 3 7 2 12 8 7 3 6 14 0 0 9 15 4 9 3 0 3 14 7 0 0 0 9 11 5 16 0 0 0 0 0 5 0 0 29 0 40 86 17 0 0 13 0 26 30 15 0 0 0 0 7 23 0 0 20 0 0 0 1 41 54 39 30 0 0 11 0 0 8 77 96 6 0 0 0 63 0 136 255 0 0 219 0 0 0 125 47 0 0 0 0 9 0 94 255 110 0 0 183 74 0 0 0 10 75 12 15 47 6 0 18 0 0 0 64 0 0 0 0 3 7 0 12 0 0 14 8 0 0 0 0 0 0 0 4 4 0 0 16 34 20 8 0 0 0 0 18 8 0 0 0 0 10 16 1 0 0 0 11 0 0 34 101 0 0 15 18 0 27 0 18 5 11 13 0 0 255 0 0 35 80 26 0 0 0 144 0 97 9 0 38 78 62 33 39 0 0 0 40 0 0 30 8 0 3 0 0 16 0 53 0 0 0 0 16 26 18 0 0 0 0 0 0 0 0 55 0 0 0 0 0 0 0 0 0 12 0 71 33 0 3 91 0 0 92 3 34 102 0 0 15 47 0 0 0 0 106 0 36 0 0 0 44 71 29 0 18 18 24 5 0 0 0 41 0 0 71 103 32 6 16 0 40 0 5 0 0 0 7 40 76 28 2 6 43 60 21 0 0 13 7 4 1 0 0 0 0 0 0 0 0 0 0 0 0 0 0 0 0 0 0 0 0 0 0 0 0 0 0 0 0 0 0 0 0 0 0 0 0 0 0 0 0 0 0 0 0 0 0 0 0 0 0 0 0 0 0 0 0 0 0 0 0 0 0 0 0 0 0 0 0 0 0 0 0 0 0 0 0 0 0 0 0 0 0 0 0 0 0 0 0 0 0 0 0 0 0 0 0 0 0 0 0 0 0 0 0 0 0 0 0 0 0 255
255 0 0 0 0 0 0 0 0 0 0 0 0 0 0 0 0 0 0 0 0 0 0 0 0 0 0 0 0 0 0 0 0 0 0 0 0 0 0 0 0 0 0 0 0 0 0 0 0 0 0 0 0 0 0 0 0 0 0 0 0 0 3 4 0 7 5 3 0 0 16 19 58 69 79 36 0 0 0 0 0 34 56 22 0 27 35 22 53 31 0 0 0 0 0 0 17 17 0 0 0 0 0 0 160 139 110 34 0 0 0 21 16 15 0 0 0 0 13 8 10 0 0 0 28 118 0 0 255 0 0 0 76 0 255 142 6 0 0 0 142 125 0 0 0 0 0 0 2 0 7 5 0 0 0 1 0 3 5 0 22 10 5 2 3 0 0 8 0 0 0 0 0 0 0 13 7 0 0 2 0 0 0 3 0 0 0 0 4 16 11 0 3 99 0 0 0 12 0 0 0 87 165 0 5 0 49 0 24 38 26 0 31 11 0 19 54 0 125 0 0 0 80 81 0 19 24 5 0 0 0 0 0 4 0 2 1 3 0 0 0 0 0 0 0 1 8 2 0 0 0 6 11 0 0 0 0 79 193 132 100 81 57 5 121 74 0 0 0 0 0 0 0 0 0 8 32 32 13 0 19 32 13 0 29 7 0 0 36 0 0 9 0 0 25 45 0 0 0 0 0 0 1 28 154 46 0 31 48 88 161 255 232 0 0 0 0 0 1 52 0 0 13 13 16 0 0 255 7 6 7 5 3 8 7 25 0 0 0 0 0 0 8 23 1 17 10 0 0 6 3 0 0 6 20 9 0 0 0 43 0 0 0 36 14 0 0 0 0 0 0 0 8 24 7 0 3 0 10 7 0 0 10 28 20 0 0 0 0 0 0 0 5 0 7 5 0 0 0 0 5 2 0 0 0 0 0 13 0 0 0 0 0 0 0 0 16 0 0 0 4 26 38 29 47 20 41 232 0 0 0 178 255 255 255 52 0 0 0 73 90 42 46 37 0 0 0 0 0 0 0 0 0 0 0 0 83 255 255 20 218 255 0 0 0 129 0 0 255 255 0 164 0 0 219 202 0 0 10 0 6 3 7 2 0 3 7 8 13 11 0 11 5 12 4 12 0 13 11 2 0 0 1 27 0 0 0 11 6 0 0 15 0 0 9 0 0 17 12 0 130 22 0 23 1 0 0 0 0 48 27 0 0 0 6 0 8 15 0 0 17 0 0 0 20 17 13 0 22 20 8 15 116 2 0 0 0 29 76 68 0 40 155 0 0 101 255 134 0 0 64 0 10 0 45 0 75 0 36 205 0 0 147 106 0 0 0 0 0 21 64 62 28 31 0 0 28 0 0 0 90 27 20 0 0 20 31 0 0 0 0 4 7 0 0 0 8 2 6 5 16 11 16 9 12 4 0 0 2 4 3 4 0 0 0 0 0 8 13 35 0 0 10 17 23 4 0 7 134 0 0 21 0 9 0 6 28 0 0 0 0 255 94 0 78 0 0 0 90 106 50 0 28 0 0 0 22 39 3 0 0 0 90 40 10 0 0 91 28 14 0 0 8 0 24 0 0 1 0 0 0 37 39 0 47 22 0 0 0 0 0 0 0 16 24 0 0 0 0 0 0 80 51 16 1 21 85 2 0 15 84 0 0 100 92 0 21 74 0 0 0 0 156 0 162 17 0 0 31 36 0 0 32 0 16 71 16 0 0 97 13 11 47 12 0 39 97 0 23 0 54 37 0 0 0 34 0 0 0 0 0 65 47 17 0 13 5 4 3 1 0 0 0 0 0 0 0 0 0 0 0 0 0 0 0 0 0 0 0 0 0 0 0 0 0 0 0 0 0 0 0 0 0 0 0 0 0 0 0 0 0 0 0 0 0 0 0 0 0 0 0 0 0 0 0 0 0 0 0 0 0 0 0 0 0 0 0 0 0 0 0 0 0 0 0 0 0 0 0 0 0 0 0 0 0 0 0 0 0 0 0 0 0 0 0 0 0 0 0 0 0 0 0 0 0 0 0 0 0 255
255 0 0 0 0 0 0 0 0 0 0 0 0 0 0 0 0 0 0 0 0 0 0 0 0 0 0 0 0 0 0 0 0 0 0 0 0 0 0 0 0 0 0 0 0 0 0 0 0 0 0 0 0 0 0 0 0 0 0 0 0 0 3 1 4 6 8 0 4 20 59 58 37 79 22 0 0 0 8 0 0 0 32 38 47 37 0 0 75 43 20 0 0 4 21 27 0 0 24 20 0 0 0 0 0 0 91 167 117 61 7 0 1 0 0 20 17 22 14 0 23 11 19 0 62 191 0 0 0 0 74 128 230 102 76 0 0 0 255 155 0 0 0 66 0 0 0 0 0 0 0 0 0 0 9 13 16 14 10 11 8 14 10 0 10 0 0 16 0 5 2 0 0 0 3 9 1 0 0 6 14 7 7 34 0 0 0 0 16 24 23 6 0 156 119 0 0 0 15 24 0 138 58 0 14 0 77 0 31 37 30 0 20 11 0 0 62 0 163 0 0 11 230 11 0 15 22 8 0 0 0 0 6 14 0 8 0 1 0 0 0 0 0 0 2 1 11 8 0 24 7 0 0 0 0 22 164 174 136 0 0 80 122 41 26 0 0 0 0 0 22 50 17 13 21 11 1 0 0 0 0 18 0 0 22 2 0 8 45 0 8 16 0 0 9 2 37 28 7 15 0 0 0 0 0 0 107 63 0 46 83 0 93 255 0 0 0 0 24 0 0 0 60 0 21 0 0 255 8 0 5 5 0 0 3 24 0 2 0 0 0 0 2 21 1 0 0 0 3 26 18 0 0 0 10 11 0 0 0 47 0 0 31 47 22 0 17 0 0 4 1 0 0 4 0 0 7 7 14 0 0 0 33 48 1 3 5 0 2 0 0 0 3 0 4 1 0 0 0 0 10 0 0 0 5 10 5 2 0 7 0 7 9 8 8 0 37 13 0 0 0 0 0 20 0 68 30 255 0 112 0 0 0 252 255 255 255 255 0 0 0 0 0 152 0 0 0 255 255 255 0 164 255 255 216 0 0 61 0 9 0 255 255 115 255 255 131 201 182 0 0 0 0 205 163 0 0 75 0 8 12 0 0 0 0 0 2 12 0 0 0 0 0 0 0 0 0 4 0 0 0 0 0 9 0 0 0 0 0 0 0 0 0 22 23 0 0 14 15 14 160 25 0 0 0 0 0 0 40 60 6 0 0 2 29 13 0 10 0 0 17 0 0 0 71 0 0 0 40 65 2 0 111 102 93 31 0 0 8 27 89 96 22 0 22 0 0 85 131 0 0 0 0 0 0 0 39 4 0 0 48 136 17 0 0 59 118 123 100 15 0 0 11 4 0 0 33 6 0 0 61 58 50 0 0 37 29 4 5 6 9 10 0 0 0 3 10 10 8 9 22 22 14 12 0 0 0 5 20 27 29 40 0 0 9 18 9 11 0 0 5 10 11 13 18 9 4 9 111 13 0 19 0 34 0 28 32 0 0 0 0 255 0 0 21 0 0 5 46 52 25 0 40 0 0 44 12 0 0 0 52 38 64 0 112 80 65 0 15 54 0 28 36 0 43 0 16 32 43 21 0 0 0 0 33 38 16 0 0 25 24 0 0 46 32 1 0 44 28 0 39 38 0 0 30 0 21 0 35 0 56 0 0 44 56 0 4 68 0 4 8 0 97 0 68 0 0 0 0 29 51 67 16 0 0 42 71 0 0 34 9 0 19 0 0 0 81 0 32 0 71 81 14 0 0 0 0 0 0 0 0 0 83 36 0 0 3 0 1 3 3 3 3 0 0 0 0 0 0 0 0 0 0 0 0 0 0 0 0 0 0 0 0 0 0 0 0 0 0 0 0 0 0 0 0 0 0 0 0 0 0 0 0 0 0 0 0 0 0 0 0 0 0 0 0 0 0 0 0 0 0 0 0 0 0 0 0 0 0 0 0 0 0 0 0 0 0 0 0 0 0 0 0 0 0 0 0 0 0 0 0 0 0 0 0 0 0 0 0 0 0 0 0 0 0 0 0 0 0 255
255 0 0 0 0 0 0 0 0 0 0 0 0 0 0 0 0 0 0 0 0 0 0 0 0 0 0 0 0 0 0 0 0 0 0 0 0 0 0 0 0 0 0 0 0 0 0 0 0 0 0 0 0 0 0 0 0 0 0 0 0 0 3 0 2 7 0 0 20 68 62 7 0 0 0 0 21 35 0 0 0 0 0 28 39 15 0 0 0 40 31 0 0 0 7 0 0 0 0 0 0 13 15 0 0 0 0 0 90 161 186 115 67 27 8 3 0 0 3 11 27 0 23 9 46 18 18 139 0 118 159 90 115 149 0 0 0 129 129 23 0 37 0 0 0 0 13 10 0 1 1 17 0 0 11 17 26 30 12 24 9 0 3 4 13 23 11 21 5 11 9 5 9 7 2 0 2 0 0 12 18 8 6 21 8 11 7 3 10 18 19 15 0 15 80 5 0 0 0 0 0 165 0 9 35 0 39 0 4 27 3 0 10 0 0 0 31 0 167 0 0 255 192 0 0 24 28 0 0 3 0 0 0 5 5 4 0 4 2 9 0 0 1 0 8 0 0 0 0 84 18 0 0 3 103 73 120 0 26 81 125 19 0 0 0 0 0 23 36 11 0 0 8 0 0 0 0 0 10 25 0 11 0 0 11 0 0 29 13 0 9 20 2 3 17 0 0 0 0 24 38 0 0 0 0 0 29 79 14 34 47 0 40 158 255 0 0 0 0 11 9 0 62 0 2 0 0 255 46 2 8 1 0 0 3 0 14 5 12 11 2 10 0 8 0 0 0 0 6 31 9 0 0 4 30 27 18 6 6 41 0 0 1 20 0 0 0 0 0 40 46 7 0 16 20 0 1 11 27 0 0 0 36 40 0 0 2 0 5 1 0 3 0 0 0 0 0 1 5 1 13 0 5 5 7 6 6 6 12 14 14 0 0 3 0 0 18 16 6 0 0 0 0 33 0 79 238 7 0 0 0 0 0 0 184 255 7 0 120 221 65 0 0 125 0 0 171 255 134 255 0 67 0 55 174 120 0 0 0 184 0 0 0 77 0 0 0 69 0 0 0 179 123 45 23 0 13 40 0 0 9 0 0 0 0 0 0 11 0 0 0 0 0 0 0 0 15 0 0 0 0 7 2 0 0 0 0 0 0 0 0 2 0 0 0 0 0 38 41 93 18 0 0 0 0 0 0 22 28 0 0 0 0 0 0 14 0 9 0 0 13 0 0 0 141 44 0 0 47 49 0 0 0 0 67 63 17 0 0 0 47 0 0 14 180 0 0 26 45 0 46 26 40 0 30 98 7 0 0 0 217 0 125 0 47 36 0 0 16 28 0 29 18 11 24 18 0 0 0 0 0 40 27 0 0 23 0 0 21 7 0 0 0 9 12 17 0 0 0 0 0 0 0 0 12 0 0 0 0 0 0 0 0 0 4 20 17 13 0 0 0 0 0 0 0 0 0 7 54 83 0 0 16 24 0 33 3 50 0 0 234 45 0 19 50 56 35 0 0 0 0 0 29 62 80 32 0 41 61 0 0 64 98 0 33 53 63 0 8 66 0 27 31 0 63 0 44 0 0 48 50 0 0 23 0 0 14 0 0 41 44 48 0 15 21 0 0 33 37 0 106 0 0 82 96 0 0 105 27 0 44 82 34 50 0 0 0 15 144 105 0 0 24 2 78 16 5 4 0 0 0 94 0 0 0 0 31 7 0 0 0 0 51 100 0 0 3 0 80 0 0 0 0 0 0 0 19 0 28 21 0 0 8 76 40 11 0 0 0 5 9 0 9 0 0 0 0 0 0 0 0 0 0 0 0 0 0 0 0 0 0 0 0 0 0 0 0 0 0 0 0 0 0 0 0 0 0 0 0 0 0 0 0 0 0 0 0 0 0 0 0 0 0 0 0 0 0 0 0 0 0 0 0 0 0 0 0 0 0 0 0 0 0 0 0 0 0 0 0 0 0 0 0 0 0 0 0 0 0 0 0 0 0 0 0 0 0 0 0 0 0 0 0 0 0 0 0 0 0 255
255 0 0 0 0 0 0 0 0 0 0 0 0 0 0 0 0 0 0 0 0 0 0 0 0 0 0 0 0 0 0 0 0 0 0 0 0 0 0 0 0 0 0 0 0 0 0 0 0 0 0 0 0 0 0 0 0 0 0 0 0 0 3 0 5 0 0 34 66 61 0 0 0 0 0 30 53 40 0 0 23 0 0 7 20 3 0 0 0 27 49 14 6 20 4 0 40 27 0 0 0 5 0 0 63 0 0 0 0 0 25 38 164 140 103 62 0 0 7 6 0 0 24 0 14 0 0 0 0 51 59 4 50 161 0 45 255 129 59 0 1 17 0 8 0 0 14 5 7 0 7 35 0 10 12 21 12 5 7 5 10 19 14 14 20 18 22 32 0 13 7 8 10 14 0 0 17 0 0 6 7 0 0 0 16 6 4 0 6 17 18 25 50 0 117 188 0 13 133 0 0 194 0 21 37 0 0 8 0 28 6 0 19 0 0 0 9 10 18 0 142 255 0 0 0 24 18 2 0 8 1 1 0 3 0 0 0 0 0 0 0 0 0 0 0 0 0 0 0 0 0 0 6 173 147 41 76 44 67 80 3 0 0 0 30 14 0 0 0 0 0 33 0 0 0 12 15 0 0 1 7 24 0 0 5 0 0 31 0 0 0 21 0 20 37 0 0 0 0 9 9 6 7 41 129 0 0 17 76 3 34 75 132 24 0 255 19 0 0 26 6 0 22 0 7 0 0 255 96 0 4 0 0 0 0 0 11 1 12 9 10 5 0 0 8 7 7 0 5 13 0 0 14 14 6 10 7 0 0 0 25 0 0 13 0 0 12 0 0 8 20 0 0 4 19 19 0 21 24 0 0 5 33 28 0 0 0 0 0 0 0 0 0 0 0 0 0 6 8 8 5 2 5 4 8 1 4 8 0 0 0 0 0 0 0 0 0 0 7 0 0 0 27 74 104 102 42 0 0 0 0 0 23 98 1 0 0 0 0 35 253 159 100 0 7 255 255 0 255 69 0 255 194 173 22 0 0 0 34 41 58 0 0 18 179 114 0 0 28 107 162 79 57 0 0 40 5 0 0 0 18 12 6 1 0 1 6 24 9 0 0 0 12 7 2 0 25 0 0 0 0 23 4 0 13 0 0 0 0 0 0 0 0 0 0 6 45 89 95 174 0 0 0 0 0 0 38 79 0 0 0 0 17 0 0 11 0 18 8 0 7 0 0 0 40 35 15 0 12 0 0 0 0 0 0 0 0 13 60 111 0 0 0 16 0 97 2 0 33 217 76 179 144 98 93 255 84 0 255 0 0 0 220 122 0 0 0 0 32 35 0 33 0 0 33 28 0 7 25 0 0 64 31 0 22 15 0 0 0 5 4 0 0 0 0 0 0 0 0 0 0 0 0 0 26 6 0 0 0 0 0 0 23 14 4 0 0 0 0 2 1 4 0 0 0 13 6 27 16 158 0 0 25 0 0 0 0 0 0 232 40 7 6 58 0 0 0 0 9 25 0 0 86 20 0 0 15 46 25 1 0 23 46 0 0 0 0 53 0 25 0 0 0 0 66 43 57 0 0 9 61 24 0 13 0 3 22 15 0 0 3 28 0 20 25 0 0 46 49 0 0 21 0 35 0 0 27 90 35 0 0 79 85 28 0 38 0 0 0 0 0 47 6 53 85 86 96 101 7 0 0 6 34 51 25 20 10 13 33 75 0 0 0 4 93 55 0 0 99 0 30 43 26 53 0 0 35 0 0 0 3 0 0 0 108 28 17 0 0 6 13 0 13 0 0 0 0 0 0 0 0 0 0 0 0 0 0 0 0 0 0 0 0 0 0 0 0 0 0 0 0 0 0 0 0 0 0 0 0 0 0 0 0 0 0 0 0 0 0 0 0 0 0 0 0 0 0 0 0 0 0 0 0 0 0 0 0 0 0 0 0 0 0 0 0 0 0 0 0 0 0 0 0 0 0 0 0 0 0 0 0 0 0 0 0 0 0 0 0 0 0 0 0 0 0 0 0 0 0 255
255 0 0 0 0 0 0 0 0 0 0 0 0 0 0 0 0 0 0 0 0 0 0 0 0 0 0 0 0 0 0 0 0 0 0 0 0 0 0 0 0 0 0 0 0 0 0 0 0 0 0 0 0 0 0 0 0 0 0 0 0 0 3 0 6 0 11 46 43 0 0 0 131 51 14 31 34 11 0 11 12 0 0 0 4 1 0 0 0 27 42 8 17 29 24 0 7 2 0 26 57 64 35 0 0 17 66 57 0 0 0 0 0 0 91 143 115 64 0 0 21 32 39 0 54 74 81 0 0 0 29 96 147 0 0 23 210 13 0 0 55 23 0 18 0 0 0 0 0 0 4 17 5 17 4 10 6 4 0 0 14 4 3 0 9 8 10 13 0 2 1 5 11 11 0 0 16 0 0 0 3 0 0 0 4 0 7 0 0 13 8 34 0 0 0 54 15 12 14 0 0 193 0 8 13 3 0 43 0 24 0 0 31 30 0 4 24 10 0 0 210 129 0 0 0 28 26 0 0 23 8 0 0 0 0 0 0 0 0 3 0 0 0 2 0 0 0 0 24 0 0 71 167 88 52 36 0 56 36 0 0 0 69 28 0 3 40 58 53 40 12 0 2 0 0 14 22 0 0 0 18 21 2 0 28 2 0 11 0 0 10 10 0 10 29 0 40 40 5 0 0 0 0 0 0 51 12 0 45 108 48 0 0 91 72 67 255 150 0 0 5 0 5 0 4 0 0 220 149 0 0 0 7 14 4 0 10 1 3 7 0 0 1 0 17 14 2 0 2 11 3 0 1 0 0 0 0 4 0 0 49 0 0 18 0 15 22 0 2 0 0 0 1 0 0 13 0 19 6 0 0 32 43 0 0 0 7 0 2 4 0 9 0 0 0 6 0 7 1 6 0 0 0 3 8 3 7 6 0 1 0 0 0 3 2 0 0 0 2 0 0 7 32 55 139 0 0 165 161 255 255 255 255 144 78 89 68 167 164 0 0 123 150 0 0 0 0 0 205 95 0 0 0 0 16 0 0 255 255 0 0 0 0 149 30 0 0 74 235 129 0 0 9 56 25 0 22 22 61 51 9 9 7 9 9 3 9 13 6 0 0 0 15 21 12 4 0 1 0 0 8 12 9 0 30 5 13 12 6 8 11 4 15 17 19 25 73 97 31 44 0 0 0 9 0 37 52 42 0 0 0 1 20 16 14 5 0 21 0 0 15 0 0 0 0 0 0 0 0 0 0 23 136 69 68 66 52 0 0 0 133 187 0 0 2 40 0 73 81 114 0 14 0 26 0 80 48 0 193 0 0 169 0 62 0 195 202 102 109 33 0 0 0 0 30 30 0 40 79 0 0 77 35 0 34 18 0 56 0 3 0 0 0 9 11 0 18 11 4 10 11 13 10 7 0 2 6 10 8 9 28 42 9 13 0 0 0 0 0 13 9 14 13 0 10 22 25 40 0 223 0 0 33 0 2 0 0 0 255 0 17 0 23 0 0 0 121 89 0 0 7 30 92 0 0 0 60 0 0 63 105 0 0 0 169 92 0 0 0 0 17 0 0 37 0 0 77 0 0 2 57 16 0 4 26 12 13 10 0 0 0 18 0 51 54 0 0 47 48 0 0 109 66 0 0 17 108 0 84 0 0 0 30 8 0 22 108 0 0 0 28 0 26 7 0 0 0 45 75 27 37 129 39 38 27 35 12 0 6 63 90 0 0 0 87 61 0 0 71 0 80 86 73 127 38 0 0 0 0 0 0 0 0 0 64 29 30 5 0 9 11 0 10 0 0 0 0 0 0 0 0 0 0 0 0 0 0 0 0 0 0 0 0 0 0 0 0 0 0 0 0 0 0 0 0 0 0 0 0 0 0 0 0 0 0 0 0 0 0 0 0 0 0 0 0 0 0 0 0 0 0 0 0 0 0 0 0 0 0 0 0 0 0 0 0 0 0 0 0 0 0 0 0 0 0 0 0 0 0 0 0 0 0 0 0 0 0 0 0 0 0 0 0 0 0 0 0 0 0 255
255 0 0 0 0 0 0 0 0 0 0 0 0 0 0 0 0 0 0 0 0 0 0 0 0 0 0 0 0 0 0 0 0 0 0 0 0 0 0 0 0 0 0 0 0 0 0 0 0 0 0 0 0 0 0 0 1 3 5 4 2 1 5 0 10 6 39 88 19 0 0 26 21 0 0 10 22 0 0 0 0 0 0 9 29 36 32 0 13 0 0 0 0 20 28 3 6 0 0 0 0 0 0 0 12 9 0 0 0 0 28 38 0 0 0 0 121 204 222 132 76 0 0 0 36 0 104 31 0 170 96 34 55 0 0 244 85 39 25 0 6 0 0 34 68 31 3 0 4 27 29 38 36 39 35 22 20 0 2 0 20 5 0 0 0 0 0 15 14 4 4 2 11 11 20 10 22 0 1 9 7 0 0 5 0 11 2 0 0 0 10 33 3 24 6 0 9 0 0 0 0 178 9 0 0 3 0 28 0 12 2 0 36 50 22 31 0 0 9 153 89 117 0 28 0 30 36 0 0 23 17 0 12 31 15 5 0 0 0 19 12 18 4 1 0 11 20 19 0 0 0 135 55 0 34 35 87 117 103 17 0 0 0 0 0 14 4 0 0 8 0 0 30 15 0 13 7 0 0 0 5 0 0 0 23 14 0 10 32 14 13 0 0 0 24 0 0 0 2 0 0 29 27 7 0 1 0 0 10 22 48 150 94 0 52 77 0 183 217 0 0 0 0 24 6 0 0 110 203 8 0 0 13 29 5 0 0 0 0 0 0 0 2 0 14 17 1 0 0 1 16 43 3 0 0 0 26 46 49 28 39 0 0 0 0 13 5 0 92 15 0 17 36 6 0 11 0 25 5 0 0 38 43 5 7 0 7 0 6 0 0 0 5 0 2 5 0 8 8 13 0 0 0 9 9 6 9 19 0 2 0 0 0 0 0 0 32 14 0 0 0 0 21 99 93 0 40 246 158 87 102 0 0 0 0 0 0 0 0 24 71 0 25 0 116 96 181 32 0 110 48 75 183 0 0 0 0 255 38 0 0 0 255 253 0 0 228 128 0 0 60 56 12 0 0 44 0 0 84 0 0 0 6 7 0 0 0 0 12 6 3 10 27 23 10 4 0 12 16 15 13 0 3 0 15 11 25 18 29 32 27 3 22 23 19 36 110 128 0 0 0 0 0 0 0 46 52 0 0 0 19 0 0 0 14 0 0 14 0 0 16 0 0 0 80 34 0 0 0 0 0 0 0 0 0 4 5 0 12 83 16 0 0 0 0 0 83 44 49 0 48 31 0 21 0 58 139 0 0 33 151 0 0 234 68 48 0 0 0 17 33 113 139 60 89 64 0 28 39 0 0 72 48 0 23 0 0 66 0 32 33 13 9 15 6 0 13 0 0 0 3 3 0 0 0 11 37 23 0 0 0 18 0 0 5 12 8 13 1 0 0 18 25 0 1 10 0 0 0 231 0 0 78 0 80 12 0 0 255 0 0 113 56 0 164 57 0 0 0 93 113 1 20 108 0 0 9 19 0 35 0 96 128 0 78 0 0 85 9 0 68 0 5 75 0 0 75 26 50 2 0 0 0 45 44 0 0 0 6 0 23 73 0 36 25 0 0 16 10 0 20 20 0 94 117 58 37 0 60 7 17 0 101 63 0 0 92 45 0 122 26 0 49 91 0 0 0 0 61 22 0 24 0 0 0 24 52 0 0 0 0 139 84 9 43 0 0 108 100 0 0 0 0 0 8 20 23 87 92 0 0 0 41 0 25 59 95 23 0 6 16 10 11 3 3 2 1 0 0 0 0 0 0 0 0 0 0 0 0 0 0 0 0 0 0 0 0 0 0 0 0 0 0 0 0 0 0 0 0 0 0 0 0 0 0 0 0 0 0 0 0 0 0 0 0 0 0 0 0 0 0 0 0 0 0 0 0 0 0 0 0 0 0 0 0 0 0 0 0 0 0 0 0 0 0 0 0 0 0 0 0 0 0 0 0 0 0 0 0 0 0 0 0 0 0 0 0 0 0 255
255 0 0 0 0 0 0 0 0 0 0 0 0 0 0 0 0 0 0 0 0 0 0 0 0 0 0 0 0 0 0 0 0 0 0 0 0 0 0 0 0 0 0 0 0 0 0 0 0 0 0 0 0 0 0 0 2 0 0 0 4 2 0 0 2 0 63 47 0 0 0 16 0 0 0 0 0 0 0 61 0 0 0 0 2 0 0 0 34 0 10 58 0 21 65 0 0 7 14 0 2 24 22 1 0 0 4 20 8 1 0 0 25 21 0 0 0 0 0 66 174 145 107 61 0 24 94 59 31 0 99 114 215 0 0 255 22 0 1 0 0 7 0 0 0 0 3 28 25 7 0 0 0 0 0 0 0 0 1 1 0 3 28 19 8 0 0 0 0 0 0 0 0 8 3 0 0 0 0 9 0 8 0 7 0 0 0 15 8 0 0 18 8 44 3 0 89 102 0 0 0 103 0 32 0 52 47 40 46 35 5 0 0 0 0 0 51 63 108 116 39 0 0 0 5 0 0 0 10 27 0 0 0 1 0 0 0 9 11 2 2 0 24 0 0 0 46 0 0 168 141 108 97 0 67 32 27 0 0 0 35 0 0 0 3 0 0 0 0 0 8 22 3 0 0 5 73 57 20 0 21 2 28 39 24 0 0 35 0 46 50 0 8 9 0 19 0 45 34 0 13 39 0 0 19 29 24 15 0 0 0 0 45 81 34 59 0 30 244 51 0 54 30 0 0 52 0 203 187 0 6 32 0 0 20 22 21 17 6 3 1 0 1 0 45 0 0 10 19 49 40 0 24 24 0 0 50 0 40 0 0 0 0 30 38 0 0 5 14 0 0 4 12 0 0 37 7 0 0 3 0 34 37 0 0 0 0 0 1 0 0 5 0 0 0 4 0 0 0 0 10 1 3 0 0 0 0 13 0 0 0 0 5 23 14 9 19 0 34 0 15 3 68 23 0 59 80 0 79 0 20 0 0 0 142 154 0 0 0 0 0 0 0 255 197 31 0 53 0 225 0 18 133 187 0 0 0 20 228 0 0 0 184 14 116 108 75 34 0 0 0 0 0 0 0 7 23 1 0 0 20 0 0 0 0 1 8 20 0 0 0 0 0 0 0 0 0 0 0 0 0 0 1 6 26 0 0 1 16 0 0 29 50 9 42 160 145 0 0 0 0 0 0 84 73 0 0 0 0 0 0 5 13 8 4 0 18 0 21 0 14 9 0 15 54 0 0 0 0 0 6 0 49 62 66 28 24 0 0 0 29 92 23 52 133 100 24 63 84 21 12 5 11 26 7 21 79 76 0 0 18 0 0 0 14 91 0 0 0 196 18 0 0 0 0 0 0 0 0 18 0 0 3 0 20 67 10 35 0 0 0 10 11 19 9 5 29 32 27 3 0 0 12 43 13 0 0 0 22 28 19 3 0 0 0 8 9 0 0 12 24 0 0 0 0 0 4 24 0 225 39 0 58 0 0 0 0 255 136 0 0 24 7 11 169 0 0 40 63 52 0 0 22 0 0 34 52 118 123 74 0 0 24 0 0 0 0 25 23 0 32 16 11 29 0 0 11 51 32 0 78 94 0 52 0 0 28 0 34 53 0 17 38 58 44 53 79 0 0 110 86 0 10 0 0 0 0 0 97 105 29 0 94 59 0 0 0 175 0 21 61 0 104 0 74 74 0 0 0 0 0 0 29 0 0 0 0 0 12 0 0 0 30 58 89 98 23 0 0 62 0 22 0 84 0 0 93 0 0 53 0 0 0 7 0 0 39 76 10 0 26 0 1 0 0 0 2 0 0 0 0 0 0 0 0 0 0 0 0 0 0 0 0 0 0 0 0 0 0 0 0 0 0 0 0 0 0 0 0 0 0 0 0 0 0 0 0 0 0 0 0 0 0 0 0 0 0 0 0 0 0 0 0 0 0 0 0 0 0 0 0 0 0 0 0 0 0 0 0 0 0 0 0 0 0 0 0 0 0 0 0 0 0 0 0 0 0 0 0 0 0 0 0 0 0 0 0 0 0 255
255 0 0 0 0 0 0 0 0 0 0 0 0 0 0 0 0 0 0 0 0 0 0 0 0 0 0 0 0 0 0 0 0 0 0 0 0 0 0 0 0 0 0 0 0 0 0 0 0 0 0 0 0 0 0 0 3 0 0 0 6 3 0 0 3 31 77 0 0 19 18 0 62 40 17 14 7 0 0 10 0 0 0 3 37 7 3 0 16 13 45 0 0 48 95 0 0 4 0 0 7 4 3 0 6 0 0 0 0 12 3 9 0 0 0 0 0 0 0 0 0 27 161 167 179 130 65 0 0 25 139 9 0 0 74 152 0 4 1 2 9 10 10 0 12 2 3 10 16 19 7 7 11 18 0 6 0 1 0 0 4 4 11 0 0 0 0 11 0 12 9 0 4 11 13 0 0 0 5 12 6 9 0 19 0 0 0 9 7 0 14 33 0 22 1 0 9 33 0 0 0 151 0 8 0 28 38 27 2 7 10 0 11 21 38 0 48 41 62 61 4 0 0 0 45 29 4 0 0 22 0 0 0 6 0 0 0 0 0 0 10 0 21 0 0 30 0 0 0 158 61 13 47 21 53 72 0 0 0 0 36 11 2 8 16 1 7 0 6 0 18 27 0 0 0 0 21 26 0 0 16 0 0 0 0 35 28 0 0 32 22 0 0 6 0 13 0 33 12 0 0 4 0 29 0 0 0 0 0 0 0 0 0 71 54 66 15 5 210 143 0 0 38 0 9 0 0 98 215 0 0 4 0 0 0 0 0 0 2 0 0 0 0 0 33 0 0 0 0 20 33 0 30 43 0 28 45 0 32 0 43 0 0 7 25 0 0 17 1 0 0 22 22 0 0 11 11 0 0 0 0 27 29 0 0 0 7 0 2 0 1 3 0 0 0 3 0 5 0 0 0 0 9 0 4 0 2 11 0 0 0 2 6 11 11 12 0 13 0 0 54 0 96 0 0 0 0 0 0 0 1 24 0 255 255 41 255 0 0 0 0 0 0 191 0 0 19 0 0 0 249 16 0 0 166 255 255 251 255 6 0 255 192 0 24 0 19 0 0 0 0 8 11 0 5 1 4 3 10 5 14 0 0 0 0 0 0 5 1 3 0 0 0 8 0 2 0 0 11 7 2 0 0 9 0 16 51 28 0 0 9 1 0 80 141 16 0 0 0 0 0 17 42 42 13 0 0 0 0 0 0 0 0 0 0 0 9 0 18 0 10 6 0 0 71 0 4 0 0 0 11 26 0 0 0 0 12 26 42 47 0 85 30 0 0 0 0 0 49 0 10 3 0 12 2 6 0 144 171 0 106 114 0 191 16 9 181 55 0 13 0 0 72 69 72 56 55 48 20 26 0 0 66 3 14 29 0 0 6 2 0 3 1 4 4 17 0 0 0 0 13 3 0 0 19 0 0 0 0 8 13 8 14 6 0 23 16 12 0 23 31 13 5 3 14 19 23 35 39 82 139 0 17 0 22 0 198 255 0 0 60 95 0 72 0 0 23 55 17 0 0 0 198 67 27 89 33 0 0 0 0 0 50 80 78 60 0 48 82 0 0 0 28 70 6 62 0 0 45 0 16 65 2 55 0 0 52 9 27 46 0 0 33 0 0 0 43 40 28 47 0 0 76 0 0 62 38 17 0 0 0 0 20 110 2 132 0 47 0 66 110 0 103 63 42 74 86 31 67 0 0 0 50 0 9 42 11 48 61 0 53 0 0 0 0 31 15 0 0 0 0 0 0 20 30 21 103 32 60 93 38 0 0 0 16 0 0 112 50 0 0 20 3 0 0 0 3 0 0 0 0 0 0 0 0 0 0 0 0 0 0 0 0 0 0 0 0 0 0 0 0 0 0 0 0 0 0 0 0 0 0 0 0 0 0 0 0 0 0 0 0 0 0 0 0 0 0 0 0 0 0 0 0 0 0 0 0 0 0 0 0 0 0 0 0 0 0 0 0 0 0 0 0 0 0 0 0 0 0 0 0 0 0 0 0 0 0 0 0 0 0 0 0 0 0 0 0 0 0 255
255 0 0 0 0 0 0 0 0 0 0 0 0 0 0 0 0 0 0 0 0 0 0 0 0 0 0 0 0 0 0 0 0 0 0 0 0 0 0 0 0 0 0 0 0 0 0 0 0 0 0 0 0 0 0 0 3 0 0 0 6 3 0 1 27 74 66 0 17 0 79 0 7 14 18 6 5 19 9 8 0 4 0 0 20 16 10 18 0 36 16 0 0 61 75 14 30 2 0 0 5 5 0 0 18 0 0 0 4 4 3 0 0 0 0 17 30 10 0 0 0 0 0 0 0 155 255 158 119 36 0 151 0 0 255 50 0 0 2 5 5 17 1 0 35 10 13 11 14 11 16 21 13 9 5 0 0 0 0 0 8 0 0 0 0 0 0 4 0 4 0 0 9 6 10 0 8 9 0 0 0 1 10 23 0 0 0 5 0 0 2 28 9 19 31 9 0 43 23 0 0 203 0 0 0 10 64 42 0 0 0 0 12 31 41 20 43 62 60 0 0 0 0 15 60 41 0 0 7 16 0 0 0 8 0 0 0 0 0 0 1 0 26 0 0 78 0 0 193 108 42 0 45 66 10 44 0 0 0 5 35 23 18 8 17 8 1 0 0 0 0 11 0 14 0 0 0 14 14 0 13 0 0 0 0 27 20 0 0 31 3 0 0 10 0 8 0 0 0 11 6 0 0 26 0 4 0 0 0 0 0 0 0 6 23 96 28 2 173 106 18 0 0 0 47 0 0 16 247 21 0 0 0 16 12 0 0 0 0 0 5 0 0 6 4 0 0 3 0 0 24 0 0 34 0 26 18 0 14 0 58 5 0 0 0 0 0 27 0 0 0 20 27 0 0 0 9 0 0 0 3 40 20 0 0 0 4 0 7 0 0 0 0 1 0 0 4 5 0 10 0 0 11 9 10 5 0 0 4 0 0 0 14 4 14 19 0 77 0 25 94 0 101 0 0 31 141 0 0 40 0 0 0 89 0 0 23 186 113 0 255 255 0 255 255 176 0 0 0 0 255 0 0 84 255 133 0 0 0 0 113 240 0 0 16 0 0 0 0 0 4 0 26 13 13 10 5 8 23 22 1 10 4 9 0 3 0 3 0 0 0 0 10 8 5 0 8 7 10 8 14 2 6 11 0 2 0 0 12 28 14 0 67 141 68 0 0 0 9 0 0 47 58 0 0 0 0 0 1 1 0 0 0 6 0 0 7 0 16 0 5 8 0 0 89 5 4 0 0 0 31 59 0 0 12 0 6 0 8 12 0 159 138 5 0 7 72 144 58 0 18 3 0 0 0 16 0 52 123 67 0 0 0 0 0 0 56 124 35 50 68 66 40 0 0 0 26 48 10 2 0 0 39 0 0 21 0 2 0 0 0 0 0 0 0 2 0 0 0 0 22 18 0 0 0 0 0 0 0 0 0 2 0 0 0 5 0 0 0 0 0 0 0 0 5 8 1 8 0 81 162 0 0 0 0 0 255 74 0 0 0 3 109 48 0 82 105 0 42 37 32 233 0 0 0 0 58 91 13 1 0 0 19 0 0 7 0 0 91 3 14 0 1 70 11 47 23 0 56 19 0 9 2 0 51 4 69 9 0 3 0 0 121 0 0 0 0 70 35 0 0 56 48 44 0 0 44 34 68 4 44 0 25 64 0 0 116 115 45 22 4 0 0 0 0 0 23 0 195 18 100 103 0 0 0 2 0 34 55 0 67 0 0 0 0 7 27 25 15 26 76 0 12 0 1 3 0 0 13 1 0 16 0 0 0 0 0 0 134 54 0 28 2 0 0 0 3 0 0 0 0 0 0 0 0 0 0 0 0 0 0 0 0 0 0 0 0 0 0 0 0 0 0 0 0 0 0 0 0 0 0 0 0 0 0 0 0 0 0 0 0 0 0 0 0 0 0 0 0 0 0 0 0 0 0 0 0 0 0 0 0 0 0 0 0 0 0 0 0 0 0 0 0 0 0 0 0 0 0 0 0 0 0 0 0 0 0 0 0 0 0 0 0 0 0 0 0 0 0 255
255 0 0 0 0 0 0 0 0 0 0 0 0 0 0 0 0 0 0 0 0 0 0 0 0 0 0 0 0 0 0 0 0 0 0 0 0 0 0 0 0 0 0 0 0 0 0 0 0 0 0 0 0 0 0 0 3 0 0 0 6 3 1 7 0 121 17 0 0 0 71 0 0 0 0 0 0 15 6 0 0 0 0 0 0 9 2 5 9 5 0 0 24 21 0 41 14 0 0 0 12 11 0 5 0 3 0 0 5 0 0 0 18 13 5 10 18 16 25 26 12 0 0 0 0 0 2 31 133 0 0 255 0 0 191 16 0 0 0 0 3 0 0 0 21 0 0 6 7 8 0 12 0 1 7 0 0 0 0 0 9 0 9 6 13 0 2 6 2 7 2 0 1 8 6 12 7 0 0 0 0 0 0 8 12 8 4 12 2 0 0 0 20 0 55 28 0 46 61 0 0 211 0 0 31 0 81 56 0 2 0 0 0 0 4 4 0 28 13 0 0 0 17 31 33 20 0 0 0 8 0 0 0 14 7 7 0 0 0 3 0 18 8 7 31 0 0 77 134 3 15 0 65 54 0 0 26 34 31 0 0 11 8 0 10 0 0 0 0 0 0 2 4 0 0 0 0 0 4 4 40 36 64 15 0 0 1 0 0 25 8 0 18 19 0 0 17 0 0 37 29 0 0 11 0 0 0 10 3 0 12 3 0 0 0 31 20 17 76 0 255 0 0 60 5 13 0 0 255 50 35 0 20 32 13 18 0 2 3 3 13 14 2 16 0 0 16 15 0 6 29 0 4 0 0 11 6 0 12 0 43 4 0 2 0 0 0 15 0 0 0 20 24 2 0 1 5 17 0 0 25 44 13 10 0 0 1 5 3 0 4 0 0 0 4 0 12 0 0 8 0 0 13 5 11 6 0 0 0 2 0 0 9 4 7 3 14 61 0 32 73 0 76 72 64 78 197 47 0 0 74 0 9 255 80 0 0 95 0 0 255 0 0 0 0 0 0 247 255 37 148 20 49 255 110 0 0 0 0 0 0 33 0 91 31 0 0 0 17 17 16 4 18 17 0 3 0 1 9 20 0 5 2 4 12 1 0 6 0 1 0 0 2 7 9 8 0 4 7 4 0 0 0 0 54 0 0 0 9 0 10 95 153 51 0 0 32 64 8 0 35 52 30 0 0 0 0 18 2 0 2 0 0 1 0 3 5 0 22 0 10 11 0 0 89 2 1 0 0 0 25 45 26 43 56 18 4 0 0 0 6 0 0 0 0 54 0 0 61 0 18 7 0 0 8 7 21 0 52 146 150 45 15 117 160 63 50 0 0 0 0 0 0 0 0 0 0 21 0 0 0 0 13 0 0 24 11 61 0 6 0 1 0 0 0 0 51 22 3 0 1 5 22 23 0 5 20 35 20 14 0 0 0 0 0 0 0 0 0 0 0 0 0 0 0 1 0 0 0 219 120 0 0 0 0 106 246 0 58 94 0 0 219 0 83 52 0 0 20 0 0 39 0 96 121 0 0 0 0 28 43 66 102 0 0 82 48 55 0 0 59 20 0 0 0 0 27 0 23 0 0 17 0 0 87 0 21 0 0 14 0 0 141 0 0 32 0 16 35 0 2 23 0 60 42 0 0 38 0 0 94 80 25 77 0 0 0 0 0 0 0 12 0 96 0 0 0 0 160 0 31 0 79 41 37 21 0 0 0 0 32 27 34 6 0 0 0 12 99 7 64 0 128 21 34 0 0 8 0 0 20 82 69 77 0 43 0 0 34 103 37 0 18 0 0 0 2 0 0 0 0 0 0 0 0 0 0 0 0 0 0 0 0 0 0 0 0 0 0 0 0 0 0 0 0 0 0 0 0 0 0 0 0 0 0 0 0 0 0 0 0 0 0 0 0 0 0 0 0 0 0 0 0 0 0 0 0 0 0 0 0 0 0 0 0 0 0 0 0 0 0 0 0 0 0 0 0 0 0 0 0 0 0 0 0 0 0 0 0 0 0 0 0 0 0 0 0 0 0 255
255 0 0 0 0 0 0 0 0 0 0 0 0 0 0 0 0 0 0 0 0 0 0 0 0 0 0 0 0 0 0 0 0 0 0 0 0 0 0 0 0 0 0 0 0 0 0 0 0 0 0 0 0 0 0 0 3 0 0 0 6 3 2 3 5 162 0 0 0 3 29 0 0 25 20 0 0 3 0 0 9 0 0 0 0 4 0 0 32 0 0 0 51 0 0 40 25 2 0 0 12 10 3 26 0 0 21 17 3 0 0 0 12 0 0 0 0 0 4 11 37 15 57 75 0 0 0 0 7 0 0 196 0 181 158 0 0 0 0 0 0 0 25 15 2 0 0 0 0 1 0 0 0 0 0 0 5 5 0 0 0 0 16 13 8 6 3 0 10 3 1 0 7 0 3 14 0 0 0 0 3 0 0 0 0 0 4 13 7 0 0 0 3 0 14 6 0 35 35 0 0 172 38 0 37 0 71 59 25 11 0 0 0 0 0 0 0 9 0 0 0 27 34 35 0 0 0 0 3 8 0 0 0 1 0 0 0 0 0 0 0 37 0 6 67 0 0 210 84 23 34 52 48 16 0 0 19 2 3 0 0 0 15 9 12 0 0 0 0 3 0 9 0 0 0 0 0 0 0 0 109 55 78 77 10 0 0 15 0 22 8 0 20 3 0 0 63 0 0 57 21 0 0 1 11 0 9 10 19 16 19 12 15 0 0 0 34 56 84 0 212 0 0 0 0 38 0 0 192 71 50 0 9 0 0 14 1 6 26 20 22 17 7 15 0 0 31 26 0 0 31 0 23 0 0 0 0 11 1 0 21 0 2 14 0 0 0 0 0 0 0 3 15 8 0 36 0 33 0 0 41 50 0 5 0 0 0 1 0 0 9 0 3 0 5 1 0 2 8 12 0 4 18 17 19 7 0 0 0 4 0 0 0 0 0 0 18 0 36 4 49 104 0 105 61 0 0 235 202 0 0 0 0 75 35 0 147 113 0 0 255 255 0 0 0 0 0 123 92 78 0 0 0 222 0 0 0 0 127 160 216 130 0 0 13 3 0 1 11 18 15 0 0 0 0 0 2 0 0 0 0 1 1 7 6 5 7 17 0 0 0 0 0 0 4 8 0 0 1 0 3 6 7 12 0 32 61 21 0 14 70 199 0 0 0 0 21 0 0 23 80 0 0 0 0 0 0 24 0 0 0 0 1 4 0 0 1 0 28 0 4 9 0 0 103 8 5 0 0 0 27 32 0 2 25 5 0 6 14 0 81 144 103 20 0 0 0 63 91 9 25 8 0 0 6 18 38 138 40 0 0 0 0 0 0 0 0 0 21 49 54 116 11 31 46 33 19 12 0 0 110 0 20 8 0 15 0 7 0 0 7 7 15 4 0 0 28 18 19 6 0 0 10 27 0 10 19 32 14 7 4 5 14 13 20 11 10 15 12 12 14 18 13 25 21 17 12 13 0 159 212 0 0 0 0 255 91 0 134 119 0 0 95 0 255 0 0 110 115 0 0 87 77 175 78 59 116 0 0 1 24 6 81 0 0 61 46 152 0 0 8 36 2 0 0 0 1 10 0 0 75 81 0 86 36 0 0 0 0 76 38 8 138 0 0 95 0 0 90 0 8 0 0 60 68 0 29 74 0 0 25 0 0 0 61 84 0 0 0 0 45 116 0 63 99 0 39 0 93 0 0 0 0 0 8 37 0 30 89 61 48 48 60 54 25 0 0 0 0 0 0 0 86 19 70 26 0 15 0 0 15 9 0 34 2 19 15 0 0 110 55 0 8 0 5 2 1 0 0 0 0 0 0 0 0 0 0 0 0 0 0 0 0 0 0 0 0 0 0 0 0 0 0 0 0 0 0 0 0 0 0 0 0 0 0 0 0 0 0 0 0 0 0 0 0 0 0 0 0 0 0 0 0 0 0 0 0 0 0 0 0 0 0 0 0 0 0 0 0 0 0 0 0 0 0 0 0 0 0 0 0 0 0 0 0 0 0 0 0 0 0 0 0 0 0 0 0 0 0 255
255 0 0 0 0 0 0 0 0 0 0 0 0 0 0 0 0 0 0 0 0 0 0 0 0 0 0 0 0 0 0 0 0 0 0 0 0 0 0 0 0 0 0 0 0 0 0 0 0 0 0 0 0 0 0 0 3 0 0 0 6 3 3 2 79 103 0 0 0 76 6 0 30 13 4 11 9 13 9 0 17 7 0 0 0 9 3 0 34 50 0 0 5 0 0 26 27 23 0 0 0 11 0 0 0 0 26 15 0 0 0 17 0 5 0 0 0 0 0 0 2 0 0 0 0 18 30 0 0 0 0 0 0 192 159 139 102 69 54 26 14 0 9 14 1 2 0 0 0 2 0 0 23 14 5 0 0 0 0 0 0 0 15 10 3 3 0 0 8 1 7 3 9 0 0 16 0 7 0 7 14 19 9 0 0 0 0 3 16 0 0 0 11 0 0 5 0 26 26 0 0 83 105 0 10 0 30 61 28 14 0 9 9 3 7 37 15 17 0 0 38 46 23 32 0 7 0 9 7 0 0 0 0 6 0 0 0 2 0 2 0 25 0 5 0 0 75 162 51 41 46 69 15 0 0 0 0 0 0 0 0 0 5 0 22 15 9 10 12 11 11 0 0 4 39 76 61 0 0 0 115 2 15 65 58 0 0 13 0 21 6 0 1 0 0 0 107 0 0 34 0 0 29 20 10 6 0 0 0 19 2 0 11 15 0 0 13 33 49 64 42 62 78 0 0 0 7 0 118 92 100 0 30 21 0 24 0 1 0 5 0 0 0 0 0 0 15 11 0 0 27 0 50 0 23 0 0 38 0 0 0 0 0 10 5 2 1 0 13 3 0 0 5 11 16 43 0 31 0 0 55 41 0 2 0 0 3 0 6 0 7 0 0 0 0 0 0 0 3 4 2 4 11 10 6 0 2 0 4 0 1 0 0 0 0 0 0 0 61 0 26 168 0 0 107 0 0 163 246 0 0 0 0 0 51 0 0 0 0 0 48 255 223 255 255 37 255 221 0 0 0 0 0 128 156 34 117 225 165 17 15 6 0 25 17 0 0 0 0 1 0 0 0 0 0 0 8 0 0 0 0 0 5 11 10 0 1 9 0 0 0 0 0 0 0 2 0 2 5 5 2 0 9 23 0 62 45 0 37 117 141 0 0 0 0 0 0 0 21 56 37 0 0 0 19 0 0 14 3 3 0 1 0 7 1 0 14 0 27 0 7 10 0 0 125 18 9 0 0 3 34 22 0 0 8 0 1 15 13 5 90 25 0 0 130 33 0 0 60 10 17 3 0 5 9 8 0 55 0 0 0 105 157 0 0 191 81 3 58 0 0 9 0 21 51 40 21 7 1 0 73 0 2 42 0 28 0 0 5 0 16 13 21 11 0 0 0 0 5 3 2 0 0 2 16 19 0 0 0 0 11 27 0 11 18 1 8 17 14 1 19 13 9 8 6 6 0 0 81 0 255 0 0 0 133 255 63 0 4 0 201 42 0 44 0 0 34 135 21 63 158 50 0 0 0 0 31 105 58 61 0 0 0 49 31 0 0 10 0 12 0 26 56 6 38 0 20 64 1 0 89 77 0 71 56 0 0 31 2 70 0 0 113 0 1 119 0 0 96 42 0 48 0 0 15 41 69 46 14 2 94 0 0 0 24 51 138 67 83 0 3 65 0 0 53 0 88 0 129 0 4 74 0 0 0 7 0 0 62 33 26 0 0 0 55 70 37 20 0 0 4 0 0 0 20 31 0 16 0 0 43 0 0 0 67 0 0 0 0 0 130 37 12 0 2 0 0 0 0 0 0 0 0 0 0 0 0 0 0 0 0 0 0 0 0 0 0 0 0 0 0 0 0 0 0 0 0 0 0 0 0 0 0 0 0 0 0 0 0 0 0 0 0 0 0 0 0 0 0 0 0 0 0 0 0 0 0 0 0 0 0 0 0 0 0 0 0 0 0 0 0 0 0 0 0 0 0 0 0 0 0 0 0 0 0 0 0 0 0 0 0 0 0 0 0 0 0 0 0 255
255 0 0 0 0 0 0 0 0 0 0 0 0 0 0 0 0 0 0 0 0 0 0 0 0 0 0 0 0 0 0 0 0 0 0 0 0 0 0 0 0 0 0 0 0 0 0 0 0 0 0 0 0 0 0 0 3 0 0 0 6 3 3 10 132 0 0 0 27 48 0 0 16 0 0 14 19 22 24 20 17 9 10 0 5 14 12 0 12 43 29 0 0 0 12 3 20 26 31 0 0 17 14 0 0 7 8 1 0 0 11 31 0 24 26 28 40 43 38 0 26 0 0 4 0 25 18 0 8 0 19 0 0 0 0 85 82 47 53 44 26 9 0 0 4 8 9 4 10 1 0 3 15 8 6 0 0 0 0 0 0 0 1 9 2 0 0 0 0 0 0 0 11 0 0 12 9 6 0 1 11 13 2 0 0 0 0 1 0 0 0 0 21 25 0 4 0 14 16 32 0 0 167 0 0 0 0 44 39 14 0 22 21 5 17 42 31 5 0 2 33 30 0 7 0 9 5 4 7 0 0 3 6 15 0 7 12 13 17 11 0 0 6 22 0 0 195 56 17 38 0 30 0 0 54 21 18 13 19 33 24 0 0 0 2 7 0 10 4 8 18 0 19 44 68 42 72 68 34 0 66 0 0 22 23 0 0 10 0 19 10 0 0 0 0 51 93 0 0 35 0 0 32 0 13 8 0 0 0 0 0 0 2 10 10 0 0 13 3 43 25 9 213 0 0 0 111 0 0 61 69 0 49 35 0 26 0 0 0 0 0 0 0 10 0 0 6 10 0 0 26 0 27 0 52 0 0 44 0 0 7 6 6 6 2 0 0 0 7 4 0 0 4 0 0 26 0 34 0 0 61 51 0 8 0 0 0 4 3 0 7 0 6 3 1 0 0 0 3 3 4 5 0 0 3 0 0 0 3 0 6 11 0 0 5 10 0 22 6 0 29 167 0 0 0 64 0 0 83 0 255 191 0 0 255 255 0 0 155 0 0 255 0 0 154 0 0 0 0 0 0 0 225 255 187 46 1 66 47 19 34 6 0 0 0 0 0 0 0 0 2 0 14 8 6 14 13 0 1 1 0 0 0 0 3 4 0 3 0 3 15 10 4 0 0 0 4 4 10 8 4 6 13 12 15 17 0 0 79 172 30 0 0 8 0 0 13 86 43 0 0 0 0 0 14 1 0 0 3 0 0 0 1 2 0 0 16 0 27 0 7 6 0 0 120 18 6 0 0 23 45 2 9 12 26 3 0 3 0 0 0 0 0 12 65 0 0 55 82 11 10 6 0 10 1 7 68 88 0 0 46 0 0 0 4 76 0 0 74 0 55 63 0 0 1 0 0 0 7 3 28 0 0 55 0 23 22 14 0 0 3 3 0 2 2 0 0 0 0 2 3 0 0 0 9 0 0 0 0 0 6 20 0 0 0 0 0 0 0 0 8 0 0 0 0 0 0 0 46 0 255 0 0 0 255 120 71 0 0 0 204 67 0 133 0 101 134 0 0 0 0 0 0 11 124 0 0 0 49 50 131 0 0 88 88 0 0 0 105 54 0 34 59 0 21 0 46 22 22 0 0 0 0 0 109 0 45 69 0 19 0 0 86 0 62 71 0 0 63 0 8 40 74 0 0 68 8 37 0 0 88 23 0 89 54 51 50 57 26 0 0 65 20 54 127 61 73 57 107 0 0 40 121 76 68 27 0 0 0 0 0 0 0 0 25 40 41 67 18 108 70 23 0 0 0 0 46 97 36 27 134 64 0 83 42 0 0 24 0 0 4 68 7 1 1 0 0 0 0 0 0 0 0 0 0 0 0 0 0 0 0 0 0 0 0 0 0 0 0 0 0 0 0 0 0 0 0 0 0 0 0 0 0 0 0 0 0 0 0 0 0 0 0 0 0 0 0 0 0 0 0 0 0 0 0 0 0 0 0 0 0 0 0 0 0 0 0 0 0 0 0 0 0 0 0 0 0 0 0 0 0 0 0 0 0 0 0 0 0 0 0 0 0 0 0 0 0 0 0 255
255 0 0 0 0 0 0 0 0 0 0 0 0 0 0 0 0 0 0 0 0 0 0 0 0 0 0 0 0 0 0 0 0 0 0 0 0 0 0 0 0 0 0 0 0 0 0 1 2 3 2 1 1 2 2 4 9 5 0 0 9 8 10 44 121 0 16 12 50 0 0 52 54 0 0 23 19 14 0 0 17 41 29 0 18 28 12 0 0 26 45 27 0 0 4 20 33 41 29 0 0 17 21 0 13 8 1 0 0 0 15 32 0 4 12 2 4 17 11 0 37 0 0 37 17 0 0 72 0 7 28 0 16 0 0 0 10 27 108 136 97 48 5 0 5 0 15 19 26 18 0 1 0 1 7 0 2 0 2 6 0 14 18 16 7 6 14 33 0 7 9 14 15 0 0 2 6 0 0 0 0 6 4 0 47 18 0 1 0 0 0 15 30 61 0 0 0 0 0 85 0 0 228 0 0 0 0 28 49 0 0 28 27 0 0 32 49 0 0 0 0 0 0 6 0 13 2 6 0 0 0 27 2 0 0 0 0 0 0 0 15 0 37 38 0 0 203 0 29 55 0 26 17 0 70 0 20 0 0 9 8 0 0 6 0 0 1 0 0 0 0 0 1 61 45 0 23 37 79 0 0 15 40 10 0 0 2 48 0 36 37 1 0 19 89 223 120 0 0 59 14 48 43 0 6 3 0 0 0 8 31 5 0 0 0 0 40 118 37 23 67 0 111 128 0 0 67 0 0 33 70 0 111 80 0 0 0 0 0 0 0 4 17 15 6 0 0 0 0 6 39 12 0 0 61 0 0 74 0 16 40 28 17 0 0 2 17 2 22 15 10 0 6 13 2 0 0 62 0 0 92 54 0 18 0 0 0 1 0 0 0 0 0 0 0 0 0 0 10 23 31 18 9 0 0 0 0 0 8 4 20 15 7 0 0 0 0 54 0 0 23 81 0 0 0 93 12 0 0 76 125 140 0 0 114 0 255 255 97 134 0 141 0 48 74 0 0 0 0 0 0 133 111 0 0 0 51 0 0 0 8 0 31 50 8 0 0 0 12 6 20 3 16 8 8 0 0 0 2 1 0 0 13 1 0 0 0 0 3 0 6 6 0 0 0 0 0 4 14 19 0 0 0 22 0 0 0 111 116 0 0 40 0 0 0 2 37 22 0 0 0 0 21 0 0 33 34 0 15 0 7 0 0 0 11 0 19 0 21 0 4 7 0 0 134 19 0 0 0 4 36 0 57 64 83 50 30 29 16 13 24 100 12 0 0 0 0 0 88 2 8 0 0 15 4 3 96 156 0 0 213 205 202 77 0 0 0 62 3 0 119 0 73 67 58 19 5 0 2 13 110 0 30 48 0 0 6 38 0 0 0 0 0 0 0 0 56 19 3 0 4 6 12 2 0 0 13 35 44 28 3 0 0 2 8 0 0 11 7 0 32 24 5 3 0 0 6 25 0 182 125 0 0 0 223 0 129 0 136 0 0 0 102 40 0 91 0 0 30 144 41 0 255 189 143 163 145 105 7 0 187 0 0 0 0 80 94 121 74 0 0 37 63 0 28 61 6 0 23 22 0 0 0 35 57 0 0 14 0 0 46 14 0 19 101 12 0 0 52 0 0 0 65 63 36 28 0 112 0 17 132 24 30 123 7 0 0 0 28 25 60 59 0 0 0 0 0 0 81 112 27 33 38 13 65 103 108 145 146 40 0 39 117 110 3 0 0 10 0 71 20 79 17 164 28 0 0 66 0 0 0 0 0 14 0 54 0 0 34 0 0 94 25 9 8 4 2 4 4 2 0 0 0 0 0 0 0 0 0 0 0 0 0 0 0 0 0 0 0 0 0 0 0 0 0 0 0 0 0 0 0 0 0 0 0 0 0 0 0 0 0 0 0 0 0 0 0 0 0 0 0 0 0 0 0 0 0 0 0 0 0 0 0 0 0 0 0 0 0 0 0 0 0 0 0 0 0 0 0 0 0 0 0 0 0 0 0 0 0 0 0 0 0 0 0 0 0 0 0 255
255 0 0 0 0 0 0 0 0 0 0 0 0 0 0 0 0 0 0 0 0 0 0 0 0 0 0 0 0 0 0 0 0 0 0 0 0 0 0 0 0 0 0 0 0 0 0 2 0 0 0 3 4 0 0 6 0 0 7 6 0 5 11 46 24 0 0 0 79 0 11 0 20 0 0 13 8 0 0 5 0 0 0 0 3 0 2 26 12 0 0 52 32 0 0 0 0 25 43 44 30 0 9 26 18 0 0 0 0 11 1 4 6 0 0 19 0 0 0 40 0 0 19 3 15 30 0 20 0 2 7 3 9 6 27 0 0 0 0 0 83 180 177 113 32 6 6 0 0 0 0 0 5 0 0 0 0 0 0 3 0 0 0 0 0 5 0 0 0 0 1 0 0 2 0 0 23 1 0 13 20 7 0 0 12 5 0 0 0 13 0 0 0 0 36 59 12 0 22 79 0 0 96 65 14 0 12 74 54 21 13 11 0 10 19 43 28 0 0 28 14 4 4 0 0 16 0 4 7 3 0 0 0 1 0 6 1 4 2 9 0 32 29 0 0 202 27 56 0 23 105 4 0 0 0 0 36 36 15 0 0 10 4 0 0 0 0 0 1 24 32 20 0 0 38 60 16 10 56 0 0 70 70 0 0 0 0 0 32 75 0 0 107 0 0 0 0 0 0 16 12 0 0 10 25 0 8 34 28 0 0 13 23 29 0 33 0 0 113 44 26 56 89 47 38 0 78 0 0 0 0 15 8 87 72 0 24 9 3 2 13 7 0 0 0 40 45 0 0 20 16 0 26 0 0 3 0 0 0 41 0 0 0 30 21 0 0 0 36 0 0 6 14 0 0 4 56 0 0 0 42 74 0 0 0 0 0 0 0 0 0 0 8 4 3 9 5 8 0 0 0 0 0 0 2 0 0 0 3 0 0 0 0 0 14 0 112 43 26 0 0 173 92 0 0 0 0 0 0 0 0 0 0 0 0 0 255 0 0 0 0 0 113 89 9 172 255 255 255 255 250 134 39 10 6 0 0 0 10 0 0 0 0 0 0 7 17 10 3 9 4 0 24 7 5 5 15 10 5 0 15 21 0 0 13 9 6 0 19 13 22 5 0 0 0 2 11 0 0 0 0 29 19 0 0 33 148 147 0 0 0 26 0 0 17 51 35 0 0 0 0 5 2 1 0 0 0 0 7 0 0 0 0 6 2 0 7 1 5 0 0 0 0 0 0 29 8 0 52 86 43 41 0 0 0 0 0 0 0 14 2 0 0 107 66 0 0 0 86 46 17 0 0 5 0 42 18 0 0 0 0 0 0 117 51 71 39 0 0 45 65 0 0 59 0 0 19 21 0 0 116 0 99 0 2 47 0 0 57 0 0 44 48 0 0 55 12 14 0 0 0 0 12 36 13 0 0 0 0 4 12 18 28 18 13 9 12 5 14 14 1 0 0 0 19 13 0 6 0 56 235 0 0 198 3 0 91 111 0 68 0 0 102 0 0 0 0 48 255 0 0 127 0 0 94 146 0 51 198 0 0 149 0 163 58 0 74 0 0 24 60 0 75 67 0 94 0 0 72 64 0 0 86 56 39 45 0 0 88 35 0 70 54 11 0 0 0 49 31 0 0 104 154 0 0 60 0 172 0 0 150 8 46 0 0 43 131 98 31 27 66 0 0 0 0 0 34 43 0 0 0 0 44 0 0 0 0 0 22 106 78 17 0 0 0 0 18 13 0 0 0 4 0 0 0 45 18 0 0 0 33 47 1 0 0 14 35 147 0 0 0 96 71 0 0 5 3 0 0 2 0 0 0 0 0 0 0 0 0 0 0 0 0 0 0 0 0 0 0 0 0 0 0 0 0 0 0 0 0 0 0 0 0 0 0 0 0 0 0 0 0 0 0 0 0 0 0 0 0 0 0 0 0 0 0 0 0 0 0 0 0 0 0 0 0 0 0 0 0 0 0 0 0 0 0 0 0 0 0 0 0 0 0 0 0 0 0 0 0 0 0 0 0 0 0 0 0 0 0 255
255 0 0 0 0 0 0 0 0 0 0 0 0 0 0 0 0 0 0 0 0 0 0 0 0 0 0 0 0 0 0 0 0 0 0 0 0 0 0 0 0 0 0 0 0 0 0 2 0 0 5 0 0 0 0 8 4 0 5 8 0 12 26 82 0 1 22 9 47 0 0 0 26 0 0 0 7 0 0 16 29 24 15 24 9 0 0 2 67 34 0 39 62 66 5 0 5 40 0 0 32 12 0 24 18 3 2 0 27 16 7 8 17 0 0 22 17 0 0 24 16 0 31 1 0 0 0 4 0 0 0 0 0 0 0 0 0 3 9 0 0 0 0 53 187 79 14 0 22 32 17 0 4 2 4 0 11 9 8 10 0 8 15 2 0 13 9 0 0 4 8 5 2 4 2 0 3 0 0 0 19 11 2 20 0 4 0 0 7 3 2 1 0 0 24 31 0 0 21 58 0 0 17 86 0 0 9 26 31 0 1 10 0 0 0 12 51 0 0 27 7 0 13 15 0 7 0 0 0 0 0 0 0 2 0 4 1 13 6 19 0 2 26 0 0 215 41 72 33 17 92 0 0 0 8 27 0 0 0 0 6 35 25 16 56 26 19 0 0 0 6 4 5 0 0 42 51 58 56 3 12 37 0 0 43 0 0 0 115 0 11 84 65 27 0 0 0 0 0 0 9 20 27 22 17 0 13 21 18 0 1 22 0 0 0 26 0 0 67 15 8 24 71 31 6 0 11 0 0 0 0 4 0 14 63 47 15 11 15 3 2 0 0 10 0 0 1 0 0 8 0 0 7 0 0 5 0 0 0 21 32 13 2 20 33 20 22 7 54 8 0 4 0 0 0 0 46 0 0 0 43 78 0 28 0 10 3 0 5 10 8 2 2 0 0 0 11 8 0 14 0 0 0 0 1 3 8 0 12 8 12 0 9 0 0 0 51 38 30 13 8 0 81 255 0 0 255 255 255 0 0 0 4 255 229 0 255 136 6 27 0 0 119 40 0 11 50 0 25 29 23 15 25 9 16 6 15 2 18 6 6 4 13 9 0 0 0 0 5 7 0 2 5 0 0 0 9 13 10 6 0 0 0 1 12 6 4 0 0 0 3 0 0 0 9 14 8 15 10 0 0 0 0 0 59 77 61 0 0 15 29 0 0 22 24 34 14 0 0 0 4 1 0 0 0 0 0 0 9 0 0 0 0 8 7 0 15 0 0 4 1 0 2 0 24 73 27 0 20 33 0 0 0 0 0 0 0 0 0 0 0 60 46 0 0 100 148 0 63 37 35 22 23 25 5 68 144 0 0 0 0 0 0 0 25 24 12 0 0 3 8 12 0 59 21 0 31 22 0 54 54 0 85 0 3 49 24 7 31 0 0 0 0 0 0 23 0 0 7 36 33 27 0 0 0 10 11 0 0 0 0 0 0 0 0 0 0 0 0 0 5 5 0 0 9 9 9 18 1 19 180 0 0 195 77 41 0 65 134 77 17 73 0 0 255 0 24 3 0 0 179 0 0 146 0 0 0 0 0 167 81 82 6 0 0 149 0 52 83 97 0 0 66 0 0 0 3 0 23 10 0 0 22 0 9 50 0 0 46 0 0 0 0 58 63 104 36 0 42 51 90 80 0 0 0 131 14 177 53 0 0 0 209 0 0 69 0 0 31 0 0 44 32 206 74 78 118 122 29 0 0 0 30 0 0 34 0 0 0 0 86 23 1 5 46 57 3 0 35 0 0 3 6 0 0 60 29 28 47 45 16 0 13 54 85 0 0 0 11 51 0 0 142 9 8 9 7 0 6 3 1 0 0 0 0 0 0 0 0 0 0 0 0 0 0 0 0 0 0 0 0 0 0 0 0 0 0 0 0 0 0 0 0 0 0 0 0 0 0 0 0 0 0 0 0 0 0 0 0 0 0 0 0 0 0 0 0 0 0 0 0 0 0 0 0 0 0 0 0 0 0 0 0 0 0 0 0 0 0 0 0 0 0 0 0 0 0 0 0 0 0 0 0 0 0 0 0 0 0 255
255 0 0 0 0 0 0 0 0 0 0 0 0 0 0 0 0 0 0 0 0 0 0 0 0 0 0 0 0 0 0 0 0 0 0 0 0 0 0 0 0 0 0 0 0 0 0 1 3 4 6 0 0 0 0 6 0 2 2 8 0 14 32 97 0 0 0 20 0 0 0 2 76 25 11 14 3 0 0 0 13 0 0 0 0 0 6 15 21 0 0 0 21 53 0 0 0 29 0 0 53 23 0 38 0 0 0 0 12 3 6 0 16 3 0 5 22 0 0 0 0 0 21 0 0 0 0 46 0 0 0 0 0 0 0 0 0 0 5 0 0 0 0 0 0 40 131 112 30 0 0 67 0 0 0 0 6 7 3 10 0 12 14 0 0 0 0 0 0 0 6 0 7 8 0 0 0 0 0 11 20 4 0 30 0 1 0 0 0 0 10 8 4 2 0 2 0 8 29 38 6 0 0 117 1 0 19 37 11 0 14 15 17 0 0 6 51 0 0 7 0 0 2 7 0 11 0 0 0 0 0 3 0 5 5 0 0 9 7 20 0 0 21 0 0 196 6 16 35 0 85 0 0 0 0 32 0 0 0 0 0 10 14 0 0 0 0 9 9 5 0 0 19 5 0 0 35 28 0 0 12 0 0 38 17 0 0 17 120 0 0 4 0 0 0 0 0 22 27 0 0 6 6 0 0 0 0 2 8 0 0 0 0 0 0 45 0 0 26 53 23 19 61 85 74 0 0 0 0 0 0 0 0 0 0 107 58 41 41 28 19 0 16 29 10 9 1 1 15 23 13 6 0 5 0 0 2 0 0 0 19 0 0 0 15 22 2 0 14 0 0 7 11 4 0 5 21 0 0 0 21 73 0 36 1 5 8 3 11 7 5 10 2 0 2 7 3 8 0 5 0 0 0 0 8 4 5 10 10 0 15 4 12 6 7 0 42 37 0 0 33 0 0 177 4 0 255 143 255 0 112 255 223 191 86 0 84 0 0 0 0 18 81 8 0 6 3 34 0 11 6 3 4 0 0 0 12 0 4 0 6 9 6 6 0 0 5 3 8 2 1 4 2 0 0 0 8 4 0 0 0 0 4 7 7 3 0 0 13 0 0 0 8 8 16 5 4 24 25 13 1 14 17 18 123 55 0 0 0 0 30 0 36 45 27 5 0 0 0 0 1 0 0 0 0 0 0 0 11 0 0 0 2 1 1 0 16 0 4 1 0 3 5 0 0 51 16 0 25 65 0 6 0 0 12 10 0 0 3 27 102 0 0 5 90 79 28 0 8 0 0 0 11 0 0 61 35 0 0 125 252 131 210 212 34 0 23 28 16 0 0 37 0 23 18 0 42 1 0 110 0 0 71 0 0 22 30 24 0 14 7 0 0 4 15 0 6 2 0 0 0 0 0 21 0 28 58 55 38 20 26 49 11 13 24 35 32 39 27 2 11 6 0 0 1 4 6 11 53 33 156 0 0 187 104 0 0 54 0 0 137 112 0 0 19 48 255 0 0 167 255 0 0 166 70 0 201 227 29 255 0 16 218 46 0 147 0 46 0 16 0 0 35 3 90 19 76 27 37 34 3 49 50 0 0 40 8 1 40 0 0 10 32 0 0 12 39 0 8 0 69 0 0 0 181 127 0 0 82 25 0 0 210 0 0 81 0 62 188 0 0 60 0 83 2 0 0 0 89 102 80 62 0 0 0 0 0 60 77 0 23 0 0 0 0 43 62 11 81 1 0 0 11 0 3 32 5 14 45 61 2 0 0 38 64 5 12 0 16 0 0 0 100 43 21 2 0 10 3 0 2 0 0 0 0 0 0 0 0 0 0 0 0 0 0 0 0 0 0 0 0 0 0 0 0 0 0 0 0 0 0 0 0 0 0 0 0 0 0 0 0 0 0 0 0 0 0 0 0 0 0 0 0 0 0 0 0 0 0 0 0 0 0 0 0 0 0 0 0 0 0 0 0 0 0 0 0 0 0 0 0 0 0 0 0 0 0 0 0 0 0 0 0 0 0 0 0 0 0 255
255 0 0 0 0 0 0 0 0 0 0 0 0 0 0 0 0 0 0 0 0 0 0 0 0 0 0 0 0 0 0 0 0 0 0 0 0 0 0 0 0 0 0 0 0 0 0 0 2 0 0 0 0 0 0 6 0 0 0 5 0 21 51 86 0 0 0 19 0 82 0 0 67 18 14 25 16 0 0 0 0 0 0 0 0 0 9 19 0 15 23 11 15 44 23 0 0 0 19 47 36 0 0 35 0 0 0 0 0 6 3 0 0 8 11 0 0 4 11 8 10 0 30 0 0 31 0 66 0 0 0 0 1 1 2 0 1 0 0 6 49 45 0 0 0 0 0 21 106 106 49 0 4 12 5 0 0 0 0 1 0 7 12 0 0 3 0 0 0 0 0 0 5 5 0 0 0 11 5 1 1 0 0 20 0 0 0 0 0 0 3 3 19 8 0 0 0 5 31 34 16 0 0 96 23 0 0 63 15 0 24 24 33 7 0 3 49 0 0 3 0 0 0 0 10 3 0 0 0 1 12 12 1 7 0 0 0 0 0 0 13 18 17 0 0 181 0 0 24 0 76 42 0 0 0 12 0 14 13 4 0 0 0 0 10 0 13 37 44 49 36 9 5 14 0 0 29 0 0 3 0 0 22 73 29 0 0 104 121 0 19 63 0 8 99 60 34 37 30 0 0 8 1 0 0 0 0 0 0 0 0 0 24 0 5 44 30 0 24 92 23 0 30 90 113 0 0 28 0 24 0 0 0 0 0 46 79 25 19 28 21 9 12 16 29 0 1 24 39 24 0 25 0 11 13 21 17 0 0 10 0 0 0 5 17 0 0 0 15 0 0 6 19 21 21 29 0 0 4 0 3 74 0 17 0 0 0 0 0 0 0 0 0 0 0 14 5 8 0 0 0 1 7 3 4 0 0 0 0 0 3 9 10 13 13 4 0 10 0 12 94 75 0 0 86 0 9 0 62 173 236 215 65 10 0 76 2 0 0 0 0 59 52 0 0 0 0 24 0 0 0 0 0 0 0 0 2 0 0 0 0 0 0 0 0 0 0 0 6 3 6 15 8 10 7 0 0 0 0 0 0 0 0 0 0 0 0 0 32 2 0 0 5 10 0 0 0 0 8 19 32 60 62 128 32 0 0 17 0 0 0 88 31 29 5 0 0 0 0 24 0 0 0 0 0 0 0 0 4 0 0 0 5 4 4 0 9 0 4 2 1 0 3 0 0 46 27 0 2 49 28 22 64 35 40 20 19 6 7 0 0 0 82 216 50 0 0 0 23 74 90 24 11 0 1 76 163 0 0 0 0 0 130 69 55 0 32 39 5 0 0 40 0 0 0 14 24 0 0 110 0 0 76 0 0 0 0 0 9 12 12 0 0 9 20 0 47 34 0 0 0 0 6 42 0 0 0 0 1 0 0 0 14 0 0 0 0 0 0 0 5 12 0 0 2 1 0 0 46 42 144 0 31 118 88 0 43 165 0 7 184 0 179 0 55 0 0 0 213 255 0 0 107 129 53 0 84 109 0 0 0 67 23 90 0 0 0 94 0 52 0 36 0 0 54 0 0 0 0 0 0 54 41 0 0 36 27 14 67 8 0 74 93 29 0 9 91 0 56 0 92 0 0 0 26 0 0 0 44 81 21 11 161 0 0 0 32 4 160 0 0 191 0 0 124 0 0 0 0 34 1 0 115 90 60 0 0 47 48 0 85 60 50 0 0 0 0 0 19 0 0 0 0 0 0 0 0 0 0 11 30 0 0 0 0 0 120 0 1 0 30 0 0 54 45 16 0 15 3 0 2 0 0 0 0 0 0 0 0 0 0 0 0 0 0 0 0 0 0 0 0 0 0 0 0 0 0 0 0 0 0 0 0 0 0 0 0 0 0 0 0 0 0 0 0 0 0 0 0 0 0 0 0 0 0 0 0 0 0 0 0 0 0 0 0 0 0 0 0 0 0 0 0 0 0 0 0 0 0 0 0 0 0 0 0 0 0 0 0 0 0 0 0 0 0 0 0 0 0 255
255 0 0 0 0 0 0 0 0 0 0 0 0 0 0 0 0 0 0 0 0 0 0 0 0 0 0 0 0 0 0 0 0 0 0 0 0 0 0 0 0 0 0 0 0 0 0 0 2 0 0 0 0 0 0 5 0 0 0 12 1 21 56 61 0 54 0 59 0 78 0 0 0 0 0 0 2 6 0 0 33 27 19 23 9 0 0 0 0 22 28 31 8 0 43 100 0 0 0 64 0 0 16 0 14 21 2 0 0 17 13 14 0 9 14 0 0 14 19 25 41 13 44 9 14 46 0 0 11 12 14 11 0 0 10 13 6 0 0 8 2 19 28 38 0 0 0 0 0 53 62 58 56 42 21 0 0 0 0 0 0 0 14 0 4 16 6 11 0 6 7 9 8 7 4 0 10 18 10 0 0 0 0 31 0 3 0 0 0 0 0 7 14 0 0 0 3 13 20 31 0 0 0 0 57 26 0 39 25 0 0 6 2 0 3 28 57 0 0 0 0 0 0 0 0 6 7 3 13 12 8 15 0 1 0 0 0 0 0 0 3 3 12 0 22 209 29 62 24 5 88 54 0 24 0 47 0 0 8 22 32 22 18 18 38 0 0 0 0 0 0 0 0 19 0 0 28 0 0 89 57 0 11 44 78 71 49 50 24 57 42 121 55 0 31 0 11 0 0 24 18 0 0 24 33 31 16 4 7 11 28 37 17 0 0 9 32 0 0 62 42 8 0 57 116 26 0 29 0 33 0 0 0 0 0 0 78 0 0 0 2 0 3 1 2 0 0 0 11 0 0 5 0 5 13 13 10 7 0 6 0 0 20 16 13 0 0 0 35 3 0 5 0 0 0 0 0 0 30 0 6 85 0 0 0 0 0 0 0 0 0 0 2 0 0 6 10 6 0 0 0 5 0 2 0 0 0 1 0 0 1 6 6 13 0 0 0 0 47 24 0 15 81 4 0 0 0 63 1 64 0 0 0 32 0 71 0 105 26 0 0 59 24 0 12 10 0 0 0 0 0 4 0 1 7 0 0 0 0 0 0 0 1 0 5 0 1 4 9 4 5 15 0 1 6 2 2 0 0 6 0 0 0 16 15 0 0 0 35 4 0 0 0 6 8 0 0 0 8 18 56 83 38 59 0 0 0 55 23 0 0 91 0 2 0 0 0 0 2 20 0 0 0 0 0 0 0 0 6 0 0 0 0 7 7 0 15 4 0 7 0 0 7 0 12 107 67 0 0 13 0 0 53 0 0 0 9 0 0 0 77 71 0 0 0 0 37 65 0 44 108 0 0 5 20 31 5 0 0 0 0 0 0 0 34 0 47 3 2 9 31 20 3 0 0 21 11 0 0 116 0 0 84 0 26 0 0 0 30 0 2 35 32 3 0 8 0 0 1 31 40 33 20 0 28 11 0 0 0 0 0 0 23 10 0 0 0 0 0 18 0 4 3 0 10 1 0 0 0 37 62 0 56 41 111 0 11 0 0 122 84 0 239 0 0 10 130 0 79 0 0 167 252 0 0 0 0 0 0 0 0 0 0 29 139 121 82 55 50 0 79 27 0 64 58 0 0 51 26 0 11 69 74 65 0 75 36 0 66 37 0 59 0 35 0 82 88 0 41 0 50 92 68 58 1 0 0 0 166 0 0 24 24 0 0 0 164 0 71 0 4 186 0 0 139 54 43 12 0 0 0 88 0 0 54 75 30 25 0 0 0 27 68 75 52 27 0 0 105 86 93 104 122 128 95 42 40 0 0 0 41 36 5 0 0 0 9 0 48 2 62 0 0 31 94 30 0 7 6 3 2 0 0 0 0 0 0 0 0 0 0 0 0 0 0 0 0 0 0 0 0 0 0 0 0 0 0 0 0 0 0 0 0 0 0 0 0 0 0 0 0 0 0 0 0 0 0 0 0 0 0 0 0 0 0 0 0 0 0 0 0 0 0 0 0 0 0 0 0 0 0 0 0 0 0 0 0 0 0 0 0 0 0 0 0 0 0 0 0 0 0 0 0 0 0 0 0 0 0 255
255 0 0 0 0 0 0 0 0 0 0 0 0 0 0 0 0 0 0 0 0 0 0 0 0 0 0 0 0 0 0 0 0 0 0 0 0 0 0 0 0 0 0 0 0 0 0 1 2 4 0 0 0 0 4 4 0 0 11 8 6 41 55 5 0 26 9 32 0 13 0 6 0 0 1 0 8 0 0 0 0 24 26 10 0 2 0 0 15 0 0 0 0 0 0 37 75 0 0 0 0 31 54 0 7 16 7 0 0 15 16 14 0 14 18 2 0 13 17 48 19 0 39 0 20 41 0 0 23 10 9 7 0 0 0 0 0 6 5 0 0 0 0 21 0 48 62 0 0 0 0 76 53 35 33 6 0 2 0 8 0 0 6 0 0 3 0 0 2 5 1 0 4 0 0 9 0 0 0 0 0 8 12 33 0 7 5 8 0 0 0 6 12 5 0 0 0 0 7 19 10 0 0 0 74 128 0 3 34 18 19 14 22 16 38 59 61 0 0 0 0 0 6 0 0 0 1 0 3 11 0 2 0 0 0 0 2 12 9 17 14 2 9 0 51 180 6 43 9 4 71 0 0 14 19 41 0 0 0 5 10 0 0 0 0 0 0 0 0 0 0 0 0 0 0 0 0 0 0 41 59 2 30 44 1 18 40 0 0 66 0 33 40 0 0 0 26 0 0 22 17 0 0 24 4 13 0 0 0 0 12 5 31 0 0 0 30 0 0 0 65 32 0 41 97 68 0 0 0 42 0 0 0 0 12 0 79 0 0 11 22 30 24 30 0 0 0 0 10 4 0 5 0 0 11 0 0 0 8 0 0 3 6 0 0 3 41 71 5 3 2 3 3 0 0 0 0 19 40 0 0 102 12 10 0 4 0 0 3 0 5 0 6 3 12 4 9 1 0 0 0 0 0 3 3 9 9 22 0 5 3 1 0 0 0 0 65 0 0 0 0 0 12 0 54 20 88 44 17 10 0 54 0 0 0 50 0 31 1 3 0 20 0 0 10 15 2 0 30 1 3 5 11 3 0 0 10 7 4 0 12 9 7 2 10 0 13 5 9 5 0 5 0 0 0 0 1 1 10 26 0 0 0 14 7 0 0 18 0 0 0 0 10 14 21 1 28 45 56 77 86 36 0 0 0 0 0 0 5 68 51 0 0 0 0 0 0 10 0 4 0 0 0 0 0 0 0 0 7 0 0 0 2 1 1 0 4 0 0 6 0 0 2 0 0 96 91 0 0 3 0 16 26 0 0 0 17 16 10 0 0 0 2 3 129 210 13 0 0 4 87 21 26 38 35 20 224 177 4 0 0 97 139 0 23 0 25 0 0 46 36 0 37 0 2 28 0 0 24 84 0 0 55 0 71 0 33 4 21 0 0 28 21 0 0 13 0 1 0 2 0 0 0 0 52 8 0 3 14 27 18 0 33 9 0 3 15 23 32 70 0 0 0 0 9 21 6 23 14 116 0 0 24 0 84 0 185 0 7 0 0 16 60 0 68 41 94 0 17 0 0 0 0 0 0 79 145 65 0 27 43 0 0 0 0 233 12 0 49 0 0 0 1 126 59 7 0 88 68 0 0 19 5 22 0 62 0 0 32 41 0 47 71 32 3 0 20 88 76 103 0 64 93 119 73 31 74 0 150 0 0 179 69 3 0 81 74 0 79 0 24 74 0 0 52 0 30 48 35 26 46 140 0 0 0 39 16 17 71 66 5 0 0 0 49 127 127 79 0 0 0 0 0 0 0 0 19 23 11 0 0 15 56 71 31 0 0 0 56 53 57 0 0 0 63 52 13 0 2 0 2 0 0 0 0 0 0 0 0 0 0 0 0 0 0 0 0 0 0 0 0 0 0 0 0 0 0 0 0 0 0 0 0 0 0 0 0 0 0 0 0 0 0 0 0 0 0 0 0 0 0 0 0 0 0 0 0 0 0 0 0 0 0 0 0 0 0 0 0 0 0 0 0 0 0 0 0 0 0 0 0 0 0 0 0 0 0 0 0 0 0 0 0 0 0 0 0 0 0 255
255 0 0 0 0 0 0 0 0 0 0 0 0 0 0 0 0 0 0 0 0 0 0 0 0 0 0 0 0 0 0 0 0 0 0 0 0 0 0 0 0 0 0 0 0 0 0 2 0 5 4 5 0 0 2 4 2 0 10 3 3 46 40 0 0 0 4 0 0 0 21 31 28 25 13 3 1 0 0 0 0 0 0 0 0 0 4 0 36 5 0 11 21 8 13 25 58 64 0 0 5 61 23 18 0 2 0 0 0 3 8 0 4 0 0 8 7 15 2 35 0 0 11 0 1 39 8 4 25 13 23 8 0 0 0 2 4 0 0 13 28 23 0 0 52 17 0 0 25 10 0 0 1 0 0 13 2 0 0 9 0 2 2 0 0 2 4 0 0 0 0 0 0 0 0 15 0 0 0 0 2 10 11 3 0 6 0 0 0 0 0 11 0 9 0 0 0 0 0 10 53 0 0 0 0 92 38 0 11 0 9 14 23 24 32 46 48 0 0 0 0 13 21 1 0 0 0 0 2 0 0 3 0 0 0 0 0 1 10 9 6 2 13 0 49 141 0 49 9 2 68 0 0 0 16 0 6 0 7 2 0 0 0 0 0 18 81 116 117 93 71 75 33 0 0 19 0 0 0 0 4 0 37 34 0 0 3 13 53 58 22 30 43 0 30 92 6 20 9 9 0 0 0 0 0 0 0 0 0 0 0 0 27 0 22 0 24 14 0 0 75 30 12 37 52 93 0 0 36 5 7 0 0 0 29 0 53 0 17 12 6 0 37 46 2 29 23 0 6 18 19 19 0 10 8 0 0 0 0 0 0 0 0 0 0 0 6 33 0 0 0 15 29 22 20 44 0 20 18 0 0 99 9 6 5 2 11 3 9 5 2 3 4 0 1 0 9 5 2 8 0 0 0 3 3 9 9 20 3 12 6 9 0 0 0 0 0 0 0 45 80 81 90 81 91 40 108 0 0 4 0 0 73 0 0 82 13 0 0 66 25 0 8 17 0 13 29 0 27 6 3 0 0 0 0 0 11 13 4 1 0 0 6 2 0 0 2 2 5 1 0 0 0 0 0 0 1 0 20 27 9 0 0 22 10 0 0 38 0 0 0 1 16 14 1 21 20 52 59 21 0 0 0 0 1 16 14 0 0 76 42 0 0 0 0 0 4 1 0 0 4 0 0 0 0 0 0 0 0 2 0 0 3 3 3 0 3 0 0 6 0 2 0 0 0 49 98 0 0 12 9 22 17 0 9 6 12 16 18 51 25 63 75 20 0 0 0 63 13 53 89 96 121 123 60 61 20 46 0 38 0 30 46 10 24 0 0 0 17 20 9 0 54 0 7 17 0 11 37 44 0 0 21 0 73 0 32 0 9 0 0 0 0 0 0 0 57 45 0 0 0 0 0 0 0 0 0 0 0 0 0 0 0 0 0 0 0 0 0 0 0 0 0 0 0 7 5 47 10 158 0 0 48 0 37 0 211 0 240 94 0 36 0 80 67 0 40 125 66 0 44 49 13 49 2 42 92 0 0 56 131 25 130 0 0 106 20 76 147 0 6 16 1 8 0 0 0 7 0 0 0 0 0 0 0 21 0 0 0 25 0 36 184 3 45 0 4 183 40 151 0 80 0 0 0 0 157 52 16 0 0 199 81 0 0 117 0 0 0 74 33 74 19 2 178 4 0 0 70 73 0 0 67 32 27 0 0 0 0 6 137 75 0 0 0 0 0 0 50 52 37 0 4 60 75 41 0 32 47 0 0 1 26 0 19 52 38 58 0 7 0 67 0 0 0 51 33 0 0 4 3 0 0 0 0 0 0 0 0 0 0 0 0 0 0 0 0 0 0 0 0 0 0 0 0 0 0 0 0 0 0 0 0 0 0 0 0 0 0 0 0 0 0 0 0 0 0 0 0 0 0 0 0 0 0 0 0 0 0 0 0 0 0 0 0 0 0 0 0 0 0 0 0 0 0 0 0 0 0 0 0 0 0 0 0 0 0 0 0 0 0 0 0 0 0 0 0 0 0 255
255 0 0 0 0 0 0 0 0 0 0 0 0 0 0 0 0 0 0 0 0 0 0 0 0 0 0 0 0 0 0 0 0 0 0 0 0 0 0 0 0 0 0 0 0 0 0 3 0 0 0 4 5 4 3 6 0 0 5 0 2 69 53 0 23 0 0 0 76 47 71 15 0 1 0 0 0 20 25 37 0 35 34 0 0 0 0 0 7 0 0 0 0 17 13 0 0 109 0 0 72 46 0 32 0 25 35 2 0 25 16 0 20 0 0 13 13 0 0 0 0 0 26 0 0 0 0 0 2 0 11 11 0 0 7 43 0 17 18 0 0 0 3 24 0 0 14 11 0 0 0 0 0 0 0 24 26 20 25 14 9 14 14 0 0 5 0 8 0 6 0 2 7 15 17 36 0 11 12 0 25 39 1 0 0 0 11 10 6 1 11 22 1 19 40 35 3 0 0 3 74 0 0 0 0 21 111 45 3 0 9 12 5 0 0 16 50 0 0 0 0 20 23 10 2 0 1 0 11 3 5 1 0 0 0 0 10 5 12 0 22 18 36 0 82 150 0 62 9 17 96 0 0 34 29 0 15 6 13 0 0 0 0 21 63 29 36 6 0 1 63 122 98 0 0 105 105 109 137 109 57 0 0 7 9 35 68 52 5 0 61 61 50 104 0 0 0 0 0 0 0 8 31 24 0 24 19 6 12 35 31 0 0 0 2 0 15 25 0 15 44 34 29 21 23 88 0 0 70 0 17 69 0 0 0 0 31 16 62 38 0 0 12 52 17 38 44 0 0 14 9 0 6 52 55 16 0 26 26 0 6 21 37 39 58 72 32 0 36 22 2 12 9 0 0 0 0 24 9 0 0 132 21 20 0 0 0 0 1 0 0 0 9 0 0 0 0 0 0 0 0 3 0 0 0 0 0 0 0 0 1 1 6 2 7 0 34 148 146 83 136 76 0 44 2 0 0 0 7 41 0 70 0 32 32 0 0 21 31 0 33 0 10 26 0 0 17 0 21 6 7 6 7 11 21 14 0 0 0 2 5 6 1 4 10 11 8 4 0 0 0 0 0 6 18 13 2 4 0 21 30 0 0 17 0 0 0 29 0 6 2 0 11 1 7 57 34 117 85 0 0 0 0 34 0 0 32 81 38 0 0 0 4 0 5 31 13 0 0 0 0 0 12 7 11 12 8 8 8 0 0 0 4 9 5 0 1 4 5 5 0 0 0 3 0 84 167 16 0 0 0 0 34 40 87 61 3 0 0 47 49 0 0 0 62 114 62 0 61 29 0 69 103 9 0 0 0 5 5 116 0 0 11 97 179 0 0 5 66 24 4 0 77 19 34 39 0 35 52 2 0 2 31 0 78 0 0 0 23 42 8 0 0 38 58 20 0 0 0 3 24 16 0 0 49 48 43 40 29 17 12 13 31 38 33 35 30 33 14 32 15 0 0 0 0 0 14 90 0 143 0 0 114 83 72 0 78 0 0 56 47 107 0 48 0 40 36 0 0 0 143 0 130 22 9 3 0 0 30 52 0 33 137 0 0 144 112 0 33 66 0 100 36 0 7 7 0 169 191 18 23 49 29 89 0 72 0 0 0 0 0 26 0 0 140 48 0 0 0 0 0 22 0 0 0 0 160 23 121 123 0 0 60 135 0 110 221 38 54 43 0 0 48 0 90 0 0 0 32 39 0 0 0 0 43 45 0 0 2 0 0 0 49 44 3 0 0 0 12 32 17 0 0 0 0 0 0 42 63 0 8 44 0 0 0 36 0 49 0 0 0 0 0 0 0 74 66 9 0 8 3 0 0 0 0 0 0 0 0 0 0 0 0 0 0 0 0 0 0 0 0 0 0 0 0 0 0 0 0 0 0 0 0 0 0 0 0 0 0 0 0 0 0 0 0 0 0 0 0 0 0 0 0 0 0 0 0 0 0 0 0 0 0 0 0 0 0 0 0 0 0 0 0 0 0 0 0 0 0 0 0 0 0 0 0 0 0 0 0 0 0 0 0 0 0 0 0 0 0 255
255 0 0 0 0 0 0 0 0 0 0 0 0 0 0 0 0 0 0 0 0 0 0 0 0 0 0 0 0 0 0 0 0 0 0 0 0 0 0 0 0 0 0 0 0 0 0 3 0 5 4 0 0 0 4 0 0 8 5 4 52 39 0 0 61 40 32 0 0 0 5 0 0 2 3 0 0 0 2 28 15 0 0 0 0 1 16 28 0 0 0 24 1 0 0 23 0 70 54 0 0 23 44 93 24 0 0 0 0 0 0 31 3 10 0 0 34 23 0 20 70 0 29 21 51 90 45 0 47 30 42 20 6 24 24 0 0 0 0 0 16 65 0 0 19 0 0 5 12 6 7 15 17 0 0 0 0 0 0 0 15 5 0 0 5 9 0 0 0 0 1 4 2 0 0 0 0 0 0 0 0 0 0 0 14 0 0 0 0 5 0 0 0 0 0 0 0 3 22 26 47 0 0 0 0 0 0 124 20 8 0 0 0 65 69 36 32 0 0 0 0 19 7 0 0 0 0 0 0 0 0 0 23 21 0 0 0 0 0 0 10 0 29 0 76 166 0 67 0 25 110 0 0 44 0 1 0 0 0 0 46 79 83 94 78 58 58 64 85 87 79 117 42 98 58 29 10 0 0 10 76 82 31 2 0 3 98 96 0 14 29 5 0 0 0 23 0 0 0 3 20 12 4 4 0 2 10 16 11 0 0 14 0 32 35 13 9 0 0 0 69 25 0 40 51 118 0 0 0 0 0 9 0 0 0 0 0 0 29 15 0 0 16 12 27 3 9 0 0 36 44 45 21 0 0 0 0 0 0 9 26 5 0 0 0 0 0 0 0 0 6 19 0 0 0 30 0 0 72 0 0 215 0 47 11 4 0 0 0 10 10 0 0 0 29 25 9 0 0 5 0 0 8 4 4 8 3 20 0 3 15 18 8 6 0 0 41 10 0 0 0 0 0 0 0 0 0 0 0 0 0 2 0 0 3 9 9 16 0 0 23 9 18 21 21 22 13 9 0 0 3 6 13 15 7 5 38 26 2 0 0 0 9 15 14 17 12 13 2 0 0 0 9 15 0 3 0 0 0 11 0 0 16 6 24 51 42 18 11 0 3 17 56 77 85 128 53 0 0 0 0 0 0 2 27 21 18 10 0 0 0 0 5 5 0 0 0 3 18 20 68 24 0 0 0 0 0 7 0 0 21 32 3 0 0 21 0 0 0 4 20 10 10 22 0 100 100 0 116 0 0 17 13 4 0 0 72 54 0 51 0 0 0 107 151 0 0 82 0 174 0 65 0 0 0 172 0 124 0 0 199 0 79 0 0 0 125 98 26 0 0 0 0 0 0 75 0 31 133 0 3 27 0 0 0 83 76 0 0 6 49 68 45 0 0 0 5 18 18 2 0 0 22 50 0 0 8 0 0 0 10 29 14 0 0 0 0 0 0 0 2 28 46 45 23 0 0 0 0 80 0 0 139 67 65 0 121 40 0 0 0 9 5 28 0 0 7 33 50 19 0 0 87 0 0 63 20 96 3 22 255 0 103 188 0 18 255 0 0 30 0 0 82 0 0 0 0 0 0 0 122 140 0 7 0 255 0 20 255 52 0 0 0 0 0 0 0 0 34 207 35 0 168 0 0 255 123 0 37 12 0 0 0 12 0 10 30 103 90 203 105 0 28 0 112 0 0 0 0 48 115 0 132 69 113 0 0 62 45 0 90 0 86 0 0 80 0 41 73 5 26 89 107 27 13 74 13 0 0 61 70 4 24 65 0 12 0 10 106 29 93 44 48 0 0 0 100 26 0 9 3 0 0 0 0 0 0 0 0 0 0 0 0 0 0 0 0 0 0 0 0 0 0 0 0 0 0 0 0 0 0 0 0 0 0 0 0 0 0 0 0 0 0 0 0 0 0 0 0 0 0 0 0 0 0 0 0 0 0 0 0 0 0 0 0 0 0 0 0 0 0 0 0 0 0 0 0 0 0 0 0 0 0 0 0 0 0 0 0 0 0 0 0 0 0 0 0 0 0 255
255 0 0 0 0 0 0 0 0 0 0 0 0 0 0 0 0 0 0 0 0 0 0 0 0 0 0 0 0 0 0 0 0 0 0 0 0 0 0 0 0 0 0 0 0 0 0 3 0 3 3 0 0 0 6 0 0 6 2 19 83 50 0 0 12 20 13 0 12 37 13 0 16 18 0 0 0 0 3 27 1 0 0 0 20 16 9 10 0 17 23 13 0 4 8 23 0 80 65 0 0 0 0 10 6 0 0 22 15 8 7 6 0 1 0 0 29 11 0 20 0 0 28 0 78 0 0 0 0 0 0 41 32 0 30 23 0 28 54 0 0 47 0 48 0 0 0 0 8 0 0 0 13 0 0 0 0 3 6 3 4 5 0 2 1 0 0 12 5 0 0 0 0 4 14 25 14 9 9 0 0 3 0 4 0 6 0 0 0 3 1 8 2 13 1 0 1 0 16 28 42 0 0 0 0 0 5 79 55 0 16 27 11 0 0 58 46 0 0 0 0 17 31 0 0 0 0 0 4 0 0 0 6 0 3 0 0 0 0 0 34 0 37 0 55 181 0 78 14 25 108 0 0 54 1 0 36 53 44 29 71 68 48 53 58 41 68 56 44 0 0 0 0 0 0 0 0 0 0 78 83 22 0 0 16 44 108 0 0 0 64 67 72 28 7 32 0 4 1 0 7 0 0 1 0 0 0 0 2 3 0 0 0 10 7 20 39 0 0 0 97 22 32 52 59 112 0 0 0 0 0 21 0 0 0 24 2 0 16 0 0 0 15 18 43 50 56 25 0 0 0 0 31 18 22 32 28 7 11 71 0 1 0 0 3 13 0 3 0 0 7 26 24 26 27 69 0 0 17 0 0 108 128 6 0 0 0 0 0 0 0 0 0 0 15 5 2 0 0 0 0 6 10 2 1 0 0 0 0 0 5 9 6 9 10 0 0 0 0 0 0 0 0 0 0 1 0 0 2 6 4 3 4 0 0 0 0 0 6 0 0 1 3 0 3 5 3 11 0 0 6 0 0 4 8 0 0 0 0 0 0 0 0 0 0 0 0 0 1 2 4 9 0 0 0 0 0 0 0 0 0 1 0 0 0 0 0 0 7 50 73 42 46 39 0 0 0 0 0 0 13 32 14 33 51 45 24 21 8 0 0 0 0 0 0 0 1 5 0 0 0 0 0 35 66 35 21 27 73 38 0 0 0 0 9 0 0 3 29 34 0 0 0 2 0 59 154 0 53 0 2 0 0 2 0 0 15 0 0 0 50 0 203 103 0 0 159 50 0 0 0 58 32 255 0 0 97 0 255 0 15 255 0 0 206 9 0 0 41 98 23 0 9 26 0 79 0 113 91 0 0 26 67 39 0 0 0 34 0 0 3 8 13 5 7 0 25 4 13 26 8 3 0 0 30 21 15 13 0 0 0 0 9 0 0 8 16 12 0 23 0 0 0 0 11 3 6 48 0 0 0 0 52 19 35 35 54 0 0 89 68 0 0 19 21 38 21 0 16 62 35 0 58 48 0 0 0 108 66 0 165 0 0 17 0 0 255 93 224 45 31 21 81 0 100 104 37 142 161 75 98 0 58 255 59 66 72 0 41 60 0 255 0 18 69 242 1 111 56 16 0 88 139 0 0 168 0 19 0 0 16 0 0 0 0 89 105 0 0 0 0 130 198 142 97 23 127 120 0 30 163 92 0 0 28 0 0 48 13 0 29 0 108 1 0 23 0 114 0 0 0 0 4 0 0 0 65 0 0 0 0 53 23 0 81 79 0 0 57 0 7 0 21 0 0 0 98 51 0 6 3 0 0 0 0 0 0 0 0 0 0 0 0 0 0 0 0 0 0 0 0 0 0 0 0 0 0 0 0 0 0 0 0 0 0 0 0 0 0 0 0 0 0 0 0 0 0 0 0 0 0 0 0 0 0 0 0 0 0 0 0 0 0 0 0 0 0 0 0 0 0 0 0 0 0 0 0 0 0 0 0 0 0 0 0 0 0 0 0 0 0 0 0 0 0 0 0 0 0 255
255 0 0 0 0 0 0 0 0 0 0 0 0 0 0 0 0 0 0 0 0 0 0 0 0 0 0 0 0 0 0 0 0 0 0 0 0 0 0 0 0 0 0 0 0 0 0 3 0 3 3 0 0 0 6 0 0 7 6 34 67 0 0 9 2 14 7 0 10 26 8 0 28 6 0 0 0 0 0 11 0 0 0 17 11 11 8 14 0 13 15 0 0 0 10 0 0 47 53 59 44 0 0 81 16 8 6 6 22 19 9 4 0 17 0 0 22 6 0 38 0 0 0 0 0 0 0 96 0 3 0 0 66 0 0 0 0 47 58 0 0 68 0 63 10 8 9 4 2 0 0 0 11 0 0 0 0 0 0 0 0 2 7 6 0 0 0 16 26 28 6 0 0 0 0 0 17 0 0 0 0 0 0 12 0 7 0 2 0 0 0 11 0 6 0 0 0 0 10 37 22 0 0 22 0 0 0 0 153 34 13 10 4 3 42 79 59 0 0 0 0 21 38 23 0 0 0 0 2 6 0 0 7 7 3 5 1 9 0 0 11 8 27 0 23 206 0 77 16 0 62 0 0 35 52 0 0 4 0 0 0 0 0 0 18 0 0 0 0 0 0 0 0 0 0 0 0 0 5 97 47 25 0 0 76 23 0 0 0 27 61 48 0 0 29 56 2 2 8 3 7 0 0 0 0 0 0 0 0 1 0 0 10 0 0 16 51 0 0 0 97 0 72 39 47 111 0 0 3 33 50 53 39 0 0 0 0 0 10 28 28 30 2 0 0 0 0 0 0 23 54 64 22 0 0 15 23 0 0 51 0 0 0 0 0 0 0 0 0 0 0 0 15 16 9 11 0 31 0 27 0 0 251 0 13 7 2 10 8 0 0 0 0 6 9 3 0 0 0 1 0 0 0 0 0 0 0 0 0 0 0 0 0 0 0 13 0 0 0 0 0 0 3 14 4 1 0 0 3 0 0 0 2 0 4 0 2 2 2 3 0 0 1 0 9 5 5 14 0 8 6 6 10 9 5 6 0 1 4 9 17 5 2 0 0 0 0 0 0 8 3 15 0 10 12 2 5 3 3 0 17 9 16 0 0 10 17 27 0 75 92 22 0 25 0 0 0 0 0 0 39 45 18 28 28 23 0 0 0 0 0 0 34 22 17 17 34 36 13 1 87 46 0 0 0 0 0 0 0 0 0 0 10 17 13 0 30 2 0 18 38 39 33 44 0 0 186 0 0 75 21 0 0 0 21 0 0 0 39 31 75 47 0 0 29 125 0 0 194 0 18 37 0 131 0 0 255 0 104 255 0 142 62 0 0 115 101 0 0 32 75 57 32 23 0 16 0 153 0 0 51 0 0 42 23 0 0 35 0 0 0 0 0 0 0 0 40 2 11 20 19 0 0 0 24 0 0 4 28 39 30 18 43 28 41 44 35 21 0 3 4 17 12 14 13 21 12 33 0 0 0 0 0 0 0 42 0 0 0 73 28 0 0 36 15 34 0 0 0 62 37 0 0 69 50 0 0 63 71 245 189 0 0 0 3 0 197 124 68 0 63 59 0 0 91 0 0 140 0 0 93 0 0 0 88 99 42 0 0 54 0 170 166 45 20 255 0 0 0 0 0 45 0 0 0 0 0 59 0 0 75 90 9 0 0 0 4 0 124 0 0 0 0 32 145 6 59 64 0 0 0 0 0 0 44 16 0 56 17 6 71 0 109 12 0 0 0 45 27 0 0 0 0 7 0 0 10 44 25 0 0 9 27 0 0 88 22 25 0 0 0 12 2 0 26 0 6 87 0 4 3 0 0 0 0 0 0 0 0 0 0 0 0 0 0 0 0 0 0 0 0 0 0 0 0 0 0 0 0 0 0 0 0 0 0 0 0 0 0 0 0 0 0 0 0 0 0 0 0 0 0 0 0 0 0 0 0 0 0 0 0 0 0 0 0 0 0 0 0 0 0 0 0 0 0 0 0 0 0 0 0 0 0 0 0 0 0 0 0 0 0 0 0 0 0 0 0 0 0 255
255 0 0 0 0 0 0 0 0 0 0 0 0 0 0 0 0 0 0 0 0 0 0 0 0 0 0 0 0 0 0 0 0 0 0 0 0 0 0 0 0 0 0 0 0 0 0 2 0 2 3 0 0 0 5 0 3 0 16 59 46 0 0 54 2 9 0 0 0 8 3 0 0 2 6 0 0 0 0 11 4 0 0 0 0 0 0 17 0 12 13 0 0 0 7 0 20 0 0 55 86 0 0 124 39 25 11 0 0 0 7 15 0 7 0 4 30 6 0 21 46 56 0 0 0 0 171 147 94 69 0 0 0 56 0 0 26 6 50 0 0 92 35 0 63 29 21 16 11 0 0 0 15 0 9 0 10 1 4 0 0 3 6 0 1 0 0 0 0 0 7 7 9 2 0 0 9 0 0 0 0 9 2 23 0 5 9 3 1 0 0 23 0 12 0 0 0 0 0 37 0 0 0 3 0 0 0 0 35 65 75 0 0 20 40 0 71 11 0 0 8 28 23 36 0 9 9 10 13 11 1 10 0 1 8 15 1 4 0 2 0 12 14 0 0 234 0 68 31 0 28 0 0 0 51 6 0 27 12 0 0 0 0 0 0 0 0 0 0 0 7 46 0 19 0 7 57 54 23 17 46 91 0 0 11 6 0 0 79 119 75 28 0 0 0 0 0 0 0 0 7 11 9 18 4 14 14 13 7 0 0 0 14 0 0 0 0 0 0 37 79 0 79 0 34 80 0 79 14 6 0 0 0 69 58 0 36 0 0 0 0 0 0 0 0 0 24 18 0 0 0 0 0 0 0 0 0 0 0 4 0 0 0 0 0 7 0 0 0 0 0 0 0 0 0 0 15 36 0 25 0 0 216 99 0 0 0 9 9 15 21 6 2 0 0 0 0 0 0 0 0 0 2 0 15 3 5 8 0 0 3 10 0 0 4 3 7 15 19 11 11 0 9 4 4 0 0 0 0 1 0 0 9 0 8 0 2 10 9 8 18 11 6 10 7 8 0 6 0 0 4 0 0 1 0 0 1 5 20 21 19 8 15 0 6 8 0 0 0 1 4 3 3 5 8 4 2 0 0 0 14 4 14 0 14 36 32 46 14 66 34 0 0 4 0 0 7 0 0 0 36 47 15 34 0 0 0 0 0 0 0 33 0 0 0 0 0 0 7 10 0 0 5 47 69 62 43 31 16 45 80 67 20 0 2 29 7 0 0 0 0 0 0 11 0 0 202 0 0 100 18 0 35 0 12 0 0 26 122 89 0 31 0 0 255 0 0 54 0 0 121 0 0 0 0 0 91 191 0 183 54 0 82 210 0 46 182 77 0 0 0 75 71 3 0 0 5 147 0 0 80 0 0 0 19 0 0 44 0 0 0 0 0 0 1 0 44 0 0 0 0 0 17 8 9 0 3 13 29 31 42 36 0 2 12 31 41 31 2 3 54 37 18 25 11 1 3 27 111 208 235 225 105 0 0 0 0 0 52 0 0 35 41 17 11 17 0 0 0 35 20 0 0 0 16 0 0 0 107 255 0 0 38 0 0 0 103 255 0 0 213 29 0 155 159 0 88 0 0 0 165 82 0 0 0 114 0 0 0 24 87 0 71 0 0 0 0 0 0 59 0 0 55 135 0 163 0 49 134 0 0 0 0 0 0 73 46 0 149 97 25 0 0 0 0 0 0 48 29 50 71 0 111 0 78 63 11 40 0 0 73 0 27 11 3 67 0 0 57 23 0 0 0 36 9 0 0 42 105 74 0 0 0 0 0 32 52 36 1 0 0 79 0 0 80 0 0 144 4 3 3 0 0 0 0 0 0 0 0 0 0 0 0 0 0 0 0 0 0 0 0 0 0 0 0 0 0 0 0 0 0 0 0 0 0 0 0 0 0 0 0 0 0 0 0 0 0 0 0 0 0 0 0 0 0 0 0 0 0 0 0 0 0 0 0 0 0 0 0 0 0 0 0 0 0 0 0 0 0 0 0 0 0 0 0 0 0 0 0 0 0 0 0 0 0 0 0 0 0 255
255 0 0 0 0 0 0 0 0 0 0 0 0 0 0 0 0 0 0 0 0 0 0 0 0 0 0 0 0 0 0 0 0 0 0 0 0 0 0 0 0 0 0 0 0 0 0 1 1 1 3 0 0 0 4 3 0 0 26 73 16 0 0 51 0 0 0 0 2 18 1 0 0 4 11 5 0 0 0 11 3 3 1 1 0 0 0 13 0 0 0 0 0 15 11 0 54 0 0 0 39 0 0 0 49 39 30 0 0 0 23 34 0 11 0 0 34 27 0 0 27 64 0 108 0 106 211 0 86 34 121 0 0 138 0 22 39 0 78 25 0 29 77 0 44 20 33 29 12 0 0 13 3 0 0 2 6 0 1 6 7 3 0 0 2 7 0 0 0 0 0 0 8 8 18 3 0 1 6 8 5 7 0 4 0 5 27 12 3 0 0 16 0 11 0 0 0 0 0 31 0 0 0 0 4 9 0 0 0 41 198 128 20 15 2 0 57 19 0 0 22 7 0 10 6 15 4 8 8 19 9 19 0 10 14 18 12 13 3 0 0 0 25 0 0 254 0 38 45 22 39 44 0 0 0 0 3 39 16 2 26 7 0 31 0 0 14 31 41 29 1 0 0 0 0 0 48 5 0 0 68 149 0 0 0 50 115 123 47 71 81 73 37 0 0 0 0 0 1 4 7 9 6 6 32 19 23 16 12 8 0 0 0 6 2 0 0 0 0 109 44 0 82 5 74 31 0 105 0 7 35 22 25 9 0 0 0 0 0 0 13 114 185 187 57 23 12 0 0 0 0 0 7 0 0 9 6 0 0 6 0 0 0 0 7 15 7 11 18 18 0 0 0 0 0 0 0 0 0 0 34 0 0 246 14 1 0 0 0 0 0 0 3 1 0 0 0 0 0 0 14 0 0 0 9 11 13 9 2 5 0 0 0 0 0 0 11 0 0 0 0 0 0 0 3 0 0 3 0 0 0 0 6 2 0 0 0 2 5 5 15 9 8 9 0 2 0 1 0 0 0 0 0 0 0 0 0 0 0 0 0 0 0 0 13 6 12 8 2 0 0 0 0 0 0 0 1 0 0 0 11 6 18 20 40 50 38 39 49 19 0 0 0 0 0 0 0 0 0 22 53 52 12 13 0 0 0 0 0 0 0 40 0 3 24 22 2 0 2 23 65 32 0 0 0 0 0 0 0 0 0 0 0 0 0 0 0 17 66 57 0 0 0 46 0 0 173 0 0 47 0 0 14 0 0 0 0 28 77 0 0 0 62 175 0 0 0 219 0 0 98 0 0 80 255 0 0 255 0 0 223 0 0 64 89 0 0 33 204 40 0 0 58 0 0 33 74 90 0 21 0 0 17 16 0 0 3 58 0 12 40 25 7 15 20 0 46 0 0 0 0 8 16 11 20 18 19 18 0 0 0 0 0 0 0 9 20 25 19 11 6 0 0 0 7 9 18 7 0 0 0 34 191 244 170 79 71 88 90 9 17 42 43 0 35 3 0 0 28 17 5 34 0 0 0 0 0 17 45 128 0 0 0 0 14 0 91 255 0 2 230 0 0 132 125 0 88 0 77 0 91 120 0 159 119 0 255 105 106 255 56 145 96 0 4 0 156 0 0 133 77 0 255 0 0 255 0 255 118 0 0 0 34 77 5 50 0 0 0 45 71 58 151 3 0 0 48 42 0 0 12 76 62 0 40 19 0 3 0 0 24 0 0 17 42 95 35 0 14 0 0 0 0 48 37 0 0 0 0 9 31 18 0 0 0 0 0 0 47 97 10 4 0 0 71 0 0 89 39 5 4 0 0 0 0 0 0 0 0 0 0 0 0 0 0 0 0 0 0 0 0 0 0 0 0 0 0 0 0 0 0 0 0 0 0 0 0 0 0 0 0 0 0 0 0 0 0 0 0 0 0 0 0 0 0 0 0 0 0 0 0 0 0 0 0 0 0 0 0 0 0 0 0 0 0 0 0 0 0 0 0 0 0 0 0 0 0 0 0 0 0 0 0 0 0 0 0 0 0 255
255 0 0 0 0 0 0 0 0 0 0 0 0 0 0 0 0 0 0 0 0 0 0 0 0 0 0 0 0 0 0 0 0 0 0 0 0 0 0 0 0 0 0 0 0 0 0 0 0 0 3 0 0 0 3 2 7 13 49 55 0 0 0 0 0 0 9 27 33 26 0 0 0 7 10 7 7 0 11 35 5 11 16 17 23 0 0 0 15 10 0 4 1 16 10 3 26 56 22 0 13 69 34 0 0 21 56 20 0 6 29 44 0 24 0 0 37 19 0 0 11 36 0 177 0 61 207 0 0 0 185 0 0 41 0 54 34 0 125 46 0 0 57 24 0 0 0 0 0 0 1 8 0 0 0 0 0 1 1 5 0 0 0 0 10 15 11 11 22 0 0 0 0 0 0 0 10 7 14 14 5 3 0 0 12 3 10 4 0 6 0 16 0 5 8 2 0 0 0 23 0 0 0 0 7 53 0 0 0 0 0 38 76 53 20 35 26 17 0 0 12 0 0 0 0 0 3 2 0 4 0 0 0 6 3 6 5 0 4 10 0 0 28 0 0 241 38 21 0 41 38 94 70 0 0 12 0 0 0 0 0 0 0 6 14 26 30 33 33 7 0 0 0 14 18 0 0 0 0 0 11 93 28 0 13 66 82 0 0 0 0 40 41 0 3 44 4 3 7 0 5 0 0 0 3 0 6 8 7 11 6 12 0 16 26 14 0 0 0 71 15 0 80 49 136 0 0 67 0 33 52 0 0 0 0 0 7 72 206 240 186 102 0 0 0 0 0 0 17 22 35 27 20 12 20 6 12 0 3 7 0 0 0 0 0 11 5 11 5 18 17 1 0 1 7 0 0 0 0 0 18 0 0 169 101 18 17 11 0 0 0 5 0 0 0 0 0 0 0 0 42 15 9 7 16 8 0 0 10 5 2 3 0 0 0 0 0 0 0 0 0 2 7 4 0 0 1 0 2 0 0 0 4 1 1 1 2 3 0 0 12 8 6 5 0 0 0 0 0 0 0 0 0 0 1 0 12 0 0 0 0 0 2 3 0 0 0 0 0 0 0 0 12 4 1 5 11 4 13 0 40 43 58 49 48 54 18 20 0 0 0 0 11 0 0 16 0 19 33 50 50 25 0 0 0 0 0 12 19 2 0 5 0 21 32 0 0 0 0 0 0 0 0 0 0 0 71 105 128 33 0 0 0 0 0 0 0 0 0 0 46 69 34 3 18 0 111 36 31 0 0 30 6 0 0 30 19 22 6 0 154 0 87 27 0 29 251 0 0 207 60 0 0 0 255 0 0 52 154 0 40 139 0 0 170 18 0 0 33 90 21 0 0 0 0 131 118 17 0 38 0 25 38 10 6 31 19 0 0 0 23 0 0 12 21 0 36 10 25 25 27 16 7 0 5 7 21 9 0 0 0 0 20 3 1 6 2 0 0 0 31 0 0 0 0 0 0 0 88 36 0 0 0 71 89 136 67 8 0 38 52 12 0 0 26 0 0 6 16 0 0 35 24 30 0 0 0 0 0 0 0 0 0 0 0 0 0 255 0 44 105 0 0 0 0 0 8 21 20 0 62 0 0 211 0 0 161 0 0 122 0 0 66 228 255 16 255 0 0 3 0 0 240 46 94 189 0 26 0 0 49 149 85 35 0 0 0 0 0 0 0 0 154 115 0 13 0 0 0 0 0 0 0 0 0 0 0 26 13 25 49 0 27 32 0 0 37 37 66 26 0 0 13 22 7 0 8 0 0 0 0 0 3 71 50 40 12 0 0 69 0 7 0 10 20 0 0 0 81 0 5 0 0 0 0 0 0 0 0 0 0 0 0 0 0 0 0 0 0 0 0 0 0 0 0 0 0 0 0 0 0 0 0 0 0 0 0 0 0 0 0 0 0 0 0 0 0 0 0 0 0 0 0 0 0 0 0 0 0 0 0 0 0 0 0 0 0 0 0 0 0 0 0 0 0 0 0 0 0 0 0 0 0 0 0 0 0 0 0 0 0 0 0 0 0 0 0 0 0 255
255 0 0 0 0 0 0 0 0 0 0 0 0 0 0 0 0 0 0 0 0 0 0 0 0 0 0 0 0 0 0 0 0 0 0 0 0 0 0 0 0 0 0 0 0 0 0 0 0 0 3 0 0 0 3 5 2 15 52 17 0 0 42 0 40 1 11 25 35 29 0 0 12 5 3 10 12 11 0 37 0 3 28 27 23 13 0 0 30 0 0 11 26 10 7 0 9 29 36 12 6 55 67 0 0 0 62 28 0 24 27 29 0 12 0 0 29 0 0 0 19 0 0 87 0 0 171 75 0 0 108 149 0 0 29 3 0 7 82 0 0 0 0 33 0 0 0 4 0 0 9 21 0 3 0 0 0 0 0 1 0 0 0 4 10 13 8 1 41 34 30 1 0 0 0 0 1 3 9 7 0 0 0 0 8 7 0 5 0 3 0 0 0 0 0 0 11 16 0 31 0 0 30 0 0 53 0 0 0 0 0 0 0 0 0 12 0 12 13 0 18 0 0 14 0 0 0 0 0 0 0 0 0 3 0 0 1 0 0 1 0 0 60 0 0 213 75 0 0 43 0 54 136 0 0 52 0 26 13 3 41 30 15 34 38 2 0 0 0 0 5 38 0 40 41 0 12 0 3 45 0 0 2 85 78 31 1 0 0 0 0 0 0 0 24 52 3 8 3 0 0 0 0 0 0 0 0 0 0 0 3 7 0 18 1 0 39 26 0 32 0 33 36 48 146 0 0 32 0 0 0 0 0 0 139 253 255 170 95 0 0 0 0 0 79 45 24 13 8 0 0 0 0 0 4 0 3 0 2 0 10 0 0 0 2 8 2 13 0 2 8 0 0 17 14 0 48 26 13 11 1 0 0 0 168 28 30 35 31 20 13 26 0 0 6 0 9 8 14 0 32 12 2 3 4 1 0 0 18 4 4 0 3 4 1 1 4 6 8 14 21 14 22 22 4 4 0 1 5 2 2 4 0 2 9 0 7 0 5 0 0 0 0 0 0 0 0 5 4 0 0 0 0 0 0 0 22 15 15 15 14 11 16 17 0 0 0 0 3 0 3 13 22 21 21 19 20 20 17 19 35 47 21 0 9 6 0 0 0 0 0 0 11 12 3 37 0 52 59 16 0 0 0 0 0 0 0 6 13 0 0 0 0 0 0 0 0 0 0 0 0 0 119 201 243 220 148 59 154 148 179 255 255 255 255 222 0 0 0 0 0 13 0 0 5 0 39 23 71 0 4 0 38 11 0 8 44 0 0 0 0 113 96 0 0 68 51 0 0 83 0 0 0 0 231 0 0 0 145 0 0 93 186 0 0 172 162 0 0 23 79 72 0 40 0 135 34 0 0 13 45 0 0 0 20 54 9 0 0 0 0 0 0 11 12 0 22 9 34 35 29 11 0 0 0 0 0 0 0 0 19 22 41 25 15 6 0 0 0 0 58 21 0 0 6 0 0 0 0 0 99 64 0 15 0 3 26 0 0 0 12 0 0 18 0 0 0 0 0 0 0 9 0 9 74 0 0 0 0 7 147 255 255 247 0 0 0 229 25 26 61 44 60 0 0 21 92 131 0 13 179 0 32 116 0 3 101 0 0 151 126 0 0 0 0 0 76 0 0 0 0 180 0 142 255 0 0 124 22 0 0 0 0 0 91 170 107 25 0 0 0 6 0 0 12 0 0 0 34 154 141 42 0 0 13 0 0 53 19 12 62 24 10 27 0 0 14 0 79 30 19 45 28 0 0 11 0 40 63 2 0 0 32 120 0 50 113 0 0 0 0 61 0 52 0 36 0 0 123 0 5 0 0 0 0 0 0 0 0 0 0 0 0 0 0 0 0 0 0 0 0 0 0 0 0 0 0 0 0 0 0 0 0 0 0 0 0 0 0 0 0 0 0 0 0 0 0 0 0 0 0 0 0 0 0 0 0 0 0 0 0 0 0 0 0 0 0 0 0 0 0 0 0 0 0 0 0 0 0 0 0 0 0 0 0 0 0 0 0 0 0 0 0 0 0 0 0 0 0 255
255 0 0 0 0 0 0 0 0 0 0 0 0 0 0 0 0 0 0 0 0 0 0 0 0 0 0 0 0 0 0 0 0 0 0 0 0 0 0 0 0 0 0 0 0 0 0 1 1 2 7 3 5 0 5 8 0 26 91 9 0 19 64 0 80 22 0 0 0 0 0 0 31 5 0 0 10 17 1 10 0 0 0 0 0 0 0 0 30 0 0 0 5 0 0 0 37 0 6 67 39 14 30 129 0 0 77 20 10 35 26 0 0 0 0 0 17 0 0 31 13 0 1 58 132 0 36 192 57 0 0 193 15 0 118 0 0 48 0 0 7 0 0 0 85 29 45 31 0 0 8 26 15 23 12 0 5 16 20 8 7 16 26 17 0 0 0 4 0 0 10 38 52 11 0 0 0 0 6 6 0 0 6 37 33 12 0 0 7 17 9 18 2 0 0 19 12 23 19 64 0 0 66 0 0 0 0 0 0 0 0 0 0 0 36 30 0 16 0 0 36 8 0 54 0 0 8 13 0 1 0 0 0 0 0 0 0 0 0 5 58 0 70 0 0 219 131 0 43 91 0 15 131 0 0 28 0 23 0 0 22 22 0 0 13 11 12 21 12 0 0 0 0 10 0 0 53 49 0 0 0 0 0 41 0 0 63 17 19 58 29 0 1 48 35 0 0 0 0 12 9 0 0 0 16 0 8 0 0 1 0 0 28 16 0 0 69 108 52 26 6 70 0 16 150 0 0 18 0 0 0 42 237 249 156 52 8 0 0 0 28 61 68 33 0 0 0 25 18 4 19 60 12 12 15 6 0 0 0 0 18 3 0 0 6 7 8 11 10 22 0 0 14 41 14 0 0 6 0 122 0 30 0 0 185 32 21 41 38 14 5 16 0 0 0 0 2 3 9 18 46 55 50 57 48 1 0 0 0 0 0 5 6 4 9 12 10 0 0 0 4 6 0 0 8 8 1 0 5 12 6 9 0 0 1 0 0 0 0 0 0 0 0 0 0 4 0 4 2 0 0 0 4 8 11 8 0 0 0 0 0 0 0 0 16 0 0 0 0 0 9 27 3 0 0 10 26 40 52 105 41 53 1 0 0 0 0 0 0 64 77 25 0 4 0 0 0 49 40 0 0 0 0 0 9 0 0 0 0 0 0 0 0 0 0 0 0 97 234 255 255 232 132 30 0 25 69 69 42 36 35 11 9 20 70 162 255 227 56 0 0 0 0 38 0 0 10 22 96 0 32 0 58 30 0 0 0 0 0 22 190 105 0 0 123 127 0 0 150 164 0 0 255 0 122 102 0 0 132 52 0 0 13 93 0 23 71 64 54 0 0 0 0 88 0 148 0 0 0 39 8 4 16 0 0 0 0 11 41 23 17 0 27 55 75 15 0 0 1 0 0 0 21 41 51 34 20 2 18 42 42 41 0 0 0 0 0 5 39 49 50 17 0 5 44 57 66 74 111 0 42 6 0 0 0 0 56 43 0 0 0 0 0 0 0 16 24 0 0 35 29 32 49 0 6 19 29 0 36 184 0 0 17 255 255 255 222 255 96 61 94 135 0 0 0 54 128 55 0 0 120 0 36 193 0 0 58 0 49 0 0 0 255 0 0 0 123 74 0 0 138 0 0 0 0 220 0 20 0 0 11 19 0 0 0 0 83 0 81 0 0 93 13 0 65 172 144 0 0 0 0 0 112 39 160 78 0 85 51 6 80 19 0 49 48 19 41 0 0 0 0 31 27 0 0 78 0 32 69 31 75 125 27 0 0 0 64 0 0 108 0 16 0 84 0 117 0 0 201 50 8 5 3 5 7 6 3 1 2 3 3 2 1 0 0 0 0 0 0 0 0 0 0 0 0 0 0 0 0 0 0 0 0 0 0 0 0 0 0 0 0 0 0 0 0 0 0 0 0 0 0 0 0 0 0 0 0 0 0 0 0 0 0 0 0 0 0 0 0 0 0 0 0 0 0 0 0 0 0 0 0 0 0 0 0 0 0 0 0 0 0 0 0 0 0 0 0 0 0 255
255 0 0 0 0 0 0 0 0 0 0 0 0 0 0 0 0 0 0 0 0 0 0 0 0 0 0 0 0 0 0 0 0 0 0 0 0 0 0 0 0 0 0 0 0 0 0 2 0 5 2 0 0 2 0 1 16 61 64 0 0 38 0 12 0 66 46 16 75 21 0 1 0 29 0 0 0 0 34 54 43 34 22 0 8 49 0 0 0 0 0 15 14 21 10 0 62 20 0 0 0 0 0 146 15 0 54 27 0 0 59 0 0 1 39 27 0 2 12 4 0 37 0 0 65 0 0 94 171 122 0 95 202 0 68 0 62 14 92 0 0 0 0 0 46 0 0 46 56 0 0 19 0 0 0 6 0 0 0 0 26 0 0 0 1 0 0 0 24 15 8 11 21 21 36 67 0 0 0 0 0 52 9 0 0 0 21 0 0 7 5 0 0 0 6 0 18 45 0 0 0 22 0 0 0 0 47 172 226 223 174 87 3 0 2 31 53 0 0 13 3 0 0 4 0 0 0 0 0 0 0 0 4 4 2 12 5 2 0 0 0 0 0 23 0 0 255 0 0 42 35 43 34 0 0 23 0 0 9 5 0 0 0 0 0 0 7 3 6 14 6 3 0 9 16 0 0 0 0 18 54 0 37 63 46 22 82 0 0 26 30 0 0 0 0 0 33 26 6 0 0 14 23 16 34 13 1 0 0 4 0 0 0 83 1 0 0 15 0 10 65 0 58 173 0 0 0 0 0 96 185 93 0 0 36 0 38 29 32 33 22 4 0 0 17 1 0 0 0 0 0 3 0 0 0 0 15 14 12 8 3 12 24 16 12 0 0 0 0 0 6 4 4 0 19 23 33 17 0 0 0 56 26 0 0 28 88 12 0 70 74 0 30 14 0 0 20 36 54 52 0 38 0 0 0 49 5 0 36 27 12 6 5 0 2 0 7 1 3 0 0 0 5 9 5 4 5 0 0 0 0 0 0 0 0 4 15 12 7 2 0 3 0 0 0 6 4 4 13 2 9 6 0 0 0 0 23 0 1 2 15 13 9 0 37 30 30 14 19 36 28 0 0 16 29 25 33 43 5 0 0 0 0 0 13 0 0 0 24 14 0 0 0 7 29 92 55 29 0 0 0 0 0 0 7 0 0 0 0 0 10 74 255 200 116 66 118 104 49 34 4 0 0 24 25 17 0 0 6 8 14 8 0 0 0 0 0 118 232 251 155 16 0 0 0 0 0 0 31 0 0 55 0 0 0 0 58 0 0 57 42 0 0 98 145 0 0 0 141 40 0 73 114 0 105 156 0 0 6 102 22 0 0 159 0 0 0 54 25 0 3 20 0 106 231 0 0 0 0 0 0 61 36 0 0 2 37 26 0 3 50 44 42 0 0 0 0 15 0 0 39 28 0 0 49 0 0 30 33 0 0 50 0 0 0 32 45 27 0 0 0 51 27 43 0 0 41 4 0 12 30 19 28 53 24 0 0 20 76 89 7 0 0 55 73 26 0 0 5 9 0 0 0 40 29 14 44 90 66 24 0 36 0 0 0 4 105 134 29 237 0 0 0 0 147 30 154 0 0 81 168 0 148 106 0 0 38 0 0 144 120 0 38 0 0 0 98 145 0 32 255 0 0 241 0 41 0 0 142 0 0 61 1 67 134 91 24 0 0 38 17 0 0 4 0 0 0 0 11 0 0 0 64 0 0 0 208 95 0 0 0 0 0 0 33 0 34 190 24 0 50 0 0 109 84 0 54 40 28 0 0 0 0 25 4 0 0 0 16 0 17 7 2 33 0 0 33 0 0 98 0 0 0 0 0 0 4 1 0 0 0 0 1 0 0 0 0 0 0 0 0 0 0 0 0 0 0 0 0 0 0 0 0 0 0 0 0 0 0 0 0 0 0 0 0 0 0 0 0 0 0 0 0 0 0 0 0 0 0 0 0 0 0 0 0 0 0 0 0 0 0 0 0 0 0 0 0 0 0 0 0 0 0 0 0 0 0 0 0 0 0 0 0 0 0 0 0 0 0 255
255 0 0 0 0 0 0 0 0 0 0 0 0 0 0 0 0 0 0 0 0 0 0 0 0 0 0 0 0 0 0 0 0 0 0 0 0 0 0 0 0 0 0 0 0 0 0 3 0 0 5 0 1 3 0 0 35 51 52 0 0 35 0 14 0 33 0 0 12 0 0 21 21 32 0 0 20 20 0 0 0 0 0 27 36 43 21 42 0 0 0 6 11 1 0 0 0 0 0 0 0 0 0 0 134 0 0 101 32 0 12 44 26 0 0 0 0 26 24 5 0 57 0 0 59 7 0 0 96 185 227 222 127 0 0 25 0 0 61 6 0 0 0 0 10 0 0 20 26 14 13 14 6 0 0 3 11 0 0 12 0 0 0 3 3 0 8 11 0 1 0 10 0 5 14 35 38 52 8 0 0 0 0 15 24 34 27 0 0 0 3 16 0 4 18 25 28 42 12 0 0 0 0 0 62 107 110 125 7 7 12 5 0 0 0 0 85 63 49 38 12 0 0 15 0 0 1 0 0 0 0 5 0 6 3 4 6 16 2 7 0 0 0 30 0 0 255 0 0 69 44 15 32 40 0 0 42 17 6 3 16 10 5 0 6 0 8 5 1 4 3 0 6 11 3 6 8 0 6 1 8 0 72 46 16 2 94 23 0 30 28 8 0 5 8 4 9 6 0 0 0 13 11 0 0 0 18 7 12 9 20 26 0 0 0 0 0 38 27 49 29 68 76 0 0 0 0 255 158 127 58 16 19 60 53 0 0 0 0 0 0 0 0 0 23 0 0 5 7 0 0 11 0 0 0 0 0 0 4 0 4 6 6 12 10 7 7 8 0 0 0 4 0 0 0 0 16 7 0 0 0 19 0 0 0 0 58 50 0 0 0 10 0 0 30 52 56 45 0 0 29 14 0 0 89 100 23 0 0 0 0 0 0 0 6 9 2 0 0 0 0 2 0 11 0 0 0 6 1 5 1 0 9 0 0 1 0 1 0 0 0 0 0 0 0 0 0 7 0 0 0 0 0 0 0 0 6 0 0 0 0 0 4 0 0 2 9 0 0 9 22 11 46 37 28 23 29 4 0 0 0 0 0 11 7 24 31 55 0 0 0 11 21 23 18 66 0 0 0 0 0 0 3 0 0 0 0 0 13 68 115 126 0 0 15 35 85 51 0 0 5 0 0 0 10 8 9 0 13 17 4 15 14 8 12 21 7 0 5 33 86 99 41 42 0 0 0 0 88 10 0 25 0 99 70 1 48 0 0 41 0 0 0 35 39 0 0 71 110 9 0 56 62 0 7 128 15 0 41 102 63 0 0 44 31 16 46 38 22 36 37 0 206 96 0 0 0 0 12 0 1 20 0 0 0 8 0 0 43 20 0 0 0 0 31 85 20 60 20 0 0 0 0 0 0 0 0 4 0 0 0 49 14 0 0 9 19 0 0 0 17 31 0 35 11 0 0 0 0 0 0 0 0 13 39 42 50 0 0 0 47 56 20 8 0 16 22 0 0 0 4 29 0 4 0 0 0 21 18 0 0 0 0 17 0 0 0 0 0 0 0 0 211 174 53 80 42 0 55 0 4 0 16 0 0 0 0 0 62 64 0 0 90 0 0 16 98 0 0 63 0 0 0 142 0 90 43 78 165 88 85 0 0 0 62 0 0 70 55 21 92 9 0 220 66 36 45 0 0 104 32 0 112 43 2 0 0 0 0 114 134 4 82 60 110 0 0 5 62 40 57 0 0 51 0 8 0 0 11 0 12 36 57 32 23 0 56 0 55 0 40 0 4 27 7 0 40 0 0 164 8 4 4 6 6 2 8 5 6 5 4 2 1 0 0 0 0 0 0 0 0 0 0 0 0 0 0 0 0 0 0 0 0 0 0 0 0 0 0 0 0 0 0 0 0 0 0 0 0 0 0 0 0 0 0 0 0 0 0 0 0 0 0 0 0 0 0 0 0 0 0 0 0 0 0 0 0 0 0 0 0 0 0 0 0 0 0 0 0 0 0 0 0 0 0 0 0 0 0 255
255 0 0 0 0 0 0 0 0 0 0 0 0 0 0 0 0 0 0 0 0 0 0 0 0 0 0 0 0 0 0 0 0 0 0 0 0 0 0 0 0 0 0 0 0 0 0 3 0 7 3 0 6 1 0 2 71 18 0 0 0 37 0 10 0 54 36 0 7 0 0 48 0 0 44 43 3 8 6 0 0 0 0 56 9 0 8 53 12 11 7 6 0 0 0 4 25 16 25 0 0 23 25 0 113 0 0 105 32 41 0 49 23 0 15 33 0 0 0 13 0 10 0 0 93 93 12 0 0 0 18 14 0 55 0 59 34 6 123 116 36 1 0 140 0 0 0 0 9 12 2 6 24 4 0 3 21 20 15 14 0 0 0 0 10 0 9 8 1 0 0 0 0 6 15 22 30 59 72 18 0 0 0 0 0 0 0 25 22 5 0 7 0 0 0 9 21 0 0 0 0 19 33 63 120 92 14 4 12 0 0 0 0 0 0 0 7 17 61 60 20 0 0 0 0 0 0 0 2 0 7 11 0 12 0 8 2 4 3 9 0 0 0 24 0 0 255 0 0 37 23 13 47 94 2 0 0 0 0 3 15 5 2 11 0 0 1 5 5 4 0 0 16 12 0 0 1 7 3 0 0 0 107 31 0 2 97 83 0 17 23 6 0 2 13 11 0 0 0 0 1 8 4 0 0 7 18 14 0 0 0 0 56 0 0 1 25 40 47 53 0 61 52 0 0 83 255 86 50 52 29 0 0 0 0 0 24 17 26 33 31 41 45 46 22 0 0 10 10 0 0 2 0 0 0 0 5 9 0 2 0 8 11 10 10 10 6 0 11 4 0 10 0 0 0 5 1 26 8 7 0 16 16 31 0 0 0 65 54 0 0 33 45 36 18 11 13 0 0 0 56 0 0 0 107 69 0 20 0 0 0 0 0 0 2 5 0 0 0 0 0 0 0 6 0 0 0 0 0 0 4 12 6 4 0 18 6 6 3 0 0 0 0 0 0 0 0 5 6 0 9 3 6 11 8 3 0 1 3 11 16 9 18 26 0 0 12 8 5 25 30 38 83 57 21 19 0 0 0 0 0 22 28 0 0 0 4 16 0 0 6 22 42 19 0 1 0 0 0 0 0 0 0 0 0 10 66 86 59 27 0 0 11 50 43 23 51 23 11 47 11 10 12 15 17 16 10 18 0 2 6 5 9 8 9 14 14 0 0 13 93 146 112 124 45 0 0 0 0 12 2 0 0 112 108 14 45 12 0 0 0 0 32 91 79 0 0 107 114 0 0 92 81 0 0 114 46 0 0 12 37 6 0 0 79 42 22 0 0 45 99 46 0 7 0 0 19 0 48 42 0 0 0 0 12 47 17 0 58 0 0 0 0 34 27 1 0 0 0 0 0 0 0 2 42 62 44 3 38 73 57 0 71 9 0 15 22 8 0 1 14 0 0 43 58 0 14 33 26 24 0 0 9 21 27 33 0 0 0 4 26 20 2 17 0 0 0 0 0 36 16 0 0 0 0 0 0 0 0 0 14 5 14 57 62 0 0 0 0 0 223 255 109 0 0 61 0 0 49 0 18 0 96 37 0 15 0 0 139 49 0 81 135 37 0 0 129 0 0 74 32 65 96 0 0 0 0 20 107 0 27 0 86 0 0 0 0 83 0 0 67 0 0 0 0 0 0 0 0 43 0 0 0 0 31 0 0 28 0 63 0 0 0 27 129 0 29 58 89 118 89 0 69 56 0 103 0 10 16 9 20 28 3 0 17 0 80 0 69 0 29 0 3 12 19 0 45 0 0 149 29 8 0 0 4 0 0 0 0 0 2 0 0 0 0 0 0 0 0 0 0 0 0 0 0 0 0 0 0 0 0 0 0 0 0 0 0 0 0 0 0 0 0 0 0 0 0 0 0 0 0 0 0 0 0 0 0 0 0 0 0 0 0 0 0 0 0 0 0 0 0 0 0 0 0 0 0 0 0 0 0 0 0 0 0 0 0 0 0 0 0 0 0 0 0 0 0 0 0 255
255 0 0 0 0 0 0 0 0 0 0 0 0 0 0 0 0 0 0 0 0 0 0 0 0 0 0 0 0 0 0 0 0 0 0 0 0 0 0 0 0 0 0 0 0 0 0 3 0 6 0 0 3 0 2 12 96 0 0 0 14 47 0 32 6 79 45 0 2 0 0 56 0 0 49 34 0 25 46 79 35 95 0 73 73 0 10 52 52 26 0 0 0 0 0 1 10 0 0 0 0 0 0 0 25 11 0 0 0 69 7 0 32 0 0 44 6 0 7 20 32 0 0 11 0 0 23 141 0 0 0 0 0 111 0 0 2 0 15 3 0 0 0 18 0 2 4 0 0 0 0 0 27 2 0 0 12 10 10 5 9 15 0 0 0 0 0 0 6 0 7 0 0 0 3 0 0 4 23 56 79 60 0 0 0 0 0 0 0 0 0 33 5 1 0 13 0 0 0 0 0 39 67 54 40 0 0 4 8 0 0 0 1 1 0 0 0 0 0 0 61 97 21 0 0 0 0 0 0 2 1 4 0 0 8 8 12 7 5 1 0 0 0 28 0 0 255 48 41 0 0 54 39 46 0 0 0 0 0 29 20 0 0 18 0 0 0 1 8 12 3 9 1 0 0 0 0 11 0 0 0 0 113 0 0 21 126 49 0 0 0 0 0 0 0 1 5 2 0 0 8 25 0 0 9 8 17 6 0 0 0 7 22 0 0 73 52 30 67 7 0 0 0 0 217 171 0 0 0 0 43 40 3 0 10 74 0 0 17 11 19 0 0 0 9 0 0 9 12 0 0 0 10 1 0 2 6 8 4 7 0 0 0 4 7 0 0 0 11 15 10 8 17 0 9 10 0 11 15 9 0 6 12 20 26 0 0 10 74 51 11 13 45 11 0 0 0 0 2 28 0 0 0 32 70 0 0 32 6 22 10 1 0 0 2 4 4 0 0 0 0 0 0 14 0 0 0 0 0 0 2 9 0 7 0 0 5 1 1 1 0 0 0 0 0 0 4 6 8 5 1 3 0 1 0 0 0 6 13 13 2 0 14 23 22 26 23 26 39 44 24 38 0 15 0 0 0 10 16 30 0 43 54 0 0 0 0 0 64 56 26 16 29 6 0 0 1 17 0 0 0 0 0 0 43 11 31 36 18 10 0 0 45 49 5 0 0 0 0 47 0 3 0 3 8 11 15 16 0 0 0 0 0 0 0 6 0 8 12 0 0 0 10 49 118 45 0 0 0 0 100 0 3 38 0 0 33 56 6 0 0 0 0 36 76 7 0 45 91 0 0 107 80 0 0 96 93 0 0 30 59 62 60 6 3 0 3 17 4 39 48 14 0 0 0 72 40 0 8 61 0 0 0 0 32 54 29 73 0 3 28 35 36 29 0 0 15 44 31 26 50 58 62 105 31 33 0 0 4 61 17 0 37 0 0 14 23 26 15 28 0 0 0 43 56 3 49 69 0 22 26 23 25 12 2 0 0 3 46 22 0 0 0 30 25 0 0 0 0 33 18 0 0 0 0 0 0 4 0 0 0 73 0 0 0 0 0 0 255 255 144 0 240 255 26 0 46 6 0 34 115 0 205 61 81 142 51 0 128 0 0 0 24 71 0 1 127 0 0 70 0 31 14 0 0 45 0 35 73 0 0 0 241 0 22 0 77 158 0 0 100 26 0 0 0 0 24 9 12 22 0 37 0 0 12 0 0 99 18 0 27 0 0 0 50 0 0 0 0 0 0 0 0 0 0 17 0 4 7 16 2 0 0 0 0 0 56 0 50 0 7 0 6 0 18 0 41 0 0 79 62 0 0 0 4 0 8 0 0 0 4 3 3 3 3 2 1 0 0 0 0 0 0 0 0 0 0 0 0 0 0 0 0 0 0 0 0 0 0 0 0 0 0 0 0 0 0 0 0 0 0 0 0 0 0 0 0 0 0 0 0 0 0 0 0 0 0 0 0 0 0 0 0 0 0 0 0 0 0 0 0 0 0 0 0 0 0 0 0 0 0 0 0 0 0 0 0 0 0 255
255 0 0 0 0 0 0 0 0 0 0 0 0 0 0 0 0 0 0 0 0 0 0 0 0 0 0 0 0 0 0 0 0 0 0 0 0 0 0 0 0 0 0 0 0 0 0 3 0 6 0 0 0 0 6 15 87 0 0 0 43 63 0 28 0 60 21 0 0 0 0 29 67 0 0 9 27 50 0 0 0 0 0 0 117 36 0 0 76 20 0 0 0 21 3 1 21 0 0 0 22 0 0 11 0 33 72 0 0 23 44 0 40 0 0 26 49 63 21 0 23 0 3 0 0 13 24 0 88 73 0 29 0 12 31 22 0 0 0 0 0 0 0 0 13 23 26 13 0 0 0 0 19 2 2 3 4 9 1 0 11 11 2 0 1 2 0 0 16 8 1 5 5 0 0 0 25 0 0 0 26 69 78 76 34 0 0 0 0 0 0 23 19 3 8 31 0 0 0 9 0 39 34 27 18 0 0 37 29 6 0 0 0 0 0 0 0 0 0 0 27 86 57 11 0 19 8 8 2 5 0 0 0 0 0 6 0 6 0 3 0 0 0 21 0 0 189 171 30 0 0 24 49 44 27 39 41 23 0 11 17 0 0 0 0 0 0 0 0 0 2 9 0 0 0 0 2 12 3 0 0 0 78 25 44 65 94 0 0 0 0 0 0 0 0 5 2 11 0 0 2 15 17 0 0 0 0 9 27 39 32 20 0 0 32 70 41 63 83 0 0 0 24 151 0 0 5 0 28 0 0 35 71 62 15 0 0 3 18 22 4 0 0 0 18 0 0 6 18 9 6 0 17 5 7 0 8 9 0 0 0 0 0 0 0 0 0 0 12 7 3 1 2 2 3 3 0 2 8 0 0 0 8 4 70 0 0 0 10 47 33 0 0 0 0 23 26 2 0 0 0 0 0 40 16 0 0 37 19 11 12 0 5 0 0 0 10 2 3 0 6 2 7 1 2 1 0 0 0 0 2 2 0 0 1 3 1 1 1 0 0 0 4 0 0 0 0 5 0 0 0 0 0 0 0 0 1 8 11 8 2 6 1 0 93 55 20 21 48 34 0 0 0 0 0 0 0 22 16 0 0 0 12 0 0 49 44 0 23 0 0 0 0 8 0 0 0 0 0 0 0 0 26 17 8 0 0 0 13 44 78 96 0 32 6 7 34 8 0 8 0 0 0 0 0 2 0 0 11 10 15 15 15 4 0 14 0 18 31 8 0 0 19 50 68 72 77 0 0 0 63 28 37 0 0 0 38 59 17 0 93 36 0 0 0 0 2 72 34 26 0 76 66 0 18 51 111 17 0 19 0 0 11 0 0 0 75 161 98 10 0 0 32 0 0 0 0 16 0 0 0 0 0 5 42 21 0 75 0 49 90 45 0 0 5 41 39 57 38 27 66 52 3 38 0 0 0 0 0 0 19 64 0 0 0 0 4 3 0 0 0 35 0 23 0 0 27 4 0 0 0 0 0 0 0 15 37 21 4 13 32 27 11 0 3 9 28 30 0 0 0 54 0 6 0 4 4 20 9 0 0 0 0 0 72 255 255 179 255 0 0 0 0 0 0 27 82 98 0 33 58 0 56 0 0 0 75 49 60 20 0 0 0 124 8 43 39 0 0 25 0 0 56 5 153 157 0 36 161 65 109 0 130 39 134 0 0 108 128 168 41 0 157 125 0 0 96 47 9 12 0 89 50 0 32 0 0 0 0 20 23 0 0 0 0 0 0 0 0 0 15 48 0 0 0 10 0 0 0 0 0 0 5 43 0 0 37 0 37 0 17 0 11 0 0 0 42 0 0 8 90 15 17 6 3 1 0 7 6 6 0 0 0 0 0 0 1 0 0 0 0 0 0 0 0 0 0 0 0 0 0 0 0 0 0 0 0 0 0 0 0 0 0 0 0 0 0 0 0 0 0 0 0 0 0 0 0 0 0 0 0 0 0 0 0 0 0 0 0 0 0 0 0 0 0 0 0 0 0 0 0 0 0 0 0 0 0 0 0 0 0 0 0 0 0 0 0 0 0 255
255 0 0 0 0 0 0 0 0 0 0 0 0 0 0 0 0 0 0 0 0 0 0 0 0 0 0 0 0 0 0 0 0 0 0 0 0 0 0 0 0 0 0 0 0 0 0 3 0 6 0 0 7 0 2 39 55 0 0 0 36 40 0 0 0 56 0 0 2 18 0 18 53 0 28 7 53 0 0 0 0 59 0 0 69 33 0 0 66 3 0 0 0 10 3 6 30 0 0 55 41 0 0 11 23 24 93 0 48 0 35 28 13 11 36 62 0 0 0 0 0 0 0 33 43 44 49 36 0 59 30 155 0 0 81 16 0 57 3 35 52 56 90 0 4 0 16 30 0 0 0 28 0 1 12 0 0 0 0 0 0 0 0 0 0 1 0 0 0 0 0 5 0 2 0 0 0 9 5 0 0 13 29 46 76 69 30 0 0 0 0 0 0 0 0 0 0 0 0 22 65 47 12 8 41 9 0 0 42 20 18 13 0 0 0 23 0 6 0 0 0 0 19 68 0 16 0 11 0 1 0 0 0 0 0 0 0 0 0 0 0 1 0 20 0 0 0 255 0 1 12 0 0 59 54 7 118 28 0 0 0 34 10 0 0 0 0 1 3 5 0 9 0 0 0 0 7 17 9 25 0 0 51 42 114 64 51 0 0 0 6 13 17 0 8 20 11 12 12 0 0 17 24 18 0 0 0 8 27 15 0 0 0 10 90 70 25 37 10 0 0 164 97 0 0 51 0 22 22 0 0 0 8 0 0 0 20 40 35 37 12 15 21 23 9 0 0 0 21 10 0 0 15 0 0 0 0 3 0 0 2 1 0 1 2 2 2 5 1 3 0 0 4 0 0 0 0 15 22 9 0 13 13 10 3 20 0 0 0 0 30 27 87 42 21 20 0 0 0 0 0 0 5 28 1 24 26 0 0 0 0 0 1 7 0 4 1 0 0 3 2 6 2 12 11 5 0 0 0 0 0 0 0 0 3 6 0 0 0 0 6 0 7 1 4 6 2 3 0 4 7 8 19 29 32 46 27 40 30 42 39 32 23 25 77 25 0 0 28 3 0 0 0 12 4 0 0 24 0 0 0 0 9 0 12 43 34 3 0 1 0 4 8 0 0 0 0 0 0 0 0 0 33 49 67 34 41 30 7 0 0 4 0 12 1 0 34 23 0 0 7 0 0 0 3 6 0 0 17 13 17 16 7 7 0 0 0 0 0 0 10 27 19 0 48 30 89 75 0 0 0 0 24 0 17 46 20 0 0 10 0 55 48 11 34 15 6 67 0 25 44 31 24 31 36 0 51 0 7 4 0 0 3 1 141 45 50 73 0 0 0 0 39 0 0 0 0 52 0 0 0 0 63 74 53 0 0 11 0 11 32 0 0 15 30 0 0 0 0 0 0 0 0 0 50 18 0 26 30 21 35 83 0 0 0 0 6 0 0 0 0 37 4 0 0 0 6 0 8 0 0 0 0 0 0 33 30 0 0 0 31 43 19 0 0 0 15 29 16 0 0 0 0 10 7 6 10 13 7 5 89 0 9 255 188 193 157 0 162 109 88 28 80 40 0 155 27 37 128 0 0 27 0 0 7 0 0 0 0 76 155 124 20 102 22 0 32 13 9 0 54 26 104 0 46 0 0 10 0 0 7 0 109 16 67 10 0 0 0 80 0 0 147 0 9 43 89 0 0 0 0 75 40 0 22 37 47 7 0 3 0 0 3 111 1 0 0 30 120 0 83 102 0 55 93 84 0 0 0 9 0 0 16 68 0 0 37 0 47 0 43 21 16 0 7 0 20 31 0 0 121 33 45 23 10 0 0 0 0 0 0 0 0 0 4 2 1 0 0 0 0 0 0 0 0 0 0 0 0 0 0 0 0 0 0 0 0 0 0 0 0 0 0 0 0 0 0 0 0 0 0 0 0 0 0 0 0 0 0 0 0 0 0 0 0 0 0 0 0 0 0 0 0 0 0 0 0 0 0 0 0 0 0 0 0 0 0 0 0 0 0 0 0 0 0 0 0 0 0 255
255 0 0 0 0 0 0 0 0 0 0 0 0 0 0 0 0 0 0 0 0 0 0 0 0 0 0 0 0 0 0 0 0 0 0 0 0 0 0 0 0 0 0 0 0 0 0 3 0 0 6 0 7 1 5 66 0 0 0 0 13 38 0 0 0 73 0 0 28 23 1 22 0 0 54 21 67 0 0 147 251 169 121 0 23 67 0 0 33 0 4 0 9 23 26 20 0 0 0 46 29 0 0 0 55 27 41 11 0 0 12 36 0 29 77 41 0 0 0 0 34 0 10 34 0 0 0 17 0 28 29 74 0 0 45 0 0 26 0 42 47 0 64 7 13 0 0 46 19 0 0 44 0 10 18 0 0 2 0 0 0 0 0 0 0 12 10 14 0 0 0 4 3 9 8 18 0 0 30 2 0 0 0 0 9 45 79 66 64 52 0 0 0 0 0 0 0 0 0 8 0 0 0 0 36 44 14 3 48 16 29 26 5 10 4 30 15 19 0 0 0 0 0 36 0 8 0 0 0 2 0 0 2 0 0 0 0 0 0 0 3 0 0 14 0 0 0 255 28 0 30 0 0 45 65 0 58 28 0 0 0 27 28 0 0 0 0 0 0 0 4 0 3 9 9 5 0 0 9 30 0 0 11 19 113 0 0 0 0 0 20 21 14 0 0 12 0 9 15 0 0 4 11 0 26 10 0 0 0 0 0 0 101 83 72 27 12 0 0 6 102 0 0 67 113 24 0 28 1 31 80 27 0 1 17 64 0 0 0 0 0 0 0 0 28 2 0 0 10 2 0 0 0 0 0 0 3 4 0 0 20 11 6 0 0 3 6 20 0 0 0 0 0 5 2 0 3 17 10 0 3 13 10 5 0 26 30 5 0 0 1 24 102 43 0 0 0 0 0 0 94 0 31 65 0 0 15 0 0 0 0 0 0 0 1 0 6 3 2 0 0 0 2 2 0 0 2 2 1 0 1 6 0 6 1 0 0 0 11 11 10 1 0 3 7 3 11 6 14 14 22 23 25 27 27 49 35 34 27 15 28 24 10 11 0 0 0 0 0 0 0 0 68 0 0 0 25 7 0 0 7 8 17 8 0 0 0 0 8 22 18 3 0 0 0 0 0 0 0 4 0 10 18 15 0 0 4 18 24 14 18 14 4 19 0 0 0 0 0 34 19 4 2 3 13 12 1 4 0 0 0 0 0 0 0 0 22 0 0 0 5 11 0 0 50 30 46 113 65 0 0 0 0 0 52 39 0 0 4 16 0 16 59 55 49 14 0 0 0 0 34 0 0 20 0 0 39 9 48 57 17 46 91 79 115 12 0 0 0 0 7 26 0 0 0 0 0 0 0 0 0 62 96 60 13 0 0 14 13 0 0 0 66 99 44 0 0 0 0 0 36 22 0 25 49 0 0 0 0 12 0 0 11 16 14 11 5 14 0 0 0 24 0 7 3 0 36 6 54 22 4 13 10 4 0 0 0 0 3 0 0 0 3 21 6 3 0 0 45 61 7 0 0 0 0 7 7 7 4 0 0 0 169 254 0 0 201 255 43 0 0 0 0 121 98 0 0 5 81 0 12 112 12 0 238 1 3 0 0 21 43 0 95 0 0 0 0 126 49 0 0 0 55 0 0 0 0 153 0 0 0 9 133 0 0 130 0 6 0 0 23 0 107 0 62 58 106 0 0 68 31 117 0 0 21 98 252 194 0 38 83 110 37 133 0 0 0 0 56 0 0 0 0 5 0 0 9 0 14 30 24 0 0 0 39 0 32 0 60 0 44 0 16 0 28 0 0 44 0 0 68 0 17 21 13 0 5 1 0 0 0 0 5 4 4 2 1 0 0 0 0 0 0 0 0 0 0 0 0 0 0 0 0 0 0 0 0 0 0 0 0 0 0 0 0 0 0 0 0 0 0 0 0 0 0 0 0 0 0 0 0 0 0 0 0 0 0 0 0 0 0 0 0 0 0 0 0 0 0 0 0 0 0 0 0 0 0 0 0 0 0 0 0 0 0 0 0 0 0 255
255 0 0 0 0 0 0 0 0 0 0 0 0 0 0 0 0 0 0 0 0 0 0 0 0 0 0 0 0 0 0 0 0 0 0 0 0 0 0 0 0 0 0 0 0 0 0 3 0 0 6 0 1 8 27 130 0 0 0 0 11 52 0 10 6 73 0 0 23 18 0 10 16 0 0 0 100 0 0 255 70 0 117 107 0 11 0 0 0 9 6 0 0 21 8 17 1 19 79 125 69 0 0 0 8 0 0 0 0 29 14 30 4 0 0 0 0 50 47 0 0 27 30 0 0 87 51 0 5 0 40 0 0 0 141 86 0 9 0 69 21 0 2 48 26 0 0 42 49 0 0 15 0 7 5 0 5 16 19 6 3 20 11 0 0 8 11 13 0 3 9 7 2 0 0 14 1 9 0 0 0 10 16 12 0 10 12 0 45 126 127 51 0 0 0 0 0 0 29 20 28 69 53 0 0 0 0 0 7 0 1 8 17 2 10 23 0 0 0 14 17 0 0 0 0 0 0 0 0 0 0 0 0 0 0 0 0 0 0 0 27 15 0 0 0 0 0 255 168 0 0 50 0 2 68 40 35 76 86 0 0 0 0 4 0 0 5 14 6 0 0 0 0 19 22 4 0 0 0 3 45 0 14 7 55 0 0 0 11 15 38 36 4 0 0 0 0 0 21 9 0 0 13 0 114 44 0 0 0 0 46 101 88 88 15 0 9 0 0 44 0 57 24 0 23 0 0 55 8 14 0 0 12 55 0 0 0 0 3 7 2 1 7 17 30 11 0 0 7 0 0 0 9 8 10 27 34 28 18 0 17 6 6 0 0 0 0 14 0 4 2 0 0 0 0 0 2 11 0 0 0 11 2 0 12 0 0 8 7 0 0 0 0 0 0 20 25 4 29 90 28 0 39 79 0 0 62 109 1 25 14 11 11 0 0 0 4 5 7 2 0 4 0 0 0 0 0 0 4 5 7 0 0 0 1 4 0 0 2 2 0 0 0 2 4 6 9 24 19 30 42 63 57 59 59 78 18 4 0 0 0 7 0 0 0 0 0 0 0 0 5 43 84 0 0 0 72 10 0 63 0 3 22 25 0 0 0 103 30 54 5 0 0 0 2 50 0 0 0 0 15 21 29 20 15 0 7 12 12 12 0 0 0 7 8 13 60 23 0 15 23 13 13 13 5 0 5 0 0 0 0 7 18 18 22 11 25 40 42 15 9 14 16 20 30 53 0 23 122 47 0 0 0 20 62 0 0 28 90 57 0 27 0 0 0 0 0 0 68 30 64 8 8 75 30 39 50 33 69 66 25 33 32 21 0 0 0 0 0 8 26 0 9 62 0 0 0 0 0 0 50 98 66 0 0 0 21 51 16 40 40 0 0 0 69 47 82 69 43 34 49 14 8 74 42 48 40 8 8 17 0 0 0 0 0 1 10 15 4 0 56 26 0 8 14 0 0 20 31 0 0 0 42 52 8 0 1 9 9 1 7 25 18 26 0 66 27 0 0 60 54 0 0 0 0 0 0 4 3 0 0 87 138 14 0 0 0 61 0 18 255 199 0 0 0 0 0 64 0 82 83 0 81 49 0 0 0 11 106 120 0 0 0 0 83 0 0 70 133 142 0 0 182 0 0 0 0 44 0 97 103 65 7 0 0 126 22 151 0 0 84 0 83 78 0 0 1 104 134 79 0 44 0 33 45 0 0 0 0 153 5 0 0 0 0 144 37 40 0 0 0 0 18 67 0 0 41 0 0 10 39 14 5 0 53 0 23 0 62 0 0 0 15 8 78 0 0 49 0 0 0 0 0 19 73 36 21 0 13 10 8 5 5 0 0 0 2 0 0 0 0 0 0 0 0 0 0 0 0 0 0 0 0 0 0 0 0 0 0 0 0 0 0 0 0 0 0 0 0 0 0 0 0 0 0 0 0 0 0 0 0 0 0 0 0 0 0 0 0 0 0 0 0 0 0 0 0 0 0 0 0 0 0 0 0 0 0 0 0 0 0 0 0 0 0 0 0 0 0 255
255 0 0 0 0 0 0 0 0 0 0 0 0 0 0 0 0 0 0 0 0 0 0 0 0 0 0 0 0 0 0 0 0 0 0 0 0 0 0 0 0 0 0 0 0 0 0 4 0 0 0 11 0 3 30 50 0 84 49 0 0 0 0 3 121 69 0 0 39 42 0 17 27 41 0 0 96 7 0 69 101 25 0 0 31 46 12 0 0 0 67 0 0 50 0 22 0 0 21 0 24 84 0 0 0 53 12 0 1 33 2 53 3 9 0 0 0 43 53 19 77 0 10 25 0 0 48 0 0 0 0 0 39 58 40 41 71 0 0 21 0 0 51 2 12 35 41 13 0 0 10 23 0 10 3 0 4 26 0 0 23 13 3 6 18 13 1 0 19 0 0 0 2 2 11 23 17 13 7 25 17 7 0 4 0 1 11 9 0 0 15 107 210 134 0 0 0 0 19 16 51 0 0 34 73 61 35 0 0 0 0 2 4 19 20 15 29 39 38 23 4 0 0 0 11 0 0 0 0 0 10 33 23 28 19 17 26 40 43 37 17 0 37 0 50 0 0 0 255 43 16 0 0 37 0 0 8 48 72 110 33 0 0 0 45 19 0 0 0 0 14 47 5 0 0 0 0 2 5 0 0 0 0 0 0 0 8 0 5 0 0 0 10 24 12 13 73 34 0 0 0 3 0 0 70 0 0 65 121 96 56 35 76 0 21 28 0 0 146 13 0 0 0 32 0 0 0 90 6 15 0 0 7 16 0 48 5 25 23 2 0 25 22 18 9 2 0 0 0 1 7 14 10 0 1 0 0 0 0 9 10 0 0 0 9 3 0 0 0 0 0 11 10 26 0 0 7 5 9 9 0 0 0 1 27 13 5 0 0 0 0 23 0 0 0 130 70 88 95 43 0 0 38 57 3 0 0 53 1 0 0 0 0 0 12 0 0 0 0 0 0 0 0 1 5 9 23 9 0 0 0 0 24 0 0 0 0 0 12 22 16 29 56 66 76 83 101 120 55 74 58 5 0 0 0 0 0 0 0 22 26 0 0 0 0 0 0 19 35 19 5 36 0 30 26 1 0 0 0 0 4 22 3 0 0 42 25 44 0 0 0 0 0 13 0 0 0 0 26 10 27 20 11 30 8 8 19 19 12 0 5 10 10 8 24 0 0 0 0 7 0 0 0 0 0 5 0 0 19 14 5 6 0 0 0 0 2 0 0 0 18 29 16 0 0 0 17 30 52 103 34 0 0 5 20 0 13 24 0 13 10 0 0 0 0 0 0 0 13 0 0 81 0 0 95 28 0 0 0 0 0 0 0 0 0 21 94 42 0 19 32 32 0 0 0 0 0 0 53 37 0 1 14 88 0 0 40 0 28 20 25 42 58 60 0 0 59 24 28 0 0 0 0 0 0 0 0 0 0 23 63 96 0 10 0 0 0 0 2 16 0 0 44 55 0 2 43 0 0 18 0 0 4 0 0 46 69 0 14 4 0 0 36 49 0 6 57 40 0 0 24 128 3 0 76 51 0 41 0 0 67 255 0 0 0 180 0 255 0 0 0 15 255 130 0 71 23 169 0 0 91 0 138 0 124 17 0 0 22 47 0 0 4 0 215 0 0 0 0 10 106 58 15 52 134 90 50 152 140 111 0 66 0 0 165 78 12 81 73 58 84 85 5 0 0 11 0 27 18 0 0 113 97 33 99 0 18 0 115 68 0 0 0 0 53 27 0 60 0 126 66 0 0 0 0 0 0 0 0 74 74 0 0 28 123 0 0 9 0 0 80 46 0 22 0 0 14 17 0 0 120 107 0 0 16 12 35 13 0 0 3 0 0 0 0 0 3 0 0 0 0 0 0 0 0 0 0 0 0 0 0 0 0 0 0 0 0 0 0 0 0 0 0 0 0 0 0 0 0 0 0 0 0 0 0 0 0 0 0 0 0 0 0 0 0 0 0 0 0 0 0 0 0 0 0 0 0 0 0 0 0 0 0 0 0 0 0 0 0 0 0 0 0 0 0 0 0 0 0 255
255 0 0 0 0 0 0 0 0 0 0 0 0 0 0 0 0 0 0 0 0 0 0 0 0 0 0 0 0 0 0 0 0 0 0 0 0 0 0 0 0 0 0 0 0 0 0 4 0 1 0 5 0 16 37 72 0 0 0 0 23 25 0 28 68 45 0 0 32 43 0 0 19 4 0 4 14 0 0 0 137 105 106 71 15 0 0 0 8 0 10 0 14 79 0 8 0 2 29 0 2 53 0 0 0 33 21 0 28 10 0 34 21 0 0 2 28 10 3 0 97 0 1 108 17 0 0 51 0 0 0 0 0 22 16 20 47 0 0 32 0 0 43 24 0 11 18 26 17 0 0 0 0 26 14 10 2 20 18 0 2 0 0 0 1 3 1 0 18 0 0 0 2 0 0 3 19 0 0 0 4 0 0 9 0 0 11 7 0 0 2 11 0 89 207 106 0 0 0 0 0 4 56 60 5 0 0 0 10 15 11 2 0 7 0 0 0 2 14 20 35 30 7 2 0 0 8 34 44 0 0 0 0 0 0 0 0 0 0 0 0 0 14 0 18 23 0 0 255 0 96 0 101 0 66 0 95 13 2 33 74 79 0 0 0 0 0 8 4 0 0 0 0 7 12 0 0 10 14 9 0 1 0 5 16 20 12 0 0 4 42 18 8 8 0 0 0 0 0 27 40 36 16 0 0 0 76 46 0 35 73 72 52 188 0 0 65 89 0 54 74 0 0 36 12 12 26 14 0 5 0 0 30 3 0 0 26 23 23 12 14 35 28 0 32 15 22 16 14 24 22 23 0 11 1 2 4 4 5 0 14 0 1 0 3 2 7 1 1 2 0 3 6 1 0 8 0 0 0 0 0 0 0 0 4 4 0 0 0 0 0 12 16 0 0 96 76 6 19 44 16 0 53 43 20 54 0 0 0 20 64 39 0 0 0 0 29 22 12 4 8 1 0 0 0 0 0 0 0 0 1 0 13 10 28 32 45 36 29 24 43 44 34 11 0 0 0 0 0 0 0 0 0 0 1 20 0 0 0 0 0 0 0 0 65 18 9 18 23 0 0 15 0 0 0 0 0 0 7 7 0 11 26 35 41 35 6 0 0 0 0 5 1 0 0 0 0 19 25 7 27 15 0 1 0 0 6 0 0 0 0 4 0 1 11 3 0 0 0 0 24 5 18 10 10 15 21 23 2 1 0 0 4 0 0 0 7 3 0 4 8 6 0 0 13 7 20 11 0 45 14 0 0 0 0 24 5 27 69 0 24 0 0 16 66 87 70 0 22 0 0 0 0 0 0 0 0 0 0 0 32 53 51 91 0 21 18 0 0 26 31 27 0 0 0 0 0 5 53 54 89 77 14 44 17 13 112 0 47 0 0 45 8 0 0 46 0 0 3 9 0 48 68 16 0 7 26 11 0 0 0 15 0 23 26 15 3 20 26 55 0 3 0 0 23 15 0 18 28 0 0 24 88 0 0 23 59 3 8 5 0 0 0 0 0 0 0 0 0 12 0 0 140 0 0 0 121 0 0 0 0 0 233 0 0 113 0 0 0 96 0 0 0 34 133 176 214 0 0 166 23 0 0 62 80 191 89 0 0 91 79 0 0 0 37 0 0 0 0 0 0 25 0 0 0 0 0 23 0 0 0 79 13 0 0 0 0 0 0 0 0 0 0 20 0 18 5 146 79 31 0 33 28 0 38 0 62 0 59 0 0 80 34 0 3 0 0 0 0 36 20 0 33 43 15 0 83 29 32 65 31 0 0 0 28 0 11 42 29 8 0 0 9 32 5 0 22 0 0 0 0 26 0 0 0 0 34 42 21 10 0 0 14 0 0 0 3 0 0 0 0 0 0 0 0 0 0 0 0 0 0 0 0 0 0 0 0 0 0 0 0 0 0 0 0 0 0 0 0 0 0 0 0 0 0 0 0 0 0 0 0 0 0 0 0 0 0 0 0 0 0 0 0 0 0 0 0 0 0 0 0 0 0 0 0 0 0 0 0 0 0 0 0 0 0 0 0 0 0 255
255 0 0 0 0 0 0 0 0 0 0 0 0 0 0 0 0 0 0 0 0 0 0 0 0 0 0 0 0 0 0 0 0 0 0 0 0 0 0 0 0 0 0 0 0 0 0 3 0 1 3 0 1 39 50 35 0 0 0 9 9 40 51 47 35 0 0 0 25 25 0 0 0 0 11 9 0 2 40 0 0 4 60 49 23 0 0 0 26 36 0 0 33 39 2 62 0 8 45 0 7 47 0 0 0 35 15 0 0 0 0 49 44 0 0 39 52 0 0 36 18 0 0 4 0 0 17 13 5 0 0 0 19 23 10 28 26 0 51 54 0 0 37 13 0 0 0 0 24 41 16 0 0 29 33 10 0 0 12 37 0 0 0 0 0 6 7 0 15 11 14 11 13 0 0 0 0 0 0 0 8 3 0 8 0 0 3 0 0 0 1 0 36 28 23 87 151 145 12 0 0 0 0 0 0 0 0 23 23 24 23 5 8 1 0 2 0 0 0 0 7 7 0 0 31 4 0 0 0 1 22 57 0 0 0 0 0 9 12 11 0 0 69 0 8 30 0 0 139 192 0 0 0 0 107 0 12 0 6 50 39 62 32 106 0 0 0 3 19 21 8 0 1 21 35 19 14 27 34 35 4 0 0 0 0 13 1 3 49 84 65 6 5 42 49 0 56 57 54 15 0 0 0 0 0 71 75 47 16 43 36 0 100 0 0 0 79 13 0 48 23 0 0 12 15 34 38 0 3 31 25 9 35 16 0 0 13 0 0 0 0 24 3 0 20 4 20 16 16 2 0 7 8 1 0 0 4 10 0 0 17 0 0 0 0 8 7 5 11 4 0 0 11 11 10 16 0 0 1 0 1 0 0 0 0 0 0 3 1 5 0 0 41 0 0 23 146 0 21 50 0 0 27 0 21 102 19 0 0 0 52 53 30 2 0 0 0 0 0 13 7 6 6 11 24 10 13 20 38 38 36 27 33 36 48 59 51 49 29 27 0 0 0 0 0 0 0 0 0 0 0 0 0 0 0 0 0 0 16 31 13 0 0 0 67 31 7 0 0 0 0 0 0 0 0 0 0 0 0 0 0 14 42 35 34 15 0 0 0 0 0 20 6 0 0 0 12 33 35 10 30 10 0 0 16 7 5 7 0 6 4 8 4 0 0 0 0 6 0 0 29 9 4 0 0 0 2 20 0 8 6 0 10 0 0 0 0 4 11 7 0 0 0 4 29 20 32 6 0 43 53 89 0 0 0 14 0 0 79 0 61 26 94 86 0 0 0 0 111 104 0 22 44 0 5 0 23 17 15 20 7 0 0 0 33 15 0 0 10 15 0 0 0 0 0 4 29 38 44 26 59 6 0 0 0 0 43 0 0 1 12 0 0 0 0 47 58 43 60 23 0 0 0 0 0 4 24 13 2 0 0 0 0 32 33 11 0 0 0 7 0 40 0 0 41 23 0 37 42 0 0 38 83 0 0 1 17 0 0 0 0 15 20 0 57 16 0 2 26 32 20 0 0 107 15 0 0 0 0 127 78 63 150 0 0 227 0 0 56 172 0 70 0 18 0 0 0 0 0 216 15 0 236 0 0 0 84 75 85 42 0 0 32 0 40 147 56 45 78 14 0 48 24 0 0 0 0 74 0 0 1 65 43 18 109 28 0 20 50 92 77 12 0 0 97 59 84 1 0 39 0 202 35 0 0 0 82 18 48 0 18 77 47 1 25 22 0 8 33 0 18 49 22 36 35 0 33 1 0 0 0 0 0 0 49 22 0 0 0 0 0 9 34 0 13 44 0 0 0 0 0 83 47 3 0 0 6 1 53 5 0 0 2 10 7 0 3 0 0 0 0 0 0 0 0 0 0 0 0 0 0 0 0 0 0 0 0 0 0 0 0 0 0 0 0 0 0 0 0 0 0 0 0 0 0 0 0 0 0 0 0 0 0 0 0 0 0 0 0 0 0 0 0 0 0 0 0 0 0 0 0 0 0 0 0 0 0 0 0 0 0 0 0 0 0 0 0 0 0 255
255 0 0 0 0 0 0 0 0 0 0 0 0 0 0 0 0 0 0 0 0 0 0 0 0 0 0 0 0 0 0 0 0 0 0 0 0 0 0 0 0 0 0 0 0 0 0 2 10 9 4 0 23 58 55 0 0 0 29 45 0 8 53 8 70 3 0 0 29 35 0 0 0 0 2 1 0 29 54 0 0 0 0 0 18 27 10 0 0 45 4 0 6 0 0 31 0 8 55 13 25 63 0 0 58 38 15 3 0 0 0 59 49 2 0 2 0 0 11 46 0 0 0 0 0 56 41 0 12 0 0 38 46 2 0 33 0 0 41 50 9 11 19 0 0 0 0 0 0 34 37 47 0 16 19 17 0 0 0 12 0 0 0 0 2 8 9 19 0 4 16 12 16 14 2 9 0 0 0 10 5 3 0 15 0 0 2 0 4 6 3 0 6 0 0 0 41 89 117 124 0 0 0 0 0 0 35 36 8 3 1 2 0 3 9 22 12 0 0 0 0 4 0 16 12 20 35 61 74 67 20 3 57 73 53 28 0 0 0 0 4 0 3 0 0 67 32 0 0 255 138 25 0 101 0 0 0 0 8 43 37 34 45 108 0 0 0 0 0 0 13 18 0 0 3 0 0 0 0 0 0 0 0 0 0 4 0 0 20 0 0 0 0 12 3 0 0 0 0 0 0 0 43 85 101 51 23 13 67 44 0 0 0 0 0 199 0 0 92 0 0 0 37 21 0 0 44 0 23 41 24 0 18 15 16 58 0 0 0 0 0 0 0 0 0 0 0 0 0 0 0 0 0 0 0 0 14 9 8 0 15 5 0 0 0 11 6 1 14 9 0 0 3 0 3 17 0 0 7 12 10 6 3 4 0 0 10 0 12 0 6 0 16 12 0 0 169 5 66 21 0 0 41 0 0 43 48 106 0 0 0 0 14 54 45 14 0 0 7 13 5 4 7 22 25 15 0 8 27 40 30 0 50 27 1 0 0 0 0 0 0 0 0 0 0 0 4 20 45 9 0 3 7 7 0 3 0 16 39 46 39 29 25 49 13 4 0 0 0 0 0 0 0 16 19 21 25 12 9 6 55 43 17 0 0 0 0 0 6 0 4 37 0 0 0 0 8 21 10 0 19 13 0 0 28 0 6 7 1 0 4 7 14 0 0 0 12 13 10 0 11 3 9 0 0 0 0 21 0 0 4 0 3 0 0 0 0 8 15 11 0 0 0 4 0 0 23 9 5 40 46 38 0 0 0 0 0 0 54 0 0 0 47 41 0 0 22 74 23 63 0 0 47 0 0 30 0 0 0 8 13 10 17 0 23 0 0 22 28 0 0 0 0 0 0 14 55 35 0 0 4 18 54 51 0 28 85 80 9 45 22 0 0 39 47 0 0 0 20 11 0 3 54 39 0 10 7 0 0 0 14 15 0 10 23 12 0 0 0 0 0 42 0 0 30 15 0 7 0 0 0 0 16 39 5 0 20 0 0 0 8 12 5 0 41 28 30 15 6 12 35 50 0 64 0 0 0 0 194 0 0 0 0 255 0 166 0 0 119 45 0 33 0 0 101 23 72 0 0 68 0 0 204 0 0 0 5 0 23 7 10 87 0 0 0 130 0 0 136 33 106 105 87 79 44 0 0 234 0 51 0 0 0 45 148 60 90 44 0 15 61 46 0 0 0 0 42 72 0 1 0 109 12 0 0 36 36 0 17 0 73 0 0 0 59 64 23 0 96 0 0 25 0 0 38 0 0 0 0 0 0 26 20 0 52 71 0 0 3 15 0 41 38 0 0 58 0 0 26 0 0 102 17 7 33 0 20 0 86 23 9 0 0 7 0 0 3 0 0 0 0 0 0 0 0 0 0 0 0 0 0 0 0 0 0 0 0 0 0 0 0 0 0 0 0 0 0 0 0 0 0 0 0 0 0 0 0 0 0 0 0 0 0 0 0 0 0 0 0 0 0 0 0 0 0 0 0 0 0 0 0 0 0 0 0 0 0 0 0 0 0 0 0 0 0 0 0 0 0 255
255 0 0 0 0 0 0 0 0 0 0 0 0 0 0 0 0 0 0 0 0 0 0 0 0 0 0 0 0 0 0 0 0 0 0 0 0 0 0 0 0 0 0 0 0 0 1 3 6 0 0 2 33 56 28 0 5 0 38 0 0 28 41 0 99 0 0 9 20 31 24 6 2 21 0 0 25 28 0 37 44 0 0 0 0 10 0 0 67 104 74 126 126 45 7 33 0 5 60 15 26 49 0 0 0 13 26 43 56 0 0 0 35 28 18 0 0 0 15 0 102 22 0 56 72 13 0 9 47 13 24 44 23 0 0 20 0 0 26 37 17 41 31 0 32 20 0 0 0 0 0 3 1 0 0 7 19 14 0 0 10 1 1 0 5 17 6 12 0 0 0 0 0 0 0 7 5 0 0 13 7 1 0 6 0 0 0 0 0 0 3 0 0 13 49 36 0 0 0 71 102 53 0 0 0 0 0 0 28 0 5 4 13 0 7 17 11 10 2 11 34 42 37 39 0 0 0 0 0 0 0 0 0 0 0 0 0 0 0 0 0 0 0 0 0 0 2 0 0 0 255 36 51 0 0 0 40 0 0 0 30 60 46 8 107 63 0 0 0 0 0 0 13 3 13 2 8 4 6 0 0 0 21 11 0 0 0 0 10 0 0 26 53 23 0 0 0 0 0 0 6 58 74 71 41 68 44 38 101 69 2 69 0 7 120 30 0 9 58 0 0 0 65 39 0 1 37 0 0 20 0 0 0 0 0 29 0 21 24 19 0 12 27 12 17 9 12 5 0 0 1 11 0 0 0 0 2 6 3 0 13 1 0 0 0 0 3 8 3 6 0 0 0 0 0 11 0 0 7 12 10 6 3 1 2 0 14 0 14 0 0 0 0 50 0 0 106 27 87 0 90 0 73 62 0 0 0 37 46 0 0 0 0 44 45 20 57 60 47 25 3 0 2 18 0 0 0 0 0 0 0 0 8 0 0 0 0 0 0 0 38 26 13 17 16 6 8 8 11 0 0 0 14 12 13 42 49 21 0 0 0 1 26 61 0 0 0 0 2 0 22 27 45 45 42 43 30 21 24 50 37 28 0 0 0 0 0 0 22 0 0 0 0 0 0 9 26 29 19 0 22 24 16 20 27 0 2 6 0 3 1 5 15 7 0 4 19 14 2 0 5 13 27 22 16 0 6 23 0 0 0 2 2 5 0 9 5 0 0 5 1 10 5 0 4 0 3 5 0 26 40 3 16 72 0 0 0 18 27 3 51 0 0 0 0 11 43 25 0 26 0 0 13 0 0 1 0 0 0 0 0 0 8 0 19 0 1 25 0 0 0 0 0 0 12 30 63 10 0 46 0 0 5 0 0 0 0 0 39 0 0 58 61 0 0 52 0 0 7 2 0 0 36 32 0 9 4 0 0 5 23 19 0 0 0 0 6 34 41 31 32 0 23 24 0 0 25 0 0 0 0 0 0 0 21 0 43 21 0 0 9 0 0 0 27 9 17 4 0 0 0 33 71 0 0 118 5 0 54 0 255 255 125 56 0 0 21 0 117 72 5 0 0 0 255 90 238 217 0 0 0 0 113 0 0 97 0 0 0 69 56 0 0 0 0 48 0 0 60 0 0 0 0 0 0 0 0 103 0 0 7 0 0 12 0 0 0 0 0 0 0 60 86 43 0 0 0 102 0 0 0 86 0 0 0 74 0 0 0 0 152 0 0 26 53 0 0 0 90 0 0 35 0 0 35 0 36 24 11 0 19 51 35 0 0 37 11 0 81 41 0 0 71 0 0 34 0 4 45 0 0 27 0 0 36 0 20 0 18 14 25 0 0 0 4 0 3 0 0 0 0 0 0 0 0 0 0 0 0 0 0 0 0 0 0 0 0 0 0 0 0 0 0 0 0 0 0 0 0 0 0 0 0 0 0 0 0 0 0 0 0 0 0 0 0 0 0 0 0 0 0 0 0 0 0 0 0 0 0 0 0 0 0 0 0 0 0 0 0 0 0 0 0 0 0 0 0 0 0 255
255 0 0 0 0 0 0 0 0 0 0 0 0 0 0 0 0 0 0 0 0 0 0 0 0 0 0 0 0 0 0 0 0 0 0 0 0 0 0 0 0 0 0 0 0 0 2 0 13 0 10 14 55 53 10 0 35 5 0 0 14 92 47 0 61 0 0 4 2 3 5 0 27 24 0 0 31 0 0 29 24 15 0 0 0 0 24 8 81 0 0 0 0 0 0 0 0 0 26 0 0 14 0 11 0 0 0 32 36 23 23 0 15 32 47 0 0 7 0 0 16 46 55 31 30 5 0 26 37 20 18 16 0 0 0 21 0 0 0 0 0 9 18 39 0 11 26 20 3 0 0 0 11 0 0 14 28 24 7 0 7 1 0 0 0 0 0 0 0 10 5 0 0 0 0 0 0 0 1 13 0 0 0 0 11 0 5 0 0 0 5 0 53 0 0 0 43 72 5 0 44 84 113 98 45 0 0 0 40 7 24 27 19 0 0 23 0 10 19 25 4 0 0 0 0 0 0 0 0 0 0 40 0 0 0 14 67 120 158 188 227 84 0 0 0 0 0 0 0 0 104 223 0 0 51 44 26 12 0 0 3 2 19 0 107 80 85 75 58 23 0 0 0 0 0 0 13 26 20 0 1 13 39 37 4 0 0 0 50 24 24 58 0 0 0 71 75 63 65 79 82 58 23 15 7 94 53 6 89 42 0 0 0 121 83 0 15 47 0 0 10 0 15 16 0 16 18 0 0 8 0 0 0 0 0 0 0 22 33 26 9 0 23 22 14 8 5 0 0 1 5 10 0 0 0 0 3 1 0 0 8 3 0 0 1 5 7 6 0 0 0 0 0 5 0 9 0 0 1 0 3 0 0 0 9 1 8 11 0 4 0 0 0 71 0 0 7 18 70 0 0 0 0 75 106 61 0 0 56 54 43 4 0 0 0 0 0 0 0 0 0 0 11 21 7 5 0 0 0 0 0 0 0 0 0 4 11 7 0 0 49 27 10 17 11 0 0 0 44 15 7 35 32 19 17 43 5 19 5 14 38 44 17 0 0 0 0 0 3 9 16 26 15 12 3 0 3 13 14 35 0 0 0 0 0 0 0 23 9 6 0 0 0 0 0 21 43 43 18 0 11 7 0 10 16 0 0 0 0 0 11 4 8 0 0 4 12 11 2 0 0 0 18 10 11 0 0 7 0 0 0 0 0 2 3 7 10 0 0 0 8 15 10 0 65 1 0 0 0 17 52 24 0 108 0 0 0 0 0 21 96 33 27 41 0 0 0 0 35 55 0 0 32 0 8 0 37 30 4 0 0 0 0 0 23 12 14 0 0 0 0 0 8 70 48 29 50 23 0 69 37 0 66 32 12 49 12 3 0 0 30 56 38 0 0 60 58 52 64 27 0 0 0 0 0 3 13 5 0 1 0 0 29 16 0 0 0 16 15 0 34 0 24 42 0 0 46 0 58 0 0 39 0 0 11 28 38 40 0 0 19 21 0 0 63 20 0 0 0 5 0 0 0 62 36 98 131 0 0 16 73 0 31 0 0 10 66 255 0 0 241 134 124 0 0 0 0 68 25 0 106 153 128 0 0 14 0 0 19 89 10 0 33 0 22 47 0 51 66 0 0 0 0 0 0 0 0 0 103 29 80 108 139 43 0 24 47 60 59 30 21 57 64 39 87 90 0 95 0 0 85 173 0 0 0 136 0 0 0 0 101 0 0 63 0 0 0 47 0 0 8 34 7 11 17 0 48 17 15 14 25 41 14 0 0 18 0 0 18 28 0 0 87 0 0 5 0 13 32 0 0 96 31 17 21 0 15 0 0 19 50 1 3 0 4 0 3 0 0 0 0 0 0 0 0 0 0 0 0 0 0 0 0 0 0 0 0 0 0 0 0 0 0 0 0 0 0 0 0 0 0 0 0 0 0 0 0 0 0 0 0 0 0 0 0 0 0 0 0 0 0 0 0 0 0 0 0 0 0 0 0 0 0 0 0 0 0 0 0 0 0 0 0 0 0 0 0 0 0 255
255 0 0 0 0 0 0 0 0 0 0 0 0 0 0 0 0 0 0 0 0 0 0 0 0 0 0 0 0 0 0 0 0 0 0 0 0 0 0 0 0 0 0 0 0 0 3 2 2 0 20 50 46 0 0 0 9 11 0 0 83 82 15 0 0 0 0 15 0 0 0 0 29 0 10 21 0 0 3 0 0 0 0 0 0 8 19 32 195 0 0 0 23 101 66 72 24 27 34 0 0 7 0 31 23 0 0 0 0 0 30 0 32 26 21 13 0 9 0 0 0 56 32 0 0 40 30 0 30 15 8 7 0 0 0 15 0 1 0 0 4 0 0 29 0 0 0 4 9 8 11 4 11 0 0 15 28 0 0 7 9 1 0 0 5 0 0 0 0 24 21 12 0 11 8 11 0 0 0 7 0 0 0 0 4 7 8 5 0 0 7 0 0 0 0 0 7 9 47 104 0 24 90 78 57 49 31 0 2 5 5 17 22 0 0 17 0 0 0 0 0 0 0 0 0 0 82 158 175 169 164 159 203 209 204 192 189 178 167 169 166 255 255 255 255 40 0 0 0 0 0 255 101 88 0 0 0 0 18 0 0 0 0 0 16 10 52 65 73 87 52 24 0 0 0 0 0 0 0 0 8 6 11 4 6 9 7 0 0 0 0 0 0 0 0 40 78 57 39 38 45 53 45 80 16 42 0 0 11 0 0 0 145 33 0 3 60 0 0 47 30 0 0 0 0 0 11 0 13 28 12 0 28 0 0 0 0 0 11 0 0 0 0 0 0 0 0 0 0 4 0 0 0 3 6 1 0 0 0 1 5 0 0 0 0 0 1 0 0 0 0 5 8 2 0 8 0 5 0 0 0 0 0 0 1 5 2 4 1 4 0 4 0 49 0 2 0 0 37 29 0 0 0 0 71 114 16 10 0 32 46 40 8 0 0 0 0 0 0 0 0 0 19 18 2 6 16 8 13 2 1 4 0 0 10 16 25 22 1 0 0 0 0 0 0 2 0 3 68 27 31 38 28 0 0 4 0 7 28 53 62 42 0 0 0 0 0 0 7 0 0 4 0 0 0 0 0 0 0 0 0 0 0 0 10 0 0 22 0 1 0 0 0 9 47 10 17 25 8 0 3 0 0 0 9 0 2 0 16 6 4 0 0 0 0 2 7 9 7 0 0 0 0 0 0 0 0 0 0 7 2 4 0 5 0 4 7 0 0 0 12 6 8 0 30 1 13 9 0 18 43 29 0 50 47 0 0 0 0 0 0 0 15 36 0 0 31 70 12 0 0 14 0 0 4 0 0 0 0 0 0 20 37 51 15 7 0 0 0 0 17 9 99 131 36 0 65 42 0 21 33 0 1 0 0 3 0 0 0 47 76 6 0 29 37 33 0 0 0 11 0 1 37 25 0 0 11 6 3 11 0 0 29 19 9 0 0 0 0 0 12 0 1 15 0 3 12 0 59 0 12 48 1 0 34 55 0 35 0 8 46 46 0 43 67 20 0 0 7 24 13 0 30 28 0 0 114 211 0 0 80 0 41 255 255 5 0 120 0 0 59 22 0 0 0 0 0 0 0 93 143 0 0 107 223 62 0 0 69 28 65 209 42 0 0 0 0 86 0 0 51 104 89 49 95 127 86 103 92 2 25 0 66 24 0 52 96 40 83 133 72 0 0 0 0 12 29 214 42 64 14 0 0 0 0 106 0 3 0 0 23 0 22 43 0 0 58 72 0 3 9 0 0 13 0 0 9 0 0 0 9 19 0 0 33 10 0 0 0 0 46 0 2 53 19 0 0 10 0 2 0 149 65 28 25 0 38 14 0 0 59 8 5 4 2 0 3 0 0 0 0 0 0 0 0 0 0 0 0 0 0 0 0 0 0 0 0 0 0 0 0 0 0 0 0 0 0 0 0 0 0 0 0 0 0 0 0 0 0 0 0 0 0 0 0 0 0 0 0 0 0 0 0 0 0 0 0 0 0 0 0 0 0 0 0 0 0 0 0 0 0 0 0 0 0 0 0 0 0 255
255 0 0 0 0 0 0 0 0 0 0 0 0 0 0 0 0 0 0 0 0 0 0 0 0 0 0 0 0 0 0 0 0 0 0 0 0 0 0 0 0 0 0 0 1 2 5 3 0 0 7 86 0 0 0 0 0 0 1 67 108 0 0 66 0 0 5 31 5 14 29 0 6 0 44 73 0 12 88 0 60 26 5 34 55 60 17 0 38 0 110 151 45 64 30 61 11 17 51 0 32 85 9 60 28 0 0 4 0 9 0 0 71 0 0 5 9 18 31 53 4 0 0 0 14 19 0 0 0 9 24 22 35 52 21 0 0 0 0 28 26 0 0 25 82 44 3 0 0 2 0 2 14 3 25 36 0 0 0 22 24 0 0 12 19 26 3 0 0 0 14 4 4 8 4 5 0 0 0 6 0 0 0 16 4 8 17 10 0 0 0 0 6 0 6 36 40 19 0 0 22 0 0 0 0 65 46 58 0 0 0 15 16 0 6 31 0 0 0 0 0 0 1 38 152 136 132 98 56 21 27 48 26 23 42 28 25 1 0 0 0 10 0 17 200 255 255 212 0 0 0 0 242 29 28 58 0 0 0 0 27 57 37 0 42 31 53 58 72 100 81 90 142 80 0 1 75 94 21 0 0 0 0 0 0 0 0 0 0 0 0 0 37 74 89 39 21 14 37 55 71 48 34 76 0 0 0 28 31 0 0 189 77 77 0 0 93 58 0 47 47 1 16 32 0 0 43 40 32 41 0 0 24 12 6 42 14 19 5 0 0 1 0 0 0 0 0 0 14 3 0 0 0 8 14 3 0 0 0 7 0 4 0 13 19 19 11 0 3 5 13 7 22 12 8 9 7 2 3 6 7 3 5 6 0 0 6 9 11 16 11 22 0 23 0 100 0 0 111 188 29 0 0 0 0 73 18 11 0 0 6 36 59 59 0 0 0 0 0 0 4 11 0 0 0 0 0 0 0 0 0 0 50 28 27 13 26 25 15 10 0 7 23 24 37 29 22 42 0 0 0 25 9 0 0 31 66 82 18 0 0 0 0 0 7 0 0 17 21 16 4 24 42 19 0 0 43 43 0 0 29 0 0 9 13 0 0 22 0 8 0 0 0 8 29 0 0 16 3 0 9 13 0 15 0 0 0 0 8 9 12 10 0 0 0 3 4 0 0 0 18 11 10 12 21 21 15 25 16 23 8 6 0 0 0 3 22 6 1 0 0 3 0 3 0 0 15 16 0 0 30 0 83 0 84 81 0 0 4 0 68 0 0 3 0 6 19 3 0 0 0 39 0 0 42 0 44 44 47 44 33 31 39 52 15 4 0 0 0 0 0 0 77 46 0 0 27 38 0 0 0 0 8 0 0 46 21 125 159 27 0 54 64 0 0 59 0 0 37 77 31 14 5 0 0 2 8 0 11 25 23 0 0 15 5 5 0 6 22 23 0 50 0 0 45 26 0 0 0 0 43 21 0 25 48 0 0 0 0 0 46 0 0 0 0 0 10 0 0 0 6 0 42 0 63 6 0 100 20 0 0 0 136 0 0 0 125 121 0 16 234 0 0 242 21 151 38 106 72 32 16 0 0 0 0 58 98 66 51 27 0 0 169 0 97 86 60 87 0 113 95 0 0 58 119 0 0 56 0 0 0 0 0 66 0 0 59 0 0 0 46 0 0 78 0 0 11 0 0 58 0 0 95 0 0 0 0 12 17 52 38 0 32 3 0 25 63 0 0 82 68 0 3 6 0 17 40 0 0 0 6 0 0 18 18 0 45 53 0 40 46 0 0 73 42 0 0 13 9 34 0 27 0 0 61 79 129 67 0 0 69 25 0 5 4 0 7 7 8 6 4 4 5 4 2 0 0 0 0 0 0 2 3 3 1 0 2 4 4 3 3 5 5 4 3 3 4 4 4 3 4 4 3 1 0 2 3 3 1 0 0 0 1 1 1 0 0 0 0 0 0 0 0 0 0 0 0 0 0 0 0 0 0 0 0 0 0 0 0 0 0 0 0 0 0 0 0 0 0 255
255 0 0 0 0 0 0 0 0 0 0 0 0 0 0 0 0 0 0 0 0 0 0 0 0 0 0 0 0 0 0 0 0 0 0 0 0 0 0 0 0 0 0 0 2 0 0 3 13 27 0 112 0 0 127 5 0 92 0 0 100 3 0 37 0 12 0 5 18 17 13 0 67 0 0 9 0 6 24 0 0 39 4 0 0 0 0 0 56 94 3 0 59 29 0 0 120 104 49 0 0 0 0 0 0 0 0 0 0 0 0 0 0 33 20 19 0 0 0 0 1 68 51 48 33 33 44 0 0 0 14 28 45 40 0 0 8 22 23 16 0 4 2 0 0 17 39 14 0 0 40 56 0 0 0 13 9 0 0 0 32 28 25 10 0 1 8 16 14 0 21 18 0 0 14 0 0 11 9 9 0 0 0 0 15 0 0 7 23 8 11 0 0 1 14 15 13 0 5 7 12 0 0 0 0 0 9 89 0 0 0 0 50 22 0 0 0 0 9 99 157 172 166 104 53 11 0 0 0 0 0 0 0 4 11 6 21 17 27 58 0 0 0 0 0 0 64 202 255 255 0 0 0 75 69 0 38 23 1 4 0 0 0 16 0 0 0 0 0 0 65 103 102 124 133 110 82 58 65 110 87 99 78 26 13 22 64 76 108 99 117 121 104 89 75 80 113 84 98 94 33 4 0 0 0 61 0 116 0 0 186 141 0 0 23 0 0 0 13 35 0 0 0 2 14 11 0 0 10 0 0 0 0 0 0 0 0 0 0 0 0 0 0 0 25 6 0 0 11 18 22 22 12 1 3 10 13 18 26 33 0 0 0 3 0 0 0 16 1 0 0 0 6 13 2 3 0 13 31 23 0 0 0 33 1 1 0 0 0 0 0 1 0 7 10 11 0 0 0 0 174 105 91 50 0 0 101 121 0 0 17 0 5 65 134 148 77 47 20 0 0 0 18 39 79 55 5 0 0 0 0 0 0 0 0 0 0 0 0 84 0 0 0 0 0 33 15 13 0 0 31 60 103 113 123 112 0 0 0 0 0 42 57 12 92 43 26 33 36 39 29 0 0 21 35 0 0 0 0 0 1 3 6 1 0 6 5 2 1 0 0 0 45 25 25 57 7 0 20 35 36 18 9 8 20 0 0 0 6 10 6 0 7 15 3 3 0 0 10 9 16 0 0 0 0 7 4 0 0 0 0 17 26 15 2 8 0 0 0 0 0 0 5 22 28 0 0 18 34 2 0 0 78 12 42 128 65 0 0 0 0 0 16 29 0 0 9 0 3 13 18 18 16 14 24 6 11 0 0 0 4 13 0 0 0 0 0 0 91 29 54 36 22 0 79 34 89 40 59 0 41 102 115 0 105 142 0 94 0 0 0 0 0 80 107 125 0 33 0 0 0 0 63 20 66 0 0 3 0 0 9 42 0 10 9 0 0 18 25 0 30 0 0 11 18 10 13 0 29 25 0 0 33 30 12 34 60 0 2 0 0 11 66 0 1 0 49 0 30 0 14 3 112 0 0 15 14 40 92 190 0 0 255 0 0 0 255 0 0 0 255 0 0 0 53 85 0 0 0 0 0 0 0 57 0 91 0 0 0 0 0 0 121 127 28 18 0 121 4 0 0 52 71 0 0 42 82 0 0 29 97 75 16 9 0 0 66 2 0 0 0 0 0 101 0 10 63 25 0 19 0 0 3 90 47 27 95 13 0 97 49 6 7 0 0 15 119 14 92 22 0 0 0 20 46 16 3 67 13 0 24 66 8 0 32 0 0 38 15 14 30 65 0 51 29 0 0 0 0 0 0 0 0 0 0 0 0 22 53 0 0 28 9 0 0 7 5 0 0 0 0 0 0 0 3 0 0 0 0 0 0 2 0 0 8 10 12 0 0 6 0 0 0 0 0 0 0 0 11 8 0 0 0 5 4 6 0 0 3 1 0 0 1 0 1 0 0 0 0 0 0 0 0 0 0 0 0 0 0 0 0 0 0 0 0 0 0 0 0 0 0 0 0 0 0 0 0 0 0 255
255 0 0 0 0 0 0 0 0 0 0 0 0 0 0 0 0 0 0 0 0 0 0 0 0 0 0 0 0 0 0 0 0 0 0 0 0 0 0 0 0 0 0 0 3 0 0 3 0 12 13 97 0 0 81 0 0 52 0 0 1 6 0 18 0 0 0 1 11 14 11 25 0 7 36 16 0 0 26 21 0 10 21 17 21 0 0 0 64 0 0 0 72 29 0 0 0 88 0 0 0 0 0 0 38 6 57 19 16 36 0 0 0 21 0 1 8 0 4 24 21 1 0 0 0 0 0 0 0 0 27 20 0 0 0 0 0 0 0 0 0 0 0 11 0 0 20 29 8 2 3 0 34 17 0 0 0 0 10 26 0 0 0 14 0 0 0 6 0 0 10 18 0 0 7 0 10 7 4 14 0 1 0 0 19 0 0 0 0 0 0 0 1 0 4 13 7 4 3 6 34 13 0 31 70 46 0 0 0 81 84 0 0 0 0 6 59 42 45 49 27 16 0 0 9 8 12 12 7 6 5 5 0 0 0 0 0 0 0 16 0 15 11 2 5 1 0 29 0 168 179 54 6 0 40 109 23 0 0 34 6 0 0 17 0 0 0 0 0 0 0 1 0 0 20 31 66 70 76 77 90 109 122 114 113 113 122 102 85 80 63 72 62 47 57 67 8 0 0 0 0 0 0 0 5 0 88 0 0 7 155 25 0 0 5 22 0 0 8 30 0 0 0 4 13 14 9 11 0 10 1 0 0 0 4 0 14 20 23 19 2 0 13 19 28 13 4 3 10 8 2 0 0 0 0 0 0 0 0 3 0 0 3 16 5 1 0 14 7 0 0 0 9 16 21 24 0 0 0 0 0 0 0 0 4 4 0 6 0 0 0 8 0 3 2 0 0 0 0 0 0 2 77 68 0 0 26 156 115 0 0 0 0 0 0 16 88 52 39 19 26 31 33 33 7 3 9 20 15 9 13 0 83 36 7 7 1 0 0 0 0 14 5 3 2 21 26 48 13 50 4 0 0 0 0 0 0 0 0 0 0 0 0 0 0 0 0 0 8 2 0 0 0 0 0 0 0 16 38 38 2 0 0 6 3 2 3 8 0 0 0 0 29 12 3 27 0 0 0 7 8 2 8 0 15 0 0 2 8 6 6 0 2 0 0 2 0 0 3 3 4 0 0 3 8 12 1 0 45 14 0 8 3 0 0 0 17 2 0 0 8 1 11 26 0 0 0 12 16 0 0 14 48 0 0 50 21 0 0 0 0 0 0 12 0 8 45 0 7 0 1 0 1 0 1 0 34 14 0 0 5 7 0 0 0 0 0 0 53 22 38 68 13 0 43 0 0 0 0 2 136 2 6 0 0 0 0 71 0 0 0 0 74 86 0 0 36 3 0 58 58 0 40 0 0 0 18 31 0 0 13 0 0 17 22 11 16 10 1 0 0 0 0 0 5 0 0 0 9 0 0 0 0 0 0 0 6 0 0 46 0 0 32 53 35 0 0 0 49 7 23 0 25 0 0 10 0 0 12 54 75 53 0 0 54 186 0 0 229 37 0 72 35 0 0 121 109 116 73 49 38 0 0 13 0 173 53 0 0 36 4 0 32 6 0 0 0 26 0 0 0 29 44 0 0 0 37 50 0 0 0 0 0 0 0 0 179 84 60 105 138 40 0 0 0 0 0 0 0 0 1 106 15 81 50 36 83 17 0 75 0 0 54 60 29 34 5 0 18 0 4 0 9 26 4 0 0 0 0 0 35 0 0 0 0 0 1 4 0 19 31 15 0 24 0 0 0 0 0 0 61 25 30 11 0 0 0 0 0 0 112 125 55 30 0 0 1 9 11 6 6 0 0 0 3 0 0 0 0 0 0 3 6 0 0 0 0 0 8 6 7 7 10 8 4 1 2 2 0 0 14 13 14 0 0 10 0 2 0 3 2 3 3 2 1 0 0 0 0 0 0 0 0 0 0 0 0 0 0 0 0 0 0 0 0 0 0 0 0 0 0 0 0 0 0 0 0 0 0 255
255 0 0 0 0 0 0 0 0 0 0 0 0 0 0 0 0 0 0 0 0 0 0 0 0 0 0 0 0 0 0 0 0 0 0 0 0 0 0 0 0 0 0 0 3 0 0 3 0 2 64 55 0 0 32 0 0 4 7 4 13 0 0 1 0 0 0 12 4 2 0 45 0 17 34 0 0 0 0 26 0 0 5 30 31 9 0 0 67 0 0 44 59 0 0 0 0 49 73 105 96 0 0 149 57 26 76 37 20 24 0 16 0 49 24 5 3 0 0 30 32 0 0 0 0 0 0 56 0 51 58 32 0 0 11 57 7 7 6 2 0 0 0 0 0 0 0 0 15 13 0 0 0 16 34 6 0 4 16 20 0 0 0 30 0 0 0 0 7 0 9 17 0 0 9 0 10 9 6 11 0 0 3 5 8 0 0 0 0 0 0 0 6 0 0 18 1 3 7 22 1 4 8 13 8 11 6 49 0 0 0 0 0 0 21 51 77 62 58 45 29 15 0 0 0 6 8 17 19 13 1 0 0 0 0 0 0 0 0 14 0 24 27 25 8 3 0 5 0 29 86 83 23 0 0 0 87 13 0 0 23 38 8 0 0 0 0 0 0 0 0 0 0 0 0 0 6 16 42 67 21 16 39 47 60 54 31 13 79 60 47 33 16 0 0 0 0 0 0 0 0 0 0 2 31 0 61 0 0 188 109 0 16 0 0 40 11 0 11 15 0 0 1 12 6 9 5 13 0 0 0 3 5 0 0 0 0 14 16 0 0 0 0 13 18 5 2 0 0 4 0 0 12 6 15 4 0 0 0 14 1 0 0 9 12 4 0 0 10 0 0 0 6 8 11 14 5 3 0 0 24 15 2 0 0 0 0 0 5 2 3 0 2 3 0 0 0 0 0 0 0 0 0 49 67 0 0 0 209 161 110 22 0 0 0 0 55 38 53 57 33 5 0 0 0 0 0 21 34 27 6 0 0 0 0 0 0 26 55 52 15 29 32 63 46 22 3 9 0 0 0 0 0 0 0 7 13 28 38 12 0 0 0 0 0 0 0 0 0 0 0 0 0 0 0 21 15 0 0 0 0 1 0 0 1 1 0 0 0 0 0 0 41 27 9 17 24 0 0 0 11 9 7 0 9 0 0 0 11 5 8 0 5 0 8 2 0 0 4 6 0 2 0 6 17 12 0 0 33 0 0 0 13 0 0 0 30 12 0 0 4 9 11 23 0 0 3 15 6 0 0 39 3 0 0 32 63 25 0 0 0 0 0 0 0 8 30 0 17 11 12 6 5 5 9 0 19 1 0 0 0 0 0 0 0 0 0 110 74 55 0 0 0 0 0 0 16 0 4 2 122 0 99 115 0 2 35 56 0 74 50 0 34 17 0 62 61 23 0 0 0 6 69 0 0 6 34 21 0 9 30 0 0 0 16 23 22 0 0 0 0 0 0 18 10 0 0 1 35 41 4 0 34 29 7 19 2 0 22 37 0 0 24 38 43 0 0 0 38 7 22 0 0 0 0 34 0 0 13 18 102 61 0 0 93 243 0 126 255 0 0 0 159 0 153 0 1 0 0 0 20 10 0 51 0 0 115 0 0 0 0 19 65 59 0 26 11 0 9 0 0 82 49 0 0 8 3 92 0 0 0 0 0 0 0 12 55 0 0 19 51 62 93 95 110 50 115 152 57 0 16 74 0 0 0 0 0 0 0 0 0 15 1 5 36 10 0 0 0 0 18 22 17 10 0 0 10 0 0 25 54 0 0 70 0 5 28 0 0 37 54 0 0 49 13 0 0 0 0 0 31 0 13 7 12 0 0 0 0 0 0 0 47 82 38 0 0 4 11 7 7 0 4 3 3 3 3 3 3 3 3 5 0 0 1 11 12 5 7 0 12 0 0 0 8 15 18 22 19 20 0 0 0 6 7 4 0 3 0 5 0 0 0 3 1 0 0 0 0 0 0 0 0 0 0 0 0 0 0 0 0 0 0 0 0 0 0 0 0 0 0 0 0 0 0 0 0 0 0 255
255 0 0 0 0 0 0 0 0 0 0 0 0 0 0 0 0 0 0 0 0 0 0 0 0 0 0 0 0 0 0 0 0 0 0 0 0 0 0 0 0 0 0 0 3 0 0 1 7 22 99 11 0 0 8 0 48 0 16 128 62 0 0 17 0 0 8 1 11 3 1 50 0 27 0 0 52 60 0 2 61 0 0 6 0 0 1 5 0 0 49 63 0 0 0 49 0 0 91 83 0 139 213 30 0 0 10 14 10 19 0 23 0 50 47 0 12 0 0 52 13 0 17 21 35 35 3 48 0 12 10 0 0 0 0 0 14 13 2 0 4 11 0 0 9 0 0 0 0 12 11 0 0 14 60 24 3 1 15 0 8 0 5 28 29 0 0 0 37 0 10 21 0 2 22 0 0 0 0 0 0 0 4 0 8 1 4 3 1 0 0 0 9 0 6 8 6 4 9 18 2 0 0 0 0 8 23 17 0 0 0 0 85 113 66 28 0 0 0 0 0 0 2 0 0 0 5 12 10 0 0 0 0 0 6 7 15 10 8 15 0 0 1 8 13 0 0 0 33 0 0 0 55 35 0 0 63 90 64 0 0 59 56 0 0 0 0 1 0 0 0 0 0 0 0 0 0 0 0 0 0 0 0 0 13 0 0 0 0 0 0 0 0 0 0 0 0 0 1 7 5 21 47 24 34 46 0 0 204 91 0 1 52 0 0 58 22 0 0 0 24 2 0 4 2 0 0 0 0 0 2 0 2 1 6 9 0 0 0 0 0 0 8 20 9 5 0 0 0 0 0 0 11 16 12 0 10 5 17 12 25 0 0 13 26 5 0 0 41 13 3 0 0 0 0 0 22 9 4 14 29 30 17 3 0 0 0 2 4 3 1 0 27 10 0 5 3 4 0 0 0 0 0 0 122 77 0 0 0 28 135 47 23 88 40 0 0 0 4 38 49 8 0 0 0 0 3 30 49 32 20 7 55 80 63 0 0 0 13 47 25 23 56 103 41 0 0 0 0 0 116 255 255 255 255 209 194 224 226 200 192 195 181 213 206 105 0 0 0 0 0 0 0 5 12 3 0 0 0 33 0 0 0 3 0 0 0 0 0 0 0 0 29 18 0 0 53 0 0 0 11 16 7 0 10 0 1 0 6 5 2 0 0 3 0 2 0 0 0 7 0 0 2 6 11 12 0 0 31 0 0 0 21 18 17 14 21 0 0 0 0 12 1 0 5 0 0 11 0 0 0 43 0 9 0 7 73 81 0 0 0 0 17 0 0 0 19 0 15 1 2 6 12 9 9 22 0 0 0 0 0 0 0 0 0 0 25 132 0 39 0 0 0 0 18 0 107 41 56 0 0 0 88 90 0 0 0 12 54 0 83 41 0 32 36 50 0 17 16 0 0 21 66 0 9 9 31 3 0 6 30 20 2 0 0 0 0 0 0 33 9 11 13 22 7 0 5 18 4 20 0 0 27 20 0 36 0 28 29 0 0 33 5 0 0 0 36 0 25 0 0 27 0 0 11 41 0 0 17 11 17 101 106 0 0 0 0 255 71 0 18 246 7 19 0 6 0 0 0 0 0 0 0 0 18 0 107 0 0 0 4 106 12 106 0 71 87 13 74 0 0 109 2 0 41 68 0 80 0 0 30 58 0 0 0 137 39 0 0 0 0 0 0 0 0 0 1 7 20 81 64 0 21 0 0 0 0 0 37 49 0 27 0 0 19 0 0 65 13 7 13 0 0 0 9 7 30 26 0 0 24 0 0 85 0 0 17 0 0 18 42 0 0 53 31 0 0 0 0 12 29 0 0 7 23 29 12 0 67 0 0 0 0 65 93 55 0 0 1 0 0 6 4 5 0 0 0 0 0 0 0 0 0 4 13 12 9 1 0 0 56 71 69 72 88 88 101 81 120 70 34 0 0 0 0 14 0 2 0 5 0 0 0 0 2 0 0 0 0 0 0 0 0 0 0 0 0 0 0 0 0 0 0 0 0 0 0 0 0 0 0 0 0 0 0 0 0 0 0 255
255 0 0 0 0 0 0 0 0 0 0 0 0 0 0 0 0 0 0 0 0 0 0 0 0 0 0 0 0 0 0 0 0 0 0 0 0 0 0 0 0 0 0 0 3 0 0 0 17 35 73 0 0 0 2 1 62 0 0 108 32 0 0 0 5 4 6 13 5 0 0 44 0 17 0 33 89 30 0 43 67 0 0 2 0 0 13 17 0 0 52 29 0 0 18 41 0 0 58 70 0 134 255 166 106 25 65 25 3 2 0 26 0 3 41 1 11 18 0 70 0 0 59 7 3 49 0 20 0 15 5 5 18 31 5 0 0 0 0 0 1 8 13 0 4 8 3 0 0 0 20 42 0 25 20 0 0 0 12 14 54 0 0 18 32 9 0 0 45 0 0 12 0 3 20 5 0 0 0 0 0 0 0 0 9 0 0 3 0 0 0 0 0 0 0 0 6 5 7 5 29 0 0 9 63 37 0 0 0 21 74 68 73 32 0 23 8 6 1 0 2 0 0 0 0 0 0 0 0 0 0 0 0 8 12 12 12 11 7 4 0 0 8 0 1 0 0 0 83 31 5 13 16 29 0 0 0 34 125 70 0 0 4 45 0 5 3 0 0 4 0 0 0 0 0 0 0 0 0 0 13 0 0 0 9 0 0 0 0 0 0 0 0 0 0 0 0 0 0 19 0 22 27 0 18 0 0 76 197 0 0 0 45 0 0 22 0 0 0 0 23 0 4 9 6 4 0 0 10 5 2 0 0 0 7 20 20 6 0 0 1 25 23 28 2 3 0 0 0 2 0 18 0 0 0 0 0 0 0 2 17 3 0 11 18 1 0 0 22 2 0 0 0 0 0 5 0 0 0 0 0 0 0 0 0 0 3 3 17 2 2 0 19 0 0 1 19 21 4 0 27 80 0 0 0 0 0 24 0 0 47 148 151 65 4 40 0 0 0 16 35 47 46 50 40 31 37 45 44 45 42 43 30 46 56 49 43 62 57 72 82 44 0 0 0 0 0 255 255 175 101 58 28 34 37 64 0 9 21 15 25 54 89 103 82 169 255 255 255 133 0 0 0 0 0 0 57 38 15 0 0 0 0 0 0 3 0 0 0 6 0 0 12 7 0 0 52 0 0 0 7 16 11 0 12 0 11 0 9 0 6 0 0 1 3 3 0 0 0 6 0 0 0 0 0 5 11 0 46 22 0 10 18 2 0 0 0 0 0 4 13 17 0 0 44 0 0 0 8 6 12 32 0 25 27 0 34 77 20 0 0 0 6 9 0 0 15 0 0 0 0 0 0 0 0 0 0 0 0 0 2 0 0 0 0 0 8 65 0 64 90 111 0 20 65 0 0 0 48 20 0 77 84 0 0 29 0 38 15 0 0 31 18 58 0 0 0 0 43 42 10 27 7 0 60 0 0 0 0 0 22 17 12 0 0 0 0 0 0 22 5 4 0 0 0 0 0 8 0 0 0 0 5 0 0 19 0 32 27 0 0 45 22 0 0 0 54 13 41 0 0 26 0 0 0 11 0 0 9 0 18 0 255 0 0 9 0 124 0 0 255 133 0 15 0 0 0 75 88 4 19 64 50 10 143 0 123 0 21 181 110 0 0 11 0 0 19 3 111 0 0 54 0 0 50 25 0 46 87 49 72 98 65 0 0 80 0 0 4 72 0 0 0 0 51 0 0 0 0 0 0 0 16 0 0 0 0 8 54 58 0 0 0 1 83 1 0 9 41 14 10 0 0 0 3 43 0 25 0 0 0 14 0 0 35 0 0 23 0 0 23 14 0 17 10 0 0 0 0 0 81 24 18 7 9 8 0 0 0 0 42 45 0 0 4 111 33 17 0 0 0 7 9 0 6 0 0 0 0 0 1 5 0 6 0 0 6 39 62 96 35 32 19 0 0 0 0 0 0 19 124 68 40 0 0 16 0 1 4 3 0 0 0 0 2 0 0 0 0 0 0 0 0 0 0 0 0 0 0 0 0 0 0 0 0 0 0 0 0 0 0 0 0 0 0 0 0 0 0 255
255 0 0 0 0 0 0 0 0 0 0 0 0 0 0 0 0 0 0 0 0 0 0 0 0 0 0 0 0 0 0 0 0 0 0 0 0 0 0 0 0 0 0 0 3 0 0 0 26 65 5 0 0 0 13 0 37 0 22 19 0 0 21 0 14 0 0 0 2 6 9 37 0 0 4 46 58 0 0 64 24 0 6 31 0 8 44 0 0 53 39 0 0 33 35 0 0 0 64 156 76 0 0 188 154 68 93 48 6 15 0 35 13 0 61 7 0 21 0 48 0 0 63 0 0 29 0 0 21 44 47 51 43 43 39 51 0 8 0 0 0 0 0 0 0 1 9 7 0 0 0 9 0 0 0 0 0 0 0 0 35 0 0 0 11 19 8 0 40 0 0 0 0 2 16 0 12 0 8 3 6 7 0 0 4 0 0 2 5 0 0 3 0 0 0 2 7 11 0 12 0 30 53 21 0 0 0 0 30 82 105 43 3 0 0 27 7 21 10 8 0 2 0 0 5 0 5 0 0 0 17 22 0 0 4 11 7 7 2 0 29 12 7 4 4 0 0 0 0 0 25 4 0 0 26 34 0 0 0 99 152 63 0 33 37 33 14 0 0 0 0 0 0 0 0 0 0 0 0 0 0 0 0 0 0 0 0 0 0 0 0 0 0 9 16 0 25 5 17 4 0 0 14 0 0 0 0 255 8 38 19 0 39 0 0 21 0 5 18 5 0 0 0 0 7 15 7 1 15 6 3 0 0 0 4 23 11 0 0 0 27 23 18 14 11 6 0 3 10 15 8 27 0 0 0 0 0 0 0 18 13 3 0 17 16 0 0 0 0 0 0 0 0 0 20 26 0 3 16 4 0 0 0 8 0 3 0 0 0 2 0 0 14 0 0 0 6 16 0 0 0 72 34 0 0 0 0 0 35 2 0 16 98 152 131 129 0 26 5 0 0 0 19 37 44 29 19 1 0 0 0 4 0 0 0 8 85 62 0 0 0 0 0 0 234 255 255 42 119 77 59 47 32 15 2 0 38 45 30 3 0 0 0 0 39 55 42 59 145 209 228 255 0 0 0 0 0 0 0 0 0 0 0 0 2 2 0 0 0 9 0 0 26 28 15 19 26 0 0 0 12 12 11 0 13 0 2 3 3 0 1 5 0 0 7 4 0 0 0 1 1 0 0 0 0 0 9 29 3 0 0 1 8 0 0 18 0 2 5 10 17 17 0 0 59 0 0 0 11 20 10 0 0 27 21 0 4 67 42 27 0 0 0 0 0 0 20 0 0 0 0 0 0 0 0 6 4 0 2 18 0 0 0 0 12 26 64 87 0 28 30 0 25 15 55 0 5 0 49 0 81 111 48 0 5 104 0 0 0 37 31 0 25 0 0 44 83 0 0 51 43 0 0 24 47 0 0 37 14 0 0 0 10 9 9 21 19 0 0 0 24 7 0 0 0 0 0 15 0 35 36 16 22 2 0 43 0 2 0 0 1 0 0 69 24 0 46 15 56 0 13 0 14 0 0 19 0 0 19 0 94 0 71 62 0 144 165 25 0 255 163 0 98 117 255 0 0 53 40 0 16 85 105 122 30 5 62 0 15 31 22 81 0 4 41 0 0 2 83 13 0 76 66 22 12 0 0 0 79 0 0 0 52 39 0 0 0 0 0 53 26 28 78 111 111 49 69 102 23 0 12 61 0 0 0 0 6 0 0 0 0 0 0 16 61 0 0 0 13 0 19 25 17 0 0 17 0 30 13 0 19 45 0 0 46 0 0 42 3 0 8 11 0 19 7 0 24 0 0 0 44 11 0 0 0 10 10 4 1 0 42 50 0 0 0 9 98 29 20 0 1 8 14 0 13 3 3 3 3 3 4 0 0 10 23 44 52 58 30 9 0 0 0 0 0 0 0 0 0 0 0 48 102 46 21 0 0 2 6 3 3 4 0 3 1 0 0 0 0 0 0 0 0 0 0 0 0 0 0 0 0 0 0 0 0 0 0 0 0 0 0 0 0 0 0 0 0 0 0 255
255 0 0 0 0 0 0 0 0 0 0 0 0 0 0 0 0 0 0 0 0 0 0 0 0 0 0 0 0 0 0 0 0 0 0 0 0 0 0 0 0 0 0 0 3 0 0 1 28 87 0 0 2 0 38 0 66 12 20 0 0 15 35 0 28 7 0 0 0 10 0 29 0 0 0 37 0 0 0 51 0 0 38 42 0 18 61 0 0 65 32 0 40 45 0 6 0 4 0 0 27 0 0 0 6 0 11 0 0 16 0 30 90 0 79 25 0 29 0 9 2 0 53 0 0 19 0 39 0 0 0 4 0 0 0 16 13 37 25 18 0 0 0 0 0 0 7 5 0 8 0 0 0 0 0 46 51 6 0 0 12 0 0 0 0 21 27 0 22 0 0 7 0 11 12 0 18 0 2 0 0 1 6 0 0 0 1 4 3 0 1 25 0 0 0 10 9 11 3 6 0 30 60 0 0 0 43 176 74 60 24 0 6 14 2 27 0 0 0 1 5 3 13 20 4 0 8 0 8 0 10 7 5 0 4 0 0 0 0 2 6 4 9 4 11 14 0 0 29 0 9 35 16 56 75 74 11 0 0 0 109 106 28 1 26 22 23 3 9 19 4 0 0 0 0 0 0 0 0 0 0 0 0 11 0 0 0 11 13 8 0 0 0 0 0 0 43 17 23 12 0 2 28 2 0 0 135 168 0 55 6 0 9 0 25 28 0 33 41 9 0 0 0 1 8 5 3 0 6 0 0 0 0 0 4 25 0 0 0 0 7 5 0 0 0 6 0 0 6 12 8 25 0 12 18 15 14 5 9 24 0 0 0 0 5 0 0 4 0 0 0 0 0 0 6 4 40 9 8 4 20 24 13 9 11 5 0 4 8 7 0 0 1 0 0 6 0 9 0 11 0 0 11 37 24 9 0 0 0 0 0 0 0 70 137 103 18 20 10 0 0 0 0 0 0 0 0 0 0 0 0 0 83 18 0 12 0 0 0 0 0 0 137 161 61 0 0 0 0 0 20 31 47 26 7 0 0 0 6 15 45 66 58 26 0 0 0 0 0 58 68 92 255 180 0 0 0 0 0 116 0 0 5 1 0 7 0 0 0 20 11 0 27 34 16 22 8 0 5 4 9 3 6 0 16 0 17 12 8 0 5 2 0 0 1 5 0 0 4 0 12 4 3 2 0 0 11 25 0 0 0 0 4 0 14 46 0 6 2 6 13 12 0 0 54 7 0 0 0 10 0 0 0 43 24 0 2 60 55 61 0 0 0 0 9 0 9 16 6 5 0 5 2 5 12 18 6 0 2 15 0 0 0 0 108 48 73 54 79 0 0 0 40 0 6 8 131 12 30 0 0 0 0 0 0 40 0 0 36 90 72 0 0 0 0 115 131 0 0 0 0 0 0 36 0 0 0 21 6 9 4 0 0 11 19 11 8 4 0 0 38 18 0 0 12 28 6 17 0 9 0 0 0 0 0 19 9 22 0 17 42 0 0 50 39 0 0 2 54 0 5 0 40 0 23 33 0 0 23 0 126 23 43 70 0 0 0 0 110 208 0 0 187 0 43 0 161 40 0 0 28 0 0 0 0 0 0 81 30 0 0 164 68 0 159 0 0 27 0 21 69 46 59 59 5 0 0 0 25 0 0 0 0 36 14 0 120 79 9 0 0 0 0 46 0 0 0 84 74 42 78 136 0 94 48 12 97 78 1 21 53 1 0 0 0 0 18 0 23 0 0 28 29 0 0 0 0 26 29 4 44 28 0 14 8 0 10 20 0 0 26 0 26 30 3 0 47 9 0 28 0 0 0 0 4 12 22 40 60 0 0 0 0 0 0 0 86 27 31 8 0 12 14 0 4 0 0 0 0 0 0 1 0 30 66 52 17 0 0 0 0 0 10 14 36 50 59 53 29 0 0 0 8 92 74 23 0 0 0 0 6 6 5 3 1 0 0 0 0 0 0 0 0 0 0 0 0 0 0 0 0 0 0 0 0 0 0 0 0 0 0 0 0 0 0 0 0 0 0 255
255 0 0 0 0 0 0 0 0 0 0 0 0 0 0 0 0 0 0 0 0 0 0 0 0 0 0 0 0 0 0 1 2 3 3 2 1 0 0 1 5 7 7 5 7 0 8 14 45 134 0 0 47 0 71 0 78 0 0 15 18 0 0 0 28 8 0 0 11 21 12 9 35 0 0 23 0 0 64 75 5 0 55 30 0 0 48 0 0 27 19 0 46 0 0 6 45 0 0 49 0 0 41 45 0 0 8 0 0 0 0 0 89 0 42 32 0 44 14 21 0 0 40 0 0 56 0 36 0 0 0 0 11 0 0 14 0 0 30 38 19 7 29 45 0 9 0 0 0 21 15 0 71 0 0 0 1 0 0 0 15 25 33 0 9 29 15 0 0 0 0 35 23 18 26 0 18 1 0 3 6 5 10 0 12 0 10 7 5 0 0 16 0 0 0 3 25 17 16 0 61 8 0 0 0 26 90 69 0 14 13 7 25 22 0 0 0 0 0 0 2 0 0 0 0 0 0 0 0 0 1 0 36 16 1 0 0 0 11 38 0 0 0 10 10 4 0 0 70 0 13 29 0 0 37 7 154 0 0 0 0 38 104 63 21 0 0 4 26 39 33 19 0 0 0 7 42 34 23 9 0 0 12 58 32 0 0 20 63 25 0 0 6 22 0 0 0 0 22 14 0 23 38 0 0 0 194 6 99 0 0 15 0 0 26 9 0 4 30 0 33 30 20 16 14 0 0 0 0 0 0 8 6 4 0 25 0 24 22 23 15 22 13 1 1 0 0 0 0 0 0 0 0 0 6 4 0 0 0 1 0 0 0 0 0 0 3 17 24 15 15 11 0 0 3 0 48 3 0 0 20 16 0 0 24 4 0 0 3 5 0 0 28 20 16 25 19 7 3 17 0 0 7 83 9 0 39 60 21 0 0 0 0 0 0 0 38 100 184 235 237 179 123 54 12 0 3 2 12 26 32 29 8 0 17 50 0 0 0 0 224 213 231 135 38 20 36 22 21 0 0 0 0 0 11 18 37 17 1 0 6 15 0 0 0 33 49 9 0 16 27 8 0 144 255 255 13 0 0 0 0 0 8 0 0 0 0 0 0 11 13 0 19 21 0 0 0 0 17 23 8 0 0 0 16 0 19 17 10 0 0 0 0 0 5 9 2 0 5 0 6 0 0 0 0 1 8 26 0 27 41 34 3 0 0 10 0 9 5 0 0 0 0 0 43 17 10 0 6 8 0 0 0 29 20 0 3 59 41 33 3 0 0 0 22 0 0 0 0 0 0 4 0 0 0 7 0 0 0 6 0 0 0 0 181 11 0 0 69 0 31 36 26 0 76 67 60 0 0 50 16 0 102 85 0 0 28 0 164 0 0 0 17 71 14 0 0 0 115 0 0 58 13 0 11 13 35 21 0 8 20 0 0 25 13 0 0 1 30 0 18 0 0 0 13 24 0 0 33 32 0 0 4 21 11 41 0 17 0 0 59 81 0 0 10 0 0 0 41 0 0 8 21 17 40 50 0 0 0 0 0 14 38 0 149 0 0 0 64 0 0 215 141 0 0 86 88 0 0 0 138 0 0 0 0 103 0 46 88 12 0 0 75 0 114 0 0 46 0 35 70 0 0 23 51 19 13 0 107 63 33 0 0 0 10 4 23 47 0 0 80 40 0 94 24 18 0 0 0 0 11 0 20 107 0 0 21 15 0 1 0 0 7 31 0 0 17 0 13 0 0 2 11 0 0 0 33 19 0 0 0 0 0 135 0 34 68 21 0 12 51 0 65 17 0 0 20 0 0 24 0 29 30 14 0 0 0 0 0 0 0 0 0 0 0 0 0 0 35 16 0 0 15 8 0 0 0 0 1 3 3 27 78 134 60 0 0 0 3 19 5 0 0 0 3 0 0 0 3 40 49 0 0 0 40 120 13 3 7 5 0 0 2 0 3 1 0 0 0 0 0 0 0 0 0 0 0 0 0 0 0 0 0 0 0 0 0 0 0 0 0 0 0 0 0 0 0 0 0 255
255 0 0 0 0 0 0 0 0 0 0 0 0 0 0 0 0 0 0 0 0 0 0 0 0 0 0 0 0 0 0 1 0 0 0 0 1 0 0 1 0 0 0 0 0 0 11 0 57 23 0 0 50 0 0 59 0 31 34 3 0 3 17 0 14 0 0 0 42 0 9 0 43 0 0 42 30 0 0 0 9 0 0 0 0 0 0 46 0 2 0 12 13 0 33 0 30 34 0 0 38 30 0 52 25 0 0 0 0 0 2 0 86 0 0 80 11 30 0 0 0 0 36 43 0 0 0 45 116 13 0 15 47 36 11 0 165 0 0 0 0 0 0 2 12 0 15 45 0 0 0 0 91 15 0 35 63 73 68 0 46 0 25 0 0 46 23 4 61 28 0 0 0 3 0 0 0 0 0 0 0 0 0 0 0 0 11 1 0 18 22 20 0 4 29 2 0 0 0 0 49 0 0 2 114 82 10 0 3 0 0 0 0 0 6 16 26 20 13 12 1 1 4 0 6 2 0 0 0 9 2 0 0 2 16 20 20 10 0 0 0 0 0 0 14 38 34 0 36 0 0 11 31 26 0 0 17 134 75 0 0 0 37 101 100 102 83 8 0 0 0 0 47 39 8 3 16 1 0 0 36 48 33 23 0 0 0 0 20 0 1 14 0 0 0 15 34 0 0 35 68 0 92 0 0 252 118 0 26 0 18 0 14 12 0 0 2 19 18 1 0 0 2 11 10 0 0 0 19 4 0 0 8 11 17 36 0 0 0 23 31 6 0 0 0 4 2 0 0 7 0 0 0 2 6 6 6 5 0 0 0 8 19 31 13 0 0 0 19 10 16 10 0 0 0 5 39 4 0 0 0 22 36 0 0 4 8 5 0 0 0 28 0 1 6 0 0 14 0 3 8 17 9 0 3 15 5 43 0 9 7 7 25 0 0 0 0 0 0 0 0 0 60 118 183 139 107 90 43 0 0 0 0 41 4 0 0 0 202 255 135 24 0 0 0 0 8 0 20 17 25 27 18 10 0 0 23 11 0 0 0 0 17 45 0 0 0 0 4 4 0 3 0 0 0 102 255 255 34 0 0 0 0 0 16 37 0 0 6 0 0 0 9 51 25 0 0 0 0 0 8 26 15 0 0 12 0 0 13 18 0 11 16 0 0 1 0 0 0 0 24 0 24 23 0 0 0 25 0 0 7 0 0 0 4 38 0 0 0 0 0 35 37 15 59 0 20 45 0 0 35 0 26 8 18 0 0 18 58 81 38 57 0 0 6 11 0 15 3 8 3 0 4 3 0 0 4 0 0 2 0 0 26 82 0 50 81 0 98 13 0 0 6 0 0 119 0 4 148 133 12 0 24 0 0 32 87 0 79 0 12 85 25 10 62 32 61 21 0 9 16 0 0 0 0 2 6 0 0 5 11 54 20 0 0 35 40 0 0 0 29 28 15 0 0 6 17 0 0 0 0 0 0 16 12 27 0 0 5 28 0 0 0 0 9 0 14 18 0 4 21 0 0 35 0 28 85 81 0 0 0 49 0 0 153 111 0 77 62 0 36 0 8 0 0 233 38 0 0 125 61 0 68 0 163 98 31 0 0 152 0 0 0 0 35 171 186 18 0 0 103 15 0 3 107 52 161 44 61 2 42 0 0 41 166 0 0 30 43 46 93 61 0 0 48 0 10 49 55 57 27 0 44 0 0 0 0 0 0 0 0 25 36 22 41 61 69 21 61 4 0 0 3 5 6 18 19 0 45 116 53 0 0 18 0 24 0 0 0 5 94 0 47 0 28 5 22 59 0 0 74 0 0 0 0 0 0 0 0 0 127 249 255 233 180 136 0 160 55 0 8 16 0 10 4 1 12 21 0 4 54 124 39 0 0 19 0 0 17 0 1 69 0 0 13 0 44 11 54 0 131 0 0 0 0 65 101 34 0 4 4 0 0 0 0 1 0 0 0 0 0 0 0 0 0 0 0 0 0 0 0 0 0 0 0 0 0 0 0 0 0 0 0 0 0 0 0 0 0 255
255 0 0 0 0 0 0 0 0 0 0 0 0 0 0 0 0 0 0 0 0 0 0 0 0 0 0 0 0 0 0 2 4 6 6 5 4 2 1 1 12 0 6 12 0 4 23 0 114 0 0 39 5 0 28 22 0 5 3 0 0 0 0 0 17 9 25 0 57 0 11 0 38 0 1 38 38 4 0 35 0 0 3 1 3 19 17 55 0 34 0 32 13 0 5 0 0 23 0 0 22 0 0 38 18 22 5 20 18 31 19 0 60 0 0 76 0 12 0 11 56 0 0 0 0 0 66 156 25 0 0 6 11 10 7 0 98 164 175 0 0 0 41 8 0 0 0 13 0 0 0 0 0 0 0 0 0 0 15 0 50 0 48 0 0 46 12 0 26 4 0 0 0 0 0 0 8 0 1 0 1 0 6 0 0 0 8 10 8 0 0 0 0 4 23 0 0 30 25 0 0 0 17 67 42 0 0 13 0 0 3 0 4 0 2 0 5 0 0 0 0 1 0 0 7 8 3 4 11 3 1 0 12 0 0 0 6 10 7 0 11 17 4 0 2 17 18 0 29 9 0 0 11 25 14 23 54 69 51 1 0 0 0 0 0 2 51 63 66 54 58 29 0 0 0 14 46 41 28 24 0 0 0 0 0 8 31 39 33 6 0 14 3 7 0 28 39 46 34 22 12 0 0 0 0 232 63 0 70 0 38 4 26 17 5 0 0 6 11 12 0 0 0 0 0 7 0 1 10 3 1 0 0 0 0 1 0 0 0 37 30 1 0 19 0 0 5 0 8 16 23 7 4 10 6 7 7 7 0 0 19 0 0 15 12 0 0 7 0 0 0 0 0 0 0 0 37 19 13 0 0 16 20 7 1 5 5 2 0 0 0 13 0 18 4 0 7 22 7 10 0 17 9 11 3 2 0 19 0 0 0 0 4 4 0 0 0 0 0 0 0 0 0 0 0 12 17 62 244 206 89 165 138 101 0 0 0 255 124 0 0 0 0 0 4 6 3 15 0 2 0 0 9 5 8 0 12 3 0 0 0 0 2 18 0 3 4 0 2 0 8 15 78 51 1 0 49 114 114 156 0 0 0 0 0 0 0 0 144 58 38 17 0 0 7 6 8 1 1 5 3 13 22 0 0 28 7 0 14 8 0 0 4 5 3 1 2 0 0 0 29 0 0 4 8 0 0 18 5 3 0 0 0 0 3 16 35 41 26 28 12 17 0 0 40 0 0 27 0 0 4 0 23 5 16 0 0 26 37 41 0 24 0 0 0 7 0 0 3 6 0 0 6 5 0 0 5 1 0 0 0 0 10 45 10 31 0 0 0 0 89 0 35 79 35 0 0 101 11 0 49 0 0 0 0 4 50 0 60 0 0 44 3 0 26 4 0 0 0 10 11 22 15 19 0 22 15 11 10 15 13 32 0 0 9 40 21 8 0 21 0 2 7 3 11 19 0 0 7 4 22 41 39 29 0 0 0 0 8 22 0 9 31 13 32 0 0 10 0 1 35 33 24 84 0 0 76 0 0 11 0 21 36 0 13 42 0 0 53 88 193 245 30 0 90 255 64 0 57 109 0 0 0 99 0 0 0 32 51 0 0 145 0 183 48 0 0 0 0 0 43 0 0 0 13 0 0 0 16 0 48 101 14 43 46 0 0 0 0 0 0 0 0 0 15 0 0 0 0 21 25 0 49 4 0 10 16 10 17 42 0 2 0 0 0 0 10 0 60 7 0 1 20 5 0 19 15 0 0 0 0 0 1 43 47 30 0 41 43 0 0 19 15 0 7 0 1 46 0 0 0 0 0 84 171 195 185 186 214 181 64 0 0 0 0 0 0 36 49 54 31 15 0 20 2 0 0 0 19 75 74 0 0 0 0 18 0 0 36 0 0 0 0 35 33 0 16 0 100 0 63 0 94 0 0 0 72 88 26 16 13 0 4 0 5 1 0 0 0 0 0 0 0 0 0 0 0 0 0 0 0 0 0 0 0 0 0 0 0 0 0 0 0 0 0 0 0 0 0 255
255 0 0 0 0 0 0 0 0 0 0 0 0 0 0 0 0 0 0 0 0 0 0 0 0 0 0 0 0 0 1 3 0 0 0 0 0 0 2 0 9 0 10 11 0 3 18 25 102 0 0 66 0 0 34 0 44 22 7 0 3 5 12 4 6 0 34 0 46 0 0 0 4 1 5 21 21 11 2 29 0 10 12 0 8 25 24 37 0 29 0 20 15 0 3 0 0 30 11 0 1 0 0 18 0 0 0 0 0 9 5 0 52 0 0 59 4 7 0 24 0 49 85 55 77 159 200 92 0 0 0 0 0 8 4 0 0 165 227 37 0 4 61 0 0 0 6 28 0 0 29 38 0 0 30 11 0 0 0 57 0 0 20 0 0 53 35 0 3 5 8 14 1 0 4 19 0 2 5 5 7 9 6 0 2 0 5 13 11 0 0 10 0 19 20 0 0 46 24 0 0 1 92 54 24 0 0 21 0 0 1 2 7 0 0 0 8 0 0 0 9 10 0 0 9 7 1 1 12 9 13 0 43 2 0 0 0 5 0 5 6 16 7 0 4 9 8 13 3 0 0 4 5 19 26 42 0 0 31 119 31 0 0 0 3 0 52 91 64 8 0 0 90 52 0 0 0 0 0 38 51 47 29 29 19 6 0 0 22 0 0 0 3 0 0 5 0 0 11 24 0 6 0 0 172 164 0 4 48 0 19 0 25 11 2 4 3 8 10 0 0 0 0 0 0 0 0 17 1 0 0 0 0 0 0 0 0 5 17 28 6 0 0 23 0 2 6 0 12 15 18 0 12 0 0 0 0 9 0 0 39 2 0 0 3 1 7 5 0 0 0 9 15 0 0 0 21 2 26 37 19 0 0 32 0 11 11 9 9 3 0 0 0 8 12 0 5 27 18 11 0 16 11 7 10 4 0 5 0 11 4 5 10 11 4 4 6 10 0 0 0 0 0 0 0 0 0 0 0 0 0 0 0 0 0 64 255 54 0 49 12 4 9 14 16 8 1 21 0 0 0 0 4 7 7 7 15 9 0 0 0 0 1 0 17 2 7 0 0 9 16 27 0 0 0 0 0 33 64 128 255 61 0 0 0 0 0 0 40 0 0 13 17 0 4 12 12 12 22 0 0 16 15 3 11 27 16 0 18 5 0 0 10 0 0 6 0 6 4 0 18 0 0 0 21 5 3 3 22 1 0 0 9 12 2 3 0 7 0 7 12 14 2 0 39 0 0 23 0 0 14 0 29 0 3 6 0 33 44 11 39 49 0 0 0 0 10 0 9 0 0 0 2 1 0 0 9 15 0 0 0 12 59 37 46 48 0 86 0 27 82 0 0 86 43 0 0 168 0 0 50 0 0 0 1 39 43 0 0 0 0 28 11 0 4 0 0 0 0 9 13 7 0 23 0 0 0 4 11 10 0 0 0 0 0 0 0 5 12 34 0 4 16 17 20 13 5 0 38 9 0 0 0 0 0 0 23 9 12 18 0 0 24 3 37 0 0 3 0 0 0 3 0 2 0 0 79 0 21 46 1 0 34 41 0 51 101 0 0 53 0 185 0 0 0 0 0 0 91 0 52 205 35 27 103 0 0 92 100 0 29 20 0 103 0 0 0 24 0 56 106 156 192 11 0 0 0 0 56 0 0 28 0 0 15 0 0 33 0 0 34 88 112 177 44 26 29 0 0 36 63 0 0 0 0 0 0 0 3 38 11 5 0 0 0 0 0 0 37 0 0 0 0 0 0 1 0 0 0 44 0 0 2 0 83 7 0 69 51 0 0 77 5 0 0 0 0 34 0 0 23 139 193 177 125 63 25 122 14 0 0 0 0 0 9 35 0 0 0 48 86 45 4 9 2 7 0 30 86 101 0 0 0 0 39 65 22 51 67 0 96 33 10 80 0 0 90 66 68 8 7 16 80 0 85 0 0 55 61 8 0 11 6 0 3 0 0 0 0 0 0 0 0 0 0 0 0 0 0 0 0 0 0 0 0 0 0 0 0 0 0 0 0 0 0 0 0 0 0 255
255 0 0 0 0 0 0 0 0 0 0 0 0 0 0 0 0 0 0 0 0 0 0 0 0 0 0 0 0 0 2 0 0 1 1 0 0 0 3 0 6 0 6 10 0 13 29 82 12 0 0 32 0 0 12 0 65 19 0 0 1 7 9 22 0 12 29 0 40 0 7 7 0 0 0 0 0 4 0 0 0 27 34 0 0 18 23 4 0 11 0 1 15 0 24 0 4 29 9 0 18 18 5 0 0 0 0 0 0 0 0 0 51 0 0 52 14 9 0 21 0 0 75 120 135 145 14 0 0 0 0 11 0 30 37 7 0 0 103 44 0 10 28 8 2 0 20 26 0 13 30 16 0 31 49 15 0 0 0 62 9 0 0 0 0 53 19 0 26 6 10 15 8 6 11 20 0 0 10 5 3 6 4 1 0 0 0 22 10 0 0 14 19 0 3 6 4 0 0 0 45 20 24 0 0 19 21 0 3 0 0 8 6 8 5 0 10 5 0 0 0 1 9 0 4 0 0 0 2 0 0 0 36 0 0 0 2 1 5 26 0 7 4 0 0 0 0 31 0 0 6 15 12 0 0 0 1 51 75 56 36 0 0 0 0 0 0 0 0 0 7 67 0 18 63 87 90 64 26 0 0 0 0 0 4 5 0 0 26 0 0 3 32 22 1 7 51 32 22 15 0 0 0 0 209 63 0 0 8 0 16 0 0 0 3 8 31 21 10 0 34 16 5 0 0 0 0 3 0 0 0 0 12 17 14 1 14 14 9 17 0 0 0 21 0 9 8 0 0 7 0 0 11 6 0 0 4 21 6 0 11 0 0 0 7 0 5 0 35 0 0 20 21 5 0 0 18 0 5 42 27 0 0 34 0 3 0 4 23 8 0 0 0 0 0 0 0 3 0 0 0 0 0 5 7 0 0 7 0 12 0 7 2 12 0 0 16 16 9 13 38 34 34 26 88 7 10 0 0 0 55 0 0 0 255 255 0 2 13 0 0 0 6 5 4 3 0 4 0 0 0 0 3 1 3 2 7 7 0 0 2 3 2 0 6 1 0 0 0 0 2 12 0 26 50 61 36 9 0 0 86 208 183 0 0 0 0 29 17 0 0 0 36 51 20 0 0 4 17 1 0 0 10 0 0 11 8 0 16 18 0 11 7 2 9 7 0 0 4 1 18 0 0 12 20 8 4 0 18 0 0 0 10 6 3 9 0 0 0 0 0 12 5 0 26 0 5 5 0 0 11 4 11 0 0 0 0 24 28 0 58 54 0 0 0 0 26 0 5 3 1 0 0 0 0 3 0 9 0 0 0 62 79 9 6 12 0 1 32 25 0 0 0 0 72 0 0 141 0 35 0 6 30 35 39 61 45 0 0 0 0 11 9 0 0 0 29 13 0 0 0 0 0 22 0 0 0 4 8 15 0 0 57 9 0 0 16 16 0 0 11 6 9 0 0 0 13 8 4 0 0 0 0 0 5 16 1 7 22 24 4 0 0 0 32 0 0 41 0 0 0 0 0 0 0 0 90 0 19 20 4 0 23 40 0 40 119 0 0 142 0 0 0 0 0 0 0 154 255 102 0 0 0 0 182 32 0 0 0 0 76 0 0 58 48 9 114 93 32 174 0 7 171 0 0 117 36 0 170 0 0 0 0 0 57 72 0 6 0 0 0 0 0 0 24 48 103 95 8 8 49 42 0 6 9 0 0 0 0 0 8 11 26 22 8 0 0 0 27 0 0 0 5 0 0 21 3 0 54 96 49 27 22 0 0 6 8 16 10 15 37 2 34 0 33 0 0 42 0 0 0 182 146 0 0 0 0 13 0 0 0 9 52 25 0 0 5 0 0 0 0 94 29 0 15 18 52 98 88 0 0 0 25 2 6 0 0 0 0 0 44 0 0 30 0 39 196 109 0 0 64 18 0 0 133 0 0 0 120 24 0 12 7 6 3 0 0 0 0 0 0 0 0 0 0 0 0 0 0 0 0 0 0 0 0 0 0 0 0 0 0 0 0 0 0 0 0 0 0 255
255 0 0 0 0 0 0 0 0 0 0 0 0 0 0 0 0 0 0 0 0 0 0 0 0 0 0 0 0 0 3 0 1 0 1 0 0 0 4 2 5 0 5 11 0 16 55 90 0 0 0 0 18 22 32 88 33 0 0 0 0 0 0 5 0 13 36 0 32 0 5 5 0 4 3 0 0 15 17 16 0 28 17 0 0 17 13 0 0 22 0 0 19 2 31 3 0 24 0 0 0 27 8 0 16 11 24 0 4 18 26 2 64 0 0 27 27 12 6 5 17 0 0 56 41 0 0 0 24 8 23 23 0 15 31 6 0 0 0 0 0 0 0 28 0 0 2 0 0 1 19 0 0 42 20 0 0 0 0 11 82 0 8 32 9 11 0 0 36 1 0 0 0 0 5 16 0 0 0 3 0 0 0 0 0 0 0 17 0 0 0 28 31 0 0 36 22 0 0 0 99 29 0 0 0 14 17 0 7 4 8 3 2 0 0 0 0 0 2 3 0 1 0 0 1 0 0 0 0 2 0 0 15 0 0 0 16 0 0 33 0 0 7 7 15 0 0 30 0 4 3 11 0 0 0 13 11 62 31 0 0 0 0 0 0 0 0 0 0 0 0 0 0 0 0 0 0 0 16 23 43 32 9 0 0 0 15 53 31 8 10 19 45 31 10 4 52 0 0 0 0 0 0 148 127 25 0 0 1 0 40 0 0 0 0 8 16 10 0 0 19 16 13 13 8 8 0 0 3 0 0 6 7 12 13 2 20 0 0 0 0 0 0 2 0 8 5 0 4 6 0 0 1 0 0 3 15 21 5 0 0 3 18 0 0 0 0 0 54 17 1 18 16 8 11 12 26 0 0 21 22 0 0 31 0 0 4 3 15 20 0 0 0 14 2 0 0 5 6 0 0 0 0 0 1 7 2 13 0 5 0 0 0 4 0 0 0 0 0 0 0 0 0 0 0 0 0 0 7 33 0 0 0 255 245 0 53 0 30 44 0 0 4 0 0 1 0 0 10 14 0 0 0 0 0 0 19 11 0 0 0 4 0 0 14 1 2 8 2 0 0 0 17 13 7 7 9 5 24 44 0 32 175 255 40 0 0 0 61 64 40 0 0 25 33 0 0 0 12 8 2 3 9 0 0 22 8 0 21 12 0 3 9 0 0 4 6 2 0 0 0 0 2 14 13 0 0 3 0 4 15 5 0 0 0 37 2 14 12 10 9 0 0 0 0 0 0 0 0 1 0 0 23 0 0 0 0 8 12 0 65 40 20 0 0 0 42 0 9 0 2 0 0 3 0 0 0 0 0 0 0 71 74 0 44 0 0 0 28 61 24 99 0 0 118 88 0 99 0 107 0 47 62 33 24 34 19 42 0 25 22 0 2 0 0 3 0 0 0 0 0 0 0 34 0 8 28 25 14 17 4 28 0 0 0 40 40 9 0 0 0 2 0 0 0 0 0 10 0 0 3 20 27 26 2 6 0 0 0 7 0 19 27 0 32 0 22 46 35 0 0 0 21 63 0 83 53 0 0 0 15 0 3 12 6 2 23 147 0 0 145 70 228 86 0 0 86 0 0 0 232 151 170 0 45 0 86 0 0 42 67 40 43 71 88 27 0 0 0 0 0 0 0 0 24 51 0 85 141 61 56 86 68 62 28 0 96 133 132 125 131 93 39 89 0 0 0 22 0 0 0 0 19 35 49 32 17 0 0 0 4 0 26 51 38 21 0 0 54 7 0 23 32 24 16 49 24 0 0 0 0 0 35 20 0 8 25 0 0 93 54 0 35 0 55 0 0 52 0 0 0 28 0 0 0 61 0 0 15 21 23 36 13 0 0 2 11 0 0 0 0 7 101 45 0 49 44 0 0 0 0 120 57 1 0 0 0 0 0 14 0 0 0 34 0 17 18 0 0 0 169 59 0 0 2 29 0 0 86 45 11 8 0 3 2 0 0 0 0 0 0 0 0 0 0 0 0 0 0 0 0 0 0 0 0 0 0 0 0 0 0 0 0 0 0 0 0 0 0 255
255 0 0 0 0 0 0 0 0 0 0 0 0 0 0 0 0 0 0 0 0 0 0 0 0 0 0 0 0 0 3 0 1 0 0 0 6 6 0 0 5 0 7 5 0 11 41 63 0 51 0 0 38 10 0 86 24 0 0 3 1 0 0 4 0 6 38 0 37 0 10 6 2 8 3 0 0 5 12 19 0 13 11 0 0 17 11 0 13 54 0 13 20 9 36 27 0 0 0 0 0 0 16 6 11 11 13 0 0 13 15 14 55 0 0 12 45 5 31 0 48 0 0 0 0 0 0 22 58 18 26 18 0 0 6 0 27 0 0 0 8 0 0 7 0 0 11 0 0 11 27 0 36 35 0 0 52 42 0 1 64 0 14 31 18 16 0 0 26 0 0 0 0 0 0 0 0 0 0 0 1 0 6 0 1 0 0 0 0 0 0 31 45 0 0 51 22 0 0 40 26 24 18 9 3 11 5 0 7 0 6 0 4 5 0 2 8 0 0 1 0 7 0 0 21 11 0 4 12 7 6 11 0 0 0 24 12 0 0 26 0 0 6 26 18 0 0 31 6 17 10 0 0 1 42 62 0 0 0 0 0 27 77 123 255 255 255 255 252 182 151 160 0 0 0 0 0 0 0 0 1 29 41 42 28 14 5 18 25 13 9 19 36 7 8 3 0 0 0 17 0 0 6 246 56 24 29 0 0 22 27 0 44 8 0 0 0 0 0 10 0 0 0 7 8 10 0 0 15 2 0 1 1 10 0 0 19 0 0 0 0 14 0 0 2 6 13 5 11 15 21 6 0 0 0 3 18 15 0 0 0 4 26 12 0 0 4 0 20 0 0 0 4 1 18 41 20 0 0 0 21 14 3 20 0 0 0 2 14 10 5 12 0 19 14 2 7 7 8 2 0 0 1 5 6 13 15 24 0 4 5 7 3 12 3 5 35 28 14 21 20 23 3 1 23 120 19 42 66 0 0 0 255 18 86 26 0 34 0 34 18 5 11 10 12 12 3 5 3 7 4 2 4 0 0 0 13 0 1 2 0 2 5 0 4 11 14 23 16 10 0 0 0 0 0 0 6 0 0 8 88 0 0 90 255 212 0 0 0 0 21 9 0 1 8 25 0 8 20 19 13 11 13 0 1 25 3 0 16 7 0 0 11 0 0 5 0 1 7 9 9 0 6 19 1 0 0 9 0 4 16 6 0 0 0 34 0 0 0 5 6 9 8 0 11 33 8 0 22 17 0 10 25 0 12 23 1 5 15 0 63 9 42 29 0 0 39 0 1 0 2 0 7 5 0 0 0 0 0 0 21 65 53 0 79 0 149 0 0 61 216 55 0 7 73 46 0 101 0 0 0 55 55 0 0 0 0 59 0 51 16 0 2 7 0 20 0 0 6 24 23 0 0 0 0 0 1 8 0 0 0 36 0 0 8 40 12 0 0 37 0 0 10 0 11 15 19 29 0 0 12 7 17 8 6 13 19 0 0 0 0 0 26 19 0 0 4 26 0 0 17 12 29 55 0 73 0 0 0 0 10 34 2 0 28 0 0 177 0 0 255 80 21 50 0 0 67 169 0 19 0 0 102 52 120 0 147 36 0 71 0 27 0 0 37 0 0 0 66 0 80 0 25 26 33 10 0 0 0 0 12 28 56 44 0 0 0 0 0 0 19 18 10 91 38 0 0 0 7 22 6 0 0 8 32 22 12 6 0 0 4 0 0 9 8 14 29 44 33 9 1 8 3 0 0 8 0 0 0 0 0 0 25 0 100 0 1 0 0 40 0 0 0 0 42 0 0 62 0 27 49 0 0 6 95 0 0 0 0 0 0 5 0 0 22 76 0 0 48 55 0 0 0 103 24 92 25 0 0 11 0 0 57 80 51 47 72 21 0 49 35 66 19 14 0 23 14 0 0 0 204 20 0 42 0 26 40 0 57 60 2 13 0 11 3 0 0 0 0 0 0 0 0 0 0 0 0 0 0 0 0 0 0 0 0 0 0 0 0 0 0 0 0 0 0 0 0 0 0 255
255 0 0 0 0 0 0 0 0 0 0 0 0 0 0 0 0 0 0 0 0 0 0 0 0 0 0 0 0 0 2 0 0 0 5 4 0 0 0 0 8 0 3 1 0 28 30 5 0 12 17 4 0 0 0 35 1 0 0 14 6 0 0 25 0 16 47 0 33 0 13 0 0 0 0 0 0 0 0 0 9 0 2 0 0 0 6 9 0 51 0 6 27 7 40 11 0 0 0 14 0 0 17 13 0 0 0 0 0 4 6 10 11 0 14 0 49 0 33 0 4 50 56 0 0 39 70 0 33 0 4 9 0 0 4 0 0 0 15 32 33 20 0 0 0 2 13 0 0 37 38 0 44 53 0 0 74 45 0 33 0 0 24 20 1 38 15 0 13 4 5 4 0 0 0 0 1 0 0 8 1 0 6 0 0 0 0 12 25 18 26 19 13 0 8 5 0 0 26 73 0 11 13 8 8 0 5 2 9 0 0 0 6 0 0 0 5 0 0 1 4 3 10 0 15 6 3 0 3 8 0 13 0 0 10 29 15 0 0 28 10 1 0 8 12 0 0 39 0 12 0 0 0 0 19 32 46 33 45 79 52 22 44 105 0 0 0 0 0 0 0 0 75 167 204 187 140 61 0 0 0 0 0 0 0 15 2 10 0 0 0 0 0 0 0 0 0 40 92 78 19 0 27 0 28 7 3 0 11 16 0 0 47 13 0 0 0 0 0 16 0 0 0 0 0 3 0 0 11 0 0 0 1 10 0 0 21 0 0 0 0 20 5 0 5 7 1 0 0 12 15 7 0 4 0 3 6 0 0 0 0 9 7 0 0 0 9 0 0 0 0 0 0 0 0 21 0 0 0 0 0 20 13 2 0 0 0 1 0 0 4 37 0 16 2 0 0 12 0 0 5 1 8 2 0 1 0 11 11 13 5 7 4 12 4 0 0 0 0 0 0 0 0 0 17 0 0 0 0 0 0 255 84 7 0 24 38 0 34 0 10 11 3 6 0 14 0 14 0 2 0 1 12 0 0 0 11 0 0 0 0 1 0 0 5 3 11 7 11 4 0 7 9 14 32 74 72 49 4 1 0 88 77 0 27 185 167 129 0 0 0 0 42 4 0 21 0 0 4 2 4 20 19 0 0 31 7 0 12 10 0 0 11 0 0 4 0 1 0 0 2 0 0 6 10 0 0 4 0 3 0 1 0 0 0 13 0 0 0 0 1 11 16 12 5 56 20 0 41 31 0 13 36 0 25 16 4 0 23 0 70 0 57 86 0 0 31 0 0 5 0 0 9 6 0 1 0 0 0 0 58 52 28 0 0 0 0 67 0 0 173 0 0 62 0 0 0 78 0 0 38 65 41 0 0 0 0 49 0 54 28 0 0 0 0 38 3 13 25 38 23 0 0 0 3 0 0 0 0 0 0 10 0 16 1 0 0 0 28 58 0 9 25 24 19 21 18 5 22 11 6 0 0 0 0 5 35 14 20 12 0 0 10 16 0 0 0 0 0 0 21 8 0 0 0 38 8 0 8 9 0 34 3 0 26 0 0 64 214 0 44 0 0 44 40 56 0 5 0 0 0 0 204 30 123 47 43 41 89 47 0 0 0 0 40 84 68 114 156 80 0 0 0 0 0 15 82 0 0 0 0 0 0 0 0 0 73 26 0 0 0 0 0 0 43 0 0 0 11 75 66 0 0 0 0 0 0 13 12 0 19 0 0 0 0 0 11 37 6 0 0 0 0 0 0 0 0 0 34 40 1 35 22 0 140 0 22 0 0 30 0 12 0 0 40 0 0 45 0 65 0 0 0 105 38 0 0 60 3 0 16 27 7 0 0 0 0 28 18 42 40 0 0 62 91 129 0 0 13 0 0 0 0 32 61 0 0 0 0 0 0 0 0 0 28 94 206 163 80 0 121 0 23 3 5 41 114 0 61 73 0 27 0 13 3 0 0 0 0 0 0 0 0 0 0 0 0 0 0 0 0 0 0 0 0 0 0 0 0 0 0 0 0 0 0 0 0 0 0 255
255 0 0 0 0 0 0 0 0 0 0 0 0 0 0 0 0 0 0 0 0 0 0 0 0 0 0 0 0 0 1 4 0 0 3 3 0 0 0 0 0 0 6 0 0 42 37 0 0 0 45 81 0 0 105 55 0 0 0 11 1 0 0 16 0 25 51 0 33 0 16 0 11 0 3 39 48 21 13 28 42 29 30 29 23 0 0 17 0 41 0 0 0 0 0 0 0 0 0 0 0 0 0 0 0 0 16 1 9 43 51 71 0 0 27 0 14 0 0 0 45 0 0 102 37 0 0 10 2 0 0 0 0 0 0 0 30 0 0 0 0 0 0 23 0 0 0 0 0 36 53 0 18 50 0 0 31 7 0 17 0 0 53 0 0 41 32 0 0 13 26 17 9 0 5 6 0 3 4 0 0 0 7 0 0 0 2 0 21 40 38 1 0 28 23 0 0 13 60 30 0 0 0 3 4 0 0 0 6 0 0 0 0 0 0 0 2 4 0 7 11 6 7 0 11 0 0 0 0 0 0 0 0 0 13 28 6 0 0 29 32 4 0 0 6 0 1 64 0 15 17 40 58 35 0 0 0 0 0 4 32 43 13 0 14 35 0 0 0 58 55 8 0 0 0 0 0 118 193 227 73 0 0 0 0 0 31 64 31 26 23 45 24 7 8 35 74 129 94 0 0 0 211 88 55 0 0 0 43 12 0 87 13 0 0 20 30 0 0 0 0 17 18 11 6 5 0 0 8 0 0 0 11 24 8 0 3 8 0 0 0 0 0 0 0 0 0 0 0 0 0 0 14 5 0 0 0 0 0 0 28 16 0 0 0 9 23 3 6 8 16 4 0 0 0 0 0 0 25 0 0 44 24 0 0 11 15 0 0 0 13 82 0 3 0 0 0 26 24 11 18 0 0 0 0 0 0 0 8 4 0 0 0 0 0 0 15 13 4 3 0 0 3 0 11 0 120 0 0 40 255 17 0 71 59 0 0 7 0 51 0 0 0 0 0 0 0 12 0 0 2 7 13 7 3 0 5 8 0 4 0 0 0 0 0 0 0 2 0 4 17 18 14 0 0 0 0 0 0 45 0 3 21 17 3 19 81 205 170 0 0 0 28 0 0 31 10 8 0 0 0 20 11 0 0 11 0 0 17 21 0 10 2 1 0 4 7 1 0 0 14 0 0 0 23 19 9 0 13 0 0 0 7 14 0 0 43 36 21 10 8 0 0 0 0 32 0 0 23 5 0 0 13 0 23 28 5 0 15 0 69 9 66 88 0 0 14 0 3 13 0 0 17 15 0 5 9 0 0 0 39 19 0 20 14 157 0 106 69 0 113 0 0 140 0 0 42 0 0 0 0 60 57 2 86 84 0 6 0 35 16 0 0 0 0 15 0 0 0 8 25 24 43 26 19 3 6 8 36 16 9 0 0 34 17 0 0 78 40 0 5 9 5 0 0 0 0 0 0 0 29 49 47 16 0 0 0 0 23 28 0 0 34 44 5 24 38 18 0 17 28 20 0 0 0 2 49 0 78 55 0 0 9 0 0 31 49 0 5 10 106 66 35 255 0 100 106 0 0 0 0 0 0 0 0 48 0 0 20 0 99 134 116 0 0 27 81 0 0 18 100 120 0 32 14 0 92 87 111 59 0 0 0 0 0 17 8 0 0 0 9 8 36 144 0 116 181 54 0 1 0 0 0 0 0 0 14 56 50 6 48 23 10 0 0 0 0 0 1 0 0 26 55 49 46 48 90 81 78 0 0 24 59 0 14 0 86 0 0 74 0 0 0 2 77 0 0 56 0 107 0 18 79 13 0 0 45 0 16 0 0 20 42 28 31 40 20 83 0 0 30 12 0 0 201 46 0 47 134 0 0 0 0 0 109 0 0 68 63 36 8 92 29 56 25 0 0 36 60 64 47 0 92 0 0 0 108 0 50 66 0 13 0 6 2 0 0 0 0 0 0 0 0 0 0 0 0 0 0 0 0 0 0 0 0 0 0 0 0 0 0 0 0 0 0 0 0 0 0 255
255 0 0 0 0 0 0 0 0 0 0 0 0 0 0 0 0 0 0 0 0 0 0 0 0 0 0 0 0 0 0 3 0 0 4 5 0 0 0 10 0 6 0 8 20 91 74 0 0 44 0 0 0 0 73 0 0 19 24 8 4 0 0 0 25 0 128 0 0 0 0 17 42 0 0 0 0 0 5 0 0 0 0 0 0 10 8 0 0 0 10 48 62 59 44 33 0 0 0 2 22 5 18 29 41 0 29 26 40 75 0 8 34 0 33 66 53 73 0 30 0 25 0 0 30 29 0 24 0 9 24 23 17 18 22 28 28 10 6 0 0 0 5 27 0 26 4 4 30 0 0 3 0 26 0 0 45 35 0 5 0 0 12 24 21 0 0 12 25 6 0 6 0 0 0 14 0 0 5 11 11 8 0 0 15 0 16 8 18 22 1 0 0 0 0 0 0 38 27 0 12 13 7 3 3 7 8 7 0 1 2 0 5 3 2 2 6 1 0 0 0 0 0 9 0 9 27 9 0 16 1 0 22 2 10 0 8 22 24 33 36 22 14 23 20 0 0 27 0 0 35 63 20 0 0 0 0 5 17 0 0 0 12 0 6 0 0 18 17 0 0 50 24 15 8 35 31 0 0 0 48 217 222 99 0 0 0 0 0 0 0 0 0 0 1 0 0 0 0 0 0 114 150 0 35 0 45 0 0 84 0 0 0 0 4 3 5 26 23 22 5 0 0 5 6 0 0 8 0 7 22 25 8 0 0 15 0 1 10 0 3 62 0 27 27 16 31 0 61 0 0 0 0 44 52 12 0 0 0 0 18 0 0 5 21 23 10 0 0 0 0 9 5 2 10 22 40 0 0 0 3 0 9 60 47 0 0 8 36 39 0 0 0 19 10 0 0 0 0 0 24 0 0 0 0 0 0 3 15 7 0 0 0 17 16 4 0 51 0 0 14 0 0 18 58 25 0 0 158 255 26 25 47 0 0 0 12 9 1 4 17 16 16 5 10 14 7 20 0 0 0 0 8 10 0 0 0 0 0 0 0 0 0 0 52 0 0 0 0 7 14 0 90 0 27 0 117 85 47 54 0 11 24 4 16 32 6 0 255 66 0 0 0 0 2 0 8 0 0 36 29 0 0 33 0 0 9 5 10 5 0 0 0 31 24 0 0 2 1 0 30 17 0 0 0 4 0 0 4 0 0 4 4 0 2 0 0 5 0 0 25 12 0 20 0 3 8 0 0 11 14 0 18 7 0 0 0 0 0 0 11 0 0 104 33 0 0 14 0 0 0 0 3 1 0 0 0 0 77 0 119 80 12 78 0 95 0 0 0 60 33 0 86 56 0 0 0 39 67 90 36 0 2 26 12 0 0 77 37 0 40 0 94 0 33 0 26 23 44 28 0 0 0 29 64 0 39 20 21 0 0 0 49 0 0 0 0 0 0 0 76 0 0 48 42 0 0 0 0 43 14 0 0 0 0 34 0 3 22 33 34 0 0 0 9 0 0 0 0 2 23 22 0 16 0 48 46 0 0 0 0 0 9 17 19 21 4 17 0 167 0 0 105 0 0 176 80 0 43 0 188 0 0 86 0 191 0 144 24 44 44 0 21 40 0 0 0 0 73 5 0 50 129 0 0 92 90 0 90 163 96 49 118 53 20 179 155 105 147 81 0 37 94 0 0 0 0 0 86 121 0 127 0 39 0 0 21 0 0 57 14 0 0 9 42 64 96 88 0 0 0 0 0 0 0 9 0 0 0 0 77 0 0 78 0 0 28 7 1 82 109 0 101 0 0 0 0 0 189 0 0 0 9 0 0 7 9 3 0 22 46 5 3 27 13 0 0 10 16 0 0 13 3 0 56 60 0 0 140 195 0 0 174 162 0 0 35 0 20 0 0 0 0 0 0 8 21 14 0 31 0 0 0 20 19 17 19 0 26 87 3 8 2 8 1 0 0 0 0 0 0 0 0 0 0 0 0 0 0 0 0 0 0 0 0 0 0 0 0 0 0 0 0 0 0 0 0 0 0 255
255 0 0 0 0 0 0 0 0 0 0 0 0 0 0 0 0 0 0 0 0 0 0 0 0 0 0 0 0 0 0 2 0 6 0 0 0 0 0 14 0 10 9 0 19 64 0 0 11 38 37 36 0 13 79 0 0 0 0 1 2 0 0 1 6 0 114 0 0 14 0 31 31 0 1 18 0 0 9 0 1 3 0 0 0 7 6 9 26 2 0 0 0 13 19 53 75 61 2 0 3 15 16 0 6 0 20 0 0 3 0 26 55 0 0 15 0 0 2 0 13 21 0 0 35 20 0 0 0 2 0 0 5 2 8 9 3 2 17 37 35 9 0 0 27 4 0 0 17 7 0 38 0 20 0 0 1 16 0 7 0 0 14 20 11 0 0 1 24 11 6 13 14 4 0 9 10 0 0 0 0 0 0 0 0 0 3 2 9 13 19 0 9 0 0 0 3 26 24 0 16 2 2 3 5 0 0 5 0 0 1 0 3 0 0 9 6 11 0 0 0 0 4 0 6 9 13 0 0 8 4 0 0 3 11 13 5 5 0 8 0 0 0 0 0 2 8 17 76 61 0 0 0 0 0 22 34 0 0 33 28 0 0 21 0 0 0 15 29 0 0 33 0 0 0 8 1 0 0 1 0 0 30 153 255 206 0 0 0 0 2 7 0 0 0 0 0 7 0 0 0 214 116 0 29 0 44 0 0 63 0 8 15 11 2 0 4 13 3 17 0 6 3 0 0 5 3 0 9 2 1 15 18 25 0 0 0 2 33 0 0 36 0 26 5 0 28 0 49 10 24 35 0 0 0 0 0 15 11 7 15 0 0 0 2 0 0 0 5 1 6 13 10 0 0 18 42 1 5 23 9 0 0 0 47 23 24 21 16 10 0 28 0 0 0 0 0 0 0 0 6 4 23 46 43 2 0 0 3 9 10 0 0 4 4 2 0 23 0 0 0 47 49 0 0 69 0 6 255 52 47 0 21 11 9 5 0 0 0 0 1 0 0 0 0 0 0 4 0 0 0 5 7 9 0 0 0 2 0 1 5 6 0 0 2 0 7 23 0 11 36 0 0 0 210 88 145 0 0 94 0 5 16 9 0 0 5 0 0 165 239 0 0 0 54 0 67 0 0 12 28 18 23 34 8 23 0 0 0 9 13 13 0 0 0 0 0 15 28 23 0 0 8 21 29 17 0 0 18 4 0 0 2 12 10 4 25 32 8 0 14 0 0 0 17 27 14 1 20 20 20 0 33 16 18 6 3 19 23 22 0 32 0 78 28 0 0 13 0 0 3 0 0 0 0 0 0 0 73 0 111 25 0 40 0 0 154 79 83 21 0 85 0 62 7 0 0 50 43 0 38 0 0 0 1 14 0 19 0 46 106 0 0 0 42 0 1 0 0 0 0 0 17 41 16 5 17 26 0 14 22 16 36 0 0 26 30 0 0 0 0 0 0 0 14 14 34 35 16 0 0 0 0 0 0 26 0 16 11 9 0 0 5 8 4 0 6 12 0 0 19 4 0 9 0 18 30 0 9 0 0 0 0 7 10 12 4 0 3 59 0 0 53 36 0 0 0 72 132 3 129 81 0 0 0 157 116 255 0 0 16 162 0 19 0 66 65 0 0 0 33 0 13 37 8 0 0 0 0 0 0 76 0 0 0 0 0 0 0 16 55 42 0 0 0 0 0 0 0 0 0 0 104 0 0 0 117 40 0 67 21 32 71 47 0 0 1 0 58 59 89 95 0 0 0 141 30 0 0 0 137 1 0 0 68 0 0 0 2 0 0 0 0 0 17 82 18 0 130 0 0 9 18 15 0 8 9 0 5 10 12 0 0 0 20 0 0 6 0 0 29 40 16 0 0 0 0 0 74 110 0 0 241 97 0 0 33 0 38 8 31 16 14 7 16 12 0 0 0 28 11 0 34 22 0 0 12 0 39 81 0 3 0 5 1 0 0 0 0 0 0 0 0 0 0 0 0 0 0 0 0 0 0 0 0 0 0 0 0 0 0 0 0 0 0 0 0 0 0 255
255 0 0 0 0 0 0 0 0 0 0 0 0 0 0 0 0 0 0 0 0 0 0 0 0 0 0 0 0 0 0 2 4 0 2 2 0 0 0 6 0 2 19 0 30 136 0 0 78 0 61 20 0 37 45 0 0 0 0 0 0 1 0 21 0 0 98 0 0 1 0 3 44 0 0 14 0 0 11 0 0 11 10 0 0 0 6 19 0 0 0 0 13 18 12 30 0 17 32 5 0 0 11 0 27 0 20 0 0 23 4 46 7 0 0 104 95 0 26 24 0 0 26 36 0 0 0 0 0 0 0 0 0 0 0 0 12 3 0 0 0 0 0 14 34 0 0 22 0 0 0 43 17 9 8 0 0 0 33 4 17 0 6 5 0 0 0 1 5 0 2 9 7 0 0 0 15 10 0 0 0 0 6 0 0 0 11 10 17 18 11 5 18 0 0 1 36 25 9 0 13 2 0 1 5 0 4 0 9 0 1 0 5 3 2 5 3 0 0 2 6 2 4 0 5 10 8 0 0 0 7 17 0 0 7 16 9 0 0 0 0 16 4 0 0 56 39 1 0 0 0 0 0 0 8 35 14 0 0 0 11 0 0 0 0 1 18 21 30 12 6 0 0 0 14 18 0 0 0 38 27 0 0 0 50 241 249 197 0 0 0 0 17 0 10 38 15 17 0 0 0 255 72 0 23 2 36 0 0 28 0 26 25 13 4 0 4 22 17 49 0 33 43 0 0 16 17 0 27 0 0 0 14 12 0 0 0 0 27 0 5 39 0 31 16 13 33 0 49 0 0 0 2 9 1 0 0 13 11 0 0 0 0 0 0 0 0 0 16 0 0 11 3 0 0 10 0 0 0 44 57 43 49 36 0 0 14 17 0 0 3 61 21 49 38 48 58 59 37 15 0 0 0 3 2 0 6 44 0 12 6 0 0 11 0 0 7 0 0 0 0 7 12 0 58 0 0 255 115 0 61 0 14 0 1 3 0 0 1 15 0 0 0 0 1 0 0 0 1 6 0 0 17 11 0 0 0 1 0 0 0 0 0 0 0 0 17 38 0 0 24 13 23 0 54 0 0 0 0 217 0 0 3 17 0 0 1 54 60 0 86 240 89 0 0 29 62 1 0 0 0 2 11 5 13 11 0 0 0 5 8 23 0 7 0 0 0 5 10 6 0 0 25 23 17 10 2 0 16 8 0 0 3 0 6 22 0 13 0 0 18 17 0 21 3 1 8 0 3 5 3 0 28 2 3 0 0 2 2 12 0 54 0 53 77 0 0 9 0 0 0 0 0 6 0 0 0 0 62 24 111 27 0 96 47 0 98 0 42 0 12 147 0 33 13 0 0 56 44 31 0 0 0 0 26 45 0 0 0 0 72 0 10 0 38 57 0 22 0 4 30 14 0 0 0 33 0 20 0 34 0 40 0 0 1 25 13 4 0 8 42 49 30 0 0 1 0 0 18 0 0 11 0 0 10 0 0 20 0 0 0 1 21 14 9 0 10 20 0 0 7 0 30 0 0 23 42 0 16 16 0 3 3 0 0 0 0 0 73 35 0 0 0 0 56 3 28 142 140 0 0 203 0 0 0 0 0 0 0 96 90 66 10 56 0 0 0 0 17 0 40 0 0 55 76 0 0 36 80 205 0 0 40 0 0 15 0 3 0 0 127 57 0 32 66 111 0 93 52 0 109 0 64 22 0 11 23 0 0 25 0 10 67 10 0 0 16 0 0 5 0 0 0 2 11 0 0 0 21 0 80 0 0 0 120 0 0 0 7 0 0 59 0 25 23 118 0 69 88 0 0 6 18 10 0 0 18 0 11 9 2 0 0 0 14 5 9 0 0 0 32 51 26 4 0 0 0 0 105 111 0 0 159 19 0 38 61 0 57 11 23 10 23 26 26 10 0 0 0 12 5 0 25 16 0 1 0 0 40 70 0 13 0 0 2 0 0 0 0 0 0 0 0 0 0 0 0 0 0 0 0 0 0 0 0 0 0 0 0 0 0 0 0 0 0 0 0 0 0 255
255 0 0 0 0 0 0 0 0 0 0 0 0 0 0 0 0 0 0 0 0 0 0 0 0 0 0 0 0 0 1 3 0 3 0 0 9 0 7 5 0 0 29 0 39 151 0 65 62 0 77 0 0 70 21 0 0 3 0 0 0 1 4 23 0 0 73 24 0 0 0 0 56 0 1 20 0 7 24 0 30 24 30 7 0 0 5 18 0 0 0 17 25 0 0 0 0 0 69 70 21 0 0 0 6 0 0 1 39 44 22 21 0 0 0 74 91 28 30 17 0 0 20 45 0 0 7 0 10 0 0 0 0 0 0 0 0 0 0 0 0 0 0 8 0 0 33 52 0 0 15 23 25 0 22 11 0 0 46 0 25 7 1 2 0 0 0 0 5 0 0 0 3 0 0 0 0 0 0 5 5 4 3 0 0 0 23 20 11 3 2 0 7 0 0 30 42 8 0 0 9 4 2 0 0 0 0 0 1 0 0 0 0 0 0 2 0 0 0 2 5 0 6 0 2 6 6 0 0 6 5 6 0 4 13 13 4 0 0 0 57 55 38 0 16 50 26 0 0 0 0 43 62 51 25 3 0 35 31 0 0 67 56 0 0 23 26 0 0 0 0 0 10 0 3 1 0 0 7 24 11 19 73 0 0 0 118 195 255 0 0 0 0 1 0 0 0 0 0 0 0 255 16 0 7 19 28 0 3 0 0 33 20 5 0 0 0 13 20 52 0 17 30 12 0 0 3 0 2 0 0 0 0 6 0 0 12 0 16 0 19 40 0 29 2 2 26 0 41 0 0 0 32 25 2 0 4 7 0 0 2 12 5 12 0 0 0 4 2 0 6 8 3 0 0 22 17 0 0 0 0 0 0 0 24 27 44 35 2 0 2 31 0 0 0 0 0 0 0 0 0 12 8 27 11 0 0 22 0 7 9 0 0 3 5 0 53 0 17 50 0 0 0 52 0 0 255 239 0 0 25 10 0 0 0 0 8 13 8 27 0 0 13 12 12 8 7 0 11 0 0 0 8 1 0 0 0 6 0 6 1 0 0 0 9 0 13 38 0 0 7 0 34 0 89 0 20 0 0 155 0 0 0 4 10 0 0 63 59 0 0 68 136 48 0 0 6 0 0 0 0 0 0 0 0 0 8 7 22 13 4 0 19 15 12 3 0 0 0 0 5 4 0 0 0 0 6 13 6 0 0 0 0 0 0 7 0 4 0 0 22 24 0 32 0 0 0 0 0 1 0 0 15 0 0 0 0 11 0 16 0 64 0 23 95 0 0 3 0 8 1 0 5 4 0 0 0 0 19 35 100 0 0 121 66 0 148 0 42 0 58 0 0 28 52 57 93 66 30 37 12 40 56 9 4 18 0 0 0 0 0 26 73 26 27 76 0 22 0 2 48 35 0 0 0 33 0 0 9 11 0 56 0 0 0 14 15 0 0 19 0 8 9 0 4 14 17 22 0 24 35 35 6 38 48 0 0 11 10 0 0 28 14 0 16 2 13 19 0 0 16 0 33 0 0 32 33 0 20 42 0 6 11 0 0 0 0 0 60 66 60 0 0 72 208 173 20 0 42 0 0 113 0 60 0 0 39 0 0 22 15 94 25 72 0 0 0 0 85 36 0 0 0 0 7 72 90 75 0 25 33 0 0 133 135 0 65 34 0 0 68 17 0 78 84 39 9 73 0 0 34 0 0 36 104 0 0 0 0 0 17 0 0 0 0 36 53 0 0 0 0 0 51 94 69 35 0 5 75 0 56 0 35 5 8 54 34 0 0 30 35 79 0 50 0 16 0 106 29 0 0 0 23 22 0 4 2 0 0 1 31 11 18 16 10 0 14 0 0 0 9 13 1 0 61 0 0 8 147 69 0 42 79 16 14 8 0 0 0 0 0 0 0 0 12 8 1 0 23 30 0 0 1 0 2 52 0 0 47 53 0 6 0 0 2 0 0 0 0 0 0 0 0 0 0 0 0 0 0 0 0 0 0 0 0 0 0 0 0 0 0 0 0 0 0 0 0 0 0 255
255 0 0 0 0 0 0 0 0 0 0 0 0 0 0 0 0 0 0 0 0 0 0 0 0 0 0 0 0 0 1 0 0 4 0 0 9 0 0 12 3 0 37 0 60 125 0 53 39 0 65 2 0 75 23 17 3 12 0 0 0 3 0 8 0 0 46 38 0 0 0 1 44 0 0 27 0 21 20 0 28 14 0 0 5 10 7 8 29 15 0 0 0 0 2 62 13 7 3 41 68 61 0 0 0 0 0 0 0 5 5 0 0 75 91 0 0 72 18 0 56 0 0 18 10 38 29 0 2 0 0 0 0 1 0 0 0 0 5 36 38 11 0 0 0 0 38 27 0 0 42 0 0 0 20 23 0 0 50 0 17 1 0 0 0 0 0 0 37 7 0 12 14 12 11 15 0 0 0 0 0 0 0 0 0 0 20 21 6 4 0 1 0 0 6 38 28 0 0 13 5 5 0 0 0 0 0 0 0 0 0 0 0 1 0 17 0 0 0 7 11 5 0 0 0 2 18 0 0 10 0 0 5 7 10 12 0 0 0 0 56 5 0 6 19 0 0 0 0 4 10 3 14 11 0 0 0 65 53 0 0 80 84 0 0 29 20 0 0 0 0 0 28 0 0 0 0 1 4 0 0 0 90 118 0 0 0 0 237 255 165 0 0 0 0 36 1 0 0 0 53 242 0 0 1 30 9 9 15 0 5 18 21 5 0 0 2 32 31 62 0 0 0 35 30 0 0 28 0 0 0 0 0 0 0 7 18 0 0 0 27 42 0 0 0 0 9 0 56 0 7 31 0 0 0 0 12 27 7 0 0 6 9 7 4 5 10 19 0 0 4 8 8 0 0 8 14 1 5 11 13 1 10 0 59 34 23 17 0 0 0 0 39 22 8 5 20 33 19 2 0 0 0 34 7 0 0 0 0 10 10 0 0 3 12 0 22 0 29 28 31 60 0 0 0 141 255 0 102 0 0 22 1 0 0 4 4 7 10 19 0 0 14 14 6 3 2 0 14 2 0 0 5 4 0 0 3 0 2 0 4 2 0 0 12 0 0 22 3 9 1 0 0 0 152 177 212 0 0 100 42 0 0 20 37 4 0 25 0 50 42 0 0 155 72 0 0 0 0 23 32 27 21 0 0 0 0 14 20 4 0 0 1 0 0 0 12 9 16 11 25 1 0 0 0 13 11 0 0 0 0 4 7 3 0 0 18 33 11 0 12 3 0 0 36 7 8 15 10 10 6 0 18 16 12 3 3 15 15 23 0 46 1 0 71 13 0 0 0 0 0 0 2 3 0 0 0 8 0 59 71 0 0 100 0 51 103 20 0 0 130 0 0 82 110 0 0 97 50 0 74 71 43 0 0 6 13 0 0 41 27 0 0 41 15 0 0 0 0 0 0 1 25 76 42 9 0 0 68 0 0 49 0 0 0 15 5 0 0 11 0 0 0 0 22 21 29 52 0 0 45 9 0 33 38 0 0 0 0 0 0 28 22 0 17 0 9 14 0 5 22 0 0 0 0 37 42 0 18 42 0 4 15 10 0 0 0 15 5 60 0 0 76 148 52 0 0 0 11 0 22 137 0 168 97 0 44 118 72 0 0 229 0 32 14 52 71 33 61 0 57 63 5 0 0 11 0 0 0 0 0 0 0 71 88 0 39 0 0 45 0 0 0 0 0 0 32 2 0 2 0 0 0 6 16 0 5 104 97 0 117 0 0 38 24 11 18 0 47 0 2 102 44 0 0 115 50 27 0 0 64 44 42 0 0 42 54 0 0 0 0 88 0 30 0 0 0 116 0 0 0 10 31 21 8 7 7 0 0 5 28 27 34 23 0 0 5 0 0 2 0 0 0 33 52 0 0 0 111 0 0 4 89 21 5 0 20 123 137 91 52 0 0 0 12 7 4 0 25 28 0 0 6 0 0 63 0 0 72 40 0 9 0 10 1 0 0 0 0 0 0 0 0 0 0 0 0 0 0 0 0 0 0 0 0 0 0 0 0 0 0 0 0 0 0 0 0 0 0 255
255 0 0 0 0 0 0 0 0 0 0 0 0 0 0 0 0 0 0 0 0 0 0 0 0 0 0 0 0 0 1 3 0 0 1 1 0 1 0 14 0 0 23 7 62 83 0 24 0 0 0 0 0 36 5 11 1 8 0 0 0 11 0 0 0 0 4 55 0 23 3 30 32 0 0 14 0 5 21 0 0 0 0 0 8 9 8 17 15 2 12 26 26 0 5 50 0 3 0 0 14 139 143 83 40 60 0 0 0 0 25 66 2 56 100 0 0 60 0 42 0 2 16 18 0 0 0 10 0 0 0 0 9 13 12 20 21 4 0 0 0 0 0 0 49 18 0 0 0 53 66 0 0 0 15 3 0 0 21 0 3 0 0 10 13 0 0 0 30 4 0 0 4 0 12 8 26 13 0 0 0 0 0 0 15 10 35 26 9 12 1 8 0 0 30 31 10 0 0 10 5 7 0 0 0 0 9 3 10 1 0 6 0 0 0 8 0 0 0 0 13 0 2 4 0 0 9 0 4 10 3 0 6 5 0 0 0 0 2 7 19 0 0 6 5 0 0 0 28 10 0 0 0 0 0 0 30 10 0 9 14 8 0 0 4 14 19 0 0 13 21 0 22 0 0 0 0 15 10 0 11 0 0 0 0 0 63 33 0 72 255 255 0 0 0 0 5 0 0 0 181 116 0 0 0 48 0 14 26 0 7 0 28 15 0 0 15 28 26 47 0 0 0 42 29 0 0 44 0 7 17 15 0 0 12 30 22 0 0 0 29 46 0 0 31 8 42 0 67 0 1 13 0 0 0 0 29 16 2 3 0 0 0 0 0 0 4 10 0 0 0 10 3 0 0 8 0 0 0 11 12 0 0 0 0 0 0 0 0 0 0 0 0 0 0 0 0 0 0 0 0 0 0 15 30 36 53 72 0 10 10 0 0 5 2 1 0 0 59 0 17 118 0 0 0 255 80 0 41 36 0 27 4 14 14 10 0 0 0 0 0 0 0 0 1 0 0 0 8 0 0 0 4 7 0 0 3 2 0 1 1 3 0 17 1 0 0 9 4 15 24 3 0 0 96 22 0 0 0 185 38 0 0 10 33 24 9 0 28 0 0 50 55 5 12 153 0 0 0 0 33 17 8 0 33 0 0 0 0 0 6 17 18 0 0 4 11 6 4 0 19 0 0 11 31 27 3 0 18 6 9 16 17 10 10 1 0 23 0 0 18 3 0 0 27 0 0 0 11 0 0 0 0 0 0 0 0 2 0 0 26 7 13 0 49 43 0 0 0 0 0 0 0 0 0 0 0 6 0 136 60 9 0 31 0 5 0 6 0 0 122 58 0 58 65 0 0 26 6 0 27 7 0 0 58 60 2 0 0 16 5 24 0 0 0 18 3 0 27 67 9 0 18 0 64 0 14 0 73 0 0 0 35 15 16 10 4 0 0 17 37 9 13 22 16 0 0 0 0 0 0 0 0 0 4 7 1 1 0 0 0 22 13 0 8 0 0 10 0 2 26 0 0 3 0 30 38 0 11 0 0 10 20 17 0 0 4 17 0 94 0 0 12 0 0 0 0 156 0 51 0 179 0 28 144 0 0 0 73 16 17 0 0 23 38 60 62 13 43 0 45 41 50 26 19 20 0 0 83 150 0 0 107 0 0 106 63 0 0 52 0 0 50 0 12 0 121 26 0 105 7 100 68 0 16 53 0 0 24 46 24 0 22 56 0 0 0 32 0 20 0 0 0 0 0 0 44 38 50 0 40 0 10 0 0 10 0 32 65 0 0 114 0 25 1 33 111 114 0 0 0 6 31 13 12 4 2 0 5 0 1 0 0 0 7 8 0 4 16 11 0 0 6 91 52 0 19 0 118 0 0 0 112 18 0 0 112 151 0 0 181 2 0 0 0 0 0 0 0 14 2 6 36 2 0 31 0 0 97 21 0 12 0 11 0 0 0 0 0 0 0 0 0 0 0 0 0 0 0 0 0 0 0 0 0 0 0 0 0 0 0 0 0 0 0 0 0 0 0 255
255 0 0 0 0 0 0 0 0 0 0 0 0 0 0 0 0 0 0 0 0 0 0 0 0 0 0 0 0 0 0 2 3 6 0 7 0 0 0 16 0 0 17 32 69 44 0 21 0 18 0 0 26 0 0 10 0 11 0 0 0 17 12 0 0 15 0 66 0 16 6 5 43 0 0 13 0 0 23 0 0 0 0 0 8 0 9 13 0 0 27 46 49 0 0 0 10 61 66 4 0 0 32 54 71 88 21 27 27 6 91 131 0 2 45 70 82 21 0 71 0 23 46 14 0 0 0 56 0 5 7 1 0 10 7 22 42 11 0 0 0 0 0 47 45 10 0 0 28 40 10 27 0 29 7 0 0 0 0 15 8 0 0 11 7 0 0 9 0 0 0 0 0 0 0 0 21 10 8 0 0 0 16 13 32 17 30 0 1 5 15 0 0 15 34 14 0 0 10 8 2 0 0 7 0 2 0 0 5 6 0 3 0 9 0 16 0 5 0 0 11 0 2 8 0 4 11 0 0 6 3 0 0 7 6 4 0 0 0 1 4 0 0 0 0 0 3 6 0 0 15 22 19 9 10 2 25 0 0 6 17 0 0 10 0 10 1 3 17 11 22 26 0 12 19 0 0 15 13 3 0 61 46 5 4 0 0 0 201 0 0 255 255 161 0 0 0 0 0 0 255 31 62 0 0 37 0 11 34 0 18 0 23 0 0 0 18 26 27 24 6 0 0 10 13 0 0 30 13 11 10 15 0 0 6 24 3 0 0 0 26 16 0 22 39 28 56 0 55 0 0 0 18 12 16 30 35 7 0 0 11 0 0 0 0 2 0 0 0 0 0 9 3 0 0 6 10 10 0 0 0 0 0 0 0 0 0 0 0 0 0 0 0 0 0 0 0 0 0 0 0 0 0 0 0 0 0 0 0 0 22 0 0 3 6 15 6 7 59 0 0 11 0 0 255 105 57 26 0 50 0 11 14 15 2 4 0 0 0 0 11 0 0 0 0 0 0 0 8 0 1 0 10 7 0 0 0 4 0 3 7 10 0 31 12 0 0 7 0 0 14 14 0 0 246 98 0 0 25 112 16 9 1 0 8 19 9 0 32 22 19 0 8 64 66 87 0 0 0 0 24 4 0 0 45 0 0 0 0 0 2 17 33 5 2 13 12 0 0 0 0 0 0 19 14 19 0 0 34 8 0 0 4 6 12 19 0 0 0 0 21 23 0 28 4 0 0 0 0 0 0 0 0 0 0 0 0 0 0 0 47 0 39 13 37 78 0 0 0 1 8 5 4 4 0 0 0 0 0 154 30 6 29 0 83 51 0 103 141 0 0 0 13 0 0 47 61 0 0 42 0 0 0 51 105 86 0 0 0 0 0 88 0 0 0 82 48 0 77 121 19 0 15 0 10 0 0 0 2 0 13 0 24 16 7 4 1 0 0 7 0 0 0 23 37 11 0 15 40 1 0 0 10 0 0 22 16 5 0 0 1 5 4 4 0 0 11 16 0 0 20 0 0 10 0 23 46 0 21 0 7 22 21 12 0 0 0 19 35 81 32 0 0 0 0 0 0 245 0 0 0 67 43 0 77 132 14 0 0 0 75 0 0 41 10 0 0 0 61 0 0 2 55 53 51 58 69 69 0 0 0 161 52 0 10 0 66 47 28 0 0 40 92 13 0 2 42 0 0 0 0 26 8 0 60 91 0 0 0 60 0 0 1 27 0 0 11 13 3 98 43 0 0 174 140 0 0 28 104 0 19 0 0 1 49 36 0 0 104 0 0 120 0 0 65 26 206 38 0 26 0 0 23 15 5 0 15 0 12 0 0 0 0 0 0 14 0 0 0 15 13 0 0 63 70 0 71 5 155 0 0 0 173 32 0 0 70 0 0 0 198 11 10 0 5 9 0 0 0 12 2 7 31 0 0 24 0 0 87 7 0 14 0 14 1 0 0 0 0 0 0 0 0 0 0 0 0 0 0 0 0 0 0 0 0 0 0 0 0 0 0 0 0 0 0 0 0 0 0 255
255 0 0 0 0 0 0 0 0 0 0 0 0 0 0 0 0 0 0 0 0 0 0 0 0 0 0 0 0 0 1 3 0 5 0 9 2 0 0 14 1 0 0 48 64 2 19 0 0 82 0 3 82 0 0 37 0 8 0 0 0 16 12 0 14 31 0 63 0 13 0 0 55 0 0 10 0 0 7 0 19 0 12 20 12 0 0 41 47 0 0 0 0 0 0 0 25 0 0 94 59 0 0 0 0 0 0 28 122 138 177 9 0 128 11 0 0 28 73 19 17 4 0 0 48 52 0 8 0 19 21 0 0 0 0 8 0 0 0 0 18 7 9 32 0 0 0 4 66 0 0 74 32 57 0 0 0 0 0 53 32 15 0 0 0 0 4 17 0 0 0 3 0 0 0 0 0 0 15 18 18 10 20 23 9 21 1 0 0 6 0 0 1 17 24 0 0 13 19 0 0 0 7 5 10 7 5 5 0 0 11 7 0 0 0 16 1 17 7 0 7 0 2 8 0 14 13 0 0 14 19 40 0 24 30 26 0 0 0 0 12 62 64 0 0 0 31 0 2 29 51 40 3 0 0 17 0 17 35 0 0 30 42 4 0 0 0 18 17 0 0 12 0 11 29 0 0 0 0 29 0 28 0 0 16 85 53 8 0 0 0 0 85 255 231 9 0 0 0 0 239 0 95 0 4 52 0 24 62 0 15 0 2 0 0 0 10 36 29 17 0 21 0 0 0 0 0 0 28 17 4 0 0 0 0 29 0 0 8 5 37 0 0 59 0 0 32 0 37 0 7 31 22 0 0 0 10 0 0 0 45 27 0 0 0 4 0 0 14 7 21 33 24 9 12 36 36 0 0 0 0 0 0 0 44 33 87 120 129 133 105 66 151 121 144 146 154 148 125 105 125 115 89 63 0 0 0 0 0 0 5 0 0 8 10 12 0 0 47 0 77 0 0 103 255 0 17 0 80 9 8 0 0 0 0 0 0 7 8 0 18 8 14 0 6 0 0 7 0 0 0 0 0 7 9 2 0 0 0 0 12 10 11 56 31 0 0 38 0 0 0 23 0 0 255 14 0 0 78 20 0 17 19 0 0 0 0 0 0 0 0 33 18 0 0 46 190 0 0 0 87 54 11 0 27 0 6 34 36 0 0 5 0 0 0 2 22 2 0 2 8 22 20 8 0 0 0 0 33 0 0 0 0 0 0 15 0 19 0 0 24 13 0 12 40 7 0 2 18 10 14 2 29 22 26 23 30 32 24 0 58 0 58 36 11 64 0 0 0 0 8 0 4 0 0 0 3 0 0 138 0 0 4 0 91 29 11 0 78 0 0 107 0 0 38 0 25 54 0 0 0 0 0 0 0 12 24 52 84 121 7 18 0 41 0 0 64 0 0 42 0 0 67 39 1 0 0 42 0 40 19 8 0 0 0 0 0 0 0 17 0 0 0 0 0 0 0 0 19 49 0 0 70 61 19 0 17 2 13 20 15 5 0 0 0 0 11 3 0 0 1 0 0 21 0 3 44 14 23 0 32 25 42 19 0 0 0 19 30 0 0 43 4 0 0 0 0 152 0 0 74 0 153 0 0 126 80 18 64 0 180 43 0 45 19 0 0 0 83 14 0 18 103 6 0 0 0 0 12 157 32 0 1 37 0 0 0 98 6 0 0 67 7 0 0 136 5 0 13 0 2 40 0 0 0 0 0 27 82 0 0 0 39 56 56 99 68 0 0 0 0 97 54 0 0 0 0 0 0 0 94 0 0 0 0 22 0 0 84 119 18 78 16 0 12 0 204 0 0 133 0 0 4 8 0 0 22 9 1 0 10 5 7 0 0 0 6 0 2 26 29 0 0 0 6 0 31 0 145 0 0 0 188 64 11 17 255 109 0 122 118 0 14 13 24 14 8 0 26 12 0 0 1 0 0 11 0 0 69 19 6 19 0 7 6 4 5 4 2 1 6 5 6 3 3 2 0 1 4 4 3 0 0 0 0 0 0 0 0 0 0 0 0 0 0 0 0 0 0 255
255 0 0 0 0 0 0 0 0 0 0 0 0 0 0 0 0 0 0 0 0 0 0 0 0 0 0 0 0 0 2 0 0 5 0 0 0 3 1 5 17 0 43 74 0 0 0 0 48 104 0 37 33 0 49 0 0 13 9 0 0 29 19 0 27 0 5 23 0 0 0 45 24 1 0 0 0 6 8 0 11 0 0 22 0 0 63 0 0 15 114 73 4 0 0 0 47 52 22 0 0 32 117 19 56 0 2 49 0 0 0 0 18 93 81 18 0 0 0 0 63 72 91 97 73 5 0 0 56 0 0 0 50 25 0 0 0 23 68 66 58 65 59 59 35 0 0 14 0 0 0 0 0 9 33 44 37 56 41 19 0 0 28 26 27 0 0 20 0 0 24 35 2 0 0 15 0 0 18 21 30 49 56 23 15 0 11 54 55 0 0 0 60 9 15 5 8 0 0 0 23 12 7 0 0 9 0 0 8 2 0 0 0 0 7 11 0 0 0 0 10 6 2 0 33 19 0 0 0 0 0 19 0 0 0 0 11 18 4 0 39 0 0 0 46 55 3 0 35 0 0 0 10 47 53 57 30 11 0 0 31 47 22 0 45 0 13 3 0 0 10 0 9 3 0 0 2 15 6 11 0 0 22 39 14 0 0 0 0 19 0 82 0 114 104 255 115 0 0 47 155 42 104 0 0 50 0 0 70 40 0 26 38 0 0 21 22 0 0 38 0 0 0 0 0 2 6 0 0 0 0 0 17 20 10 0 0 0 1 18 0 0 0 43 0 49 0 0 86 58 0 0 0 0 7 19 26 4 17 1 0 12 3 0 14 58 21 0 25 0 0 0 17 0 0 0 0 0 0 61 73 73 138 173 158 145 99 82 61 38 0 0 71 44 50 63 40 15 29 91 114 133 134 130 185 237 202 202 0 0 0 0 48 0 0 60 23 0 99 0 140 0 0 255 46 0 11 3 0 0 3 2 0 5 19 12 19 0 0 0 18 0 0 0 0 11 8 9 4 9 24 16 21 3 0 0 0 24 15 0 0 3 0 0 0 39 0 0 18 6 18 16 0 16 255 0 0 78 57 36 15 0 0 36 38 12 27 68 20 12 0 0 0 0 0 0 54 126 0 0 0 21 0 0 54 9 0 0 19 29 29 19 12 4 0 0 8 5 22 18 9 0 0 0 13 3 5 1 0 10 0 0 5 41 41 37 0 22 29 13 0 0 0 0 0 0 0 25 21 0 0 7 11 13 10 0 0 2 0 0 75 0 3 30 23 79 56 0 0 0 2 0 7 0 0 0 24 0 100 159 0 23 0 6 0 0 0 0 72 0 0 152 0 0 0 0 58 79 0 0 0 42 75 52 12 22 0 0 0 15 0 0 0 23 30 0 67 0 10 30 0 19 23 0 0 0 27 0 0 47 46 0 16 6 14 24 7 6 5 25 0 37 10 30 5 25 0 28 0 0 71 0 0 0 0 0 0 0 16 0 4 36 0 0 0 29 15 10 5 9 30 45 0 0 12 16 17 10 29 22 45 28 57 0 0 17 36 33 0 97 0 105 0 0 223 255 28 181 0 44 214 36 190 0 116 0 133 31 0 0 0 32 0 97 89 132 35 0 71 77 4 127 0 0 0 73 0 45 0 0 0 0 40 22 0 0 0 7 0 11 78 0 0 34 5 15 0 0 37 5 6 100 37 100 18 110 48 0 15 0 0 107 12 0 0 0 0 31 35 0 0 0 38 73 44 2 19 131 76 10 92 85 40 106 112 56 3 2 49 61 0 0 0 0 87 0 152 0 0 81 0 49 77 48 19 31 29 0 5 0 0 9 13 8 12 9 0 0 0 0 102 0 62 23 48 101 0 19 125 0 0 0 154 0 165 0 74 83 67 59 50 0 29 0 0 0 0 3 29 24 15 0 0 1 41 0 114 121 57 0 0 6 6 0 28 11 0 1 15 7 17 0 10 0 0 6 1 2 0 0 5 0 0 0 0 0 0 0 0 0 0 0 0 0 0 0 0 0 0 255
255 0 0 0 0 0 0 0 0 0 0 0 0 0 0 0 0 0 0 0 0 0 0 0 0 0 0 0 0 0 2 0 3 4 0 0 3 1 0 9 0 0 71 37 0 0 0 0 57 0 0 11 36 0 8 0 10 18 5 0 0 20 16 0 36 0 10 23 10 0 0 26 32 13 0 0 13 19 17 0 23 0 35 57 46 86 80 0 135 0 0 0 0 0 0 11 0 18 0 29 34 20 23 7 48 0 0 0 0 0 25 0 20 26 0 0 51 62 1 0 0 0 0 0 0 0 5 55 0 1 25 29 5 17 29 59 74 48 20 14 0 0 0 0 0 0 0 0 0 0 0 0 16 7 3 0 0 0 4 0 0 3 13 23 7 0 0 0 0 12 20 14 0 0 2 45 0 6 29 23 15 21 0 0 27 0 0 0 0 0 0 18 12 3 10 0 4 0 0 0 4 0 0 0 0 0 2 0 0 5 0 0 1 10 0 18 0 0 0 3 3 1 3 1 0 0 0 29 19 11 0 12 0 33 35 0 0 8 34 41 0 0 0 0 2 21 17 0 28 9 0 5 4 11 1 17 29 25 24 0 0 0 0 0 32 0 7 18 0 7 13 0 18 18 21 8 6 14 14 15 31 13 0 0 0 0 32 99 0 34 0 44 0 44 0 89 239 102 0 0 233 0 51 0 0 19 0 0 16 16 0 27 11 0 0 28 40 28 19 52 3 18 0 0 10 16 10 0 11 9 6 0 11 16 16 0 0 11 1 0 4 0 0 8 0 28 6 0 34 7 0 79 0 21 27 25 7 5 0 0 33 0 0 70 63 0 0 62 0 12 54 0 0 0 0 28 45 58 108 116 100 56 40 24 8 0 0 0 21 42 54 59 43 35 33 18 29 17 20 34 3 20 11 0 31 64 63 63 99 221 0 0 0 32 44 0 80 0 13 147 0 0 255 202 12 5 12 14 3 2 12 6 0 0 6 6 0 0 0 2 5 0 1 0 0 3 2 0 1 0 0 0 1 2 0 0 0 7 0 0 0 15 0 0 2 49 1 0 0 11 38 0 0 0 93 0 0 117 0 2 30 0 0 9 3 0 0 0 0 4 0 0 0 0 4 9 0 64 12 0 0 23 29 0 69 32 4 0 5 1 0 0 26 0 2 0 15 14 15 3 26 0 0 9 9 0 0 7 7 22 21 2 0 6 0 0 0 0 4 1 13 18 28 18 13 0 0 18 25 0 0 7 3 15 15 0 3 13 6 0 59 0 8 39 5 51 30 0 0 0 4 0 8 0 0 0 51 0 61 93 0 62 9 76 103 67 117 0 82 0 22 145 4 38 33 1 69 60 0 0 68 44 36 25 4 0 0 0 78 0 0 0 38 45 21 0 44 37 17 0 19 11 17 27 29 0 0 13 0 0 11 0 0 0 0 0 7 3 0 0 3 30 0 5 15 28 0 0 0 7 59 0 27 0 51 0 49 9 22 0 0 14 0 47 0 8 3 9 0 0 0 0 0 0 24 23 0 0 0 8 0 0 71 9 5 51 6 0 90 85 0 152 66 9 49 0 0 0 149 235 0 0 22 0 0 17 19 0 0 48 0 0 8 0 114 0 0 158 11 132 77 72 0 0 0 111 0 74 63 90 110 70 8 0 75 203 36 62 36 21 42 0 0 36 1 27 0 8 57 6 0 0 79 0 0 0 20 68 54 75 0 21 0 0 63 69 0 0 28 0 0 37 50 11 13 56 7 24 0 0 15 19 0 0 0 26 74 5 0 0 0 59 48 123 0 204 0 0 51 0 0 0 0 28 39 0 0 0 10 0 0 0 18 0 0 0 43 6 18 0 38 0 22 0 176 0 136 23 70 0 36 0 0 0 0 0 0 0 20 0 31 0 41 10 6 60 27 75 0 0 0 0 0 0 0 0 70 116 158 132 95 65 36 0 0 4 15 24 0 0 8 11 14 0 0 2 3 2 0 0 5 0 0 0 0 0 0 0 0 0 0 0 0 0 0 0 0 0 0 255
255 0 0 0 0 0 0 0 0 0 0 0 0 0 0 0 0 0 0 0 0 0 0 0 0 0 0 0 0 0 1 1 1 3 0 1 0 0 0 12 0 30 49 2 16 8 0 0 103 0 0 21 43 32 0 10 6 18 6 0 0 12 3 0 32 0 10 6 6 18 0 13 35 18 0 0 23 21 21 0 39 0 86 59 57 90 0 0 89 0 9 91 102 45 0 0 0 0 0 0 51 26 0 28 22 36 31 5 0 37 89 12 0 12 27 2 29 20 0 24 0 0 0 0 0 0 0 39 0 35 39 0 0 0 65 74 43 0 0 0 0 0 0 0 0 0 0 0 0 0 0 0 0 0 0 0 0 0 0 0 0 0 5 11 9 0 0 11 3 0 0 11 25 0 0 0 18 0 7 0 10 26 9 0 5 17 4 0 0 0 0 92 0 1 9 0 3 0 2 9 0 0 0 0 0 0 0 0 0 4 0 0 7 3 0 0 0 7 4 6 0 0 0 18 0 0 0 24 23 13 0 0 1 35 16 0 0 23 39 22 0 0 0 0 0 0 0 4 8 10 15 9 9 0 0 24 0 0 29 11 0 0 0 31 22 3 5 28 39 32 6 0 23 2 10 0 0 12 5 1 0 0 0 8 18 17 20 34 0 33 0 16 0 0 0 32 124 255 0 0 162 0 22 0 0 29 0 0 0 1 0 31 0 0 0 26 26 18 27 24 0 9 4 15 20 25 8 0 30 14 3 0 0 11 7 1 17 21 0 0 0 36 11 0 4 6 10 20 4 0 0 28 3 16 22 6 0 0 0 0 0 0 0 0 0 0 0 6 32 0 0 0 0 21 127 118 164 114 83 45 23 29 13 17 12 37 28 46 45 51 23 65 29 23 41 47 61 46 48 63 44 57 45 37 28 31 50 61 168 51 159 210 0 0 0 0 48 0 0 0 0 135 255 0 10 1 3 18 3 11 3 1 8 6 3 0 0 0 0 16 4 0 5 0 1 8 0 0 0 0 0 0 0 0 0 3 0 8 5 0 0 9 3 10 13 3 11 0 0 0 14 0 0 127 0 0 44 92 0 0 13 0 3 11 0 0 0 0 17 4 0 5 1 0 3 0 0 54 93 0 0 0 21 0 0 0 0 0 13 44 47 17 30 3 11 15 19 16 3 0 20 0 0 0 9 0 0 3 0 0 0 0 4 11 0 0 39 10 0 0 4 29 17 0 21 0 11 17 18 0 0 20 0 4 0 0 0 14 8 1 30 0 10 26 10 54 25 0 0 0 2 0 7 2 0 0 0 0 44 43 0 0 0 0 0 0 39 0 0 0 0 0 22 0 15 0 44 28 0 17 83 29 20 6 0 0 23 85 17 0 0 24 36 0 0 5 17 73 17 0 15 0 0 45 41 10 0 34 35 25 10 2 4 12 11 9 15 0 5 0 19 0 0 0 0 0 3 0 0 0 12 0 20 13 31 0 49 0 12 5 0 0 0 42 3 9 9 10 0 0 0 0 0 5 30 18 0 0 0 46 0 0 39 0 0 13 0 0 12 0 0 86 0 0 0 0 0 0 126 37 0 12 0 240 91 0 8 25 0 96 227 0 0 0 0 0 0 0 14 0 23 94 63 182 88 56 0 22 0 0 0 0 0 0 0 0 30 0 0 0 0 0 37 47 0 0 0 0 1 48 38 0 124 0 12 0 3 104 0 105 57 32 0 0 0 64 39 0 0 0 0 13 0 0 0 73 13 11 0 0 17 0 0 21 0 32 57 34 5 27 74 116 30 144 23 209 0 0 88 0 66 0 0 52 86 37 24 55 0 0 0 3 20 13 12 0 36 14 29 0 49 0 122 98 219 0 22 0 245 0 0 0 0 0 23 77 83 44 4 0 0 0 29 0 0 33 0 0 0 0 0 0 0 0 0 0 0 0 0 0 16 78 131 103 71 37 0 0 17 24 18 0 5 0 0 0 5 1 3 3 2 0 0 0 0 0 0 0 0 0 0 0 0 0 0 0 0 0 0 255
255 0 0 0 0 0 0 0 0 0 0 0 0 0 0 0 0 0 0 0 0 0 0 0 0 0 0 0 0 0 0 1 1 3 0 0 0 5 5 11 0 57 34 3 49 0 0 0 88 0 33 2 18 60 0 33 3 8 10 0 0 1 0 0 5 0 21 0 0 27 0 9 19 14 0 0 0 11 0 0 51 24 117 0 0 0 0 0 77 0 0 45 15 0 8 53 0 6 0 0 65 46 0 18 0 0 28 45 4 1 16 0 0 28 25 0 0 0 0 44 22 28 9 9 3 0 0 0 13 22 0 0 0 5 15 0 0 0 0 0 0 0 0 45 57 76 68 51 51 45 38 18 0 17 18 0 0 0 17 0 0 0 0 0 0 0 7 28 26 12 21 18 17 0 0 0 40 7 0 0 0 5 30 32 0 22 43 0 0 0 11 69 0 2 11 2 3 1 6 5 4 0 0 0 5 14 2 5 0 3 5 4 7 0 9 0 8 11 11 6 0 0 7 19 20 19 7 0 0 0 0 2 14 0 0 0 46 53 16 0 2 9 23 16 0 0 0 3 0 0 13 2 7 2 7 43 0 0 30 38 21 10 24 32 15 7 0 6 47 16 0 0 16 0 12 0 0 3 0 0 0 0 0 17 28 13 0 0 0 3 11 25 0 2 0 0 0 55 168 3 0 83 60 0 0 49 29 0 0 0 0 0 0 0 0 6 23 18 12 0 10 4 4 1 1 9 0 0 22 0 0 0 0 0 0 0 14 23 0 0 0 45 31 0 54 0 0 11 16 0 0 0 0 0 0 0 0 0 0 0 0 19 4 0 0 15 0 0 0 0 0 157 220 183 115 37 68 33 11 9 20 45 57 66 20 61 44 47 67 0 0 0 0 0 0 0 11 0 0 5 0 17 44 32 36 36 40 20 0 98 86 97 235 64 0 0 0 0 149 0 0 255 136 0 19 0 1 8 0 0 0 0 14 0 0 0 0 1 4 9 0 0 0 0 2 12 0 0 3 7 0 0 2 7 0 4 1 16 3 10 10 21 15 11 38 0 50 34 0 0 0 0 0 248 0 0 90 0 0 29 4 0 5 19 20 6 8 11 6 0 5 9 7 2 0 1 0 3 80 57 0 0 16 0 35 15 2 0 0 0 0 0 22 0 0 0 3 0 0 0 5 0 0 0 7 9 3 6 0 2 0 0 0 23 36 21 37 18 1 0 0 0 0 0 25 5 5 10 1 0 0 16 0 0 0 0 0 7 0 6 3 0 3 21 0 53 31 0 0 0 1 1 0 5 0 0 14 44 101 66 5 2 0 0 35 52 70 93 2 118 6 0 0 0 39 0 0 14 0 68 57 26 0 0 0 21 30 56 0 0 15 47 0 0 0 33 16 39 14 0 0 0 0 53 0 0 0 0 22 28 0 0 0 22 23 20 0 0 0 10 2 0 49 0 0 0 29 0 0 0 0 0 0 4 2 0 8 0 6 3 2 0 0 0 10 5 13 8 4 5 33 16 42 16 0 0 0 19 40 60 57 27 21 0 0 4 0 0 27 31 39 141 0 0 86 150 0 0 64 0 0 0 0 50 126 144 44 65 32 0 0 18 0 61 0 0 33 0 82 0 0 0 0 52 0 0 0 83 0 0 0 0 22 5 0 0 0 0 0 0 0 0 54 6 61 116 60 0 0 0 0 0 43 14 0 0 17 27 0 27 58 45 46 0 0 0 62 62 47 13 3 28 3 0 0 84 0 0 26 60 47 0 0 85 0 0 0 0 0 24 0 0 0 0 255 0 0 46 0 14 56 0 0 2 41 29 0 0 4 0 0 0 16 17 20 12 0 0 37 0 65 20 191 76 0 0 62 26 56 0 0 0 136 0 75 67 0 14 68 13 10 14 79 0 0 63 0 0 1 0 0 5 32 32 12 0 0 0 0 0 0 0 0 0 104 101 88 44 12 1 0 3 2 0 0 0 5 0 0 0 0 0 0 0 0 0 0 0 0 0 0 0 0 0 0 0 0 0 0 255
255 0 0 0 0 0 0 0 0 0 0 0 0 0 0 0 0 0 0 0 0 0 0 0 0 0 0 0 0 0 0 2 0 4 4 4 3 3 0 13 0 74 0 0 24 0 0 55 12 0 66 0 0 54 0 9 1 3 6 0 2 5 0 0 0 0 30 0 0 5 0 25 0 5 0 0 0 0 0 0 43 60 88 0 0 0 0 0 138 79 35 44 0 0 54 45 11 58 52 0 33 77 0 11 35 0 5 30 0 0 17 27 57 23 0 0 9 24 0 0 22 2 0 0 29 38 19 0 38 0 0 44 74 27 0 0 0 0 0 13 47 68 54 52 0 18 19 0 0 13 28 15 0 30 43 18 27 36 35 16 4 0 0 0 0 0 0 0 9 53 104 76 0 0 27 51 85 43 34 0 0 9 6 2 0 19 42 11 0 8 31 24 0 0 4 6 0 0 8 7 5 6 0 5 8 11 4 9 3 0 5 0 13 8 5 0 14 9 10 1 0 0 16 7 9 27 14 0 5 0 1 6 5 0 0 24 42 5 0 0 9 0 0 9 4 9 23 13 10 4 0 0 0 0 0 22 61 33 13 11 18 21 23 0 23 33 0 0 52 5 0 0 33 21 26 10 1 14 5 0 69 33 0 0 0 3 7 6 0 0 9 0 23 11 32 0 67 0 130 46 0 30 84 0 0 0 16 18 0 0 0 0 0 4 0 0 0 10 3 0 11 0 1 0 0 0 0 0 21 0 0 0 8 6 0 0 0 17 0 0 0 35 35 17 7 0 0 28 47 36 21 20 0 0 0 0 0 0 0 12 20 0 0 98 64 0 0 0 81 79 132 69 0 0 44 35 0 13 47 66 75 57 29 0 13 19 0 0 0 0 0 27 0 0 0 0 0 0 0 0 0 0 5 0 17 19 45 39 50 22 55 31 0 206 220 0 0 0 0 0 0 209 0 22 29 0 14 10 10 0 0 0 10 0 0 6 7 7 0 0 0 0 6 0 10 11 0 0 13 6 0 0 7 7 2 21 8 13 0 11 11 9 0 0 68 0 70 91 21 0 0 0 23 135 0 0 15 0 43 45 0 0 15 13 24 19 17 20 3 10 3 7 5 9 0 0 41 0 18 102 0 0 0 21 49 46 33 7 0 0 0 0 9 0 0 0 0 0 0 6 0 0 0 0 5 8 12 18 25 27 22 0 0 0 5 0 0 0 0 0 0 6 15 22 0 0 1 0 0 0 0 19 25 0 0 0 0 3 3 16 0 0 13 20 0 56 37 0 0 0 0 1 0 0 0 0 21 73 64 0 0 0 29 22 51 0 0 0 0 0 0 0 43 83 125 3 0 22 5 63 22 37 5 0 0 52 24 0 0 0 0 0 22 55 18 0 37 0 43 40 0 13 31 0 0 11 29 0 0 0 0 9 0 0 0 0 0 0 0 0 2 0 56 18 32 0 51 26 0 17 8 18 16 20 0 0 4 0 25 0 0 41 10 17 5 8 0 0 0 0 11 14 23 0 0 0 0 9 4 25 0 0 0 0 21 74 0 0 77 5 29 162 0 0 62 0 0 0 65 0 0 110 130 206 0 60 39 92 64 0 0 0 0 0 44 0 0 13 0 73 0 29 0 68 10 120 0 0 66 56 84 52 0 0 6 120 22 0 16 40 0 0 22 0 0 55 75 56 69 19 0 0 0 79 0 0 71 0 0 63 0 0 79 91 6 0 2 0 36 9 0 0 0 0 0 0 0 0 8 62 12 0 0 79 52 118 125 108 75 48 30 0 31 3 255 0 0 0 0 0 0 0 0 1 53 81 55 0 36 7 0 0 5 6 7 17 0 0 27 0 26 0 86 0 0 16 0 255 179 0 0 25 255 199 1 0 0 0 38 0 0 0 2 0 0 26 0 0 45 2 0 10 23 35 31 27 59 39 31 20 0 0 0 0 0 0 41 113 70 35 13 10 12 9 0 0 4 2 3 2 1 0 0 0 0 0 0 0 0 0 0 0 0 0 0 0 0 0 0 255
255 0 0 0 0 0 0 0 0 0 0 0 0 0 0 0 0 0 0 0 0 0 0 0 0 0 0 0 0 0 0 3 0 0 5 0 3 4 0 11 31 67 0 3 11 0 21 73 0 26 59 0 0 21 0 0 1 0 3 0 0 1 8 4 10 0 30 0 0 0 0 35 0 11 14 8 0 0 18 26 13 66 17 0 0 0 0 0 219 110 0 95 127 38 88 0 14 26 63 0 0 88 0 5 46 0 0 53 10 0 28 46 17 33 2 8 29 0 0 0 37 6 0 0 0 20 20 0 57 0 0 0 0 0 0 0 7 46 61 31 12 23 13 0 0 0 0 0 0 0 0 0 0 1 16 0 0 0 0 0 42 19 15 18 8 0 0 0 0 0 0 76 119 88 18 0 0 0 22 19 20 11 4 0 0 17 2 0 0 30 45 0 0 1 7 3 0 0 0 13 0 0 0 0 0 6 0 0 7 0 1 6 7 0 0 0 0 17 18 0 0 6 11 1 0 0 25 20 19 14 2 0 0 0 22 34 0 0 0 41 19 0 5 0 2 4 0 0 34 11 0 0 0 0 0 0 85 25 0 0 0 22 43 21 21 67 28 15 67 0 0 33 6 15 20 0 0 0 2 0 21 9 0 0 0 18 21 0 36 0 10 0 23 2 57 26 25 64 0 102 19 0 0 95 0 0 0 46 4 0 7 0 19 34 18 0 0 7 16 0 13 1 5 0 0 0 7 14 25 0 0 13 11 10 1 18 0 8 4 0 0 13 22 15 0 2 22 45 29 0 0 42 0 0 0 0 0 0 7 23 18 5 0 0 0 0 0 41 144 50 52 88 65 48 37 0 13 36 25 0 0 0 0 0 0 0 0 0 0 0 0 28 0 0 0 0 2 0 0 0 0 0 0 0 0 0 10 0 34 53 46 36 96 0 0 255 211 3 0 0 255 192 9 0 33 8 18 21 14 12 0 2 0 0 2 6 5 7 0 0 15 0 5 1 0 3 0 0 18 2 4 0 0 6 9 24 0 0 0 0 0 0 0 0 50 0 54 46 51 0 0 0 120 41 0 0 0 0 80 0 10 10 24 15 4 0 0 0 9 7 3 1 7 5 0 0 58 0 0 71 25 0 0 22 0 0 0 0 0 6 52 53 23 4 0 0 0 2 16 21 0 16 15 3 0 6 1 0 0 6 22 8 9 5 0 0 0 17 21 0 0 0 13 25 0 0 3 0 0 0 0 8 34 18 0 7 20 6 1 23 5 0 31 22 2 74 47 0 0 0 0 1 2 0 0 0 0 52 46 0 28 0 20 0 77 0 0 47 0 71 0 10 28 55 110 0 0 6 10 31 0 17 6 0 46 89 31 0 0 18 12 0 0 54 38 0 13 0 28 42 0 11 44 0 87 42 0 24 34 8 4 9 13 0 0 0 2 35 28 0 11 0 4 18 31 0 18 3 0 8 0 22 0 23 0 11 29 0 11 0 0 40 11 13 11 14 0 0 0 0 0 0 0 0 34 27 0 0 0 0 0 0 0 0 25 63 0 0 25 0 0 82 0 0 0 0 60 196 202 42 55 95 0 0 0 0 0 0 0 110 255 0 27 0 3 0 0 0 0 72 0 14 25 109 0 133 40 0 28 0 11 10 0 0 0 18 0 0 1 17 0 18 2 0 0 0 0 0 118 123 71 42 0 125 0 8 60 0 16 57 0 0 0 0 20 11 0 0 39 14 0 0 0 28 12 0 29 0 0 0 0 0 36 8 0 0 2 0 0 0 0 0 27 172 0 0 0 0 0 0 25 0 0 0 0 30 129 120 62 26 12 0 0 0 0 0 15 0 56 0 26 58 131 0 0 0 0 255 0 0 0 0 184 124 39 146 62 20 0 0 3 0 2 0 0 0 0 17 47 19 12 5 7 8 1 0 0 0 15 51 66 59 64 72 0 0 0 0 25 114 91 37 11 15 7 3 3 0 0 0 2 0 0 0 0 0 0 0 0 0 0 0 0 0 0 0 0 0 0 255
255 0 0 0 0 0 0 0 0 0 0 0 0 0 0 0 0 0 0 0 0 0 0 0 0 0 0 0 0 0 0 3 0 0 0 0 0 5 0 3 36 90 0 10 0 0 108 33 0 55 12 4 0 0 32 1 0 0 0 0 0 2 5 0 9 0 12 14 0 0 0 40 0 0 15 6 0 0 19 35 2 87 0 0 13 163 27 0 225 0 0 0 18 0 61 0 19 0 37 0 0 83 0 0 0 0 0 0 0 0 0 0 0 21 38 34 5 0 0 40 23 21 1 0 0 1 0 0 57 4 0 0 0 0 23 89 19 12 6 2 0 0 0 0 50 39 23 28 17 0 0 0 0 0 3 0 0 0 0 0 34 26 19 32 27 16 3 6 0 0 0 0 106 103 0 0 0 0 0 0 8 13 8 8 0 21 0 0 0 35 53 0 6 0 6 0 0 0 0 0 0 0 0 0 5 0 0 0 18 6 0 1 0 0 0 0 0 14 14 0 0 14 14 0 0 0 16 11 6 12 0 0 0 23 36 0 0 0 6 37 27 32 19 2 0 0 0 0 11 6 0 0 0 7 0 0 0 0 0 0 0 0 32 30 0 64 30 5 59 0 0 46 7 2 7 0 0 0 0 4 0 0 19 19 37 30 0 0 24 0 53 0 33 0 49 14 0 54 0 89 125 0 0 44 8 0 0 49 4 0 17 10 5 26 4 0 0 3 36 5 0 2 13 5 0 0 0 5 17 0 0 20 18 13 0 18 0 5 0 5 19 10 0 0 0 58 32 0 15 0 0 15 6 10 0 1 0 14 5 23 0 31 0 0 0 0 108 118 78 67 40 2 0 14 77 94 92 77 31 0 0 0 17 0 0 0 0 12 44 4 0 0 13 2 0 9 2 0 0 0 10 0 0 0 0 0 0 0 29 0 15 21 38 73 96 13 18 255 0 0 255 0 0 17 4 0 4 13 19 9 11 6 6 1 0 5 3 11 0 0 14 0 0 0 0 5 0 0 8 0 0 0 5 5 1 20 0 0 0 0 0 0 0 3 0 0 30 0 87 57 0 0 136 52 0 0 20 19 28 0 0 14 21 0 0 0 0 0 0 2 2 0 0 0 7 19 0 0 0 22 57 0 0 0 81 32 30 18 0 0 0 0 12 0 5 3 5 0 3 2 0 12 15 0 0 1 0 7 0 0 0 2 5 12 24 0 37 31 21 0 0 0 0 0 0 4 3 0 0 0 5 0 32 2 0 3 21 9 0 20 6 0 23 16 0 59 54 0 0 0 0 0 1 2 0 0 0 130 132 30 52 2 32 0 21 0 13 99 11 57 0 0 0 0 35 0 0 4 0 9 0 0 0 24 64 55 27 0 0 40 63 0 0 0 27 0 0 9 13 0 0 0 12 0 88 0 0 0 0 23 11 0 11 29 22 0 0 47 40 10 0 0 0 10 6 6 0 6 0 5 0 18 0 3 0 19 17 0 24 0 0 9 0 24 17 19 2 2 0 0 0 0 3 23 36 25 0 0 0 4 71 0 4 0 0 2 0 38 3 26 57 85 0 10 34 108 0 21 0 0 100 154 0 0 0 45 18 0 0 73 0 0 134 187 35 147 51 0 64 75 0 0 0 0 0 0 134 183 69 0 0 48 95 82 2 0 0 0 0 0 23 32 9 22 87 33 0 0 3 0 0 29 45 29 0 21 12 0 0 3 0 21 0 0 9 16 0 0 112 72 74 73 93 117 97 61 85 0 0 1 0 14 54 0 14 5 0 0 16 66 61 55 36 127 0 0 34 0 27 0 15 0 0 0 0 0 0 24 53 9 20 6 0 0 0 0 23 0 55 0 20 117 242 0 0 148 255 237 0 0 255 0 0 81 0 75 28 0 17 187 55 63 120 52 38 81 46 98 17 0 5 0 0 0 0 0 34 27 10 0 0 0 0 6 0 34 42 0 0 0 18 95 50 0 5 3 3 0 0 0 3 0 0 0 0 0 0 0 0 0 0 0 0 0 0 0 0 0 0 255
255 0 0 0 0 0 0 0 0 0 0 0 0 0 0 0 0 0 0 0 0 0 0 0 0 0 0 0 0 0 0 3 0 0 5 0 3 8 0 10 35 80 0 0 0 0 109 0 0 17 0 27 32 0 30 0 15 13 8 0 6 14 20 12 36 0 26 35 16 7 0 34 0 0 0 0 4 17 26 53 29 103 0 0 94 248 139 0 5 0 0 0 158 8 38 0 20 0 17 0 0 70 0 0 56 57 35 0 0 0 35 50 0 9 0 11 40 5 0 13 0 2 37 55 39 39 11 1 6 10 0 0 35 116 92 0 75 0 0 26 80 25 9 39 0 0 0 21 28 0 0 0 0 5 0 0 0 16 61 78 0 0 0 0 2 0 0 0 43 14 0 0 0 0 87 164 32 19 65 25 0 0 10 28 0 22 13 0 0 35 56 0 14 0 9 0 0 0 0 0 19 15 12 11 19 21 14 0 26 13 0 0 0 3 9 0 0 0 0 0 0 32 9 0 5 30 34 3 0 0 0 0 3 55 47 0 0 66 58 0 0 2 7 9 0 0 28 62 0 0 0 0 50 31 1 23 0 0 49 36 2 0 17 0 0 75 60 16 56 0 0 0 37 31 55 28 6 19 20 35 30 31 0 0 0 0 27 3 0 0 66 0 39 0 1 0 75 0 63 0 44 215 0 0 101 0 0 66 0 0 0 9 0 3 0 0 0 15 58 39 0 7 26 28 7 0 7 13 24 0 0 22 35 5 0 15 18 0 0 36 55 10 0 0 0 22 0 0 40 53 0 37 6 4 0 0 0 11 28 66 0 0 0 0 140 123 115 60 21 16 34 79 52 27 0 0 0 0 0 0 0 38 32 0 47 43 0 0 20 0 0 49 0 0 0 0 15 12 22 24 0 0 2 14 21 8 0 0 0 3 39 21 8 0 0 62 66 44 199 119 6 0 0 29 0 0 0 10 16 18 4 0 10 12 7 6 0 12 5 1 16 0 0 0 0 0 3 5 0 0 0 0 6 0 0 11 0 0 0 11 28 6 5 49 23 52 47 0 143 166 0 0 30 74 0 0 17 32 0 75 0 4 18 0 1 23 19 19 0 0 0 0 4 2 10 29 0 69 4 0 43 7 0 0 43 0 0 31 66 63 12 0 3 8 26 33 20 0 0 0 0 0 0 0 0 18 26 17 4 26 22 0 0 0 4 0 0 6 0 0 0 26 27 21 0 18 25 14 14 2 6 6 16 0 0 0 5 0 0 0 0 0 9 2 0 55 52 0 0 0 0 0 0 0 0 0 0 126 73 0 44 0 19 0 51 0 62 94 0 0 2 1 70 0 0 11 0 11 0 17 91 0 0 58 35 0 0 0 71 37 0 0 0 38 5 0 0 71 36 0 0 0 0 108 0 0 71 21 0 8 41 0 0 28 37 28 0 0 0 19 0 30 0 60 0 0 0 48 0 34 0 31 0 19 0 21 1 0 34 38 36 0 0 0 6 0 0 0 0 0 4 6 24 18 0 0 0 0 35 26 17 0 10 0 0 0 0 87 0 30 62 69 0 16 0 25 61 0 23 0 0 73 0 0 0 0 255 143 0 117 0 0 71 0 171 126 25 0 0 88 162 91 40 174 0 22 0 0 153 118 93 33 0 0 49 125 8 93 31 0 50 63 14 66 34 57 59 82 13 0 0 60 36 0 50 69 61 103 0 11 0 72 0 0 56 0 0 0 0 0 0 0 0 0 0 0 90 45 97 41 0 0 0 0 0 0 45 27 0 0 0 5 84 0 53 186 121 0 0 0 0 0 0 18 0 0 0 0 103 66 95 97 47 0 0 65 96 142 255 161 219 255 255 0 0 0 119 0 0 0 0 0 0 40 0 53 255 255 131 160 0 0 52 25 0 16 0 21 5 7 23 14 0 0 0 8 0 0 4 0 0 17 0 0 31 27 7 5 0 0 0 0 185 85 37 11 9 2 3 0 6 3 2 1 0 0 0 0 0 0 0 0 0 0 0 0 0 0 0 255
255 0 0 0 0 0 0 0 0 0 0 0 0 0 0 0 0 0 0 0 0 0 0 0 0 0 0 0 0 0 0 4 0 0 4 0 0 8 0 0 52 79 0 27 0 0 123 73 91 12 0 26 6 4 27 10 0 0 0 22 23 0 0 5 0 8 0 0 19 29 11 25 3 0 0 8 6 12 10 25 0 51 0 0 10 255 255 0 0 0 0 123 0 22 0 0 52 44 0 0 50 34 7 22 44 0 0 31 0 0 90 6 0 0 0 44 27 0 0 46 24 0 0 0 0 0 35 0 0 0 0 102 138 0 0 0 0 0 9 0 0 24 14 0 74 0 23 0 0 33 0 52 61 34 20 39 28 1 0 4 10 0 0 0 14 20 0 0 68 0 16 43 0 0 0 14 255 32 35 59 0 0 35 41 6 45 0 0 132 0 26 0 15 30 11 21 0 6 31 20 0 10 10 0 0 2 1 0 0 0 11 18 44 0 0 7 33 12 9 8 16 9 29 28 38 7 0 0 0 5 0 0 0 0 0 20 33 9 0 0 0 0 39 39 2 0 0 37 0 41 27 0 0 20 37 31 0 0 0 54 115 0 0 106 31 0 41 106 0 0 0 116 81 0 60 38 0 21 0 26 8 20 27 21 14 0 0 0 49 0 65 6 1 31 0 0 0 0 30 0 0 106 48 0 0 21 0 38 0 0 19 20 0 44 8 0 0 11 18 24 27 0 0 0 13 0 0 0 0 0 0 0 0 9 19 32 0 0 1 9 10 12 4 12 0 17 0 0 7 0 0 0 0 0 0 17 38 56 0 0 0 0 92 144 129 35 0 20 23 42 39 0 0 0 0 0 0 0 4 3 0 0 0 7 0 0 21 15 6 0 0 1 8 0 0 19 12 0 0 4 0 0 11 13 11 2 16 0 0 0 24 57 57 51 32 23 38 4 26 43 0 0 0 12 0 18 37 1 0 36 31 5 10 0 0 0 0 0 0 0 22 3 3 0 15 15 0 0 0 4 0 0 0 0 3 16 0 28 30 1 0 7 0 0 4 0 31 15 0 111 92 0 0 41 0 0 13 50 0 0 0 5 27 1 0 25 22 0 0 3 7 0 0 0 0 12 0 41 0 14 66 0 13 0 6 21 0 0 28 29 20 86 13 11 0 0 0 27 41 35 8 27 33 22 7 0 0 0 19 17 13 0 21 33 32 2 17 0 0 0 0 11 0 0 0 18 26 0 0 0 4 0 0 0 18 20 10 7 0 10 86 5 0 56 32 12 59 0 0 0 36 23 11 4 3 0 0 25 45 23 0 0 40 0 0 8 48 18 0 21 0 0 92 0 0 0 1 10 0 0 73 74 0 47 53 0 77 39 0 57 81 50 0 118 0 0 0 8 0 0 91 50 0 16 18 15 23 19 11 40 10 54 0 0 26 17 0 0 36 22 6 71 0 0 0 38 0 0 34 0 0 5 22 0 0 14 0 0 0 0 3 16 10 17 0 5 0 0 29 4 0 0 17 0 0 32 27 0 0 3 0 67 39 0 44 34 0 8 43 0 22 22 0 0 0 0 0 16 0 0 0 0 0 156 175 14 0 0 19 17 8 11 27 0 0 76 80 0 0 65 0 0 0 63 0 45 0 0 0 0 0 42 81 0 0 0 139 0 0 53 8 0 0 0 0 0 48 0 0 121 60 3 33 0 68 33 0 81 64 0 119 45 0 129 0 85 37 96 50 67 0 0 115 0 0 0 0 0 0 52 159 14 74 38 131 0 0 6 0 0 0 34 226 0 0 0 0 0 0 39 255 177 106 81 75 37 0 0 0 0 45 0 2 166 186 95 199 25 0 0 0 0 0 255 0 155 255 0 0 250 0 0 0 0 0 7 0 0 0 0 0 0 138 12 0 151 0 0 0 0 3 21 17 10 17 29 0 0 0 6 15 11 0 0 4 0 0 0 9 0 8 0 0 0 111 42 0 0 3 0 0 0 0 2 0 0 0 0 0 0 0 0 0 0 0 0 0 0 0 255
255 0 0 0 0 0 0 0 0 0 0 0 0 0 0 0 0 0 0 0 0 0 0 0 0 0 0 0 0 0 0 5 0 11 4 4 3 12 13 0 67 106 0 0 0 0 42 65 28 0 0 6 0 0 0 0 0 1 3 9 0 0 0 6 0 8 0 0 0 0 0 0 12 0 0 0 0 3 0 5 37 18 0 0 0 46 12 0 0 0 0 87 36 40 10 12 0 41 12 0 0 36 8 0 32 0 0 54 0 0 50 0 35 0 0 19 0 0 0 57 0 0 12 0 0 1 34 0 0 22 24 63 23 0 36 0 20 8 19 0 0 2 0 0 36 0 27 8 2 23 0 2 0 0 7 48 47 9 0 0 28 10 2 8 17 19 0 0 5 0 0 20 0 0 0 0 0 190 185 0 23 43 0 0 0 34 0 0 123 0 31 0 0 0 19 0 0 0 0 0 8 20 21 0 0 0 0 0 38 0 6 9 2 0 0 15 33 0 0 14 15 4 0 0 7 0 0 0 0 5 12 4 58 11 0 0 0 0 0 0 47 0 0 0 0 0 10 25 0 9 13 0 0 0 0 7 56 59 0 0 3 0 0 0 154 146 61 13 179 0 0 136 60 0 2 0 0 77 20 22 17 10 5 4 0 3 9 0 64 0 31 0 0 36 0 50 2 0 11 0 3 88 50 12 0 0 0 0 13 0 0 0 0 54 37 0 0 5 3 41 5 0 0 4 0 0 0 3 0 2 0 0 1 8 6 13 0 14 19 16 0 0 0 0 0 0 0 0 31 32 9 58 0 26 23 0 0 0 0 0 0 73 119 73 38 20 26 39 35 22 0 0 0 0 10 46 17 0 0 45 57 15 0 0 0 5 4 7 0 0 0 0 3 0 0 12 14 0 0 3 0 0 0 0 0 0 0 0 16 0 0 0 0 0 13 21 37 0 3 32 15 0 0 0 37 0 2 21 31 8 12 18 0 0 0 9 10 10 4 0 14 0 0 0 4 3 0 0 0 0 0 0 1 6 0 9 0 16 15 0 0 2 2 0 0 0 33 36 0 88 67 0 0 0 0 26 42 47 0 60 0 0 23 8 1 3 3 0 0 7 4 0 3 0 0 10 0 41 0 24 39 1 20 0 0 0 0 0 0 0 0 71 0 0 0 0 0 0 0 0 0 9 12 0 0 9 8 0 0 0 0 0 0 0 0 0 33 8 4 21 39 39 14 1 20 0 0 24 22 1 17 45 40 35 26 6 0 0 0 0 33 0 0 33 5 13 54 0 0 0 5 0 0 5 5 0 9 67 68 78 32 0 38 0 0 33 50 57 0 38 25 0 34 48 0 0 0 155 0 4 0 0 0 28 42 4 0 0 0 0 8 21 0 77 0 0 75 44 0 0 50 0 0 46 1 0 10 0 0 0 0 8 0 20 0 0 38 39 0 0 0 46 8 0 40 39 0 0 48 35 11 0 0 0 14 19 0 0 7 6 3 3 0 14 2 11 0 0 24 6 0 13 23 7 0 6 7 0 9 46 0 14 0 0 0 0 0 5 17 0 85 69 2 95 131 112 9 111 195 26 0 0 0 224 28 0 0 6 60 30 24 62 0 0 0 43 69 0 0 0 28 0 0 34 0 75 136 255 0 0 0 0 81 162 95 0 0 0 0 5 0 16 36 9 0 0 0 0 2 2 0 36 40 0 38 0 0 95 83 0 0 4 5 67 0 57 12 23 0 0 6 0 0 0 0 34 81 0 22 0 35 0 19 0 43 90 82 0 72 90 0 255 0 0 0 0 89 243 255 255 255 221 17 0 0 0 11 10 0 0 0 0 0 74 18 0 0 0 0 0 0 0 0 0 0 0 255 20 0 255 255 255 255 5 0 0 0 0 0 0 0 0 202 38 0 89 0 20 21 2 10 0 0 0 0 0 0 2 2 0 6 6 0 0 13 2 0 0 0 5 2 22 0 0 13 69 38 5 2 0 0 0 0 3 0 0 0 0 0 0 0 0 0 0 0 0 0 0 0 255
255 0 0 0 0 0 0 0 0 0 0 0 0 0 0 0 0 0 0 0 0 0 0 0 0 0 0 0 0 0 0 5 0 0 2 0 9 0 0 9 51 77 0 0 123 14 0 35 12 0 0 10 0 0 5 0 0 28 7 0 0 11 16 0 0 19 8 0 0 0 0 0 24 18 23 0 0 19 8 0 63 32 0 0 0 0 0 3 0 0 2 23 35 0 23 32 0 46 34 0 0 25 13 22 0 34 18 43 5 0 11 0 30 22 22 19 0 0 0 60 0 0 25 27 0 7 24 0 0 108 68 16 0 0 63 0 63 52 44 12 8 26 10 0 0 0 57 21 7 17 0 0 32 1 0 0 0 0 0 40 15 22 15 6 3 12 17 8 19 0 2 13 15 0 0 0 0 0 83 147 61 0 10 0 0 6 0 0 115 0 30 0 0 2 21 0 1 9 4 0 0 0 0 0 0 11 22 0 20 2 14 11 0 0 0 27 29 0 0 36 34 0 0 0 35 12 0 0 2 23 26 16 32 0 0 0 5 30 33 21 26 0 0 0 9 23 2 0 11 0 7 28 15 0 0 18 7 27 0 0 0 0 0 0 0 0 86 197 130 0 0 214 149 123 89 17 1 23 36 1 26 20 14 2 14 22 13 0 71 0 18 0 0 44 0 31 41 0 0 0 0 61 77 135 0 0 65 0 2 0 0 0 0 32 36 13 14 0 0 36 2 0 0 8 1 1 0 40 0 0 0 0 1 0 0 0 0 4 33 19 0 0 0 6 9 39 0 0 23 15 0 21 0 0 0 22 0 0 0 0 73 118 91 19 0 11 23 51 14 6 0 0 0 0 21 50 33 0 0 29 57 20 0 0 8 3 4 0 0 0 0 0 0 0 0 11 9 0 0 4 5 0 0 0 0 0 0 0 48 0 0 0 0 0 0 1 49 28 20 42 92 51 0 0 0 0 0 0 1 20 45 14 0 0 4 5 9 2 14 0 3 0 0 0 10 8 11 11 0 1 7 0 4 3 0 4 0 3 6 0 0 4 6 0 0 0 27 27 0 85 95 73 0 0 35 20 40 17 0 46 0 0 0 19 19 0 0 17 4 7 6 0 0 7 0 5 0 17 0 48 0 15 71 0 0 45 41 24 21 0 0 8 0 0 0 5 21 26 0 0 0 0 0 0 0 0 16 13 40 43 36 28 28 42 40 3 34 0 0 16 21 0 0 0 0 0 0 0 0 0 0 11 21 6 0 0 7 20 16 17 15 4 0 7 0 20 69 0 0 0 0 0 0 7 4 0 0 0 0 48 23 0 4 0 33 39 0 0 0 0 101 0 75 0 0 92 0 95 0 99 15 0 54 32 43 69 0 0 0 0 0 33 0 44 0 0 91 44 8 17 26 9 4 45 2 0 0 8 13 28 0 43 0 46 0 0 43 36 0 26 0 26 0 0 26 28 0 0 0 33 31 0 0 26 18 0 0 0 15 14 0 0 2 17 0 14 0 0 23 10 5 21 12 2 0 7 0 1 15 52 0 0 0 0 0 0 4 11 14 0 61 0 0 30 92 0 129 0 0 0 6 205 71 59 0 0 0 10 39 29 30 96 7 0 0 0 0 1 0 0 78 14 0 123 0 0 0 0 0 69 81 0 0 0 46 0 55 0 42 18 0 11 20 0 0 63 71 0 87 73 0 0 49 68 0 0 0 0 0 0 0 22 13 55 0 6 0 0 0 8 134 91 0 26 141 55 0 0 0 0 46 19 108 0 0 58 0 0 0 30 22 211 0 19 142 150 151 114 0 0 0 0 0 0 61 50 0 0 161 29 116 42 0 0 216 148 180 255 139 0 17 200 255 53 0 0 255 0 0 0 0 148 255 0 0 55 255 255 255 168 0 0 165 14 0 35 0 6 0 0 3 6 9 15 28 28 14 13 0 0 8 7 0 0 22 3 1 0 3 3 18 0 22 0 0 29 88 16 1 10 1 0 0 3 0 0 0 0 0 0 0 0 0 0 0 0 0 0 0 255
255 0 0 0 0 0 0 0 0 0 0 0 0 0 0 0 0 0 0 0 0 0 0 0 0 0 0 0 0 0 1 5 3 0 0 10 1 0 2 36 94 0 0 0 130 0 0 11 0 0 0 30 12 14 17 14 3 14 0 0 0 14 19 0 0 20 7 0 22 29 0 0 19 14 17 0 0 29 37 7 33 16 0 20 0 0 0 151 11 0 34 0 20 0 29 22 0 19 0 0 11 0 0 60 0 46 0 21 39 0 4 30 8 23 30 28 0 0 20 45 0 0 8 19 38 0 2 0 44 74 0 0 0 22 81 0 7 24 20 0 0 26 27 0 0 0 52 13 0 16 0 0 101 19 0 0 0 0 0 56 0 4 10 0 0 0 0 0 31 24 27 1 17 29 32 0 39 0 0 141 98 3 40 19 0 0 0 9 97 0 23 0 21 14 25 3 17 26 33 0 20 0 0 0 6 18 22 0 19 6 22 25 13 0 0 15 19 0 0 29 32 0 0 7 50 31 3 0 0 2 0 0 0 0 0 7 34 47 27 0 0 0 38 45 17 0 0 15 0 0 3 21 8 0 0 32 0 0 10 90 8 0 0 235 0 0 0 133 255 0 0 255 0 0 0 16 99 0 49 18 38 12 0 0 12 17 3 0 24 0 40 0 0 21 0 0 44 0 0 5 0 15 45 128 83 0 0 0 0 0 13 23 0 0 2 13 18 0 0 14 20 0 12 30 15 1 2 50 0 0 0 11 5 10 0 0 0 9 33 16 0 0 0 47 34 59 13 0 19 0 0 0 0 46 7 0 0 0 0 170 100 63 0 0 43 70 34 23 0 0 1 49 48 14 0 0 53 0 0 0 0 19 4 0 13 4 8 7 9 2 3 26 0 0 0 9 0 0 0 0 20 15 3 0 0 0 8 0 20 1 0 0 0 0 0 0 45 19 21 33 61 103 34 0 0 0 0 0 0 49 76 6 8 7 0 1 0 2 1 0 5 1 0 0 6 5 1 0 4 0 0 0 10 2 2 7 0 14 10 0 0 3 0 0 21 0 0 0 0 30 77 158 0 0 66 0 16 0 0 0 2 0 0 22 29 0 0 42 0 6 6 0 10 1 0 4 5 0 0 33 0 14 111 0 0 61 86 76 80 30 0 0 30 16 10 7 16 34 40 24 15 3 0 1 0 6 4 3 0 0 0 0 7 20 20 12 38 0 0 2 0 0 0 21 26 55 38 0 18 59 47 0 0 0 0 0 24 28 13 1 13 27 0 10 0 32 89 0 0 0 6 0 0 0 6 0 0 9 18 61 38 3 38 0 23 23 10 0 70 0 66 0 0 82 36 0 0 114 1 0 101 26 94 3 6 90 0 0 57 0 0 24 13 6 0 0 0 0 13 0 0 21 49 0 27 0 0 28 13 35 0 43 0 36 11 12 36 10 0 49 0 10 0 0 13 2 0 13 0 0 30 0 4 28 20 0 0 0 0 9 0 1 0 11 0 6 0 0 5 1 0 38 0 0 0 0 0 0 0 27 0 0 0 14 0 50 65 0 102 22 98 10 0 0 4 0 0 0 0 0 0 150 35 93 0 0 0 6 10 0 1 44 44 54 26 0 0 0 16 73 0 0 11 112 47 4 0 0 0 12 89 67 0 0 0 0 175 67 66 38 0 0 28 0 55 8 58 30 65 66 0 0 109 106 0 73 128 0 0 0 158 0 0 28 71 0 0 4 4 24 33 0 0 27 37 0 205 83 124 0 0 0 0 0 0 0 0 52 0 0 255 0 0 0 0 0 0 0 0 0 0 0 0 5 0 0 22 81 0 0 0 0 0 13 47 0 0 29 0 22 255 0 0 0 0 0 255 102 135 255 0 0 0 0 13 255 81 0 0 218 0 103 42 0 21 18 0 0 0 0 0 9 8 19 13 17 10 4 0 0 3 8 0 0 10 3 0 0 0 10 12 5 76 0 0 0 67 61 9 0 5 0 0 3 0 0 0 0 0 0 0 0 0 0 0 0 0 0 0 255
255 0 0 0 0 0 0 0 0 0 0 0 0 0 0 0 0 0 0 0 0 0 0 0 0 0 0 0 0 0 2 0 3 0 0 6 3 17 12 63 118 0 0 0 22 0 71 44 0 0 0 8 0 0 7 2 6 0 0 0 14 0 0 5 0 3 0 0 16 23 0 0 0 12 10 0 0 25 18 3 0 0 0 0 0 12 60 100 27 0 65 0 30 0 35 11 13 19 2 0 19 0 0 58 0 45 0 0 42 0 0 35 0 0 0 0 0 11 0 0 33 0 0 30 30 0 0 0 91 46 0 0 28 41 71 0 0 0 0 0 0 9 0 0 26 0 58 0 0 16 0 17 30 0 0 31 63 35 0 0 0 0 0 0 0 10 0 0 0 3 4 0 0 18 31 0 46 82 0 0 61 156 4 0 41 0 0 65 61 0 12 0 6 7 0 0 0 1 4 0 47 27 8 4 3 1 0 0 0 9 22 2 0 0 10 36 0 0 7 33 11 0 0 40 17 4 0 0 0 0 0 0 0 0 16 23 30 0 0 0 2 0 0 0 0 0 0 48 0 14 28 0 0 17 21 4 18 0 0 34 0 0 0 64 206 0 0 35 0 0 196 255 0 0 0 0 97 101 83 12 30 10 1 0 1 0 0 0 0 0 49 0 0 10 0 18 8 0 0 24 0 0 6 60 169 14 0 32 0 0 19 3 4 0 0 0 29 0 0 0 12 0 0 2 0 0 0 16 0 0 3 20 14 10 10 8 0 1 4 13 6 9 16 32 0 12 0 0 23 13 0 14 2 115 10 0 0 87 112 39 61 16 0 27 61 0 0 0 0 0 0 27 25 0 0 0 33 44 5 0 0 46 30 0 7 0 0 5 0 13 11 30 0 0 16 0 0 0 0 0 6 8 8 0 12 2 12 3 1 0 10 24 22 0 0 0 0 0 9 9 17 60 30 42 0 0 0 0 0 20 44 24 20 7 6 1 0 0 0 3 6 2 0 0 11 0 3 0 0 0 5 0 10 2 0 0 0 6 13 0 0 0 1 0 13 0 1 0 0 4 39 94 51 0 101 0 41 47 0 0 33 0 0 20 25 0 0 29 3 6 5 0 0 0 0 0 15 0 0 28 0 15 124 0 0 0 0 0 0 0 0 36 72 31 0 0 0 0 0 0 32 15 10 3 4 0 0 0 0 0 0 0 0 12 12 5 13 0 0 25 12 0 7 36 0 0 0 7 29 21 0 0 38 11 0 5 2 1 0 0 14 23 0 21 0 38 98 0 0 0 32 7 0 0 5 0 0 41 47 35 0 0 39 0 45 13 103 7 65 28 7 0 15 37 110 0 0 31 51 29 61 0 66 0 0 50 0 0 56 31 15 9 17 0 11 0 0 4 50 22 0 50 69 0 45 0 0 3 6 24 0 0 5 0 22 24 0 0 0 28 0 0 0 9 12 12 8 46 21 18 0 0 0 0 8 0 19 0 0 0 2 3 0 8 0 12 0 0 0 0 0 31 0 0 0 0 0 0 0 0 17 7 35 28 19 92 62 0 51 0 72 30 0 0 31 19 0 0 113 150 0 0 0 132 0 7 17 20 18 0 0 11 0 3 39 71 41 0 0 16 0 0 0 0 0 4 79 23 21 0 0 99 188 80 0 0 91 0 0 33 5 0 73 116 179 0 0 22 0 0 0 105 0 2 0 105 64 0 131 2 86 0 0 0 122 13 0 64 37 63 0 0 78 37 0 0 0 0 0 0 11 0 166 190 158 28 67 128 20 140 171 0 100 10 0 0 0 0 0 0 73 69 40 0 0 0 51 156 0 36 10 2 88 97 28 122 0 0 0 0 0 0 172 64 154 219 0 0 0 190 104 171 182 52 92 147 44 21 24 0 57 127 0 0 61 3 10 0 6 0 5 10 0 0 0 0 0 0 0 0 6 2 8 7 7 1 0 0 0 0 7 0 33 26 0 0 0 103 32 0 9 0 0 3 0 0 0 0 0 0 0 0 0 0 0 0 0 0 0 255
255 0 0 0 0 0 0 0 0 0 0 0 0 0 0 0 0 0 0 0 0 0 0 0 0 0 0 0 0 0 3 1 0 9 1 0 0 36 18 63 0 0 27 72 0 2 76 0 0 0 0 5 0 4 0 0 5 0 0 5 9 0 0 7 11 20 0 0 20 21 0 0 16 9 9 0 0 15 14 0 0 15 0 0 0 45 27 6 0 0 41 23 25 0 18 0 3 48 27 0 0 29 16 14 0 52 0 0 34 0 0 0 23 0 0 0 0 19 1 0 42 0 0 22 0 0 0 0 31 23 0 21 24 0 24 25 0 8 19 0 3 30 18 0 42 0 40 0 0 14 0 34 20 0 0 5 43 49 0 15 0 0 6 0 0 24 15 0 0 0 3 0 0 0 0 0 12 68 0 0 0 107 105 0 60 0 0 123 47 0 10 0 9 12 5 0 0 2 16 4 28 0 0 0 25 12 9 20 6 9 0 0 0 0 22 50 0 13 24 22 0 0 0 33 0 0 0 0 20 33 20 21 0 6 7 13 0 0 0 0 60 0 0 0 24 29 19 0 0 42 44 0 0 28 20 0 15 5 6 3 15 51 0 0 115 0 0 0 0 0 255 240 74 0 46 0 0 154 138 0 11 16 0 0 3 2 0 0 18 0 23 0 0 22 0 84 0 0 0 34 5 0 21 39 86 76 0 0 0 0 0 0 42 23 0 0 22 0 0 0 36 0 0 2 0 0 0 4 0 0 8 8 14 16 8 2 21 15 0 0 0 0 0 0 0 0 0 0 10 11 0 22 70 0 0 0 72 111 86 0 2 2 12 31 24 0 0 0 48 7 0 0 0 0 0 28 0 33 34 0 0 25 10 0 0 0 0 0 0 9 1 9 0 8 10 0 0 0 0 0 0 2 0 0 0 7 2 0 3 0 0 0 7 0 0 17 0 0 28 27 25 32 0 50 13 0 0 13 21 0 0 75 53 17 5 0 5 5 7 8 5 5 3 0 4 0 0 0 10 5 0 2 8 8 4 0 0 13 12 0 0 6 8 0 0 0 13 22 38 7 0 12 155 0 53 0 12 59 0 0 56 1 3 16 12 0 0 0 6 3 0 0 0 0 2 0 23 11 0 15 0 14 112 4 0 0 0 0 0 1 0 9 0 0 0 4 6 4 0 0 21 2 0 5 0 0 0 0 17 25 11 0 0 0 0 0 0 0 0 20 21 19 12 3 9 0 0 31 33 0 0 16 82 48 12 0 0 0 0 13 0 9 0 25 0 20 68 0 0 0 23 12 0 0 3 0 0 10 40 0 0 0 53 0 52 0 59 0 0 17 10 68 37 0 34 0 139 0 0 120 0 0 27 0 0 41 0 0 29 23 12 0 5 0 53 0 68 37 60 71 38 38 35 0 42 0 5 7 13 26 0 0 35 0 9 8 0 0 23 0 0 0 19 14 11 0 0 27 26 0 0 0 5 0 2 0 13 15 0 0 7 19 3 0 0 23 0 0 4 0 0 31 0 0 16 9 0 3 0 0 0 0 9 0 26 99 36 0 6 0 23 0 0 0 0 56 25 0 18 112 81 2 8 29 0 3 20 15 0 0 5 0 79 0 0 25 58 27 0 0 0 0 38 0 19 0 8 0 55 0 0 0 37 103 36 0 58 0 5 94 28 0 4 77 0 0 64 0 0 56 73 0 0 0 0 0 0 0 118 0 0 18 33 0 63 0 0 0 0 55 0 0 112 1 0 106 27 0 104 77 72 0 0 0 105 0 119 0 108 255 0 0 0 0 33 72 96 119 27 64 0 0 0 1 46 43 0 0 0 76 39 0 0 0 0 212 147 0 0 255 0 0 109 117 112 120 0 254 0 0 0 0 107 10 0 0 0 25 99 0 21 27 0 7 39 0 0 29 0 0 0 17 10 18 0 11 0 0 0 0 3 3 0 0 0 0 0 0 0 5 12 0 0 50 14 0 0 63 78 0 6 0 0 3 0 0 0 0 0 0 0 0 0 0 0 0 0 0 0 255
255 0 0 0 0 0 0 0 0 0 0 0 0 0 0 0 0 0 0 0 0 0 0 0 0 0 0 0 0 0 3 7 0 5 12 0 0 53 15 16 0 0 78 98 0 80 0 0 9 1 4 16 0 4 12 0 1 9 8 0 0 0 1 11 0 20 0 0 16 28 0 0 32 11 11 10 7 11 18 0 47 47 44 0 0 11 0 0 0 0 2 47 0 0 0 0 0 44 33 0 0 34 14 9 4 45 0 0 26 0 2 0 43 13 0 6 9 12 15 32 2 1 15 0 0 0 70 26 0 27 0 24 1 0 9 16 0 41 36 13 17 34 21 0 25 0 46 0 0 38 0 12 53 3 0 0 0 0 11 40 0 13 4 0 0 28 10 0 7 0 0 22 25 0 1 0 23 0 1 61 0 0 114 73 40 0 0 141 20 0 0 5 2 13 21 0 0 3 12 0 0 0 0 6 22 2 19 48 0 10 0 0 0 21 27 14 0 22 20 1 0 0 5 0 10 0 0 23 38 50 28 7 0 0 0 0 0 0 34 54 30 6 13 49 84 76 19 0 6 28 14 0 0 26 13 0 0 0 31 26 81 195 45 0 0 102 0 0 255 255 10 0 0 0 12 0 0 127 68 18 0 0 0 3 0 1 0 0 66 0 12 0 0 43 0 33 6 0 19 33 0 0 30 19 25 121 0 0 0 30 0 0 8 25 3 0 15 0 0 0 36 9 0 9 12 0 9 2 4 0 1 7 0 0 2 4 18 3 0 0 0 0 0 0 0 33 0 0 9 0 0 5 54 0 0 156 163 54 35 27 25 50 35 47 63 22 13 65 51 25 0 0 0 18 31 29 0 0 0 9 0 0 0 0 5 0 0 0 0 0 0 0 0 20 13 8 0 6 6 5 0 0 0 0 0 0 0 0 12 0 0 0 2 0 0 4 8 7 7 22 38 35 18 77 30 0 0 4 7 0 0 31 49 0 15 11 0 0 4 22 0 0 0 0 6 13 4 0 2 4 1 0 0 0 0 4 0 12 21 0 0 0 2 0 0 11 7 30 48 0 0 17 35 54 0 0 0 34 0 0 32 11 12 0 3 11 0 0 3 0 0 0 0 0 5 0 4 37 0 9 26 2 57 76 0 53 60 59 76 32 0 0 0 0 0 25 26 20 14 24 14 0 0 0 2 0 0 0 0 0 0 0 0 0 0 0 0 0 0 0 0 13 5 0 44 13 34 64 55 2 20 101 0 8 0 0 0 6 18 39 14 0 0 33 0 1 60 0 0 0 5 0 0 27 1 0 0 23 44 55 41 54 113 41 0 0 0 3 0 29 0 0 0 0 73 0 9 14 6 0 0 25 0 27 27 6 31 0 0 28 0 0 26 0 63 0 0 0 0 26 0 0 0 0 5 0 24 3 22 51 24 20 0 21 17 0 0 28 2 0 6 0 16 3 11 0 0 0 0 0 0 25 33 18 7 0 16 9 0 5 0 6 1 3 0 14 7 0 5 13 0 36 0 0 22 13 0 8 5 0 0 0 0 0 53 46 0 9 31 62 68 0 0 3 0 36 0 119 26 54 14 0 63 68 0 0 0 0 0 0 0 0 91 28 0 0 0 44 61 39 0 0 139 140 219 92 113 0 54 20 0 0 0 0 0 0 65 0 75 86 0 0 0 0 0 64 153 0 0 156 18 0 0 96 90 0 0 116 24 0 0 74 84 0 65 0 0 0 0 0 0 0 0 0 0 45 0 0 67 47 109 0 35 0 0 0 0 0 64 16 0 5 73 5 59 0 0 0 0 0 113 78 14 0 0 0 0 0 0 8 0 39 165 122 0 0 78 21 111 232 0 93 149 0 0 69 0 0 0 255 226 0 0 0 13 7 0 1 62 0 0 0 45 43 0 0 1 19 0 0 0 5 27 59 57 108 0 0 6 0 13 6 2 0 0 1 0 0 4 0 0 0 0 27 42 0 0 0 47 46 2 0 0 3 0 0 0 0 0 0 0 0 0 0 0 0 0 0 0 255
255 0 0 0 0 0 0 0 0 0 0 0 0 0 0 0 0 0 0 0 0 0 0 0 0 0 0 0 0 0 2 11 0 0 8 0 9 95 33 0 0 57 124 61 0 104 0 8 0 0 0 0 0 5 8 0 0 22 39 3 0 11 21 23 0 16 0 0 24 13 0 0 15 0 0 25 29 24 6 0 0 0 21 28 4 0 7 0 50 49 17 80 0 17 17 14 0 0 0 0 10 0 0 30 0 11 0 19 39 9 26 10 0 0 15 17 11 7 0 30 0 24 44 0 0 32 185 84 0 38 0 4 57 50 78 0 0 11 15 0 0 26 12 0 0 0 50 0 0 42 0 0 0 3 46 67 39 0 0 0 38 49 15 0 0 37 37 0 71 2 0 0 13 0 0 0 0 104 58 0 0 0 0 186 65 0 0 170 34 3 0 1 0 2 20 0 0 0 0 0 35 8 15 39 16 0 0 0 0 0 4 0 21 52 25 0 0 57 47 3 16 47 10 0 41 0 0 6 12 7 0 0 5 0 8 33 12 0 0 0 0 0 0 0 0 0 9 59 33 0 0 7 29 4 0 0 33 0 3 0 0 44 132 97 0 0 255 255 0 0 0 0 0 0 55 0 70 114 0 0 0 0 0 11 7 2 13 0 80 0 16 0 0 41 0 0 72 13 29 13 0 0 8 0 33 136 107 0 0 91 0 46 0 30 20 0 0 0 0 0 14 0 0 10 22 0 0 0 16 3 22 8 0 0 0 0 7 7 5 5 0 0 0 0 5 35 0 0 23 0 0 8 0 0 0 153 50 3 1 9 55 62 0 0 31 58 11 0 0 0 18 7 24 47 0 0 42 0 0 61 72 0 0 51 19 1 0 0 0 13 0 0 0 30 43 11 0 0 12 16 0 0 0 14 15 17 10 13 6 0 0 14 23 11 8 2 42 0 0 0 34 31 25 80 0 0 0 0 0 0 47 0 70 0 14 13 7 10 0 16 0 0 0 0 13 13 18 15 13 7 0 0 5 11 4 6 0 9 2 0 0 0 0 0 5 0 0 0 6 0 0 61 0 78 0 0 0 22 0 23 0 0 10 0 11 49 40 0 0 0 0 0 1 0 7 3 0 48 0 15 54 0 0 88 0 19 20 0 4 0 6 65 87 30 0 13 6 0 0 0 18 0 0 0 0 0 0 45 35 63 58 37 64 107 106 104 48 84 16 0 0 0 6 0 0 91 121 0 0 0 24 0 0 0 10 40 29 2 0 0 48 0 0 58 36 14 71 0 4 5 0 0 21 72 28 0 0 0 0 30 5 0 0 0 122 125 2 49 0 0 15 0 1 38 61 0 0 30 0 0 0 36 0 10 0 0 41 0 20 28 0 0 51 0 48 21 0 17 0 0 0 0 52 65 0 4 14 0 0 38 0 0 0 66 51 0 26 27 0 34 0 0 0 13 14 25 48 23 0 3 0 0 0 0 5 5 0 0 0 5 0 0 0 2 0 26 14 0 7 16 0 30 0 1 19 11 2 15 7 0 48 28 0 35 103 14 0 86 0 34 22 0 0 21 0 0 0 201 0 0 0 0 115 0 0 4 0 0 0 8 45 15 0 28 80 0 0 37 44 0 110 0 0 0 0 0 0 61 31 64 113 124 38 0 0 0 0 0 43 15 0 0 22 21 10 64 0 0 141 0 0 181 12 67 16 0 99 118 0 0 58 37 0 0 97 0 0 52 197 55 56 86 20 22 78 70 79 0 0 0 0 0 119 36 0 33 0 233 123 0 19 0 0 0 59 0 0 63 18 7 0 0 23 2 0 7 54 48 68 0 0 0 0 0 45 65 111 1 90 0 217 0 36 15 80 3 60 0 0 149 0 0 95 0 3 31 0 0 0 0 24 0 121 41 0 52 25 0 34 18 0 0 0 16 29 87 0 12 13 29 31 11 0 0 7 2 0 10 11 0 0 0 18 0 34 66 0 0 0 68 1 1 0 5 3 2 1 0 0 0 0 0 0 0 0 0 0 0 0 255
255 0 0 0 0 0 0 0 0 0 0 0 0 0 0 0 0 0 0 0 0 0 0 0 0 0 0 0 0 0 1 15 0 21 16 0 32 31 0 0 56 0 0 0 12 54 8 8 2 40 25 19 0 10 10 5 16 35 0 0 0 67 39 0 51 0 9 39 0 0 67 13 0 47 0 0 17 16 0 42 60 12 0 0 6 0 0 8 50 0 0 0 0 51 0 0 0 0 22 19 30 24 2 0 1 17 13 39 0 0 62 39 0 0 0 0 28 44 0 90 0 57 46 0 30 26 0 0 0 0 0 18 0 0 0 74 0 0 0 0 44 0 0 31 19 38 0 0 19 41 0 0 41 15 0 0 0 3 8 0 40 0 0 0 2 14 18 0 38 0 0 1 17 25 28 16 0 0 0 4 0 0 0 44 0 0 0 97 0 32 51 29 0 20 63 35 0 11 47 25 31 13 1 0 0 8 19 32 48 34 9 0 0 35 30 0 3 0 9 52 52 0 0 9 14 0 80 0 10 117 0 0 9 0 11 17 10 23 65 90 63 68 70 58 45 36 35 16 0 56 1 33 0 0 48 29 49 0 0 40 40 0 0 193 162 0 0 0 0 255 191 0 0 152 255 255 127 0 0 31 0 0 0 0 0 17 0 0 129 36 0 0 99 48 0 5 0 0 0 0 65 23 0 90 20 20 246 0 0 79 0 21 0 0 0 12 27 2 18 73 69 0 52 0 0 90 34 0 0 0 0 0 0 30 37 7 32 14 0 0 9 38 16 0 0 17 13 0 3 0 142 0 0 70 164 49 32 34 36 82 0 0 0 6 25 0 0 55 0 1 0 0 15 0 0 0 84 12 0 0 0 0 23 0 12 107 0 66 0 3 5 0 61 0 0 0 24 0 0 0 0 25 41 0 0 0 0 0 0 0 9 6 0 0 0 0 0 0 0 0 6 29 15 54 23 62 118 0 0 21 15 0 5 0 62 28 5 8 6 5 0 0 8 16 0 0 0 0 0 4 12 3 0 0 0 1 0 23 38 28 17 9 0 0 15 15 16 4 0 0 6 66 0 35 43 16 0 14 23 0 53 20 10 6 8 9 1 16 23 33 19 14 17 9 4 4 3 17 0 0 17 74 42 121 0 0 2 0 0 22 0 0 0 46 87 26 0 16 2 0 14 0 0 0 32 70 76 97 0 0 13 29 13 0 0 37 0 0 9 59 91 39 0 0 59 0 0 0 31 56 26 0 0 19 14 0 0 0 0 0 4 0 0 0 19 30 0 0 0 0 0 0 0 0 0 42 0 0 11 24 3 5 15 0 0 0 0 17 11 7 21 0 40 0 5 0 15 103 0 0 133 0 0 0 99 0 0 60 90 0 0 50 24 23 72 0 0 0 0 86 74 0 76 43 0 0 0 39 20 0 0 27 55 0 0 0 25 0 0 35 0 24 16 0 0 0 0 0 45 34 20 15 0 1 0 0 0 6 0 5 9 10 1 7 0 0 14 9 10 30 31 28 0 0 5 5 0 0 0 0 28 0 90 0 0 0 10 0 10 44 0 0 0 0 0 78 112 23 17 49 35 0 0 29 41 0 126 51 0 60 0 0 183 0 86 0 0 79 0 0 0 74 0 0 0 92 77 0 0 0 0 37 9 0 0 0 0 0 0 25 27 0 3 57 0 0 65 0 3 72 0 37 32 0 0 50 72 13 21 112 69 0 0 72 146 66 10 20 0 0 45 48 43 47 29 9 27 57 110 84 0 0 0 0 76 0 157 201 0 0 56 0 0 0 21 10 0 0 0 28 24 0 0 0 3 0 0 0 18 0 6 26 38 5 0 26 0 0 132 0 0 1 17 0 0 19 50 6 0 57 41 4 0 0 0 0 0 12 0 0 0 0 37 17 0 0 8 3 0 0 0 0 0 0 0 0 0 0 0 0 0 0 0 0 0 3 8 0 0 14 20 0 0 92 66 0 0 0 0 90 4 0 1 0 0 0 2 0 0 0 0 0 0 0 0 0 0 0 0 255
255 0 0 0 0 0 0 0 0 0 0 0 0 0 0 0 0 0 0 0 0 0 0 0 0 0 0 0 0 0 0 7 7 13 0 0 48 43 0 0 49 0 0 18 38 27 0 15 0 0 0 0 0 0 0 0 31 5 0 0 29 33 18 0 0 0 27 57 0 6 39 20 0 71 20 0 0 40 0 0 36 0 0 0 13 6 19 20 0 0 0 0 0 39 11 23 22 13 22 13 19 29 22 0 26 0 0 54 0 0 29 29 0 0 0 0 51 69 0 80 0 61 51 0 58 33 40 33 30 30 102 141 73 38 30 8 23 0 0 0 10 0 0 70 0 18 6 0 32 33 0 4 13 0 0 0 0 6 0 0 15 15 1 0 0 13 5 0 34 0 0 0 0 0 0 0 2 0 10 15 5 0 13 42 0 0 0 81 0 0 4 33 0 33 21 0 0 0 35 31 46 9 17 10 15 13 6 0 0 13 38 29 42 56 21 0 60 22 0 0 0 0 0 85 0 0 90 0 0 75 0 0 43 0 0 0 0 0 0 0 19 15 20 2 0 0 0 0 0 31 0 2 2 0 22 0 17 0 0 12 28 0 0 92 0 233 17 0 255 255 0 168 0 112 216 76 42 89 92 61 32 33 16 18 10 0 0 0 29 8 0 0 42 0 0 74 0 46 0 0 33 0 0 32 36 40 171 0 0 30 0 0 73 32 0 0 29 33 0 0 46 0 14 0 0 0 0 61 0 10 19 0 0 0 3 0 0 0 0 0 3 24 5 4 0 25 0 40 37 93 0 0 86 105 78 6 27 35 9 20 0 0 0 0 14 0 0 23 33 19 0 0 15 0 0 0 73 4 35 32 0 0 0 0 0 51 0 49 0 5 7 0 0 3 26 7 0 0 4 31 16 43 0 0 0 0 0 0 0 0 5 3 1 4 9 6 10 26 16 0 0 63 9 17 68 67 105 0 0 0 0 0 0 7 59 45 14 4 0 20 0 0 2 8 0 0 0 0 0 2 3 0 0 0 2 0 0 15 10 2 0 0 1 0 8 7 0 1 3 13 1 27 0 5 13 0 0 0 11 0 4 0 0 0 1 0 0 5 2 9 2 0 3 0 0 0 0 14 11 0 14 41 20 99 0 0 6 10 0 22 0 0 0 0 0 0 0 26 30 0 6 0 0 0 0 0 0 0 0 0 0 0 0 0 0 20 0 0 13 24 44 54 49 67 0 0 0 6 29 58 84 30 8 0 0 8 40 32 57 102 26 14 10 8 26 33 0 0 0 42 116 35 0 0 22 10 0 0 25 51 30 40 22 4 0 0 0 16 33 18 17 0 0 0 101 43 84 102 0 42 77 0 4 0 0 7 0 0 0 0 0 19 0 9 68 7 1 24 0 28 0 0 0 0 23 7 0 3 7 13 0 0 26 13 0 0 25 0 0 9 0 10 12 0 0 3 3 0 9 0 0 0 0 0 8 1 3 9 3 6 5 1 0 9 0 0 2 0 1 7 3 2 0 0 3 12 5 4 13 0 22 0 50 0 0 0 36 1 13 72 0 0 13 0 2 136 0 0 0 0 0 0 0 30 0 0 51 49 0 0 0 0 137 77 117 57 0 58 43 24 93 66 12 114 0 30 25 62 147 61 47 55 73 88 125 109 162 0 0 0 0 35 15 0 32 0 28 0 0 49 0 40 34 0 0 32 27 0 0 4 0 0 0 4 21 0 0 23 0 0 0 0 0 0 0 0 0 0 0 19 21 62 36 0 51 255 103 0 0 31 0 0 0 0 7 6 0 0 5 11 13 0 0 0 4 8 0 0 12 0 0 0 3 0 0 26 39 0 118 0 0 110 0 0 13 25 26 0 0 48 54 10 36 34 26 0 0 0 0 0 0 0 0 35 20 0 0 29 4 0 0 0 4 5 17 15 0 4 3 3 12 1 0 0 0 8 9 0 0 8 17 0 21 0 0 11 30 0 0 105 6 0 3 0 0 0 3 0 0 0 0 0 0 0 0 0 0 0 0 255
255 0 0 0 0 0 0 0 0 0 0 0 0 0 0 0 0 0 0 0 0 0 0 0 0 0 0 0 0 0 0 4 5 12 0 9 55 24 0 39 128 0 0 95 59 0 0 0 0 0 0 0 0 9 0 0 28 0 0 29 31 5 0 48 0 19 39 19 0 0 31 37 0 48 40 0 0 37 25 0 0 0 0 4 11 9 3 18 0 0 39 0 0 30 4 33 30 19 0 0 0 10 12 0 24 0 0 70 25 0 0 38 12 45 41 8 38 27 0 0 0 10 15 0 79 43 37 37 0 0 1 0 0 0 7 0 40 0 0 0 0 0 31 12 0 16 37 9 0 0 0 15 0 0 0 0 0 3 0 0 0 4 24 3 0 0 0 0 6 3 9 23 6 0 0 0 0 0 0 11 0 0 0 0 0 64 0 59 39 0 0 17 0 0 74 93 82 46 0 0 0 0 0 2 28 29 24 0 0 0 11 8 4 28 29 26 0 0 11 7 3 3 0 0 0 0 99 5 0 2 0 42 15 19 23 38 63 56 47 18 7 20 18 0 0 0 0 0 14 21 0 0 34 0 22 0 9 0 0 0 10 22 33 84 89 84 255 187 0 0 0 0 0 0 42 0 0 0 0 0 0 0 11 35 29 0 0 0 6 0 0 0 26 0 0 80 0 35 0 0 19 0 0 18 0 15 52 75 0 0 21 23 0 0 0 16 41 20 0 0 0 0 0 61 16 0 56 14 12 16 22 12 0 0 0 0 0 0 5 0 9 18 8 6 0 11 13 0 0 0 0 58 160 93 38 0 31 44 0 0 0 2 0 0 0 0 0 0 41 20 5 11 18 0 0 0 81 29 51 70 18 0 0 7 0 35 0 40 0 0 10 0 0 14 33 0 0 8 16 0 0 0 0 0 16 52 0 0 15 0 7 0 0 0 4 1 3 40 3 0 0 26 18 15 38 51 67 0 0 0 0 4 0 0 31 40 10 8 4 19 0 0 10 3 0 0 0 5 9 11 0 0 1 8 3 0 6 8 9 0 0 1 0 0 14 3 0 0 18 25 20 0 0 0 9 12 1 0 0 41 0 0 0 0 0 0 0 0 0 0 0 0 0 0 0 0 0 10 8 0 0 22 5 104 0 0 76 52 18 57 17 41 123 36 0 0 0 0 0 12 0 0 21 32 13 7 0 7 14 2 0 2 0 0 0 26 0 15 8 0 0 0 13 53 10 0 9 12 0 0 20 0 128 63 24 26 25 0 0 0 0 10 7 1 21 24 0 0 0 7 44 0 0 36 6 0 0 0 17 51 16 36 9 0 44 0 0 0 24 42 6 0 25 0 0 0 54 94 0 0 0 0 64 48 0 100 109 85 0 0 0 10 0 0 55 2 16 20 0 0 0 3 37 0 34 26 11 0 0 17 11 18 0 0 0 0 28 12 0 11 0 9 10 9 0 0 5 11 0 0 0 0 6 0 4 0 7 6 4 3 0 0 0 0 0 0 2 0 0 6 0 0 0 0 0 0 0 0 0 0 56 46 50 0 5 0 0 18 4 78 0 0 2 49 29 48 5 0 20 18 0 0 0 0 42 0 0 27 0 0 44 0 123 0 0 193 9 11 52 20 4 0 0 80 0 0 0 0 140 48 14 0 0 0 0 0 101 17 0 0 0 0 0 1 49 0 9 0 16 62 0 42 104 37 34 43 0 0 0 101 0 0 2 10 0 0 0 21 21 29 8 0 0 0 0 0 0 0 0 0 0 50 29 0 188 209 0 0 45 31 0 80 0 4 8 0 0 0 0 0 21 8 0 13 6 12 3 7 0 0 0 0 0 0 0 6 55 68 54 0 0 150 0 0 9 12 9 0 0 42 46 0 33 18 20 14 27 48 38 32 0 0 0 37 51 0 0 32 0 0 3 0 0 0 0 7 12 5 14 5 3 0 0 0 2 9 7 0 0 12 16 0 27 0 0 23 37 0 0 99 7 0 3 0 0 0 3 0 0 0 0 0 0 0 0 0 0 0 0 255
255 0 0 0 0 0 0 0 0 0 0 0 0 0 0 0 0 0 0 0 0 0 0 0 0 0 0 0 0 0 0 4 0 3 19 36 19 0 21 123 119 0 1 115 31 0 0 0 10 9 0 0 3 6 1 0 0 0 0 18 15 0 0 36 0 40 37 0 0 0 23 30 40 0 0 44 0 0 20 23 0 7 23 6 0 2 2 0 4 0 43 30 11 18 0 15 23 6 0 0 0 0 0 0 27 0 0 48 44 0 8 36 34 29 42 0 21 16 0 0 0 0 0 0 61 38 3 22 16 12 0 0 0 34 86 0 26 0 0 47 0 0 33 0 45 12 27 0 0 0 0 1 0 0 0 0 0 0 6 0 0 11 9 4 0 1 0 0 0 0 2 20 16 6 6 23 0 0 0 1 9 1 0 0 0 127 0 29 162 0 70 51 0 22 0 0 0 4 38 33 64 51 63 70 66 79 78 58 109 108 92 46 23 0 0 0 0 24 0 0 0 52 72 43 20 0 90 15 0 0 0 57 0 0 1 33 52 49 37 3 0 0 7 4 0 0 9 0 29 29 0 11 34 2 35 0 27 25 13 0 0 23 30 33 123 0 0 255 0 0 0 0 248 126 86 51 58 24 11 73 0 0 0 19 9 0 0 29 86 7 0 0 26 33 0 0 0 3 0 0 22 19 11 28 0 21 0 177 0 0 50 62 11 13 10 0 0 0 39 64 0 0 0 0 0 0 61 0 0 0 12 11 15 0 0 17 0 11 32 30 12 7 2 3 0 0 99 0 0 0 0 222 16 14 0 0 44 33 0 0 12 39 23 0 0 7 5 0 0 0 0 32 42 0 0 0 81 4 25 52 55 0 0 12 0 44 0 27 0 0 8 0 23 4 0 0 10 32 6 0 0 0 53 41 67 73 16 0 17 12 17 0 0 0 0 0 0 21 0 0 0 25 18 0 12 11 11 73 0 0 3 42 0 0 9 7 4 23 7 12 0 5 11 0 0 0 0 4 11 11 0 0 1 3 1 0 12 7 4 0 0 12 8 14 0 0 0 0 2 13 0 0 30 0 0 19 17 0 0 56 0 0 0 0 8 10 5 9 0 0 0 1 0 0 0 0 0 14 22 0 1 4 0 122 0 0 0 0 0 0 0 0 0 0 0 30 53 37 9 0 0 2 25 34 28 22 31 17 48 17 4 17 26 15 4 21 11 0 0 0 0 0 0 0 67 33 35 0 0 0 0 0 0 0 4 0 0 23 8 0 0 0 0 5 7 12 0 0 19 0 0 0 37 27 0 0 0 0 0 0 0 0 0 0 78 6 0 0 14 23 0 0 33 43 60 0 0 0 0 71 55 0 5 78 0 23 0 14 24 38 0 32 0 0 43 0 14 6 0 7 8 33 61 27 0 7 0 0 0 10 19 24 0 7 0 0 23 11 11 20 0 0 2 3 0 0 6 20 3 1 10 5 10 5 6 0 1 3 12 6 0 0 0 0 0 7 10 10 3 0 0 0 0 0 0 0 0 0 2 1 25 49 0 0 44 12 0 24 7 47 0 0 0 23 0 0 53 16 34 24 17 0 0 0 68 64 0 12 15 15 168 0 108 0 0 211 115 110 0 145 0 28 41 48 25 2 0 0 7 44 85 41 0 0 0 0 0 31 128 102 0 0 0 16 0 0 0 0 60 63 0 0 56 25 40 42 15 0 26 126 0 30 46 25 0 0 0 18 54 57 16 0 0 2 0 0 0 0 22 0 0 12 80 89 186 0 0 2 80 0 0 65 0 0 5 3 0 0 6 22 2 11 8 6 4 3 9 10 0 0 0 0 1 0 2 5 44 64 12 0 0 113 0 0 24 0 0 0 0 0 0 0 0 0 4 0 16 43 40 31 46 0 0 4 38 14 0 13 0 1 12 7 3 0 0 10 0 0 0 0 4 0 2 0 0 1 0 0 0 8 9 0 0 0 3 0 0 0 12 72 8 0 3 0 0 0 3 0 0 0 0 0 0 0 0 0 0 0 0 255
255 0 0 0 0 0 0 0 0 0 0 0 0 0 0 0 0 0 0 0 0 0 0 0 0 0 0 0 0 0 0 4 10 12 31 28 0 0 0 41 0 0 0 56 0 0 36 18 4 5 0 0 0 13 9 0 0 0 8 13 0 0 0 18 0 39 44 0 20 51 5 2 8 0 0 35 0 0 0 13 0 8 16 1 0 0 0 0 0 0 13 10 1 6 0 25 0 10 10 19 5 0 10 8 16 18 0 16 27 0 14 2 0 0 7 0 3 12 0 20 30 0 0 0 40 69 0 11 0 0 16 0 1 88 91 0 15 2 0 63 12 0 59 0 72 0 10 0 0 0 38 0 25 1 0 0 16 14 9 0 19 7 0 0 11 25 17 0 0 0 0 0 10 11 0 0 0 0 0 0 16 22 0 0 0 91 0 0 139 0 34 5 0 0 0 0 0 0 41 64 14 10 19 0 0 0 0 0 0 6 57 89 107 95 69 31 49 48 0 0 0 58 59 0 110 12 47 3 0 16 0 7 3 12 0 0 0 0 0 21 0 0 10 0 0 0 2 0 13 35 0 24 38 0 33 0 13 30 15 0 0 19 11 13 126 0 0 0 80 94 0 170 135 11 0 0 0 0 0 21 16 0 0 18 0 0 0 18 86 16 0 0 5 9 0 0 0 0 0 4 0 13 28 0 74 77 0 216 0 0 0 0 70 38 55 39 0 29 57 0 67 255 149 88 14 0 151 136 0 0 0 2 17 0 0 18 9 16 26 11 0 2 0 11 0 0 28 8 11 0 137 107 0 35 39 37 43 0 0 0 0 0 4 0 0 14 35 5 0 0 0 18 38 0 0 4 68 7 0 0 69 13 0 23 16 34 0 4 24 0 32 0 22 0 0 8 9 0 0 0 72 77 59 6 43 58 14 0 14 15 7 3 0 0 0 0 10 28 16 0 12 61 22 5 11 32 40 147 0 0 0 0 4 0 0 0 26 56 25 8 5 1 8 2 2 0 6 12 11 0 0 0 9 11 10 0 17 6 11 0 0 17 12 26 0 6 3 0 0 0 0 0 26 0 0 17 14 0 0 43 0 6 5 5 12 6 12 26 0 4 0 1 3 10 0 0 18 16 21 0 0 5 0 163 0 0 0 0 0 1 0 0 0 0 21 110 118 63 25 5 63 21 0 0 0 0 0 0 0 0 0 0 0 0 0 0 0 0 0 0 11 25 11 0 0 0 2 2 0 0 16 35 0 0 15 0 0 3 0 0 0 1 9 0 12 12 0 0 12 0 1 51 16 0 0 69 43 0 0 22 25 38 54 32 0 0 0 22 43 30 0 0 0 62 82 32 0 0 0 22 65 0 0 23 35 17 0 0 59 35 0 45 40 0 4 0 19 2 22 0 0 27 34 18 0 0 0 12 0 0 0 30 5 30 14 0 4 11 0 0 6 0 0 1 6 0 0 16 4 10 9 5 2 0 3 2 0 2 0 0 0 0 3 0 27 0 5 9 5 0 0 0 20 26 42 21 0 16 20 31 0 0 0 0 31 42 0 42 12 0 0 0 25 39 13 0 0 0 0 0 15 25 25 0 0 62 0 12 0 0 43 0 0 243 104 0 0 80 0 138 0 76 59 0 78 103 27 0 0 0 40 71 59 54 30 23 0 0 24 73 83 41 0 0 0 0 0 0 25 0 0 0 0 0 0 39 38 7 0 0 0 20 27 13 0 0 0 16 0 0 0 0 0 15 24 0 0 8 43 20 0 76 126 183 0 0 0 78 0 0 94 0 24 0 3 0 9 10 23 28 0 0 6 4 0 0 0 0 0 0 0 1 0 5 8 12 37 25 0 0 0 38 30 0 60 12 0 0 5 16 19 3 24 21 14 0 0 0 0 0 46 20 0 0 0 20 22 0 0 0 15 11 6 0 0 20 0 0 0 0 7 9 7 16 0 11 5 0 0 11 10 0 0 0 29 16 0 0 33 55 8 0 3 0 0 0 3 0 0 0 0 0 0 0 0 0 0 0 0 255
255 0 0 0 0 0 0 0 0 0 0 0 0 0 0 0 0 0 0 0 0 0 0 0 0 0 0 0 0 0 0 1 11 0 10 41 0 0 0 0 0 0 25 22 0 0 41 5 0 9 0 0 0 0 0 0 3 8 12 0 0 0 6 1 2 19 0 0 10 36 0 0 0 0 24 27 0 0 27 0 0 0 14 8 7 0 3 8 28 0 10 0 0 0 0 54 0 0 6 17 15 5 0 0 9 28 0 0 9 0 0 0 11 0 0 0 0 5 0 0 39 0 0 18 0 72 0 0 0 0 0 0 0 0 0 0 28 37 0 55 50 0 89 0 16 0 20 51 0 15 62 0 46 10 0 0 13 8 1 0 33 8 0 0 5 24 24 0 20 0 0 0 20 13 0 0 7 8 4 0 26 26 16 0 0 118 0 0 34 0 0 0 0 0 41 79 53 0 0 0 0 0 0 0 0 0 0 0 0 0 0 0 0 59 90 79 22 34 35 24 40 56 0 0 150 1 0 0 7 24 0 0 48 59 71 16 0 5 41 35 0 16 23 0 0 0 0 0 0 33 0 11 13 0 30 0 27 25 8 0 0 25 22 45 113 0 0 0 0 0 71 135 19 56 32 0 19 57 25 16 34 0 0 3 0 0 0 40 0 0 25 29 0 0 9 0 25 0 1 3 0 0 2 0 107 56 24 150 13 0 0 0 0 0 110 100 0 0 26 0 11 32 0 22 0 0 0 51 0 0 0 0 4 0 0 0 0 0 4 0 0 8 0 21 0 71 0 34 0 0 163 58 22 22 40 23 2 0 0 17 0 0 20 0 0 9 8 0 2 21 0 0 2 0 0 38 78 42 0 0 47 48 0 45 1 9 0 0 43 0 40 0 0 0 18 44 0 0 0 41 69 38 0 0 48 60 0 0 0 2 5 2 0 0 15 0 6 18 15 0 37 60 30 27 3 32 33 156 0 0 0 0 31 0 0 0 14 49 43 5 1 9 2 1 7 0 0 2 9 7 0 0 6 3 3 0 5 5 6 0 0 20 4 5 0 14 16 13 0 0 4 12 9 0 0 8 0 0 0 16 0 3 0 0 8 6 5 6 3 5 3 7 4 12 1 29 12 25 10 0 0 1 6 164 0 0 57 68 24 15 0 0 198 87 55 0 0 0 0 21 53 19 0 0 0 10 5 9 0 0 0 0 0 0 0 0 0 0 10 33 50 52 24 0 0 0 38 66 12 0 0 0 84 40 29 49 22 0 0 44 3 29 33 16 14 13 0 0 0 19 22 0 0 7 0 0 0 0 0 1 5 17 28 9 20 0 0 4 3 10 12 75 0 11 0 0 0 41 18 0 19 16 0 0 31 51 0 114 51 0 0 35 55 0 10 25 2 0 27 0 0 0 0 14 0 0 0 32 4 0 0 18 9 20 21 0 2 11 0 0 22 0 0 6 1 0 0 21 0 0 0 0 5 4 7 7 0 0 7 0 0 0 0 0 19 0 0 2 0 0 0 8 0 8 5 0 0 13 24 27 14 7 0 0 2 23 0 44 29 0 0 0 51 15 2 21 0 0 0 0 2 25 11 0 0 47 22 0 0 11 12 0 0 0 46 0 0 0 0 37 0 20 0 0 68 20 0 18 0 0 0 0 25 81 52 16 32 0 0 0 40 66 18 0 0 20 0 0 0 0 0 0 0 0 5 0 0 2 0 0 14 0 0 9 24 11 19 72 0 3 11 14 33 46 41 19 31 25 51 64 82 128 40 0 0 0 18 10 0 1 21 0 26 0 0 12 16 24 11 28 0 0 2 6 0 0 0 0 0 11 12 0 1 11 14 3 74 26 0 0 78 4 26 12 27 0 0 0 22 28 21 25 0 8 4 0 0 7 0 0 0 9 0 0 0 7 29 2 4 12 3 13 0 7 0 15 0 0 0 0 2 1 3 21 0 6 0 0 0 6 8 0 39 0 0 53 0 0 10 48 7 0 3 0 0 0 3 0 0 0 0 0 0 0 0 0 0 0 0 255
255 0 0 0 0 0 0 0 0 0 0 0 0 0 0 0 0 0 0 0 0 0 0 0 0 0 0 0 0 0 0 2 4 0 23 31 0 24 61 0 41 67 61 6 0 0 16 0 0 4 0 0 0 0 6 0 13 5 3 0 0 1 11 0 20 6 0 0 0 0 9 0 11 21 28 23 11 32 42 4 18 0 0 22 6 0 0 27 41 4 24 11 0 0 0 45 0 0 0 17 11 9 0 0 2 48 0 0 31 0 0 0 53 0 21 1 0 6 0 0 38 0 0 54 0 70 0 0 113 2 28 68 0 0 29 70 10 73 0 33 76 0 49 34 0 0 36 76 0 10 69 0 42 0 0 0 12 3 0 0 10 2 0 0 0 17 10 0 64 15 10 15 24 4 4 10 0 0 12 0 5 21 0 0 0 96 78 12 0 0 0 0 130 71 26 0 0 0 0 12 0 0 3 8 24 39 42 58 89 18 0 0 0 0 0 0 76 47 0 0 0 0 14 0 90 0 0 0 3 1 11 0 0 0 16 6 1 18 2 0 13 13 12 7 0 4 12 5 0 27 0 12 2 0 28 0 9 9 0 0 11 24 5 28 17 0 0 0 0 48 117 80 0 26 1 0 12 20 0 0 8 0 0 0 16 36 29 24 0 0 25 43 0 0 34 1 40 0 13 20 0 0 29 0 39 0 63 57 162 0 0 5 27 0 43 0 0 0 120 198 0 0 0 66 168 33 0 26 76 0 0 6 17 0 0 2 0 0 0 0 0 21 2 12 0 75 0 0 0 24 77 73 7 26 29 0 0 0 0 31 35 31 30 19 1 0 0 0 12 34 0 0 17 13 9 0 20 54 12 0 42 35 0 56 0 0 0 0 81 0 52 0 0 4 32 12 0 0 29 75 0 0 0 42 108 46 0 0 0 0 3 1 7 0 16 8 0 0 0 0 0 0 7 33 0 37 21 101 75 0 0 16 13 0 0 0 0 12 29 7 0 5 1 5 8 0 0 0 0 4 0 2 6 2 1 0 6 8 0 0 0 19 9 0 0 6 11 9 0 3 0 16 0 9 2 0 0 13 9 0 0 0 0 0 0 0 0 0 4 4 0 0 0 8 0 48 0 0 0 0 4 0 0 130 0 0 21 0 0 0 0 0 0 0 27 32 44 55 36 14 0 0 0 7 23 37 41 54 0 4 17 19 23 0 0 42 2 20 20 15 12 3 0 0 71 21 46 63 18 0 0 0 6 0 0 16 42 9 40 132 0 25 13 0 10 20 0 0 0 0 0 0 0 33 0 0 0 0 0 0 0 0 0 0 59 28 0 0 0 0 6 74 0 2 42 34 0 0 45 60 0 10 73 0 0 0 0 23 1 0 0 29 38 5 0 14 5 0 39 6 0 27 0 45 0 0 0 15 0 0 0 0 0 8 0 0 8 21 2 17 28 0 0 8 20 0 0 11 0 0 0 0 3 3 0 3 0 4 12 4 1 0 0 0 19 0 0 0 0 0 0 34 0 0 6 0 0 0 0 0 44 20 0 59 0 0 0 33 6 0 0 25 20 0 0 0 29 32 38 15 0 0 0 0 38 0 84 8 0 43 44 0 158 0 0 167 0 51 187 71 0 68 55 0 121 20 20 74 97 0 0 0 56 52 20 0 54 13 2 0 0 0 33 58 4 91 0 0 35 0 23 0 68 68 27 0 0 2 52 59 21 0 0 32 38 3 0 74 8 60 63 37 27 27 15 0 57 25 24 7 7 43 0 0 0 21 10 0 40 0 0 50 14 0 0 8 21 15 4 6 0 0 1 3 0 0 2 6 0 7 19 0 2 8 13 0 59 44 0 0 105 29 0 33 0 0 0 9 33 15 0 8 0 0 0 0 16 22 35 19 0 2 0 0 0 0 0 25 10 0 0 0 0 7 9 0 1 0 0 0 0 1 3 17 0 9 4 0 0 14 3 0 27 0 0 26 0 0 60 37 0 0 3 0 0 0 3 0 0 0 0 0 0 0 0 0 0 0 0 255
255 0 0 0 0 0 0 0 0 0 0 0 0 0 0 0 0 0 0 0 0 0 0 0 0 0 0 0 0 0 1 5 10 25 104 4 0 0 52 17 0 53 62 0 0 10 0 0 0 14 9 0 0 0 0 6 12 0 0 0 27 0 0 2 6 2 21 39 0 0 15 0 14 0 0 19 34 0 0 2 14 0 0 2 0 0 0 46 7 0 25 14 7 0 0 34 20 0 0 0 28 38 0 0 0 37 0 0 34 0 0 62 27 0 19 14 2 41 3 0 0 0 0 112 0 104 26 0 0 0 27 90 81 0 0 21 0 95 0 31 121 0 0 26 9 0 42 56 0 0 78 0 31 0 0 0 7 10 0 0 0 9 14 0 0 0 0 0 53 13 21 16 4 0 0 22 0 0 22 13 13 36 0 0 0 0 11 0 0 59 67 147 1 0 0 0 27 22 0 0 41 8 0 0 23 28 12 0 0 0 23 32 0 0 0 0 0 0 84 136 122 66 27 0 54 43 0 17 14 0 5 8 49 53 21 0 0 36 37 8 0 4 10 0 0 13 16 32 13 33 0 0 0 0 52 35 34 5 0 0 7 0 0 0 0 101 152 0 150 146 96 0 38 0 0 60 98 0 0 19 44 22 0 0 0 0 0 0 0 0 0 49 0 46 84 0 32 0 26 41 0 33 88 0 0 0 100 3 231 0 0 25 55 9 67 68 0 56 184 129 0 75 187 68 41 12 0 60 154 0 0 8 33 0 0 6 0 0 11 28 43 62 12 0 0 0 0 0 83 138 0 22 11 40 10 0 12 39 14 31 0 0 0 0 0 0 23 35 0 32 0 0 21 24 0 0 0 95 80 25 61 0 0 72 0 0 3 0 86 0 46 0 14 24 18 0 0 0 35 18 23 32 38 81 40 0 0 31 0 0 2 13 3 0 0 0 12 16 23 0 0 0 0 41 0 33 28 20 102 0 0 0 7 0 1 0 0 4 32 31 0 0 3 9 10 4 2 0 0 0 3 6 0 0 0 2 0 0 2 2 22 26 14 0 0 0 0 0 0 20 8 1 0 28 19 0 0 32 38 0 15 3 10 13 16 23 6 11 10 0 0 0 0 0 26 102 0 0 0 0 28 21 4 134 0 0 45 1 0 0 0 205 53 71 45 0 0 23 19 0 0 0 0 19 0 0 0 0 0 0 14 9 0 0 0 85 0 0 0 0 0 0 0 0 22 0 0 0 1 72 74 57 0 0 0 0 0 14 0 0 6 5 0 0 7 21 0 0 0 0 0 0 0 0 0 0 213 0 0 0 0 0 13 45 0 0 0 21 29 0 0 0 0 0 0 117 89 2 19 13 20 0 26 0 18 56 49 0 0 16 0 31 41 13 0 0 45 0 7 4 7 31 0 40 0 36 28 0 13 22 26 0 27 24 0 0 13 0 0 8 39 0 0 11 34 20 0 18 0 0 0 0 0 14 7 0 0 13 21 42 20 0 0 0 22 0 0 12 11 3 36 66 0 46 59 26 7 38 36 47 0 0 0 123 0 12 3 70 0 0 0 8 0 0 0 0 0 0 22 0 0 0 27 19 0 0 123 71 0 0 0 32 74 186 63 43 52 0 0 3 0 86 148 0 69 0 0 0 37 0 0 76 90 0 0 0 102 4 0 7 45 71 46 0 0 74 0 39 89 0 21 0 0 0 29 11 6 40 62 55 54 0 0 13 0 0 0 35 0 0 7 0 0 0 0 0 15 25 19 0 0 0 26 0 0 54 60 0 0 3 30 0 15 0 0 0 20 19 0 0 0 0 3 0 0 0 1 21 0 6 21 0 6 4 0 0 23 75 0 0 71 54 0 47 2 0 0 55 81 48 0 0 0 21 23 0 17 15 3 0 0 0 21 61 3 0 0 61 22 0 0 0 10 19 16 0 11 2 6 0 0 2 0 0 0 7 0 0 0 23 6 0 0 0 42 0 0 10 91 9 0 0 0 0 0 0 2 0 0 0 0 0 0 0 0 0 0 0 0 255
255 0 0 0 0 0 0 0 0 0 0 0 0 0 0 0 0 0 0 0 0 0 0 0 0 0 0 0 0 0 2 0 10 8 155 0 0 95 0 14 21 55 48 0 0 33 20 0 13 0 0 2 14 12 1 13 0 11 6 0 0 3 12 3 12 15 0 0 4 17 15 11 0 8 9 13 0 0 0 4 0 15 0 3 32 0 0 58 0 29 19 0 37 0 0 31 4 6 0 0 14 0 0 45 0 3 17 16 28 0 5 26 0 31 20 6 0 0 0 25 0 11 47 29 0 0 0 0 0 25 124 0 102 0 0 0 56 0 0 103 26 0 92 31 0 0 79 0 0 56 0 0 99 7 7 23 0 0 14 0 0 0 3 14 16 1 0 0 0 0 0 0 0 0 0 12 44 0 45 55 0 113 0 0 43 0 0 26 125 74 0 0 0 35 34 10 0 9 0 0 0 7 33 32 0 0 0 20 4 0 0 12 52 52 26 0 0 0 0 0 0 0 0 61 52 0 0 0 120 12 56 0 0 21 5 0 12 19 0 19 6 2 7 8 2 0 0 20 0 48 54 12 5 32 0 0 19 0 11 51 0 0 22 6 1 0 0 0 9 28 39 18 61 65 39 0 0 8 55 47 0 0 22 34 4 0 39 144 0 112 34 0 15 28 0 0 0 0 0 0 22 96 5 0 47 0 41 0 159 8 0 0 0 31 0 0 0 255 76 0 0 0 0 0 12 0 0 0 74 0 0 0 9 9 7 29 29 22 0 0 0 0 0 49 0 69 0 0 188 27 60 28 0 54 79 32 17 0 0 19 0 0 11 14 8 7 0 0 11 0 0 0 0 0 0 0 0 0 0 16 7 2 0 0 23 23 0 0 67 0 0 0 74 0 0 0 10 68 55 7 0 35 76 2 0 0 3 53 10 21 7 0 0 0 0 6 0 0 0 0 23 0 11 50 9 23 31 101 150 0 0 1 6 15 0 0 16 9 9 38 55 27 10 0 0 4 7 0 17 9 5 7 6 7 5 3 1 5 5 1 3 0 0 0 24 0 0 20 20 3 0 20 0 0 0 1 0 0 0 0 22 0 4 0 0 0 0 0 0 0 4 12 34 32 0 0 0 29 68 4 0 0 0 83 0 0 16 0 0 84 211 46 59 0 0 50 45 0 0 87 0 115 0 27 50 0 50 40 46 59 0 0 32 0 39 0 0 103 56 54 23 0 0 44 25 28 39 33 0 0 0 121 0 0 0 14 61 0 25 20 14 0 16 72 0 51 0 0 0 15 184 255 0 0 40 161 131 149 119 34 21 62 31 0 0 0 92 0 0 0 50 34 74 59 0 0 28 0 0 0 80 32 0 0 3 44 40 19 54 0 14 5 0 1 5 0 19 35 64 18 0 0 0 28 0 0 0 0 0 10 25 0 0 18 8 0 8 29 24 0 0 0 0 0 0 0 0 0 0 8 12 14 0 0 0 0 26 47 21 0 0 5 16 0 21 0 0 0 0 0 0 0 35 0 4 0 0 0 0 10 0 0 0 0 0 1 0 10 0 0 0 0 73 91 46 16 0 0 11 70 22 0 0 57 2 10 47 82 94 51 0 0 0 29 0 185 205 37 0 0 0 0 18 0 105 0 26 0 0 48 25 0 0 0 0 0 150 92 56 1 0 0 0 32 43 36 53 0 32 5 62 0 0 115 0 0 0 0 0 0 0 0 0 15 53 100 73 42 0 23 63 1 0 0 4 45 24 15 0 0 10 62 0 0 0 0 16 0 1 1 21 2 10 0 5 41 29 0 0 29 0 7 0 0 0 0 0 0 0 1 0 0 0 0 121 60 79 7 0 14 148 0 3 0 0 0 0 0 0 0 0 0 40 0 0 1 12 0 0 17 0 6 60 0 0 27 0 24 13 12 15 4 4 0 16 21 11 5 0 0 0 0 0 0 12 25 27 10 7 0 0 1 0 47 0 0 0 82 42 0 14 5 4 3 3 2 1 0 0 0 0 0 0 0 0 0 0 0 0 255
255 0 0 0 0 0 0 0 0 0 0 0 0 0 0 0 0 0 0 0 0 0 0 0 0 0 0 0 0 0 2 0 9 20 7 0 11 6 0 59 0 22 23 0 0 12 4 0 10 0 0 5 9 0 0 10 0 12 5 0 0 9 10 0 0 0 0 16 6 0 0 10 0 0 0 5 0 0 13 29 0 7 0 0 13 0 0 60 0 16 8 0 25 0 0 42 0 0 6 24 38 29 2 52 0 19 30 18 12 0 0 0 0 8 0 0 10 0 0 0 0 10 55 33 0 0 6 14 0 0 3 0 142 113 7 156 90 17 18 45 0 0 73 0 0 0 76 0 0 48 0 0 66 0 0 17 15 2 7 14 17 12 7 0 1 0 0 0 4 0 0 0 0 4 8 8 0 98 0 0 177 0 1 48 0 0 89 68 0 0 17 10 7 3 8 0 0 9 5 0 0 0 2 7 0 0 0 1 0 0 0 15 24 10 0 0 27 0 0 0 17 17 0 0 0 0 0 0 86 0 0 0 0 20 20 0 20 18 3 12 10 0 4 0 4 0 0 23 0 0 13 0 8 30 32 21 7 0 22 33 0 0 33 0 0 0 0 0 20 27 21 6 0 0 0 0 0 6 0 0 30 5 10 1 9 0 0 23 0 71 0 0 63 49 0 29 41 0 32 0 0 34 0 0 39 3 39 0 141 19 0 0 0 0 7 97 0 0 0 0 255 32 13 19 80 29 0 0 156 10 0 0 0 3 7 48 0 9 0 1 0 0 2 0 0 24 0 5 166 56 10 22 47 20 0 0 0 8 0 0 5 0 9 8 1 9 0 0 30 17 13 11 0 3 8 1 0 0 0 58 56 0 0 0 50 47 0 0 70 18 0 16 36 17 33 65 74 41 15 10 52 37 7 0 0 17 19 10 1 4 4 0 0 2 8 7 0 11 0 0 0 0 0 25 11 28 17 75 129 0 0 0 1 11 1 0 0 0 0 0 50 17 19 6 0 0 9 0 5 0 5 4 0 0 0 1 7 13 4 2 3 0 0 1 23 0 0 3 11 0 0 25 1 3 1 2 6 16 6 5 0 3 4 2 0 0 1 0 8 10 0 0 18 22 14 0 49 4 0 0 0 35 67 155 0 11 0 0 91 125 132 0 17 0 3 11 5 0 2 23 0 67 0 12 66 4 73 51 0 16 0 0 27 0 44 0 0 51 0 0 43 0 7 0 0 0 0 0 0 0 0 34 26 40 0 10 0 0 0 35 1 0 72 62 15 0 0 0 32 151 145 136 0 180 142 44 0 41 79 55 55 74 13 0 93 0 75 0 0 0 0 0 0 0 0 0 42 1 0 0 27 20 38 0 0 0 1 0 0 0 0 12 0 0 1 0 12 2 58 49 30 60 34 54 27 11 10 16 0 23 30 0 0 21 21 0 0 11 0 0 0 4 0 3 0 0 8 14 3 0 3 0 0 0 0 54 0 0 0 0 0 0 0 0 15 9 1 8 0 0 8 16 0 0 23 0 0 52 0 38 0 14 35 11 6 30 17 0 0 44 28 0 0 0 0 0 20 0 0 0 0 0 0 0 0 0 12 42 44 28 0 2 14 0 0 0 163 255 109 0 0 0 0 0 48 0 32 116 0 26 8 0 0 2 20 0 80 0 0 3 56 0 0 45 0 0 134 0 27 17 46 0 0 93 0 0 63 11 0 52 0 0 18 0 0 0 0 0 0 0 0 0 0 0 5 38 0 45 0 156 209 0 0 0 0 3 36 13 2 11 19 0 15 0 5 29 24 0 0 12 0 5 0 1 3 9 0 1 0 23 22 35 47 32 0 0 0 0 0 44 57 0 3 50 0 0 0 10 35 11 3 6 17 0 0 9 16 0 0 8 0 0 40 0 0 0 0 10 0 0 10 10 4 0 0 0 22 14 21 12 5 6 6 7 0 0 0 0 11 14 39 36 14 0 0 0 34 79 12 0 10 0 0 0 0 0 0 0 0 0 0 0 0 0 0 0 0 0 0 255
255 0 0 0 0 0 0 0 0 0 0 0 0 0 0 0 0 0 0 0 0 0 0 0 0 0 0 0 0 1 3 11 29 95 0 29 119 45 24 109 0 0 0 0 0 0 0 0 0 0 0 10 7 4 0 14 0 9 6 0 0 11 0 0 0 0 10 4 6 0 0 17 11 2 3 2 5 0 0 18 0 7 2 5 15 0 0 49 0 17 7 0 17 0 0 57 0 6 15 14 39 32 0 48 0 0 28 41 19 0 4 34 0 0 0 0 0 0 0 0 0 0 59 40 0 0 0 8 0 112 68 0 48 0 0 42 0 0 79 7 0 63 128 0 28 0 61 0 0 5 0 43 0 1 0 0 21 0 0 7 11 12 1 0 0 0 0 3 10 0 2 1 0 6 0 14 0 41 0 0 115 0 5 0 0 23 236 72 0 0 2 0 5 0 0 0 0 20 7 0 0 0 0 0 0 0 0 1 0 7 12 9 4 1 0 0 40 9 0 0 0 19 0 0 0 0 0 0 105 0 0 27 3 0 0 19 0 0 0 0 20 3 6 2 1 2 2 15 0 6 16 6 0 0 0 37 0 0 7 0 0 7 33 0 0 0 32 61 49 24 28 15 0 0 0 0 28 42 2 0 41 25 11 0 9 30 7 0 0 47 0 0 60 35 0 51 34 0 51 0 0 53 0 0 22 16 21 0 136 69 0 0 32 0 0 102 0 0 0 0 255 13 0 0 0 0 0 1 132 24 0 0 11 8 9 37 0 0 9 20 13 0 0 0 20 0 0 178 140 29 0 23 69 0 0 0 0 34 17 0 18 10 7 5 1 5 0 2 12 12 7 0 0 1 15 48 23 0 0 6 34 41 42 4 63 44 0 0 63 55 0 78 54 38 23 24 5 0 1 40 45 21 0 0 0 28 31 1 0 0 4 1 3 0 3 7 12 6 0 3 26 0 0 53 12 19 26 53 137 0 0 0 0 18 9 0 20 1 0 0 20 1 23 15 0 2 10 7 0 0 1 0 10 0 4 0 10 8 0 0 0 0 0 10 13 0 0 0 0 0 0 10 11 17 0 0 0 10 11 9 0 0 0 8 2 4 0 0 8 8 16 0 11 7 0 0 65 0 0 46 4 14 14 44 0 0 0 48 255 54 16 22 0 32 21 0 0 12 4 0 0 47 0 0 10 0 0 0 0 5 0 31 46 0 36 0 0 19 0 0 52 19 11 0 20 0 0 0 0 0 0 17 16 51 0 20 0 0 0 50 13 32 14 0 51 0 0 126 136 15 0 66 15 87 25 0 0 52 66 34 40 96 101 44 93 15 153 41 48 9 0 0 0 0 0 0 21 19 15 54 0 43 84 5 0 0 13 0 0 10 8 0 0 9 0 0 0 0 0 0 0 0 0 0 14 28 0 0 9 14 0 1 0 0 0 0 0 0 0 21 0 14 12 4 0 0 10 12 0 4 0 0 1 0 7 46 0 0 4 7 0 25 25 0 7 15 27 18 0 0 0 25 0 0 65 0 0 82 17 10 0 42 61 1 0 37 17 0 0 0 0 0 0 0 0 0 72 11 9 0 6 20 16 0 0 0 0 22 56 42 12 14 0 31 0 0 0 210 155 120 46 0 0 0 53 0 11 0 0 15 62 65 0 0 0 122 9 0 0 0 42 70 15 0 0 0 67 0 11 0 0 16 23 43 0 0 75 9 0 0 32 22 0 0 4 31 27 22 0 63 70 0 0 80 30 0 0 45 255 32 0 0 0 133 0 6 18 5 1 12 13 0 13 0 0 6 8 0 0 0 3 6 7 15 11 18 18 29 37 21 0 0 9 96 41 111 4 0 0 54 4 0 4 58 17 0 0 12 33 12 5 23 9 0 0 0 0 0 0 3 7 12 57 0 0 16 0 17 0 0 0 3 1 0 0 0 0 0 0 0 1 0 0 0 0 11 10 5 0 0 0 0 0 0 0 40 74 38 18 0 7 0 0 0 0 0 0 0 0 0 0 0 0 0 0 0 0 0 0 255
255 0 0 0 0 0 0 0 0 0 0 0 0 0 0 0 0 0 0 0 0 0 0 0 0 0 0 1 2 4 0 8 36 49 0 23 11 13 0 23 32 5 0 16 18 4 0 12 0 3 0 0 16 11 5 18 0 9 7 0 0 11 0 7 0 4 1 0 0 5 0 0 0 0 17 17 12 0 0 0 2 10 6 12 14 0 0 36 0 13 14 7 10 0 0 27 0 36 5 0 0 0 0 24 0 0 0 17 13 0 0 35 0 19 0 5 15 0 0 22 0 0 33 55 18 0 0 0 0 108 86 5 75 0 27 161 0 0 112 16 0 119 101 0 122 0 55 5 0 0 0 37 0 19 0 0 18 0 0 30 0 0 0 0 0 0 17 20 0 7 0 0 0 0 5 8 23 0 52 82 0 78 0 0 195 129 126 0 0 32 31 0 8 0 0 0 0 10 2 2 13 12 5 0 2 15 15 16 0 10 13 5 0 0 0 0 6 24 22 4 0 0 0 46 34 13 37 0 148 23 0 44 46 0 1 47 0 0 27 0 14 0 0 2 0 10 0 7 19 12 13 13 0 0 0 36 0 4 16 0 0 1 23 0 66 21 36 20 6 7 4 18 41 19 0 0 19 52 41 15 0 30 6 0 0 51 16 0 18 22 0 0 30 0 0 27 0 0 33 0 0 64 2 46 0 26 0 0 96 103 0 0 57 0 0 51 45 12 0 0 0 0 0 8 0 0 0 97 38 3 0 18 28 14 0 0 0 0 12 4 14 3 0 0 5 0 0 157 76 13 0 34 60 0 0 50 0 0 23 0 14 4 0 0 0 0 3 0 0 0 0 0 0 0 0 29 0 22 0 0 0 15 45 0 33 24 0 0 32 22 0 32 35 0 0 0 0 5 0 25 0 0 0 0 0 0 0 0 0 0 14 3 9 3 1 0 18 0 0 37 46 0 0 71 0 17 27 34 169 0 0 3 0 13 11 1 37 20 4 19 0 0 31 25 0 8 0 7 0 3 0 2 4 0 6 0 17 15 8 0 1 2 0 12 0 3 0 0 0 1 3 6 0 0 0 0 2 3 0 0 0 0 11 14 16 8 0 1 0 17 18 0 0 0 7 0 7 0 39 73 0 6 24 0 0 0 0 162 54 0 0 82 0 12 20 3 0 11 2 0 0 28 0 0 0 0 0 0 0 42 0 37 29 0 25 0 0 47 0 0 24 0 0 0 45 2 3 24 33 23 12 35 0 30 1 60 25 0 0 0 4 36 0 0 0 0 97 255 82 0 0 62 32 0 0 0 36 0 0 0 0 0 41 110 0 0 97 122 155 150 89 54 0 0 0 0 0 0 0 98 26 41 0 0 0 41 26 0 0 30 23 0 15 21 0 0 49 0 9 0 0 47 0 0 0 26 0 0 17 1 0 0 12 0 0 10 0 0 0 23 0 3 7 10 4 4 9 12 0 3 2 4 10 16 0 1 0 15 30 17 21 26 31 1 3 3 12 6 0 0 0 3 1 14 80 0 0 46 0 0 22 28 26 0 0 19 4 0 0 0 0 0 55 63 2 0 64 29 36 0 6 38 45 0 6 0 0 15 48 39 0 0 0 75 76 0 0 0 60 145 172 73 24 0 0 0 57 0 97 0 0 104 65 0 0 108 30 0 0 18 45 69 52 0 143 0 67 67 101 73 0 110 0 10 8 0 39 15 0 0 31 0 0 0 0 31 0 0 0 0 8 0 0 0 0 0 214 219 0 0 0 0 94 0 0 0 0 0 1 18 15 0 3 0 0 0 0 0 0 0 0 0 0 0 0 4 10 14 0 0 72 0 12 7 0 0 25 0 6 46 0 65 0 0 31 0 0 3 20 1 0 5 7 0 0 0 2 0 3 0 12 7 57 0 12 41 0 44 0 0 3 6 12 5 9 17 0 0 0 0 0 0 0 1 0 0 0 16 12 10 10 0 0 0 28 76 35 0 0 5 5 1 0 0 0 0 0 0 0 0 0 0 0 0 0 0 0 0 0 255
255 0 0 0 0 0 0 0 0 0 0 0 0 0 0 0 0 0 0 0 0 0 0 0 0 0 1 3 0 0 0 20 15 5 0 26 0 71 0 8 59 7 0 22 25 0 0 19 0 7 0 0 0 6 0 17 0 0 1 0 0 8 3 3 0 10 6 0 3 16 15 0 0 0 10 19 15 16 15 7 25 0 0 10 8 0 3 0 0 0 19 13 7 0 0 7 0 40 15 0 0 1 0 10 0 0 7 3 0 0 0 0 25 39 19 25 47 32 11 106 0 0 10 37 26 9 0 0 0 9 0 0 140 0 116 87 0 0 103 43 0 54 0 0 137 0 20 0 0 0 0 13 41 29 14 11 38 20 1 37 0 0 0 0 0 4 7 16 4 10 3 3 7 4 6 8 0 33 0 0 0 0 0 40 255 49 0 0 18 46 38 0 14 0 0 2 8 5 7 0 14 14 4 0 0 22 23 14 0 10 1 0 0 11 11 11 7 0 0 20 0 0 0 54 65 0 0 0 152 99 0 23 90 0 7 64 1 0 41 8 16 2 1 3 0 4 0 0 0 0 0 3 11 0 17 67 0 53 48 0 0 5 1 0 117 16 0 0 0 0 10 1 26 28 0 0 0 1 13 36 0 14 8 0 0 18 19 0 23 0 0 0 9 0 0 6 5 0 31 0 0 16 0 0 0 39 0 0 86 158 0 0 0 0 43 33 20 0 0 16 0 16 91 62 65 52 56 40 0 0 0 0 20 16 0 0 0 4 0 0 0 0 0 6 0 0 28 77 31 0 21 29 8 0 0 61 0 0 0 0 6 1 0 0 0 0 0 5 0 0 0 1 0 0 0 0 0 0 40 38 0 0 0 0 24 7 0 5 23 28 0 2 0 0 29 53 77 36 0 0 0 0 12 23 0 0 0 2 0 0 3 0 0 0 0 0 12 0 6 39 36 0 0 75 7 14 48 1 195 0 0 5 0 0 0 0 9 0 0 17 0 0 26 21 6 14 8 11 0 0 1 7 1 0 3 2 0 4 7 8 6 1 0 9 0 0 1 3 2 0 0 0 0 0 0 8 7 0 0 0 18 9 3 2 0 1 4 19 0 8 10 0 0 7 13 6 36 0 1 0 0 61 77 0 0 0 255 124 0 77 45 0 6 0 0 18 16 0 0 3 0 5 2 0 22 18 0 61 1 54 0 11 4 0 21 0 0 60 0 11 31 0 6 4 20 0 0 0 8 9 0 2 0 52 0 65 77 0 0 0 0 47 0 88 0 0 128 122 0 35 78 0 0 22 90 0 0 0 0 13 0 0 0 0 0 0 0 0 0 15 69 142 59 93 46 0 0 0 0 0 25 0 0 0 44 20 20 0 6 34 9 0 19 18 0 0 32 11 18 0 0 61 41 0 0 35 0 0 26 22 0 0 53 14 0 0 0 0 0 6 0 2 0 12 8 15 10 8 0 2 3 15 17 13 0 0 0 0 0 0 0 0 0 0 4 0 0 2 0 6 0 0 28 0 31 0 0 0 0 0 55 0 0 0 3 0 0 2 0 41 80 64 24 0 0 64 0 7 28 0 0 2 9 0 15 0 6 16 37 43 0 0 53 0 0 0 0 135 70 95 92 72 158 0 0 0 35 164 122 0 0 1 120 63 0 0 57 0 0 72 26 0 0 83 24 0 57 9 0 47 0 64 0 5 90 0 0 84 0 0 96 0 0 0 7 19 0 0 73 0 0 0 0 0 18 253 184 0 0 0 75 0 0 0 0 0 0 0 1 13 14 0 1 0 2 0 3 8 13 14 0 3 0 0 4 0 0 0 0 9 54 17 37 55 6 82 6 0 33 42 0 63 9 0 37 0 0 0 5 0 0 0 0 2 0 0 0 5 7 0 0 0 30 0 8 23 0 0 0 0 0 2 0 0 7 26 1 6 14 23 20 25 6 15 43 46 22 0 0 0 0 0 17 37 79 26 14 0 9 6 0 1 0 0 0 0 0 0 0 0 0 0 0 0 0 0 0 0 0 255
255 0 0 0 0 0 0 0 0 0 0 0 0 0 0 0 0 0 0 0 0 0 0 0 0 1 3 0 0 1 5 33 23 27 77 50 2 101 1 57 13 0 0 12 13 0 0 19 0 12 0 0 0 8 0 0 0 0 0 0 0 11 6 15 0 17 0 0 0 18 7 0 0 13 15 7 0 0 0 0 39 0 0 6 0 0 0 0 0 0 11 16 0 6 29 28 0 23 15 0 13 7 0 0 25 0 0 0 0 0 0 10 0 0 0 0 48 38 8 112 2 21 11 17 15 17 16 0 68 22 0 0 60 0 0 0 96 0 22 37 0 0 0 0 68 0 0 0 4 17 0 12 61 0 4 22 0 0 28 0 0 0 11 11 7 0 0 0 0 2 0 6 0 0 0 0 19 0 0 0 0 0 41 255 54 0 0 26 25 0 0 43 2 0 3 17 6 0 0 11 1 8 7 0 0 13 14 0 0 14 0 0 0 10 24 22 51 0 0 29 41 0 0 9 11 0 0 0 80 123 0 2 64 0 0 14 0 0 22 0 14 0 4 4 4 0 0 0 3 0 0 0 8 0 0 10 0 44 11 0 2 0 0 0 66 0 0 0 22 22 17 0 2 16 25 7 0 0 0 3 0 6 11 0 0 0 18 0 27 0 0 4 1 0 9 6 37 0 52 0 0 40 0 17 0 72 0 20 53 204 0 0 15 0 32 25 46 0 0 30 0 111 104 10 0 0 0 0 20 0 0 0 0 8 20 22 0 8 0 0 0 2 18 35 0 0 201 65 45 0 20 45 44 0 0 23 19 12 8 3 9 7 0 9 3 1 19 16 0 0 18 13 1 0 0 0 37 0 0 72 27 0 0 58 36 0 8 16 10 13 0 0 0 20 16 49 7 0 0 0 32 10 0 0 10 8 7 0 3 3 11 0 0 0 0 0 0 0 4 9 0 0 0 69 6 13 69 0 207 0 0 0 0 9 0 0 0 0 0 8 0 0 27 14 1 3 17 12 1 0 5 3 0 0 5 11 0 3 0 12 14 7 0 9 0 3 11 0 3 5 0 0 0 0 0 15 25 13 0 0 11 0 0 0 0 0 0 21 0 8 7 0 2 23 10 9 10 8 0 0 40 63 0 0 0 211 169 24 55 32 48 0 12 0 0 16 31 0 0 13 0 10 60 0 21 48 0 79 0 24 0 0 0 0 24 15 0 59 0 3 70 5 20 0 18 0 0 4 7 0 0 2 5 32 0 10 61 24 26 0 0 26 0 60 0 0 159 66 0 0 11 0 0 0 35 0 1 0 18 55 80 38 39 59 0 93 0 27 0 0 0 50 23 114 123 71 41 0 0 0 0 0 0 53 84 53 10 0 0 12 0 0 23 12 0 0 0 0 19 0 0 34 8 0 0 9 7 2 8 19 0 0 46 3 0 0 9 12 11 7 0 4 0 5 23 28 0 0 33 19 0 0 0 8 11 0 0 0 0 0 0 0 3 0 7 0 0 0 2 15 3 0 31 0 19 0 0 10 0 28 24 0 0 33 40 2 0 0 0 32 23 0 0 0 0 76 0 0 28 6 0 0 0 0 6 0 3 10 33 48 0 0 43 0 0 0 0 19 0 58 82 0 165 121 54 0 0 0 0 0 5 0 0 85 43 0 36 0 36 10 0 0 57 0 0 48 26 0 0 0 0 0 0 0 113 0 0 116 0 27 65 72 91 91 63 36 44 64 93 89 48 22 114 216 190 193 0 0 51 46 0 0 0 95 0 10 0 0 0 19 29 11 9 12 21 17 16 23 33 33 9 7 2 0 1 0 11 0 79 44 0 37 25 0 53 0 0 0 47 63 0 0 25 14 49 0 0 3 28 12 0 0 0 10 0 0 0 8 12 0 11 0 35 0 14 22 0 0 4 0 0 0 0 0 8 2 23 11 12 0 0 0 0 0 0 0 0 0 0 0 0 0 97 53 22 0 0 4 7 0 9 1 0 0 0 0 0 0 0 0 0 0 0 0 0 0 0 0 0 255
255 0 0 0 0 0 0 0 0 0 0 0 0 0 0 0 0 0 0 0 0 0 0 0 1 3 0 0 1 3 1 32 0 0 0 0 0 0 48 0 0 0 0 0 7 0 0 23 0 6 3 0 0 18 7 22 0 7 0 0 8 8 11 7 0 0 0 17 5 0 0 21 36 36 29 0 0 2 0 0 41 0 0 27 0 3 37 0 9 0 8 17 0 21 63 43 0 0 0 8 24 11 0 0 27 0 0 3 21 13 34 33 0 0 0 0 37 12 0 52 35 27 7 14 18 12 3 7 44 0 141 74 91 0 0 145 51 10 0 0 28 0 0 106 0 0 13 0 0 23 0 35 49 0 0 30 0 0 59 0 0 0 2 7 0 3 0 3 0 0 0 0 5 4 2 1 100 0 29 10 0 0 255 122 0 0 33 40 16 0 0 20 0 5 4 24 14 0 0 19 0 15 18 0 0 11 13 0 0 9 11 0 2 33 15 0 4 0 0 36 50 0 0 1 0 0 0 0 35 142 0 27 0 8 0 0 0 0 0 0 17 0 8 0 8 0 0 0 31 25 23 0 0 8 0 0 0 21 0 0 26 0 0 14 17 0 0 11 32 19 8 0 0 14 20 23 17 14 4 0 0 2 3 0 0 0 0 0 45 0 0 10 0 7 24 0 31 0 47 0 11 84 7 55 0 91 0 30 28 233 0 0 64 0 0 0 98 24 24 0 0 54 0 0 0 0 0 0 42 2 0 0 0 9 25 14 5 12 0 0 0 0 2 16 0 0 204 90 18 32 10 68 0 42 0 0 34 30 0 27 2 11 0 6 8 5 14 10 4 0 4 1 5 0 0 2 17 0 0 0 0 0 0 47 38 0 23 16 0 11 7 0 32 13 17 0 0 0 0 0 54 0 0 0 12 11 2 11 0 1 10 0 0 0 0 0 0 11 0 0 0 0 0 51 12 26 70 0 202 0 0 0 6 31 11 0 16 0 0 1 0 0 0 0 0 8 7 0 9 0 0 0 5 0 0 5 0 0 0 7 0 0 3 6 0 8 15 0 0 1 7 2 0 5 7 9 11 12 0 0 0 0 0 0 0 0 0 0 0 0 0 0 0 11 2 0 0 19 0 0 79 0 0 0 142 250 0 0 70 0 0 68 0 2 0 0 0 16 9 0 24 0 59 0 0 33 0 0 0 24 0 0 0 0 33 24 0 50 0 0 69 14 15 0 28 6 0 8 13 0 2 34 0 10 0 0 31 29 78 50 0 0 0 0 0 51 136 161 23 0 21 0 58 0 16 10 0 52 39 0 0 91 125 33 0 133 0 126 53 0 0 0 0 49 82 35 64 85 27 58 0 0 0 0 5 0 0 0 7 0 0 19 6 0 16 16 11 15 45 35 9 27 0 0 2 0 4 4 0 6 10 0 0 0 0 2 9 16 12 14 0 6 0 0 3 0 0 0 19 14 1 0 0 14 10 1 31 8 2 9 20 16 19 24 0 4 5 10 8 8 7 7 4 0 48 0 0 36 0 42 0 0 0 20 19 0 0 0 3 0 0 0 15 41 0 16 0 0 12 28 0 0 1 37 0 0 0 0 7 51 29 38 0 7 98 16 0 0 0 30 85 0 93 95 200 0 0 0 0 54 108 0 0 4 58 0 48 12 102 46 0 6 65 0 0 151 0 107 0 4 106 71 0 0 80 0 0 81 0 13 0 0 0 12 0 0 0 50 0 85 83 0 21 158 24 0 0 0 0 0 0 0 180 0 10 14 0 0 0 0 24 16 0 7 17 0 0 11 15 0 15 3 0 0 2 0 6 0 0 14 0 170 0 0 0 0 0 10 18 46 0 0 40 0 49 0 0 9 19 12 0 0 0 13 0 0 0 20 11 0 4 4 48 0 44 57 0 0 9 1 8 0 0 0 0 0 2 0 0 0 0 0 0 0 0 0 0 0 0 64 130 81 40 21 0 0 0 10 14 0 8 0 0 0 0 0 0 0 0 0 0 0 0 0 0 0 0 0 0 255
255 0 0 0 0 0 0 0 0 0 0 0 0 0 0 1 2 2 1 0 1 2 3 6 7 0 2 5 6 0 14 68 20 67 0 0 2 0 100 8 0 0 0 0 0 0 0 14 0 4 0 0 0 14 19 13 0 0 0 0 0 5 4 8 29 0 0 25 10 0 0 45 0 0 0 0 7 25 21 0 32 0 14 25 0 0 15 0 27 0 21 7 0 6 60 44 0 6 0 0 23 0 0 7 52 0 0 0 24 14 0 0 3 4 0 0 34 6 0 15 0 0 0 15 19 0 0 0 0 0 24 0 0 0 0 70 0 62 0 0 51 0 0 65 0 0 51 0 0 0 0 76 107 0 21 84 0 0 98 0 0 0 0 5 18 38 23 40 0 0 0 0 0 3 0 0 0 45 93 0 0 255 196 0 16 26 0 0 0 57 58 0 0 0 0 13 0 0 0 14 0 5 18 0 0 20 12 0 0 23 30 0 13 53 16 0 0 0 32 31 0 0 0 2 0 35 89 0 68 179 0 105 0 73 7 0 32 46 0 0 30 9 11 4 1 0 0 0 0 12 0 0 0 49 5 0 0 11 0 0 59 0 0 117 22 12 22 0 0 0 4 3 0 13 0 0 0 0 0 0 38 15 31 64 49 12 0 0 88 34 32 3 0 0 6 0 22 0 47 0 0 43 0 0 0 84 0 6 0 226 0 0 7 0 53 0 90 81 103 0 0 10 0 0 46 0 44 0 10 4 14 10 15 22 0 0 0 12 11 17 8 0 0 0 0 0 107 63 0 31 0 126 0 35 0 0 37 0 0 25 1 1 5 0 0 0 0 0 28 17 0 0 0 0 0 8 0 51 96 73 57 102 104 56 26 8 53 49 0 3 23 0 44 10 28 41 53 3 0 0 0 0 0 11 4 0 0 17 0 0 0 0 0 0 10 3 0 0 0 0 37 37 35 39 4 0 37 0 189 8 0 14 0 13 2 2 26 15 0 11 17 3 15 8 18 35 30 0 26 14 15 16 11 10 0 13 0 4 0 0 1 6 11 30 0 22 7 0 0 1 23 34 0 0 0 0 0 6 11 0 14 21 31 34 26 17 15 19 5 8 0 0 10 34 16 0 0 72 0 0 44 0 0 53 255 0 58 0 0 67 0 2 0 39 39 0 0 34 18 0 0 0 44 0 26 87 0 21 0 50 10 35 26 0 29 14 0 66 0 19 42 0 0 0 0 0 0 0 0 0 0 5 0 40 0 0 14 0 39 61 0 0 85 0 0 30 7 116 0 37 207 0 0 0 86 0 0 80 41 0 0 43 8 0 0 115 0 81 70 84 70 139 0 48 40 0 19 101 83 69 0 0 0 0 0 5 80 94 56 0 8 56 0 0 2 0 0 0 35 28 0 0 0 45 42 0 34 17 0 5 27 14 0 7 13 8 0 0 0 0 14 20 6 0 0 0 2 0 0 2 14 7 0 12 8 0 11 1 0 0 0 13 7 9 0 7 15 15 5 0 24 39 0 16 57 0 0 61 5 7 0 17 39 23 9 20 5 0 0 32 22 0 12 0 0 44 40 0 0 12 0 0 0 37 0 3 0 0 0 46 34 56 0 0 0 0 37 127 0 60 70 91 124 0 81 175 183 0 75 52 0 0 0 42 1 0 112 0 0 238 147 0 0 0 182 46 0 127 106 0 8 59 56 0 56 0 0 103 0 27 69 0 0 0 32 44 14 26 54 0 0 56 95 0 0 0 46 0 49 54 0 0 0 0 19 4 0 0 0 0 34 29 0 19 23 0 0 9 3 0 32 11 0 0 0 0 14 12 0 40 0 95 0 0 255 255 0 70 0 0 47 0 53 0 42 0 0 0 18 18 0 0 17 30 25 5 6 27 14 0 0 0 20 0 36 58 0 0 13 8 25 16 4 0 0 0 12 0 8 22 32 62 63 0 84 62 136 133 88 48 4 0 0 0 4 2 10 0 0 0 5 0 0 0 0 0 0 0 0 0 0 0 0 0 0 0 0 0 0 255
255 0 0 0 0 0 0 0 0 0 0 0 0 0 0 2 0 0 2 0 2 0 0 2 0 4 5 0 0 13 24 26 0 0 0 41 94 54 18 0 0 0 21 0 0 0 0 12 2 9 5 0 0 0 0 0 3 7 5 3 10 4 0 11 0 0 38 58 0 0 60 43 0 0 0 10 19 29 0 0 15 0 0 0 0 0 4 0 5 0 0 0 11 2 0 16 0 0 0 0 2 15 5 0 47 33 30 15 0 0 0 0 8 4 27 33 23 3 0 0 0 0 11 9 29 35 25 13 61 66 0 0 101 82 38 176 0 38 4 0 86 0 94 5 40 34 0 0 10 32 0 0 0 0 0 0 0 19 45 88 2 17 21 0 0 0 0 6 0 0 0 0 5 2 7 32 0 134 0 0 55 255 0 53 11 5 8 13 10 0 0 0 62 44 28 1 0 0 3 0 31 12 0 0 0 0 0 8 0 0 0 10 3 0 0 13 0 57 63 8 0 51 50 5 0 25 68 0 0 255 12 18 0 0 10 51 43 1 0 4 0 0 0 11 13 2 0 4 0 0 14 2 0 0 43 71 34 0 0 82 84 0 0 30 0 0 3 4 4 0 0 0 0 0 0 0 17 11 18 0 40 4 0 0 0 21 16 0 43 0 0 9 89 14 0 50 54 0 0 0 6 0 0 15 2 0 14 0 79 252 0 0 4 0 0 0 26 22 26 59 0 24 0 98 148 0 29 12 42 7 0 0 0 3 11 8 29 0 0 0 13 30 16 0 0 146 113 52 25 15 82 0 0 13 1 0 0 0 0 0 0 0 0 0 2 7 3 0 12 0 0 38 91 46 34 83 114 0 0 0 0 52 13 0 0 0 0 0 25 0 0 49 4 24 5 0 49 121 120 56 0 33 33 11 5 0 0 0 14 20 16 15 0 0 0 0 42 7 0 4 0 0 17 46 0 23 102 0 204 0 0 0 0 0 0 0 0 0 0 0 0 0 0 0 0 0 7 20 21 0 0 0 0 0 0 10 15 8 0 0 0 0 0 2 0 0 0 10 11 6 0 0 0 0 6 4 0 0 0 0 0 0 0 0 3 2 0 0 0 9 8 0 0 1 0 0 56 4 2 70 0 0 0 255 52 0 14 9 24 18 14 0 1 5 0 0 0 40 55 38 18 7 20 0 0 72 0 0 0 0 57 0 69 0 26 29 27 0 0 2 0 0 26 68 49 0 0 48 55 0 0 27 33 0 26 0 80 0 18 88 0 11 8 0 101 40 102 0 72 48 6 0 0 16 0 0 1 0 68 118 31 0 0 0 0 0 0 0 11 0 0 220 115 95 0 0 0 0 134 0 75 138 32 0 0 0 0 17 7 0 34 73 0 15 54 0 38 8 0 1 13 11 21 32 0 0 0 0 0 23 23 0 29 5 0 9 21 24 19 0 0 0 0 41 33 19 0 0 6 0 0 6 15 17 0 0 23 0 0 42 61 0 0 3 2 0 4 0 0 0 0 0 0 17 38 9 0 0 0 0 15 0 0 41 0 0 0 56 0 0 8 0 0 34 14 0 0 5 45 0 0 16 51 0 37 3 21 23 38 29 38 87 32 0 0 29 42 25 0 0 0 63 0 0 198 0 141 94 0 0 40 72 65 72 87 120 0 0 0 31 116 35 0 38 0 0 116 12 76 76 0 68 51 0 0 54 0 0 15 87 0 1 45 35 6 0 0 0 0 66 131 42 0 0 0 16 130 0 0 0 47 0 0 20 8 9 25 6 0 0 0 0 0 0 0 0 0 1 22 18 0 0 3 8 17 5 14 10 0 138 0 0 0 82 248 255 0 0 112 9 52 0 0 38 15 11 30 35 21 7 0 0 0 0 5 35 0 0 54 10 1 63 0 0 44 0 0 6 6 0 0 10 22 8 0 0 0 12 0 0 27 0 0 0 200 79 42 18 9 8 8 12 13 11 6 2 3 4 5 3 1 0 0 0 0 0 0 0 0 0 0 0 0 0 0 0 0 0 0 255
255 0 0 0 0 0 0 0 0 0 0 0 0 0 0 3 0 0 3 0 3 0 0 6 0 6 6 0 1 23 22 45 0 0 0 33 63 0 0 51 21 37 44 15 0 0 0 0 8 7 9 0 0 0 0 4 0 0 0 0 0 9 0 0 41 0 18 30 0 0 16 0 20 5 0 0 0 8 1 8 0 16 5 12 15 8 0 0 0 0 0 0 14 12 10 9 0 1 0 0 0 0 0 0 0 0 0 0 0 0 0 0 0 0 0 8 10 9 0 16 0 0 0 1 10 14 0 0 3 27 0 0 54 16 0 95 0 54 47 0 46 0 85 75 0 37 29 0 6 0 0 28 0 0 0 0 0 0 0 0 0 0 5 1 0 0 0 24 0 0 3 2 0 0 2 22 0 39 0 0 160 176 0 0 7 0 0 0 0 0 0 0 1 0 4 10 0 0 0 0 19 12 0 3 8 0 0 12 0 0 0 15 18 5 0 0 0 28 48 0 0 2 11 0 51 0 0 0 0 205 40 13 24 15 19 0 0 0 0 0 27 0 0 10 11 0 0 17 26 32 33 17 0 0 0 2 0 3 5 9 0 0 0 1 0 0 0 0 13 8 3 5 4 5 9 12 6 0 0 0 24 9 0 0 0 0 8 0 0 36 17 0 26 29 0 0 3 0 5 32 45 27 23 68 12 32 65 0 66 224 0 0 0 0 0 5 4 3 0 0 0 21 0 9 52 0 2 0 7 13 19 2 0 4 9 15 11 11 0 0 2 0 2 0 0 115 69 33 20 10 90 0 0 3 0 3 0 5 18 23 0 0 5 3 3 1 11 1 8 0 0 50 55 33 32 59 0 21 28 16 0 0 0 38 29 86 43 0 17 61 51 7 0 0 33 49 50 15 0 0 0 9 17 10 1 2 10 15 0 8 10 9 0 0 5 12 16 0 0 0 3 0 0 58 0 17 68 0 198 0 0 0 12 0 9 13 0 0 7 0 18 0 16 6 0 0 17 4 15 5 6 7 12 3 5 8 11 10 0 0 3 0 0 0 20 6 0 0 0 0 0 3 0 0 10 11 5 0 0 0 6 0 0 0 7 10 1 0 2 22 10 0 12 17 16 6 46 0 41 0 0 0 255 28 33 22 11 0 6 9 0 0 9 6 0 0 0 1 0 0 0 0 25 0 2 82 0 40 0 0 0 17 0 9 2 53 19 0 5 57 28 4 19 0 35 0 0 14 16 0 0 0 80 9 55 0 48 0 0 6 0 0 0 0 105 5 24 0 144 0 0 0 31 10 0 21 27 0 0 0 0 0 23 19 22 0 0 0 0 0 0 0 0 126 202 3 43 127 27 13 89 87 15 99 97 0 0 0 0 8 0 0 26 37 0 0 4 0 0 0 0 0 16 39 0 0 22 36 0 13 41 0 3 15 13 23 11 0 0 0 39 18 10 0 0 0 0 0 0 0 0 0 2 1 0 0 21 0 0 8 0 0 0 0 22 0 11 0 2 0 0 0 11 13 21 0 0 0 3 0 14 7 14 35 0 0 0 18 0 0 0 6 20 17 17 25 65 4 0 28 15 0 0 0 1 0 0 0 0 0 0 16 30 0 0 0 0 17 29 0 0 29 255 156 168 29 42 88 0 0 0 0 0 0 0 0 43 0 0 0 0 27 77 143 0 0 65 0 0 120 0 58 149 48 49 14 0 57 81 0 0 26 25 0 0 0 0 0 82 74 49 0 0 0 28 2 83 85 29 0 0 17 22 0 15 2 0 0 0 0 21 23 2 0 2 0 0 0 0 0 4 6 11 5 8 5 2 14 34 0 0 0 126 191 70 195 221 0 6 0 108 52 0 9 0 0 13 33 45 28 9 10 15 0 14 32 0 0 33 3 0 2 0 16 93 6 0 10 10 7 0 0 0 5 42 72 0 56 41 0 0 0 1 2 85 4 0 0 0 0 0 0 0 0 0 0 0 0 0 0 0 0 0 0 0 0 0 0 0 0 0 0 0 0 0 0 0 0 0 255
255 0 0 0 0 0 0 0 0 0 0 0 0 0 0 3 0 0 3 0 3 0 0 3 0 4 4 0 8 31 19 10 0 23 12 0 0 0 0 0 48 37 26 1 0 0 0 0 0 0 3 0 0 0 0 0 0 0 6 7 0 3 0 0 35 0 0 22 10 23 27 0 46 28 8 0 3 10 13 48 0 0 0 7 12 8 0 11 0 0 0 0 0 8 12 3 35 26 29 16 0 0 0 24 0 0 11 6 0 0 0 0 0 0 0 11 14 12 5 20 0 0 0 0 4 13 0 0 0 12 0 0 43 0 0 18 0 18 28 0 22 0 51 64 0 26 36 2 16 0 0 37 0 21 0 4 4 0 0 0 0 3 10 5 0 0 5 3 16 5 0 0 9 2 0 19 9 0 0 208 250 41 10 0 23 5 6 1 4 7 7 9 0 1 2 11 8 0 0 0 0 5 9 10 15 2 2 12 0 0 0 0 5 7 1 7 0 13 6 0 0 0 0 0 27 0 0 6 0 0 128 9 39 37 20 0 0 0 15 10 27 3 4 0 2 0 0 21 0 0 0 0 0 0 0 19 0 38 36 0 0 36 30 0 2 0 0 0 4 2 15 14 0 8 15 8 9 0 0 0 29 36 36 0 0 0 20 43 0 60 48 0 0 0 0 3 0 5 43 28 12 10 23 56 0 0 45 0 36 232 0 0 0 3 10 17 0 0 0 0 8 40 0 0 17 0 0 0 0 9 29 15 0 0 3 19 0 5 8 5 0 0 0 0 0 114 55 24 12 13 83 0 0 0 0 2 0 0 10 18 4 0 0 6 7 9 4 1 0 0 23 77 89 74 53 95 31 37 53 76 88 92 80 52 0 9 2 0 0 0 0 0 0 0 9 48 0 0 0 55 0 0 0 0 0 0 0 1 0 8 9 15 6 6 10 12 22 0 0 17 1 0 0 31 8 22 60 0 168 0 0 0 13 0 0 10 1 1 12 0 23 0 16 10 0 0 0 0 11 1 2 4 3 0 2 0 5 0 0 2 0 0 0 0 32 9 0 0 0 0 0 6 0 6 0 2 4 0 3 0 6 0 0 0 12 0 4 7 0 17 15 0 15 26 4 8 0 68 0 0 0 202 223 0 36 11 19 0 0 5 0 0 0 11 4 7 21 33 12 0 0 0 42 0 0 57 0 53 0 40 0 46 0 59 0 70 0 0 6 29 3 5 8 0 47 16 5 0 0 0 0 0 25 0 26 0 45 0 54 18 82 0 0 0 133 36 0 0 92 0 0 0 4 0 0 11 0 0 41 1 0 0 0 136 0 51 207 59 112 68 0 0 0 0 89 0 0 201 0 125 0 0 105 218 122 0 69 42 0 0 0 0 17 40 16 35 16 17 8 3 0 0 7 34 61 64 79 24 0 0 0 0 0 27 33 7 0 0 0 0 62 19 3 0 0 0 0 1 0 3 0 0 0 0 0 12 0 21 28 0 0 0 0 0 21 2 15 5 4 0 1 0 43 20 4 0 0 3 7 0 34 34 14 20 0 0 0 13 9 0 0 30 35 0 0 33 63 0 0 11 24 0 0 20 17 0 0 1 13 5 14 16 43 32 33 0 0 32 60 0 53 0 0 0 0 208 101 90 0 0 0 50 96 65 7 0 33 28 3 0 0 17 50 46 64 116 0 0 0 37 0 0 0 0 0 0 0 0 7 0 7 0 0 0 83 146 41 0 92 36 0 0 0 19 35 28 62 140 119 0 0 17 38 0 0 5 0 3 0 3 18 19 15 0 7 2 0 0 0 0 13 12 13 12 0 0 0 0 0 0 0 76 250 92 24 77 255 0 23 0 0 16 0 9 0 0 6 7 20 22 15 25 9 0 9 22 0 0 30 0 31 0 0 0 35 0 0 49 0 0 36 24 0 0 0 12 0 0 0 33 0 0 0 126 28 2 0 0 0 0 0 0 0 0 0 0 0 0 0 0 0 0 0 0 0 0 0 0 0 0 0 0 0 0 0 0 0 0 0 255
255 0 0 0 0 0 0 0 0 0 0 0 0 0 0 3 0 0 3 0 2 0 0 1 2 4 0 3 11 35 0 0 0 51 56 0 0 34 46 0 20 0 0 0 0 0 0 0 0 0 0 0 0 0 0 14 0 0 10 5 1 2 0 0 20 0 0 1 10 9 3 0 0 0 0 1 11 19 9 24 0 0 0 0 0 0 1 19 0 0 0 2 8 13 15 0 33 18 20 18 20 19 22 33 38 55 60 45 13 0 0 4 17 16 17 25 16 4 0 0 0 0 0 0 0 5 1 0 1 8 0 6 19 0 0 0 13 0 0 0 51 0 27 0 0 16 0 0 10 28 0 44 0 18 28 26 26 21 11 17 0 17 7 4 0 0 13 2 20 7 0 2 2 6 0 32 18 0 0 255 88 0 8 17 16 5 5 6 0 1 1 14 5 2 7 4 0 5 0 20 0 0 0 3 0 0 0 0 0 0 0 0 6 6 3 9 0 0 0 0 6 1 3 0 38 36 24 0 0 0 246 0 32 29 31 0 0 22 35 0 7 0 3 0 0 1 0 16 0 0 0 0 0 2 2 21 0 28 22 0 0 30 40 0 25 8 5 10 0 0 0 0 0 0 0 14 5 5 8 0 0 4 22 0 0 0 9 26 21 20 0 4 21 0 0 104 0 24 46 0 0 0 0 0 0 0 28 0 34 239 0 0 0 0 21 12 15 15 4 8 2 36 0 0 0 4 15 1 0 0 9 0 0 0 0 0 0 0 0 0 0 1 20 0 0 138 56 23 12 14 91 0 0 7 9 8 10 0 0 1 1 0 9 3 12 16 0 10 0 0 13 29 38 0 0 0 0 0 0 0 25 33 10 0 82 0 28 47 0 0 7 0 78 41 35 20 0 0 0 28 0 0 1 0 0 0 0 0 0 0 0 0 0 0 3 8 27 0 0 25 9 0 0 63 10 28 77 0 145 0 0 0 2 0 0 4 2 1 15 0 20 0 6 0 0 0 0 0 5 0 0 0 7 0 1 0 9 7 0 0 3 0 0 0 22 11 5 0 1 4 0 3 0 0 3 6 0 1 1 5 3 0 0 0 2 0 0 0 0 10 2 0 3 13 0 0 4 71 0 0 254 141 0 19 10 0 7 0 0 11 23 37 0 4 2 12 30 29 23 13 0 18 48 0 0 27 0 4 2 32 0 15 0 37 0 26 0 0 0 0 0 13 22 0 21 22 18 0 0 18 12 0 0 0 3 0 46 22 89 19 117 0 0 56 42 47 0 59 6 0 0 0 0 9 19 0 2 0 41 34 0 0 0 61 0 0 185 14 50 26 109 15 0 0 0 0 0 65 0 12 131 49 0 7 36 65 105 0 98 0 0 8 0 0 97 68 31 19 0 0 0 0 0 0 61 1 0 0 0 21 59 18 10 10 0 0 0 34 25 0 11 0 0 1 0 0 1 1 6 4 0 1 0 0 15 40 0 6 16 8 0 0 22 27 6 0 5 0 0 11 5 0 72 32 0 0 0 11 0 0 31 44 15 0 0 0 28 39 11 0 0 28 19 0 0 2 0 7 0 0 0 47 51 0 43 5 3 10 6 25 22 32 14 7 33 0 0 0 45 0 140 0 0 0 0 129 69 153 43 0 0 0 0 5 59 81 57 0 0 42 23 0 0 0 47 102 0 33 136 71 95 16 40 46 100 97 30 22 83 134 0 58 70 0 0 0 120 255 0 0 0 0 24 12 3 3 0 0 39 56 28 0 0 25 0 0 0 3 0 0 6 0 16 14 19 17 27 10 10 0 15 3 5 3 0 0 2 0 0 4 47 17 61 42 0 23 255 0 0 119 0 54 0 28 22 0 0 0 0 0 11 38 22 7 17 23 9 12 28 24 16 0 0 0 20 0 0 43 0 0 33 16 0 0 0 0 37 0 11 22 0 0 56 69 10 1 0 0 0 0 0 0 0 0 0 0 0 0 0 0 0 0 0 0 0 0 0 0 0 0 0 0 0 0 0 0 0 0 0 255
255 0 0 0 0 0 0 0 0 0 0 0 0 0 0 3 0 0 3 0 1 4 0 0 2 0 0 14 11 31 0 0 18 0 0 25 60 0 3 85 20 8 0 0 3 1 9 15 0 12 20 18 7 9 18 50 2 11 12 1 4 0 0 0 20 8 0 0 0 0 0 0 0 0 0 0 14 7 0 0 0 0 0 0 0 2 6 8 8 10 21 14 22 9 8 0 9 0 0 8 25 27 22 0 33 7 0 5 18 25 31 36 12 19 18 13 14 4 0 0 30 7 0 0 1 8 6 5 5 0 3 3 0 11 0 0 49 0 29 0 73 17 32 0 0 15 0 0 24 35 0 50 0 0 0 0 0 0 6 3 0 14 7 0 0 3 8 0 0 0 0 0 6 7 4 27 2 0 65 255 0 1 0 30 7 2 7 4 5 0 8 3 6 8 0 0 0 0 9 34 0 0 0 0 0 0 0 9 0 0 0 0 0 5 0 13 0 0 0 6 26 5 0 0 129 40 0 0 0 0 237 0 21 0 13 4 28 47 31 0 0 0 3 0 4 7 0 0 34 25 32 20 10 10 0 0 0 10 0 0 0 0 2 0 35 15 4 3 1 3 0 0 0 0 0 0 7 10 13 40 0 0 0 0 0 0 0 0 0 0 0 0 40 0 0 104 0 37 36 0 0 4 0 0 64 39 73 0 71 253 0 0 0 0 0 0 3 19 1 0 0 33 25 0 0 31 1 2 7 0 0 0 1 19 5 0 1 0 0 0 8 25 5 0 0 158 81 38 12 0 85 0 0 12 4 13 17 0 0 0 0 0 0 0 8 2 0 4 10 0 0 0 0 0 0 0 0 0 24 1 0 0 0 0 77 0 40 66 0 0 62 51 51 58 48 46 32 5 0 0 0 0 10 27 24 25 8 16 0 0 0 0 0 0 0 0 16 0 0 29 4 0 0 58 23 18 86 0 113 0 0 0 7 0 1 0 0 0 6 0 21 0 7 0 3 0 9 0 1 0 5 2 15 11 1 1 15 10 2 2 10 5 3 0 0 0 6 15 12 9 2 0 0 2 9 5 6 0 0 2 8 5 0 0 4 5 7 13 0 7 5 0 3 13 0 0 125 0 0 154 129 6 39 63 1 0 9 0 0 1 2 33 0 5 0 0 0 0 0 0 16 23 30 0 0 50 0 0 0 0 33 0 35 0 26 0 14 7 24 0 0 31 56 0 8 31 18 0 0 19 20 0 22 0 44 0 45 0 20 0 57 0 0 41 0 41 0 51 21 67 72 0 0 0 17 0 95 0 0 2 45 74 18 0 0 0 122 0 78 90 255 119 255 32 59 0 0 0 0 252 21 46 0 0 0 11 108 19 132 0 0 58 0 0 14 52 0 0 0 0 0 13 20 3 0 0 0 0 1 40 21 0 9 12 0 0 3 43 37 0 1 0 0 11 11 9 2 0 17 14 12 9 0 7 9 39 0 0 0 11 4 0 0 1 2 0 6 6 7 6 6 1 37 13 0 0 2 14 7 0 15 16 0 0 0 0 4 21 0 8 16 3 3 19 0 0 0 34 39 0 0 18 20 0 13 0 0 0 0 0 0 0 0 0 42 45 0 0 5 4 38 0 34 28 0 0 57 99 82 0 0 0 41 22 0 0 115 6 0 0 0 0 0 0 0 74 17 100 35 0 86 125 0 48 66 43 0 0 0 89 69 0 0 0 125 214 46 0 0 0 0 0 3 0 0 0 0 0 0 49 47 0 0 49 0 0 0 0 0 0 0 0 4 1 10 13 17 22 18 20 0 3 4 2 0 0 4 0 45 58 0 0 11 79 23 0 255 0 0 75 90 133 0 0 46 8 0 0 0 0 0 1 23 18 0 0 12 16 0 15 0 4 43 36 7 0 8 0 42 12 0 0 0 6 57 74 46 47 27 0 0 80 113 0 5 0 0 0 0 0 0 0 0 0 0 0 0 0 0 0 0 0 0 0 0 0 0 0 0 0 0 0 0 0 0 0 0 0 0 255
255 0 0 0 0 0 0 0 0 0 0 0 0 0 0 3 0 0 4 1 0 3 0 0 3 0 0 7 14 23 0 0 0 0 0 0 32 0 0 33 31 11 0 0 0 0 0 0 0 0 18 10 0 0 15 35 10 7 0 0 0 0 0 2 0 15 0 0 24 4 0 19 0 0 0 0 0 0 0 10 0 0 4 4 6 0 0 0 0 0 0 5 5 0 0 0 7 0 0 0 23 28 4 0 52 0 0 0 4 31 32 31 0 4 12 3 13 15 4 4 31 6 0 0 15 9 5 0 23 0 0 18 0 15 30 0 0 0 99 0 34 0 0 42 0 38 48 23 30 0 0 28 0 0 0 0 0 0 0 0 0 9 14 0 0 13 16 0 0 0 0 0 0 0 0 24 0 0 255 171 0 118 0 0 0 0 0 0 3 0 5 4 9 2 0 0 0 0 10 35 0 9 0 0 0 0 0 24 0 0 0 0 0 8 11 7 1 0 3 12 16 3 0 0 45 0 0 61 0 0 55 173 60 0 0 0 0 13 12 4 0 0 4 0 12 4 0 0 10 7 9 9 3 5 2 0 25 0 0 23 15 0 0 0 9 0 0 2 0 4 13 16 10 17 0 0 0 0 8 24 10 6 0 8 24 17 0 20 0 25 17 0 31 69 19 0 0 0 0 0 0 22 33 19 50 5 32 0 81 213 0 0 8 0 0 0 7 8 0 0 5 15 56 0 1 41 0 7 29 14 0 0 5 28 17 0 30 11 0 0 1 8 0 0 0 147 92 32 1 0 73 0 0 0 0 18 18 2 0 13 0 0 3 0 0 4 0 0 0 0 0 0 0 0 15 30 39 39 45 30 4 0 15 0 0 6 34 31 0 34 30 26 31 7 0 0 0 36 10 0 0 0 0 0 14 17 10 14 1 0 4 8 2 2 1 6 0 0 0 7 0 0 1 51 41 0 78 0 90 0 0 0 8 0 0 0 6 0 6 0 20 0 0 3 3 7 10 0 8 0 0 0 8 0 3 3 0 2 0 1 6 8 0 1 0 0 3 16 19 14 6 0 0 8 0 0 0 0 6 5 11 8 0 0 11 0 0 0 10 19 12 0 10 23 3 0 0 0 0 255 0 0 136 0 19 9 20 0 0 0 0 7 0 0 0 0 0 0 0 52 0 0 20 0 9 90 0 59 0 0 49 0 64 0 61 0 71 19 31 0 0 14 39 0 0 16 10 0 0 27 28 0 32 0 43 0 54 0 5 0 1 0 0 53 0 53 0 4 70 19 59 80 20 0 0 20 30 0 5 24 0 12 34 0 0 19 36 23 0 0 53 0 76 17 202 255 0 0 0 0 0 0 121 94 7 0 65 143 39 74 32 33 0 0 0 0 17 9 0 12 12 43 19 3 27 18 46 29 0 6 0 0 0 27 23 2 0 0 22 8 9 0 0 0 0 0 2 0 1 0 4 5 0 0 0 24 0 0 0 25 33 3 0 32 0 0 0 0 15 14 3 14 0 0 0 0 4 1 0 6 38 19 0 0 0 0 0 15 0 9 30 6 3 47 38 0 0 0 0 46 17 0 0 32 0 0 0 0 0 0 0 0 32 0 39 75 0 0 0 0 74 77 0 0 0 98 157 35 52 0 1 73 114 66 4 0 29 64 47 0 0 57 72 0 0 77 0 0 0 0 1 0 0 0 0 0 0 0 0 0 0 71 255 236 56 0 0 0 0 0 0 0 0 0 0 0 0 0 0 0 0 0 0 0 0 0 0 0 0 0 0 0 0 0 0 0 0 0 5 7 0 0 0 0 0 5 15 0 2 0 0 0 57 73 0 0 167 229 0 0 0 17 33 0 19 4 27 20 17 3 0 0 0 15 0 0 14 0 0 0 7 0 0 0 0 0 0 0 15 0 0 5 15 1 0 0 0 0 0 0 65 107 38 16 5 0 0 0 0 0 0 0 0 0 0 0 0 0 0 0 0 0 0 0 0 0 0 0 0 0 0 0 0 0 0 0 0 0 0 255
255 0 0 0 0 0 0 0 0 0 0 0 0 0 0 4 0 1 0 2 0 3 0 0 2 0 3 10 16 9 0 0 0 61 73 0 0 55 48 0 30 10 0 0 0 0 0 10 0 0 0 0 0 0 0 2 8 12 4 0 0 4 1 23 0 0 0 0 60 38 17 84 44 26 8 6 4 8 14 11 0 0 18 17 23 2 0 0 1 0 7 5 0 0 0 0 19 5 0 8 13 18 1 0 48 23 21 11 13 4 2 0 0 0 0 0 10 8 12 9 20 0 0 0 14 13 2 0 17 0 15 22 0 4 47 0 0 0 98 0 0 0 0 35 0 32 30 2 14 0 0 27 2 17 17 3 5 2 0 3 0 23 21 0 0 12 12 0 0 0 0 9 13 11 0 14 0 0 255 65 0 96 0 0 0 0 6 8 14 3 0 4 2 1 0 0 11 13 14 15 0 6 20 4 3 0 0 19 0 8 0 0 0 0 0 7 0 10 12 2 8 4 2 20 0 1 77 72 19 0 0 255 91 0 0 5 0 0 0 45 0 0 3 0 0 14 13 0 0 0 0 0 0 10 14 2 16 0 8 16 13 0 0 0 5 0 1 0 10 5 2 1 3 10 2 0 0 0 0 0 49 21 8 38 28 30 8 44 0 52 30 0 13 54 15 0 0 0 0 0 0 0 4 38 0 0 0 0 61 161 0 0 15 7 1 0 0 0 0 0 0 0 56 0 0 45 0 32 0 1 3 0 9 26 13 0 8 14 3 0 0 0 0 0 0 134 96 39 8 0 66 0 0 0 0 14 11 0 0 20 0 0 0 0 5 0 7 0 0 0 1 0 10 69 78 84 25 0 0 0 5 48 7 0 77 70 46 31 49 58 55 42 52 0 0 0 0 4 31 56 0 0 0 0 0 0 0 0 10 8 3 4 1 0 5 9 0 0 12 0 0 0 17 37 56 0 47 8 106 0 0 0 18 0 0 0 2 7 0 0 18 0 0 0 0 0 1 0 7 0 0 0 3 0 0 7 0 0 0 0 10 3 0 0 2 0 0 0 0 0 0 1 0 0 1 0 0 0 2 3 3 2 0 0 12 8 0 0 0 17 14 4 9 6 0 0 0 0 139 111 33 33 11 0 5 14 24 3 0 0 0 0 0 0 0 11 31 25 36 106 0 0 36 0 7 73 0 59 0 0 18 0 3 16 28 0 39 0 6 0 0 0 10 0 0 0 0 1 0 3 9 0 19 0 9 0 61 0 22 52 0 34 0 22 71 55 0 20 40 0 20 72 51 0 0 0 0 0 61 44 0 0 19 57 0 123 81 197 100 8 87 63 59 0 30 93 66 117 61 0 0 116 0 0 94 53 0 0 0 101 78 46 81 0 0 0 0 36 45 28 9 10 4 0 0 0 16 10 0 40 91 92 0 2 7 8 0 0 0 0 6 0 0 1 0 0 0 0 0 1 0 0 0 0 0 12 0 0 0 6 26 36 39 38 3 1 0 0 9 8 0 18 0 0 0 0 0 0 3 20 38 14 0 0 19 0 0 15 14 4 1 0 0 9 19 22 0 0 0 35 19 0 0 61 26 6 0 2 8 8 13 0 14 0 39 35 0 24 21 0 0 45 131 31 0 167 0 66 130 0 0 0 0 0 19 76 0 50 104 4 0 71 68 0 49 3 0 0 22 127 150 11 0 119 68 15 110 160 91 102 114 86 16 0 0 0 0 61 0 17 18 0 0 0 0 0 22 27 7 0 0 12 12 0 4 0 0 4 6 0 5 0 0 0 0 0 0 0 0 0 0 0 0 0 0 2 2 0 0 0 0 20 61 16 0 32 32 255 0 0 0 0 18 0 9 5 2 8 5 0 0 0 0 22 0 0 24 8 0 0 56 0 0 4 0 0 0 0 0 0 29 42 29 0 0 0 0 0 0 129 96 31 0 10 7 0 0 0 0 0 0 0 0 0 0 0 0 0 0 0 0 0 0 0 0 0 0 0 0 0 0 0 0 0 0 0 0 0 0 255
255 0 0 0 0 0 0 0 0 0 0 0 0 0 0 3 0 0 0 2 0 3 0 0 1 1 3 18 25 11 0 0 0 0 24 15 9 25 41 25 12 0 0 0 0 0 0 61 0 0 1 10 0 0 0 0 0 0 0 0 0 0 0 0 0 0 0 0 59 33 0 0 16 0 0 4 23 17 0 0 38 22 6 0 0 0 44 48 42 41 35 30 9 14 48 68 4 24 41 22 5 0 0 21 0 0 7 13 0 0 5 10 23 3 11 0 10 0 5 0 23 1 0 0 30 30 5 0 6 0 25 43 0 20 58 0 94 0 73 0 31 27 0 0 19 13 0 0 29 54 17 37 1 11 25 13 22 15 12 18 0 16 4 0 0 16 7 0 0 0 1 12 16 8 0 0 0 0 255 47 0 0 0 50 0 0 14 15 18 5 0 0 0 0 0 4 19 19 0 0 0 0 0 0 15 4 0 2 0 0 0 0 5 3 0 0 0 15 16 13 33 57 67 67 0 12 13 0 75 0 0 147 147 0 28 58 27 0 0 39 0 29 26 0 0 2 7 0 18 13 13 19 20 5 0 0 0 0 14 4 12 27 36 23 12 0 0 0 0 0 1 3 6 2 5 0 0 0 0 0 17 0 0 0 0 0 0 0 45 36 0 0 0 0 0 45 63 36 21 27 12 0 0 46 19 0 66 49 84 136 0 0 0 0 11 2 4 12 17 24 0 0 46 0 0 40 0 56 0 0 13 0 0 1 1 4 0 0 15 9 0 0 1 20 0 133 119 40 33 7 68 0 0 0 0 14 20 0 0 0 16 10 0 0 0 4 13 7 15 32 46 19 19 28 24 28 81 64 32 7 0 1 0 0 115 0 0 0 88 16 0 58 72 0 0 52 55 0 0 16 57 45 4 0 5 16 19 12 5 4 0 0 0 7 1 13 0 12 33 0 0 0 20 22 57 0 25 18 145 0 0 0 21 0 0 0 6 4 7 0 43 0 5 9 13 13 13 0 36 10 0 0 0 10 14 23 6 0 4 0 0 0 0 0 42 11 0 0 0 0 0 0 0 0 0 0 0 0 1 15 0 0 0 10 16 17 0 0 4 14 11 0 13 17 0 0 0 29 98 26 26 0 0 71 0 0 2 0 0 17 19 13 31 14 18 40 28 0 0 8 0 19 63 0 0 2 0 0 0 72 0 27 0 29 0 0 0 0 0 31 14 2 7 0 0 0 0 1 0 0 0 0 60 0 18 0 82 0 32 124 0 18 0 0 108 19 0 44 0 8 50 24 23 33 0 0 93 0 0 0 19 69 22 0 0 0 0 0 0 47 30 0 54 0 47 48 101 101 0 0 0 255 0 0 15 134 124 130 0 0 55 70 17 174 120 0 0 10 85 89 40 23 17 4 0 0 0 0 0 2 0 0 0 0 0 0 0 0 0 0 0 0 0 7 0 0 0 0 0 0 5 8 0 0 0 17 1 33 27 0 0 24 25 0 8 0 0 0 8 17 10 28 25 22 0 0 0 0 0 77 71 27 0 0 21 0 0 21 72 0 0 8 0 0 0 48 0 46 49 0 0 1 24 0 53 27 25 25 36 27 23 0 0 0 0 0 0 99 73 0 36 0 76 0 0 81 0 0 90 44 63 47 4 0 0 0 42 65 69 1 0 0 0 0 117 0 0 61 0 0 0 79 0 0 0 38 69 0 0 128 79 0 0 0 0 0 0 0 0 18 3 0 0 44 11 0 0 0 0 0 3 0 0 0 0 0 0 0 8 0 0 0 0 0 2 0 0 0 0 0 0 0 0 0 0 0 10 0 40 40 0 0 28 52 18 0 9 114 255 255 255 0 0 23 27 6 0 0 0 0 24 42 34 63 0 0 52 31 0 1 0 0 71 255 255 163 0 0 31 14 0 0 0 0 24 0 44 255 178 43 20 25 15 0 16 7 5 3 3 2 1 0 0 0 0 0 0 0 0 0 0 0 0 0 0 0 0 0 0 0 0 0 0 0 0 0 0 0 0 255
255 0 0 0 0 0 0 0 0 0 0 0 0 0 0 2 4 5 3 1 0 3 0 1 3 4 7 7 0 0 0 9 75 55 46 37 36 13 9 18 21 39 28 22 34 28 6 0 45 14 0 0 28 38 30 6 0 0 0 0 0 0 41 94 7 34 34 27 4 6 12 5 30 27 24 23 9 7 12 13 0 0 12 26 40 26 23 13 8 11 19 20 22 7 9 5 8 6 0 0 1 8 7 5 0 0 6 3 10 0 0 0 0 16 22 18 0 0 0 0 20 0 0 10 4 0 0 30 35 0 0 0 0 15 7 0 0 1 50 0 0 8 59 0 15 3 4 2 5 1 0 5 0 0 13 13 0 0 0 2 0 10 0 12 5 16 0 8 10 10 23 3 0 18 37 5 0 0 255 42 0 68 68 0 16 0 0 0 0 5 10 18 17 14 13 5 8 5 3 30 0 29 31 4 0 0 0 7 0 1 9 0 0 0 0 29 0 0 0 5 0 0 0 0 41 30 1 0 74 0 0 0 168 0 0 0 74 0 0 37 4 20 0 0 28 24 0 8 0 2 0 0 0 0 0 6 10 0 0 0 0 0 0 0 12 6 0 0 1 0 0 0 0 0 0 0 15 20 4 8 0 0 18 22 15 0 8 39 13 0 6 13 37 25 8 0 0 0 0 0 32 29 19 32 0 51 0 0 239 1 0 31 0 0 0 0 0 0 2 12 3 0 8 63 3 0 29 2 70 0 0 27 19 0 6 0 0 0 0 2 0 0 0 42 0 0 147 11 0 0 63 0 0 0 0 0 0 0 29 45 0 0 1 17 31 11 13 0 5 2 7 0 0 36 31 22 10 0 0 39 0 0 0 109 0 0 0 80 75 0 0 0 86 0 0 0 47 27 0 0 21 29 35 12 0 0 0 23 0 0 0 1 3 6 15 24 0 29 31 0 0 0 47 18 60 14 15 0 103 0 0 14 0 0 0 2 0 0 10 0 0 0 0 0 0 0 0 0 0 0 0 7 9 0 0 0 0 0 0 3 13 8 7 0 12 0 1 6 15 23 15 18 21 18 19 15 12 6 0 8 0 14 0 0 0 0 0 0 55 0 36 0 42 18 0 0 147 38 49 23 3 22 45 63 0 0 32 38 1 0 0 0 51 5 10 0 0 0 0 0 0 0 41 53 62 63 37 15 48 0 0 21 60 53 4 0 78 0 46 0 0 76 0 0 29 0 0 0 20 52 12 0 51 14 0 0 0 0 0 0 9 0 0 0 50 0 0 0 96 21 0 29 97 104 20 0 0 0 10 65 26 0 0 24 40 0 0 0 0 0 109 16 56 12 34 0 0 111 103 0 1 0 0 156 176 0 0 72 0 0 5 0 3 23 40 145 0 0 0 0 32 0 0 17 0 7 25 40 21 0 0 28 21 36 34 37 25 37 37 44 0 0 23 35 40 37 18 11 13 53 20 0 13 112 66 0 0 11 15 6 14 0 0 28 13 67 80 28 3 36 29 0 0 0 18 0 12 50 23 7 0 0 0 0 0 0 4 34 38 26 0 0 26 1 0 0 39 2 5 42 47 19 1 0 0 0 0 0 0 0 0 0 26 49 29 10 31 0 0 21 0 0 0 30 112 0 0 36 85 51 24 3 58 119 69 0 0 0 0 56 68 0 0 0 7 55 104 82 75 48 16 0 0 1 17 3 16 66 64 48 0 0 0 0 24 31 13 0 3 0 0 0 0 1 13 30 9 14 31 21 16 11 11 34 13 11 12 1 0 0 0 0 7 0 0 0 0 0 0 0 0 0 0 0 0 0 0 0 0 0 69 122 102 31 3 0 27 2 0 0 95 149 46 0 0 0 13 19 7 0 0 0 0 0 0 9 0 0 0 0 0 40 59 0 0 0 0 0 0 0 0 0 0 0 145 201 234 114 56 17 0 0 0 0 0 0 3 0 0 0 2 0 0 0 0 0 0 0 0 0 0 0 0 0 0 0 0 0 0 0 0 0 0 0 0 0 0 0 0 255
255 0 0 0 0 0 0 0 0 0 0 0 0 0 0 0 0 0 0 0 0 3 0 4 0 0 6 13 5 0 0 0 17 0 0 0 0 0 0 0 0 8 0 3 18 18 7 4 22 0 0 0 7 20 0 4 21 20 25 8 20 27 23 52 0 0 10 0 12 9 15 0 8 3 4 20 7 10 5 10 6 12 22 4 6 3 2 3 5 0 10 6 5 0 4 3 0 0 0 0 0 0 0 0 8 0 11 5 3 8 13 11 0 0 0 5 11 24 20 30 90 66 39 9 6 0 0 0 26 10 6 0 0 0 0 0 0 0 0 0 0 13 27 0 0 3 0 0 0 0 0 0 13 8 0 5 2 1 0 7 8 4 3 2 4 9 0 13 0 0 30 5 0 0 16 26 0 0 232 134 12 0 15 15 16 0 0 0 9 1 1 0 5 0 3 0 0 2 0 0 4 22 25 7 0 0 0 0 0 1 3 0 0 0 0 25 0 32 25 0 0 0 0 15 14 21 26 0 36 0 0 0 255 91 53 0 33 28 0 43 0 5 0 0 13 0 0 16 0 0 3 9 9 3 6 13 0 9 0 0 6 4 4 0 10 1 3 5 7 10 4 9 0 0 0 1 3 7 2 0 15 10 0 19 6 0 0 6 21 0 0 0 0 0 15 33 38 42 35 34 20 0 0 0 0 19 10 0 255 0 0 11 0 0 6 3 0 0 7 6 27 0 16 40 9 1 6 0 21 0 0 34 3 1 19 0 11 0 0 7 0 0 4 32 0 0 212 38 11 5 52 3 0 42 2 0 0 0 0 0 0 0 0 0 0 0 0 0 0 6 5 0 0 11 6 0 0 0 0 11 33 14 24 102 0 27 13 0 25 35 0 0 66 16 0 0 0 19 17 0 0 0 8 14 12 5 0 0 0 0 0 0 0 0 0 0 0 3 3 0 0 34 31 13 70 3 35 25 107 0 0 4 4 0 0 2 11 4 18 0 6 0 5 9 3 0 4 0 17 0 9 20 16 20 7 0 10 3 5 0 5 0 8 0 11 0 1 0 2 2 0 0 3 6 0 0 0 0 0 18 0 8 0 0 5 1 2 0 46 0 32 0 25 0 0 0 186 39 54 29 9 0 0 0 42 7 1 3 18 17 0 0 0 0 27 14 0 0 67 76 0 0 0 0 0 0 0 0 0 0 0 0 0 0 0 0 48 0 53 0 14 96 0 28 34 14 0 0 18 26 0 0 0 0 0 0 12 38 50 100 0 0 0 0 42 50 37 0 0 0 33 18 0 0 25 105 13 0 0 0 21 19 0 0 7 0 0 70 72 82 89 14 80 0 25 92 103 105 68 69 0 0 0 0 243 0 0 129 0 7 26 21 8 10 0 50 135 117 0 0 0 0 29 70 5 9 20 28 13 0 0 14 3 3 0 2 0 2 0 4 0 0 10 13 0 0 0 0 0 0 0 0 0 16 0 0 75 5 0 0 19 0 0 0 0 4 8 0 0 0 0 0 57 34 17 0 9 45 35 45 0 0 0 4 0 0 0 19 0 32 43 11 6 0 0 28 0 0 0 0 8 0 0 3 19 17 36 16 22 18 34 7 0 14 6 10 63 41 11 92 0 0 0 0 56 0 0 50 0 0 4 0 0 0 16 91 0 62 12 64 42 0 0 5 26 5 0 0 0 0 72 110 189 189 134 35 0 0 0 0 0 0 0 0 0 0 0 0 0 0 0 0 0 0 0 0 0 0 0 0 0 0 0 0 0 0 0 0 0 0 0 0 0 0 0 0 0 0 0 0 0 0 0 0 0 0 0 0 0 0 0 33 45 48 20 13 65 51 14 0 17 27 1 0 0 0 0 7 48 66 100 101 71 68 58 28 11 0 6 0 0 0 0 0 0 0 0 0 0 2 39 48 18 0 0 0 0 0 0 26 50 45 27 24 3 0 3 3 0 0 3 0 0 0 0 0 0 0 0 0 0 0 0 0 0 0 0 0 0 0 0 0 0 0 0 0 0 0 0 255
255 0 0 0 0 0 0 0 0 0 0 0 0 0 0 0 0 0 0 0 1 4 0 5 0 0 1 1 4 0 1 13 17 6 7 1 5 0 3 25 0 5 0 3 20 20 28 22 24 12 6 13 20 20 15 28 17 15 25 34 37 45 37 45 22 26 28 25 24 12 23 14 9 9 19 13 23 22 22 17 36 37 26 10 16 4 12 16 0 3 9 4 1 0 0 10 7 7 3 0 19 16 11 6 20 6 7 0 0 0 7 14 57 50 43 26 5 0 0 0 0 0 0 0 0 50 56 0 33 14 12 0 0 4 7 20 0 0 0 0 0 14 27 0 0 0 4 0 2 0 0 0 35 11 0 1 9 14 1 1 20 11 5 4 7 8 9 14 0 0 32 13 0 0 30 52 0 0 141 129 42 0 0 56 0 4 0 0 7 0 1 0 22 11 0 0 14 16 0 0 1 22 31 10 4 0 1 0 1 4 8 0 4 4 4 24 0 34 25 0 0 0 15 57 24 39 50 0 20 24 0 0 125 85 93 0 0 33 4 0 0 20 9 0 13 0 0 27 0 13 7 11 9 2 6 18 0 4 5 6 10 0 3 0 13 8 9 0 1 4 0 0 15 3 2 6 3 9 6 0 39 8 0 2 9 0 0 0 5 0 0 0 0 1 11 44 0 3 7 18 0 0 0 0 27 0 24 44 245 0 0 0 0 0 0 9 7 8 0 0 11 13 0 0 31 6 0 22 0 0 17 22 0 8 23 0 9 0 0 0 0 0 0 29 0 0 230 26 24 7 25 70 0 0 0 0 15 9 0 0 9 7 12 11 10 1 9 0 0 0 5 0 0 0 0 0 0 21 15 3 10 43 30 0 0 76 34 0 20 48 0 0 0 34 36 0 0 4 29 0 0 0 0 7 25 17 0 0 0 0 0 0 0 0 0 0 26 0 0 0 35 54 12 20 73 0 16 44 64 0 0 17 4 0 3 0 8 0 4 0 0 0 5 6 8 0 0 0 16 1 2 1 6 4 0 0 7 0 0 0 2 0 0 0 0 0 0 0 2 5 0 0 2 4 5 1 0 2 0 18 0 2 0 2 2 1 0 0 21 1 11 0 17 0 0 83 164 22 5 0 0 19 3 0 40 13 0 1 12 23 6 0 16 0 13 12 0 0 38 46 41 40 23 27 12 0 0 55 0 0 24 0 0 0 25 39 0 0 17 0 0 57 0 0 24 13 0 5 15 10 0 6 0 0 0 3 11 11 6 47 0 20 0 2 54 86 0 0 76 0 0 0 0 23 46 36 109 11 0 0 0 4 0 0 19 0 0 0 0 0 0 0 34 62 58 0 15 62 22 66 0 37 194 93 0 0 105 97 0 9 31 20 14 25 26 33 42 59 58 0 0 26 0 0 15 0 0 10 0 0 0 0 0 0 0 0 0 0 0 0 0 0 2 0 0 0 0 14 0 0 0 11 20 0 0 0 87 26 0 24 34 0 0 58 0 0 1 8 0 0 0 0 90 19 0 0 25 58 6 0 0 0 0 20 0 0 0 0 0 29 29 0 0 0 0 29 0 0 0 0 0 0 0 4 0 6 12 6 1 7 25 1 0 13 3 0 34 24 0 49 22 0 2 0 13 83 0 34 0 0 143 0 161 0 85 0 0 65 26 56 46 0 31 0 11 16 33 21 15 22 39 42 0 0 0 0 0 0 0 0 11 0 0 0 0 0 0 0 0 0 14 20 10 0 0 0 6 2 4 1 0 0 0 0 0 0 0 0 0 0 0 0 0 0 0 0 0 0 0 0 0 0 0 0 0 0 0 0 0 0 0 0 22 54 25 26 0 7 0 0 0 0 0 33 0 0 0 0 0 0 0 0 0 0 0 0 0 0 0 0 0 0 0 0 0 0 0 0 32 4 6 12 17 0 0 0 0 0 0 13 31 26 3 0 9 0 1 7 1 0 5 2 1 0 0 0 0 0 0 0 0 0 0 0 0 0 0 0 0 0 0 0 0 0 0 0 0 0 0 255
255 0 0 0 0 0 0 0 0 0 0 0 0 0 0 0 0 0 0 0 2 0 0 4 0 3 0 0 6 0 0 7 17 15 6 11 20 11 5 23 1 9 9 0 6 3 5 0 4 14 14 5 4 0 6 18 0 0 1 2 0 0 0 0 26 17 8 5 0 0 0 0 1 0 0 0 2 0 0 0 7 0 0 0 0 2 11 9 0 7 12 16 11 6 7 10 9 9 11 16 12 12 10 6 2 0 0 0 0 0 0 5 0 0 0 0 15 38 42 35 35 59 51 0 0 23 18 0 1 12 13 11 2 19 27 49 9 0 0 34 6 2 19 31 0 8 10 8 0 0 0 0 16 0 0 0 10 1 0 0 16 1 0 0 0 0 0 0 10 0 12 0 0 41 61 16 0 181 138 65 0 39 0 14 3 0 0 3 7 8 1 0 30 10 0 4 22 13 0 0 0 6 12 0 0 8 0 0 0 0 0 6 4 0 6 13 0 25 0 0 4 71 43 0 23 7 39 13 8 53 0 0 0 6 119 37 0 18 10 0 5 21 11 0 24 13 0 38 0 0 0 0 0 0 0 0 0 0 0 2 4 4 0 0 0 0 0 0 1 0 0 0 13 0 2 0 9 7 0 0 17 2 0 2 0 0 0 1 0 0 21 37 33 14 0 0 0 0 0 0 15 0 0 6 34 0 0 188 117 0 0 0 11 0 0 0 1 13 0 0 0 22 0 0 43 27 0 27 0 0 37 18 0 4 29 0 22 1 0 0 5 0 0 42 0 0 228 10 33 13 1 87 0 0 0 0 40 36 35 38 12 12 14 18 12 12 8 5 0 4 5 4 8 27 20 0 25 33 16 2 11 17 0 0 0 45 0 0 66 4 0 70 0 26 41 0 0 4 11 0 32 6 0 0 0 14 22 24 0 0 2 10 1 6 16 13 20 0 0 0 36 18 2 49 16 0 12 76 26 0 0 49 0 0 5 1 0 1 1 0 5 0 6 5 15 0 1 0 8 0 0 0 0 0 1 0 9 4 0 0 0 0 0 5 0 0 0 3 0 4 0 0 0 0 0 0 4 0 0 15 0 12 0 5 5 0 0 11 4 36 0 7 24 0 0 203 70 0 0 0 3 18 17 18 0 8 23 0 0 0 0 22 78 9 0 0 0 11 3 0 0 0 0 17 14 0 0 44 0 39 47 1 0 22 30 13 0 0 0 0 0 0 0 0 0 0 0 0 3 0 0 28 0 0 24 24 29 0 0 0 0 30 0 59 39 57 0 0 81 9 0 0 25 37 5 0 92 38 3 0 0 0 0 19 0 22 0 0 0 0 0 55 0 80 77 20 69 16 0 43 172 0 68 241 0 31 255 172 17 2 6 0 11 27 21 21 0 0 77 0 0 32 0 0 0 0 0 0 0 5 0 0 0 0 0 0 0 0 0 0 0 0 0 0 0 9 10 26 9 0 2 35 19 0 0 25 0 0 0 1 18 0 0 11 14 0 0 17 23 9 0 3 37 0 0 18 42 19 0 0 0 0 8 14 14 0 0 0 10 0 0 0 7 31 0 0 41 0 3 4 20 5 0 30 0 0 0 0 0 0 6 0 0 11 0 0 4 0 0 0 81 0 39 0 0 76 40 5 22 0 35 0 157 46 103 0 0 24 0 25 29 34 49 0 23 55 113 93 62 7 0 0 0 0 0 0 0 0 13 25 3 0 0 0 0 0 0 5 0 1 35 27 15 0 0 7 0 0 0 0 0 0 0 0 8 8 1 5 0 0 1 0 0 0 0 0 2 0 0 1 6 0 1 0 0 0 0 0 0 0 0 0 17 42 21 15 0 0 0 0 0 0 0 1 0 4 0 0 0 0 0 0 0 0 0 0 0 0 0 0 0 0 0 0 11 16 10 0 46 0 0 0 0 12 36 38 1 0 0 0 0 0 0 0 13 0 0 4 4 0 0 0 2 0 0 0 0 0 0 0 0 0 0 0 0 0 0 0 0 0 0 0 0 0 0 0 0 0 0 255
255 0 0 0 0 0 0 0 0 0 0 0 0 0 0 0 0 0 0 0 2 0 0 0 0 1 8 0 0 2 14 22 0 0 3 0 4 0 0 0 0 8 6 0 0 0 0 0 0 0 14 4 0 0 0 0 17 6 0 7 0 3 0 0 0 0 0 0 0 1 1 3 0 0 1 0 0 0 0 0 0 0 0 0 0 2 10 4 2 9 4 6 8 0 11 14 0 0 0 0 0 0 0 0 2 1 2 8 9 3 0 0 14 0 0 0 0 0 0 0 0 0 11 14 0 0 0 12 0 7 14 0 0 0 11 15 25 0 20 43 0 0 17 30 0 0 18 3 0 0 0 10 0 0 0 5 20 17 0 0 9 0 0 0 0 0 0 0 36 0 0 0 0 50 45 0 0 255 86 0 0 48 7 0 15 3 11 4 6 14 4 0 12 2 0 1 10 15 6 1 0 0 16 0 0 3 0 0 9 1 5 4 11 7 5 9 0 33 0 0 1 40 0 0 33 0 0 10 0 28 48 0 0 0 131 108 15 19 32 26 0 12 0 0 1 0 0 5 0 0 0 0 0 0 0 0 0 0 0 0 0 0 0 0 0 4 0 0 0 0 4 0 15 0 1 1 2 0 1 3 0 0 2 10 0 0 0 35 0 2 17 28 32 11 0 0 22 4 14 37 39 17 0 0 16 29 0 255 0 0 24 0 22 0 0 0 0 10 3 0 0 28 0 0 24 24 0 0 23 0 44 23 0 4 30 0 18 6 1 21 4 0 0 51 0 0 242 25 3 24 0 55 40 5 0 0 40 15 0 11 0 0 0 0 0 0 0 0 1 3 5 0 6 16 21 12 0 0 0 9 21 0 0 0 92 50 0 0 98 0 0 80 0 8 29 20 6 0 0 0 28 21 7 0 0 0 10 32 6 11 9 5 0 0 6 22 0 0 0 0 44 0 9 74 3 0 21 90 0 0 0 49 0 0 0 0 0 0 0 0 11 0 10 10 10 3 3 0 14 0 0 0 0 0 0 0 11 0 7 1 0 1 2 5 0 4 0 8 4 0 2 3 0 3 2 3 5 5 1 24 0 13 0 0 8 12 0 29 0 28 0 22 19 0 0 206 61 20 30 23 11 1 0 15 0 5 5 0 0 2 20 15 26 0 0 3 4 47 58 5 0 0 0 9 19 0 0 47 0 23 0 0 0 29 9 0 9 34 1 2 5 0 16 0 0 0 0 9 10 0 0 27 0 2 5 20 31 33 8 23 58 4 0 5 2 0 0 129 0 2 69 51 0 0 4 29 44 27 31 22 7 0 0 28 0 52 23 0 28 31 17 79 0 0 44 153 228 86 0 148 0 0 0 0 191 0 0 0 60 1 0 0 15 37 21 0 87 29 115 0 0 0 14 46 1 0 0 0 0 15 7 13 0 0 3 0 4 2 0 9 0 0 0 0 5 28 27 7 0 0 6 2 0 0 0 2 0 0 0 0 74 86 3 0 21 0 0 0 6 0 0 25 0 6 14 38 32 0 0 0 0 0 0 0 0 0 0 0 60 18 0 0 3 27 0 0 57 7 12 22 20 5 7 35 0 7 16 6 0 15 14 0 0 4 0 0 38 32 24 55 84 0 62 21 0 2 9 5 0 3 0 0 0 0 0 37 0 0 0 29 39 61 66 0 0 0 0 0 0 0 0 0 0 0 0 14 15 0 0 0 0 0 15 14 13 13 7 0 4 8 25 25 0 0 0 27 0 7 1 4 1 7 17 27 10 10 6 11 14 18 14 14 14 21 14 22 21 20 21 9 23 17 24 13 18 26 12 13 32 0 0 0 1 47 21 0 0 13 0 9 23 17 12 8 32 31 33 34 38 46 55 77 2 34 51 59 48 36 22 0 15 7 25 34 36 32 12 0 3 0 19 19 16 16 0 0 5 0 0 0 0 0 25 34 6 0 2 4 1 5 3 0 4 0 0 0 0 0 0 0 0 0 0 0 0 0 0 0 0 0 0 0 0 0 0 0 0 0 0 255
255 0 0 0 0 0 0 0 0 0 0 0 0 0 0 0 0 0 0 0 1 3 0 0 6 5 11 0 0 4 2 0 0 7 11 17 29 16 4 16 0 2 3 0 3 14 3 10 0 1 0 3 0 5 0 0 31 16 11 3 0 8 7 16 0 1 0 3 2 12 16 12 18 16 11 8 13 7 9 4 24 15 5 0 14 7 5 0 0 0 10 1 1 1 0 0 0 0 6 10 9 7 3 0 0 11 18 23 15 13 8 0 79 49 12 0 2 0 0 0 0 0 6 18 9 0 20 64 0 11 9 0 0 0 0 0 17 0 22 22 0 0 12 9 0 0 0 0 0 0 0 8 7 1 6 15 20 19 0 0 14 2 2 0 5 7 0 0 45 0 0 0 0 19 21 0 0 255 0 0 0 0 0 19 5 6 3 2 9 5 9 4 0 0 0 0 6 16 1 6 12 24 24 7 3 0 2 0 21 7 10 6 14 11 13 10 0 17 17 0 0 14 34 39 18 11 0 9 0 0 45 0 0 0 90 98 0 1 44 26 9 35 9 0 35 14 0 13 1 7 8 1 15 7 4 5 4 0 7 7 11 9 9 3 0 0 0 8 0 5 0 3 0 1 0 0 0 0 0 13 0 0 23 17 3 0 0 57 0 0 0 0 0 0 0 10 35 0 2 14 42 25 0 0 0 32 0 255 0 0 41 0 21 0 0 0 0 0 12 3 0 21 0 0 3 4 0 0 54 0 27 18 0 0 22 0 17 8 0 15 9 0 7 46 0 0 255 57 0 33 0 25 83 37 0 7 31 0 0 0 0 0 1 0 0 0 2 0 10 0 1 0 0 0 2 5 0 0 0 25 0 0 0 0 85 82 0 0 55 35 0 0 15 0 0 44 45 0 0 0 0 8 10 21 0 0 0 0 19 11 17 0 0 0 0 0 0 0 0 50 28 24 40 42 12 21 25 95 0 0 0 0 10 0 0 0 3 0 7 0 7 0 11 5 6 7 3 0 22 8 2 8 4 14 2 3 8 0 9 7 2 7 1 0 8 2 0 1 14 9 1 0 0 7 7 2 6 7 3 13 1 10 0 8 9 13 0 35 0 15 0 13 0 0 0 148 0 0 27 25 3 0 0 10 46 20 0 0 11 48 24 0 0 0 40 20 0 0 4 20 57 68 37 15 8 16 42 67 31 6 0 0 36 59 17 0 0 45 0 14 2 0 53 0 32 2 0 24 20 0 0 12 36 10 0 0 0 0 15 46 53 0 0 69 108 0 0 33 0 0 18 0 0 0 13 29 31 0 0 34 77 73 21 23 0 64 50 0 0 0 0 0 0 36 10 0 0 100 97 11 0 202 120 87 180 0 0 74 72 0 0 0 11 41 23 0 35 0 147 75 0 0 0 0 21 19 5 12 0 11 10 6 0 8 0 9 11 16 11 14 0 15 0 0 1 27 2 0 0 9 17 4 0 1 17 0 36 67 37 0 37 64 19 0 31 13 0 0 0 0 0 2 9 18 12 4 0 0 0 13 0 0 0 0 0 0 0 0 50 68 48 0 0 0 0 26 2 0 0 5 10 4 6 30 0 11 10 0 0 10 23 1 0 17 0 0 29 24 0 24 50 0 64 34 0 0 0 0 0 29 68 111 44 24 0 1 0 0 0 41 29 71 78 0 0 0 0 0 0 0 0 0 0 0 0 15 30 22 24 3 7 0 0 9 0 0 2 0 3 0 0 0 0 0 0 8 0 0 3 0 2 8 10 23 0 7 8 15 11 17 25 30 19 16 17 15 21 19 19 20 20 26 24 23 14 11 22 22 38 13 0 0 0 58 46 22 28 16 0 0 13 15 22 18 22 29 41 59 79 90 106 113 102 88 76 64 52 45 40 35 19 25 25 11 0 0 6 19 10 12 29 25 12 0 0 0 0 0 0 0 0 0 21 9 14 0 0 3 0 0 0 0 5 0 0 0 0 0 0 0 0 0 0 0 0 0 0 0 0 0 0 0 0 0 0 0 0 0 0 255
255 0 0 0 0 0 0 0 0 0 0 0 0 0 0 0 0 0 0 0 0 1 2 8 0 8 11 0 0 11 8 0 15 12 16 23 10 17 10 25 0 0 0 0 0 3 5 1 4 6 0 5 1 5 0 0 8 0 0 0 0 0 3 7 0 0 10 9 12 12 7 0 16 12 13 6 0 5 3 0 31 14 0 9 19 8 0 0 0 0 0 5 0 0 0 2 19 18 13 16 23 24 14 11 0 2 0 6 0 3 0 0 0 0 0 0 44 88 95 123 149 173 130 58 41 29 17 0 0 13 6 0 0 0 0 0 13 0 15 0 0 0 38 0 6 0 3 0 6 3 0 0 4 12 14 7 13 0 4 0 5 4 5 5 19 16 0 8 26 0 18 0 0 17 11 0 135 218 0 0 39 0 0 33 0 0 0 0 2 4 0 0 2 0 3 0 0 0 2 7 12 26 25 7 0 0 0 0 7 12 0 0 1 9 4 0 0 0 10 12 4 7 36 67 0 81 0 0 13 0 40 0 0 0 9 58 0 21 54 0 0 46 37 18 24 0 0 54 2 7 0 9 5 5 10 9 1 6 14 8 4 0 5 15 9 1 7 5 3 12 11 2 4 2 0 0 7 5 0 12 0 3 0 16 14 0 0 26 0 0 0 0 0 0 10 26 0 0 0 0 2 0 0 29 0 9 80 165 0 0 65 0 15 13 0 0 0 0 0 6 0 0 16 0 0 0 3 0 47 0 0 32 0 0 0 0 8 1 0 1 0 0 0 30 0 0 243 85 0 30 23 0 50 0 0 0 16 0 0 10 7 11 18 20 11 12 23 13 10 0 0 0 0 0 0 3 24 0 0 21 0 0 0 42 30 61 23 0 0 18 0 0 33 0 0 22 30 0 0 19 0 0 6 16 7 0 0 0 8 11 16 5 0 0 0 0 0 3 46 35 22 46 3 1 0 32 9 71 0 0 20 0 7 0 3 0 4 4 7 0 2 0 8 4 0 0 0 0 9 0 5 1 6 8 6 10 0 0 2 0 0 0 0 0 14 4 0 1 4 5 0 6 0 4 0 0 0 0 0 2 6 0 0 0 3 0 0 31 0 11 0 23 0 0 84 116 0 0 0 7 1 0 0 46 11 26 3 0 0 41 21 0 2 0 18 3 0 0 0 0 0 17 0 0 0 0 0 0 39 0 0 20 37 21 3 19 0 36 0 2 3 0 54 0 39 0 0 24 17 0 0 3 24 10 0 0 0 0 0 0 21 0 0 93 217 0 0 0 73 0 0 0 9 38 1 0 18 0 0 6 47 50 39 40 26 32 3 0 0 0 0 0 0 59 0 0 0 52 112 0 149 0 0 13 78 62 102 184 15 13 0 0 0 29 20 0 115 0 13 120 0 0 13 36 7 16 9 2 0 6 3 0 0 0 0 0 1 0 0 0 0 19 17 0 0 9 2 0 0 4 0 0 7 14 17 0 0 16 11 0 0 0 0 6 7 26 26 0 0 21 17 0 0 0 0 0 0 0 0 22 0 0 2 0 0 0 0 0 0 49 39 0 0 0 0 21 0 0 0 0 3 0 0 15 0 0 0 0 0 0 3 0 24 35 0 0 1 0 0 0 15 0 63 14 0 32 0 0 54 0 0 0 34 0 45 0 14 0 0 61 13 48 113 0 0 0 0 0 16 35 38 0 40 8 14 22 4 0 0 0 36 0 0 6 11 26 18 0 22 6 12 13 8 6 8 4 12 14 15 19 15 18 17 22 14 9 18 15 20 25 23 23 17 9 19 16 13 18 17 22 9 11 18 19 23 15 11 18 0 11 0 0 0 43 37 26 2 0 0 0 0 0 0 17 20 25 17 7 4 0 0 0 20 0 0 0 0 6 13 24 25 14 10 0 0 0 11 9 37 13 0 0 0 3 37 53 10 12 18 5 0 0 0 0 20 0 2 1 4 5 1 0 6 0 0 0 0 0 0 0 0 0 0 0 0 0 0 0 0 0 0 0 0 0 0 0 0 0 0 255
255 0 0 0 0 0 0 0 0 0 0 0 0 0 0 0 2 6 9 8 5 3 4 16 0 12 6 0 0 20 22 0 25 49 55 36 16 0 0 11 16 26 19 21 13 12 17 0 33 0 0 0 9 11 3 0 0 0 5 7 15 9 10 6 0 8 24 27 13 4 0 0 0 0 0 0 0 1 15 2 0 0 0 0 12 11 0 0 30 15 8 13 8 5 13 21 4 0 0 0 0 3 0 0 2 0 0 0 0 0 2 45 131 154 172 174 134 88 46 24 0 0 0 0 0 60 95 2 9 12 10 0 0 17 30 0 18 0 0 0 0 61 85 0 14 0 10 15 21 10 0 0 5 2 0 0 0 0 0 0 0 0 0 1 7 17 0 0 0 0 49 32 0 0 32 0 166 177 31 0 47 0 3 0 0 0 0 0 0 0 0 0 18 24 39 5 0 0 0 5 0 22 26 0 0 0 0 0 7 0 0 0 0 0 0 0 29 0 0 0 5 0 0 0 0 83 0 0 25 32 53 0 0 0 75 105 62 119 72 0 0 0 20 0 0 0 0 9 0 0 0 0 8 2 5 4 0 0 0 0 0 1 3 0 0 0 0 1 6 3 0 0 8 0 0 0 4 16 14 33 7 0 0 0 1 0 0 0 22 26 36 38 37 32 11 6 31 36 35 33 5 0 0 26 0 0 220 100 0 0 62 0 0 6 9 0 0 0 0 0 0 0 49 60 0 17 76 0 29 0 1 65 27 10 15 10 46 21 0 13 13 0 0 42 0 0 249 117 0 24 11 0 9 0 0 0 1 0 0 7 0 0 0 0 0 0 0 0 0 0 4 12 17 8 15 23 11 0 0 5 4 0 34 66 53 47 35 0 0 0 0 0 0 0 0 5 5 0 3 4 12 5 0 0 4 10 0 0 0 0 3 10 26 43 71 17 107 52 37 1 0 24 25 31 0 41 36 75 0 0 59 0 17 0 0 0 7 5 2 0 0 0 3 1 1 0 0 8 0 0 0 0 0 0 0 0 1 0 5 7 7 0 0 0 20 0 0 0 0 2 0 3 0 0 4 0 0 0 0 0 0 0 0 0 8 11 6 28 0 38 19 52 0 0 188 129 34 14 11 42 30 20 8 59 0 41 92 22 0 0 0 11 84 0 0 0 0 95 119 56 0 26 24 0 0 4 24 0 3 0 0 29 12 0 0 22 0 96 0 21 0 0 76 0 14 0 0 1 32 0 0 9 0 1 32 58 58 18 0 0 1 0 0 0 185 0 96 31 0 0 27 47 20 0 6 0 0 39 73 33 0 0 0 70 46 0 2 75 21 19 39 0 3 0 0 53 47 63 11 0 0 61 0 0 6 91 0 0 0 5 0 0 0 0 16 0 116 0 10 255 46 0 5 7 0 19 9 0 0 0 4 0 0 0 0 0 0 0 6 1 0 32 41 1 0 0 15 19 0 0 0 0 0 0 0 11 60 32 0 18 78 43 0 29 0 0 1 0 4 41 25 0 2 14 0 0 5 41 23 0 0 0 15 9 0 0 0 0 0 0 0 0 35 89 29 0 0 0 0 0 8 0 0 0 20 34 17 0 0 21 42 17 0 15 0 0 41 39 5 9 27 12 90 20 31 112 0 0 4 0 62 0 103 0 53 0 0 0 0 71 0 49 156 0 0 35 0 0 0 0 34 0 68 13 3 2 0 0 19 41 44 0 0 0 0 12 8 0 6 3 7 9 6 4 0 0 0 0 11 8 0 0 0 0 2 0 0 0 0 0 0 0 5 3 4 2 9 6 15 14 0 3 12 2 0 0 0 5 0 5 0 0 0 35 45 39 0 0 18 47 37 0 0 8 0 0 2 10 17 24 27 9 38 30 32 29 38 31 19 0 0 0 1 22 32 36 9 0 10 8 3 17 43 28 0 0 0 0 0 0 0 0 0 4 19 0 0 2 0 0 0 0 8 3 2 1 0 0 0 0 0 0 0 0 0 0 0 0 0 0 0 0 0 0 0 0 0 0 0 255
255 0 0 0 0 0 0 0 0 0 0 0 0 0 0 1 3 0 0 0 0 0 0 0 0 0 24 29 22 0 0 77 155 178 74 62 101 93 76 60 22 24 22 2 0 0 0 0 12 5 12 23 28 33 36 40 3 2 13 25 26 27 24 14 33 18 0 1 9 16 9 0 0 0 0 0 0 0 0 0 27 43 31 0 0 14 15 0 0 0 0 0 0 0 0 0 0 0 0 43 20 0 0 36 47 21 35 96 160 181 147 88 80 3 0 0 0 0 0 0 0 0 0 0 0 0 0 7 22 0 0 39 78 22 0 0 5 25 49 14 0 0 0 0 13 37 10 0 0 39 38 0 4 3 6 9 9 27 21 40 17 12 19 2 0 0 0 22 0 48 3 0 44 38 0 0 206 139 30 0 72 0 0 74 6 4 0 0 0 0 0 0 0 0 0 0 5 15 25 8 2 0 0 0 0 31 4 0 0 0 0 0 0 0 0 0 6 2 1 14 8 6 0 0 139 0 75 0 42 47 12 0 0 0 0 100 61 66 76 0 0 0 54 22 20 68 16 31 39 20 6 8 3 0 0 0 27 17 17 9 0 0 0 5 0 2 10 0 0 0 13 9 10 18 18 12 13 0 0 0 0 1 33 48 44 14 0 0 0 0 0 54 12 0 0 64 0 0 38 0 26 28 111 15 1 129 143 0 0 12 0 51 0 0 0 0 2 9 0 0 0 0 0 0 0 1 14 10 11 0 0 0 0 0 0 0 0 0 0 0 0 0 1 7 0 0 131 134 71 13 8 20 53 0 0 34 46 0 0 4 0 19 26 0 0 0 0 0 41 17 0 0 0 0 0 0 3 0 26 1 0 0 72 48 23 0 0 21 0 0 18 35 12 0 0 0 0 6 0 0 6 0 0 0 8 12 29 30 0 0 14 8 0 0 0 0 51 0 0 0 37 11 0 0 0 5 141 0 0 37 0 0 0 0 4 3 0 0 24 17 3 0 2 2 1 11 25 28 0 0 0 10 14 3 2 0 0 0 1 0 0 18 13 0 24 20 24 23 5 0 4 20 0 16 9 0 0 1 13 0 7 47 59 29 1 0 0 6 72 0 22 0 0 0 178 44 0 43 0 83 0 0 49 0 56 0 0 0 48 40 9 0 0 0 33 77 37 12 0 0 0 73 0 83 66 45 33 100 0 0 0 0 0 0 0 0 0 0 0 45 8 0 0 0 12 17 17 4 0 0 0 0 4 0 0 0 8 32 27 33 33 0 0 0 153 0 0 146 0 63 79 0 0 0 28 48 0 0 0 0 54 31 0 16 0 33 17 0 0 0 10 3 39 0 0 0 104 0 32 19 0 65 182 61 0 70 56 0 26 0 18 71 85 19 0 0 25 0 25 10 216 0 0 0 0 0 0 0 0 5 3 7 8 27 31 21 7 0 0 0 0 0 4 0 0 0 0 53 0 0 0 16 36 24 2 0 0 0 0 0 0 0 0 16 0 40 29 0 0 14 37 0 0 0 0 3 3 0 8 21 13 9 8 2 9 5 9 13 59 24 0 33 51 0 0 79 7 44 48 19 15 53 65 15 0 0 0 0 0 0 0 0 9 0 0 19 0 0 0 13 46 0 26 39 0 19 144 0 0 0 0 0 8 1 0 0 12 17 0 0 27 31 0 0 0 0 0 0 0 0 0 0 0 0 0 0 0 0 0 0 0 0 0 0 0 0 0 5 10 6 19 27 28 24 18 9 20 12 11 10 9 16 21 16 14 13 15 14 13 12 14 12 20 8 9 8 7 6 8 7 0 0 1 1 8 14 11 15 5 14 7 0 0 7 1 16 0 0 0 0 0 0 4 2 4 6 0 0 0 0 0 0 0 0 0 0 0 0 0 0 16 11 5 5 4 1 14 16 7 3 0 1 0 1 10 12 28 21 17 16 19 23 13 0 0 6 12 0 0 5 7 0 1 0 0 2 0 0 0 0 0 0 0 0 0 0 0 0 0 0 0 0 0 0 0 0 0 0 0 255
255 0 0 0 0 0 0 0 0 0 0 0 0 0 0 4 0 11 11 11 1 1 4 8 31 28 0 0 0 77 155 255 0 0 0 0 0 0 0 0 33 43 68 65 75 73 100 86 37 15 14 3 0 0 0 0 16 13 11 9 0 0 0 0 0 0 0 0 2 17 18 16 17 24 18 16 16 19 24 10 0 0 0 0 0 13 13 0 29 63 62 47 75 104 110 116 87 96 107 88 121 166 179 167 238 201 128 68 24 0 0 0 0 0 0 0 0 0 0 17 0 0 0 0 0 0 10 19 44 61 51 0 0 0 11 0 10 15 17 0 1 10 12 0 2 10 10 0 0 9 12 0 0 0 3 0 4 7 0 0 10 18 12 12 0 0 0 8 29 18 0 0 17 35 18 0 249 107 0 12 17 0 12 3 23 14 33 18 14 24 4 15 15 19 0 3 0 0 0 0 39 13 0 0 2 18 16 0 13 10 14 9 21 22 12 14 0 0 4 3 9 12 0 0 49 0 27 14 15 130 0 0 44 0 0 143 25 0 54 25 15 0 60 9 6 52 0 25 11 0 0 0 13 7 1 0 19 8 9 6 0 0 6 13 0 0 18 12 2 0 12 20 6 0 0 0 0 0 0 0 61 22 0 0 0 0 25 42 31 44 0 29 9 0 0 3 0 0 74 0 22 0 45 0 0 228 42 0 0 7 0 0 0 0 1 0 0 0 0 0 0 0 0 0 0 0 3 0 33 10 6 18 8 12 4 2 4 10 12 12 0 0 0 0 29 0 0 216 70 28 10 9 43 23 0 0 14 40 12 0 0 8 9 0 0 0 14 9 0 0 0 3 0 0 2 0 5 6 12 0 0 26 48 23 14 0 0 20 0 0 12 12 16 3 0 0 0 4 3 0 16 11 0 0 8 1 6 3 33 0 0 51 25 0 0 6 48 3 8 22 74 40 0 5 0 115 50 0 0 38 0 57 0 0 11 0 0 0 12 0 10 0 4 0 0 4 5 10 1 0 2 6 10 9 2 0 0 4 12 0 0 6 8 0 3 1 2 5 1 0 0 13 0 5 1 0 0 0 0 0 0 0 11 0 0 0 1 13 40 0 34 67 0 0 145 154 0 95 0 69 46 0 0 49 21 0 0 14 18 8 14 39 9 0 36 20 0 0 16 52 0 158 0 0 0 33 67 0 0 0 9 7 1 2 7 29 0 0 8 42 0 0 17 0 7 4 0 2 8 1 0 0 25 4 0 0 1 10 2 30 24 0 0 0 138 37 0 42 0 0 32 2 0 0 32 37 0 19 0 0 37 0 0 39 19 39 45 7 6 0 0 0 79 0 0 0 5 0 24 40 0 0 10 0 0 28 64 30 0 0 0 0 14 36 35 29 50 0 45 2 158 0 0 0 17 6 1 11 12 10 8 0 0 10 3 10 0 0 0 0 3 3 10 0 2 14 25 43 11 2 4 13 15 0 2 0 8 0 0 1 9 16 13 7 21 0 0 5 27 23 14 0 0 0 1 8 2 0 0 0 8 14 13 5 7 7 5 15 0 0 0 0 84 66 19 0 0 0 0 0 0 0 0 0 4 0 7 19 16 13 23 25 0 0 0 4 8 0 10 23 21 0 26 23 0 6 56 0 0 7 0 0 0 0 2 0 0 0 0 0 19 51 42 39 0 13 13 18 14 11 20 9 43 21 31 22 40 41 33 28 27 17 15 14 14 10 17 12 0 0 0 0 0 0 0 0 0 0 0 0 0 0 0 0 3 0 0 0 1 0 1 0 0 0 0 0 0 1 0 0 0 0 0 0 0 0 0 0 0 0 0 0 0 8 16 15 0 6 0 0 0 1 0 0 3 0 0 0 0 0 3 1 0 0 0 0 2 0 2 0 1 0 0 1 0 3 1 0 0 0 1 0 3 0 6 3 1 0 0 2 0 0 0 0 2 3 9 0 0 11 4 0 3 0 0 3 0 0 0 0 0 0 0 0 0 0 0 0 0 0 0 0 0 0 0 0 0 0 0 255
255 0 0 0 0 0 0 0 0 0 0 0 0 0 0 5 0 11 2 5 16 0 0 14 0 13 37 65 115 130 0 0 0 0 0 0 0 0 0 0 0 0 0 0 1 20 40 21 116 101 105 115 118 126 124 118 54 40 48 35 32 22 23 21 47 20 0 0 0 0 0 38 10 18 19 25 9 6 6 0 46 65 73 58 71 96 95 92 118 115 87 57 60 71 68 65 34 59 9 0 0 0 0 0 0 0 0 0 0 0 0 0 0 0 0 0 0 0 0 0 65 73 96 86 43 19 26 21 1 0 0 28 25 0 0 49 20 11 0 0 0 15 11 0 0 3 0 2 4 4 7 0 0 0 14 11 13 4 0 0 11 6 4 6 0 0 0 0 39 0 0 40 25 0 0 0 251 149 0 82 0 0 30 0 27 7 5 6 12 13 2 4 23 20 0 1 0 0 0 0 26 15 14 10 18 26 14 0 0 15 11 9 8 10 12 12 0 10 2 3 9 5 10 5 0 31 0 55 18 179 0 0 48 0 0 51 160 23 0 108 67 0 19 0 0 29 0 0 16 0 0 0 5 18 0 0 13 0 0 0 0 0 14 21 0 8 16 17 6 0 0 13 0 0 0 0 0 2 0 0 0 0 0 0 18 22 8 0 0 30 0 0 6 0 45 28 0 0 54 0 9 0 52 42 31 243 0 0 24 6 55 0 17 9 10 10 6 9 14 12 3 4 0 0 0 0 0 0 33 12 0 9 0 0 0 0 16 10 0 4 0 0 0 0 36 0 0 234 95 34 0 19 25 40 0 0 0 49 35 0 0 8 16 10 0 12 22 25 0 0 0 0 3 3 6 0 3 28 0 0 26 63 27 4 0 0 0 20 0 0 7 0 15 4 0 0 3 5 0 0 25 7 7 0 5 5 5 0 0 0 0 14 0 0 11 56 25 5 24 28 47 21 0 0 0 216 0 0 0 27 0 43 2 0 7 8 3 0 1 0 10 2 8 4 1 0 0 0 0 1 7 4 9 7 7 0 12 15 13 0 0 5 4 0 6 0 0 0 2 5 0 0 5 26 12 0 4 16 29 25 0 12 0 0 3 21 16 33 0 16 43 90 0 0 158 154 0 95 0 0 155 7 0 74 0 3 11 16 0 0 0 19 7 0 29 13 0 0 21 64 0 108 42 0 0 0 22 0 0 10 14 15 2 0 4 32 0 0 17 16 0 0 21 0 0 0 0 3 2 0 0 0 31 15 1 0 0 0 0 33 0 18 0 0 68 42 0 0 0 0 18 0 1 12 24 2 0 23 16 0 35 0 0 42 0 27 40 45 44 37 2 0 0 0 0 46 135 0 0 0 2 0 0 0 0 0 0 30 0 0 0 0 0 7 22 3 56 0 45 26 121 0 0 0 4 2 0 5 3 1 0 0 0 0 0 0 0 0 0 0 34 17 0 0 15 31 25 10 19 7 0 5 0 0 0 0 28 7 0 2 5 25 9 0 12 0 0 37 26 0 0 0 3 14 18 23 13 6 15 15 9 14 9 15 12 8 11 18 6 84 104 0 0 0 52 132 25 0 0 16 11 0 0 0 0 0 8 26 33 27 22 1 0 0 0 4 0 0 0 2 13 0 11 20 26 22 26 5 56 34 1 0 0 0 0 0 0 8 30 37 2 0 13 56 31 36 30 41 34 37 40 36 31 26 30 26 30 27 31 30 39 40 30 27 13 8 4 6 12 0 5 8 4 5 10 22 0 2 0 2 2 1 0 0 9 0 0 0 0 0 2 5 0 3 0 0 0 0 0 4 1 0 3 3 0 4 2 4 5 9 4 0 0 12 11 0 0 2 0 0 0 0 1 0 5 6 0 0 0 2 5 2 1 0 5 0 5 0 6 2 1 0 0 0 0 0 0 0 9 4 10 6 3 0 0 3 0 0 0 0 0 5 7 0 12 9 18 0 0 8 3 0 3 0 0 3 0 0 0 0 0 0 0 0 0 0 0 0 0 0 0 0 0 0 0 0 0 0 0 255
255 0 0 0 0 0 0 0 0 0 0 0 0 0 0 5 0 0 0 0 0 0 13 38 33 88 113 64 0 0 0 0 0 0 0 0 0 0 0 0 0 0 0 0 0 0 0 0 0 0 0 0 21 25 57 50 130 123 125 137 138 147 161 157 121 118 121 113 91 89 105 121 81 89 97 99 98 93 91 90 99 92 92 91 80 65 50 50 0 0 0 0 0 0 0 0 0 0 11 0 39 87 82 48 0 0 0 0 0 0 0 0 67 78 138 151 123 77 35 0 0 2 22 13 0 0 0 0 37 16 0 0 4 18 9 0 0 0 0 0 0 4 0 0 0 0 0 22 14 0 0 15 0 5 15 1 15 0 0 0 0 1 0 0 0 0 0 0 0 0 46 80 0 0 20 0 94 255 0 88 0 24 9 0 17 0 0 0 0 0 0 0 8 7 3 9 1 3 0 0 15 11 5 0 0 9 6 0 0 0 0 0 0 0 0 0 0 1 0 2 8 0 6 9 19 44 0 29 71 77 0 0 0 48 0 0 255 191 0 61 84 0 0 0 0 16 0 0 40 4 0 10 11 19 0 0 8 0 0 0 0 0 0 6 0 0 1 6 0 0 0 1 0 1 4 0 5 15 10 9 0 0 5 39 59 39 0 0 0 24 0 0 2 0 75 19 6 0 26 0 20 0 53 90 131 25 0 1 111 0 32 50 24 20 25 20 29 9 16 28 6 24 19 7 0 0 0 0 16 0 0 0 5 5 12 7 1 0 0 0 0 0 14 24 0 0 0 83 191 14 0 31 0 33 57 0 0 0 0 34 0 20 13 5 0 0 0 0 0 0 0 5 18 12 6 0 13 25 0 0 62 45 0 0 0 0 0 25 0 0 11 7 12 0 0 0 4 0 12 2 6 0 0 0 5 0 0 0 0 29 31 0 0 41 60 21 17 18 26 0 0 0 0 0 73 177 0 0 19 11 0 8 0 0 3 5 0 0 0 0 7 0 8 2 9 0 0 0 3 2 0 0 5 2 0 0 20 12 12 0 0 9 3 0 12 0 0 0 9 12 4 0 5 17 9 0 5 24 16 20 14 21 9 0 8 18 7 13 0 117 44 0 0 0 224 52 34 19 0 0 141 0 0 84 0 0 2 26 3 0 0 0 19 0 0 7 1 13 18 0 0 0 0 0 69 0 0 49 0 5 1 1 0 0 0 0 0 0 28 6 0 7 37 0 0 0 0 1 0 3 7 0 6 16 10 0 0 0 0 45 0 17 0 0 27 6 0 0 0 0 10 0 6 16 21 0 0 14 0 0 14 0 0 33 0 0 0 25 41 43 21 0 57 53 0 21 55 0 55 11 22 0 0 20 20 0 0 0 42 60 42 0 0 20 20 0 67 0 38 93 114 0 0 0 10 4 0 0 1 0 0 0 0 0 0 0 0 0 5 4 35 22 0 0 0 9 8 0 38 2 0 15 23 6 0 13 47 26 11 4 0 10 0 0 0 15 37 43 0 0 0 31 9 4 8 12 7 3 16 13 0 0 0 0 0 0 0 0 44 26 90 0 61 0 65 0 56 0 0 37 28 7 11 50 0 0 0 0 0 5 0 0 17 0 0 3 0 0 0 0 16 29 0 0 57 24 0 55 56 45 22 0 0 0 0 0 9 14 42 43 0 0 0 0 3 0 5 12 2 1 9 9 0 0 0 0 0 0 0 0 0 0 0 0 0 0 0 0 13 0 1 0 3 8 6 24 0 0 0 0 0 0 0 0 13 4 8 9 11 4 8 3 8 3 5 6 6 6 8 1 6 0 5 0 6 2 10 5 0 16 0 0 0 7 4 2 0 6 0 0 4 4 4 6 0 3 5 6 4 0 3 8 6 5 3 9 7 4 10 6 4 3 3 3 4 5 7 0 3 0 0 0 0 3 0 5 3 3 0 0 0 0 2 0 22 9 11 0 0 7 3 0 3 0 0 3 0 0 0 0 0 0 0 0 0 0 0 0 0 0 0 0 0 0 0 0 0 0 0 255
255 0 0 0 0 0 0 0 0 0 0 0 0 0 0 3 2 7 0 0 19 29 23 56 81 39 0 0 0 0 0 82 0 22 18 10 13 9 0 21 0 11 8 3 3 0 0 0 0 0 0 0 0 0 0 0 0 0 0 0 0 0 0 0 0 0 38 95 97 59 21 0 0 3 4 2 13 10 10 19 0 0 0 0 0 0 0 0 0 0 0 0 13 25 12 1 0 0 0 0 0 0 0 0 0 0 0 0 0 21 164 202 165 91 56 41 34 48 70 89 78 91 93 100 125 119 116 124 55 221 194 0 0 53 72 0 0 14 4 0 0 0 0 3 0 0 2 22 12 0 0 25 7 7 0 0 0 0 0 0 0 0 0 2 0 9 13 27 42 0 27 1 0 39 107 0 0 255 0 9 3 56 0 18 27 7 13 12 7 16 6 17 0 0 0 0 3 14 16 7 0 4 0 0 13 10 3 0 0 19 14 6 11 1 0 0 0 0 0 0 0 0 5 5 27 13 0 34 191 0 0 0 0 103 0 0 54 176 19 0 96 0 49 24 23 46 0 36 13 20 20 18 0 0 5 0 13 5 13 6 2 0 3 5 0 4 3 0 0 0 0 5 5 12 16 0 0 16 12 0 44 10 0 0 0 2 15 15 0 71 13 25 0 0 18 0 85 0 61 0 37 0 67 107 67 0 0 79 0 0 3 28 13 13 11 9 20 3 11 27 0 8 9 5 8 7 2 0 0 0 0 0 0 4 18 15 0 0 0 0 4 3 14 32 0 77 0 0 255 82 14 29 0 7 50 41 0 0 0 63 0 17 5 0 0 0 0 0 0 0 6 5 14 15 8 0 29 5 0 10 77 10 0 17 20 0 1 26 0 0 13 0 0 0 0 0 0 6 14 16 0 0 0 0 1 0 6 0 13 72 48 0 0 57 19 0 20 47 47 0 0 0 0 19 135 6 0 51 9 0 49 14 0 0 2 0 2 0 6 0 0 0 11 10 13 8 4 2 0 0 0 5 1 0 0 0 12 5 11 0 0 15 15 0 36 6 0 5 10 18 4 0 0 0 0 0 0 2 0 0 0 9 0 0 6 16 3 8 15 111 0 0 0 36 255 12 0 0 46 0 13 0 0 64 0 0 0 24 33 14 12 46 0 0 0 23 19 24 19 0 65 0 8 0 138 0 0 168 0 0 0 0 6 18 0 0 0 0 23 0 0 12 43 0 0 0 0 0 0 4 0 9 0 2 2 17 11 0 0 19 6 0 0 0 41 17 5 19 48 1 11 2 16 17 14 0 0 3 0 0 42 9 0 10 0 0 0 11 29 38 30 27 130 142 18 62 26 0 40 0 0 0 0 0 10 11 15 0 0 18 19 0 0 49 50 0 59 0 13 177 90 0 0 18 2 1 0 0 0 0 0 0 9 2 3 14 10 11 0 0 20 16 9 0 0 6 9 0 34 4 0 28 51 44 20 23 14 5 9 11 0 0 0 17 4 42 47 0 0 0 17 41 2 10 7 10 9 0 6 9 17 19 18 16 23 21 20 15 0 0 115 0 114 0 39 0 50 0 0 0 0 0 0 38 6 6 0 0 0 11 0 0 20 7 11 12 2 8 0 0 0 30 0 0 30 0 0 55 0 14 28 25 21 5 0 0 0 0 0 0 0 0 0 58 0 7 6 0 3 0 1 0 23 11 10 15 9 14 13 9 0 0 0 4 13 10 13 0 16 3 8 0 5 9 5 27 0 11 4 4 10 4 7 5 6 0 0 0 0 0 0 0 0 0 0 0 0 0 0 0 5 0 4 0 0 0 6 6 0 4 0 0 0 16 17 0 5 0 0 0 0 5 3 6 2 0 0 0 0 3 0 2 0 0 0 0 0 0 0 0 3 0 0 0 1 0 0 0 0 0 2 0 2 0 2 0 1 0 0 0 0 0 5 0 19 8 11 0 0 7 3 0 3 0 0 3 0 0 0 0 0 0 0 0 0 0 0 0 0 0 0 0 0 0 0 0 0 0 0 255
255 0 0 0 0 0 0 0 0 0 0 0 0 0 0 4 5 0 0 6 14 21 0 0 0 0 0 0 36 4 0 20 0 19 22 14 9 14 4 13 0 0 0 0 0 0 0 0 28 12 14 0 0 0 0 0 0 0 0 0 0 0 0 0 0 0 0 0 0 0 0 0 0 0 0 0 0 0 0 0 0 0 0 0 0 0 0 0 35 3 7 21 9 0 0 0 0 0 0 0 0 0 0 0 42 91 204 255 255 216 141 105 167 140 112 125 151 174 184 201 106 100 77 69 82 73 46 65 0 0 96 149 91 0 0 27 0 17 33 10 0 0 8 19 0 0 2 5 7 0 3 7 0 0 0 0 0 0 0 23 0 0 7 9 23 19 22 28 50 0 0 0 18 54 0 0 0 249 32 0 0 71 0 55 2 2 9 0 12 13 0 9 0 7 0 0 2 0 0 0 0 5 12 0 10 13 9 0 5 16 7 2 9 0 0 0 0 0 0 0 0 6 0 3 29 0 21 86 203 0 0 0 0 0 7 0 0 13 249 37 56 0 81 21 5 45 0 40 0 0 13 0 0 0 2 19 8 13 15 12 9 9 0 3 17 5 10 4 0 1 11 22 0 13 10 0 0 16 13 0 56 25 0 0 0 0 11 37 0 49 8 51 14 0 17 0 43 0 55 0 89 53 115 106 0 0 54 63 0 58 38 0 5 8 0 6 0 0 0 13 0 0 0 0 0 6 5 13 0 0 0 0 0 9 13 7 20 21 1 4 0 0 0 0 0 91 0 0 255 185 70 0 33 2 20 48 49 5 0 9 0 0 0 0 0 3 9 0 9 2 11 7 5 11 0 0 19 0 0 22 49 0 0 13 33 0 13 14 0 0 14 0 0 0 0 0 3 0 8 6 0 0 0 0 0 0 8 0 0 0 0 0 28 30 17 27 39 59 31 0 0 8 22 108 140 0 0 71 0 0 45 0 0 0 0 1 1 0 17 5 1 0 2 2 10 9 9 6 0 2 0 0 3 6 0 0 0 4 5 0 0 15 17 0 35 7 1 9 5 10 2 5 0 9 5 0 0 5 0 11 0 13 1 0 29 32 21 43 72 10 0 0 0 5 255 72 70 0 10 44 41 48 18 0 41 0 0 36 56 23 9 15 0 0 42 28 0 0 24 41 33 0 34 0 57 1 0 110 0 0 0 0 19 38 22 3 8 0 5 9 0 17 28 0 0 0 0 0 3 3 0 16 0 0 9 7 13 8 0 10 54 0 0 0 40 18 0 0 38 0 1 7 19 24 30 21 31 15 0 0 52 24 0 8 27 5 0 0 0 0 3 36 0 34 0 68 36 29 0 0 13 15 0 0 0 7 27 12 0 0 17 4 2 33 15 0 32 0 21 176 12 0 0 9 12 7 0 0 0 9 11 12 12 9 12 22 16 10 0 0 5 13 11 9 0 12 21 36 4 0 0 0 19 0 0 0 0 0 5 1 1 0 6 32 33 33 0 0 0 56 68 0 10 11 8 9 5 9 11 19 6 16 14 11 17 14 12 15 7 63 194 0 0 0 0 103 80 0 0 0 0 0 0 0 16 18 4 0 0 25 39 0 0 2 0 0 0 27 21 7 0 45 2 0 29 1 0 54 0 0 14 37 35 16 2 18 0 0 0 0 0 0 33 81 0 8 17 11 10 8 5 4 15 11 12 10 14 11 10 12 14 14 13 13 8 8 3 0 2 0 0 0 0 0 0 3 0 1 0 0 0 0 0 0 2 0 3 0 3 0 3 0 2 0 0 0 0 0 0 0 5 0 0 1 3 4 0 10 0 1 2 0 0 16 12 4 2 4 0 0 1 6 3 5 0 0 0 0 0 0 2 0 0 0 0 0 0 0 0 0 6 2 1 0 0 0 0 1 0 0 0 0 0 0 0 0 10 0 0 0 0 3 8 0 15 8 18 0 0 8 3 0 3 0 0 3 0 0 0 0 0 0 0 0 0 0 0 0 0 0 0 0 0 0 0 0 0 0 0 255
255 0 0 0 0 0 0 0 0 0 0 0 0 0 0 3 0 0 0 1 13 2 0 0 0 0 0 0 0 0 0 0 0 0 0 0 0 0 0 0 0 0 0 0 0 0 0 0 13 0 8 6 13 12 18 38 0 12 11 12 0 0 0 0 93 48 0 0 0 0 0 15 15 0 11 1 3 17 11 16 7 8 18 25 28 19 31 32 0 0 0 0 0 0 0 0 0 0 0 91 181 255 255 255 255 255 255 202 156 133 128 133 54 55 32 12 0 0 0 0 0 0 0 0 0 0 0 0 0 0 0 121 182 0 0 77 0 14 24 6 0 16 9 7 0 16 4 0 0 18 19 0 0 0 3 5 7 0 8 23 0 5 0 12 11 19 11 12 1 0 0 41 56 0 0 0 0 58 104 0 0 58 0 51 0 0 0 0 0 0 0 0 9 12 3 0 9 0 0 0 0 0 14 0 2 11 0 5 0 0 0 0 0 0 0 0 0 2 0 1 5 8 0 7 3 18 16 130 19 0 0 0 0 0 14 0 0 0 88 167 4 0 56 0 0 42 0 0 0 8 6 0 0 0 15 25 0 0 16 14 8 13 2 4 4 3 14 4 0 4 3 0 0 14 9 0 0 12 8 0 0 0 14 26 16 0 0 0 0 0 0 29 44 0 29 31 0 0 34 0 86 68 78 0 0 0 55 0 0 35 50 0 5 0 0 2 0 0 0 2 0 0 0 0 1 0 0 0 0 0 0 0 0 0 0 0 26 0 0 1 0 0 0 0 5 12 0 0 0 168 109 0 29 4 0 2 41 71 27 0 0 2 0 0 0 12 29 1 8 0 2 5 17 6 0 0 13 0 6 30 0 0 5 0 22 0 8 13 0 0 24 0 0 0 7 1 0 0 0 0 25 4 0 0 0 1 5 0 0 0 0 31 31 25 19 60 1 34 0 0 0 29 14 145 0 0 38 2 0 0 0 0 3 0 0 0 0 0 2 1 0 0 0 0 0 1 5 0 0 0 0 0 0 0 0 0 0 0 5 0 0 7 7 0 9 0 4 5 0 0 0 7 0 26 28 4 15 20 26 6 0 16 16 18 30 35 11 48 0 0 0 0 0 0 234 96 102 0 0 0 10 135 0 0 70 0 0 7 10 0 0 0 0 0 43 40 0 0 23 29 19 0 9 0 0 72 0 23 0 0 0 2 3 15 7 6 21 0 0 17 0 0 20 0 3 0 0 0 5 0 0 13 0 0 0 0 15 5 0 5 15 0 0 0 0 0 0 0 3 0 0 6 12 10 13 0 13 18 0 0 39 4 0 19 0 0 0 0 0 0 0 15 16 43 0 0 0 0 72 56 74 58 30 0 0 0 0 0 4 8 11 5 6 0 0 0 0 6 49 105 0 0 21 0 11 7 0 0 5 8 0 2 5 0 0 0 0 4 0 0 0 6 0 0 0 10 4 0 0 0 0 0 0 0 0 0 0 0 0 0 5 1 0 0 0 0 0 0 0 40 15 0 13 0 8 6 0 0 5 11 0 0 0 0 0 0 0 0 28 0 21 35 151 0 0 0 58 14 21 11 1 13 0 0 0 8 20 0 0 23 35 0 0 0 0 0 0 26 25 21 0 43 26 0 16 27 2 4 0 0 4 20 17 12 3 26 23 18 0 0 0 18 32 22 0 0 8 3 2 1 0 0 2 0 0 0 0 0 0 0 8 1 4 0 0 0 0 0 9 0 6 1 6 0 4 0 12 2 7 1 3 2 0 1 12 5 3 0 5 0 6 0 10 2 5 5 4 4 7 0 5 2 2 0 0 3 0 11 0 3 5 0 0 13 14 0 11 1 0 0 0 3 0 0 0 0 2 3 0 4 0 3 1 0 0 1 2 3 3 2 0 0 3 0 6 3 0 11 0 0 0 1 0 2 0 0 9 0 0 0 0 0 5 0 0 2 9 0 0 11 4 0 3 0 0 3 0 0 0 0 0 0 0 0 0 0 0 0 0 0 0 0 0 0 0 0 0 0 0 255
255 0 0 0 0 0 0 0 0 0 0 0 0 0 1 4 9 15 8 0 4 26 35 61 94 152 138 54 0 0 0 0 0 0 0 0 0 70 55 34 101 66 1 0 0 0 0 0 0 0 7 2 9 8 14 38 0 2 0 0 0 0 0 0 0 0 0 26 70 64 24 0 0 0 0 0 0 0 0 0 0 0 0 0 0 0 0 0 0 0 0 0 0 29 110 139 255 255 255 255 255 217 112 0 0 0 0 0 0 0 0 0 0 0 0 0 0 0 0 0 0 0 0 0 0 0 0 18 0 0 0 0 46 222 133 0 0 15 2 0 14 23 0 0 1 39 14 0 0 39 38 0 0 0 0 13 20 20 21 36 23 26 24 7 4 0 5 1 7 16 11 32 0 0 0 169 169 25 228 3 0 42 0 19 0 0 16 10 16 6 0 8 5 0 2 4 7 0 0 4 0 1 6 0 0 0 0 0 0 5 0 0 2 7 9 0 7 3 11 8 12 12 0 17 0 78 26 206 0 0 0 22 0 62 0 0 55 0 0 255 193 35 52 0 0 69 0 0 47 34 10 0 0 9 7 0 0 0 0 4 15 19 9 17 0 0 7 17 26 7 0 0 0 23 24 0 0 40 46 0 0 0 17 1 0 0 0 1 25 5 0 44 64 0 0 3 0 0 53 0 138 167 59 0 0 117 0 0 61 0 0 0 5 6 0 2 0 0 0 0 18 12 17 6 2 0 0 0 0 0 0 0 0 0 0 0 42 31 21 11 2 7 13 25 3 0 54 0 0 179 225 39 41 16 14 0 8 36 24 0 0 38 36 10 0 0 6 0 0 0 0 0 5 5 6 0 0 0 32 0 0 7 37 0 0 0 18 18 0 4 28 6 3 1 10 14 2 0 0 0 40 20 0 0 16 12 0 0 0 68 54 41 9 26 48 32 10 27 0 0 0 42 53 221 0 0 186 0 71 45 0 3 6 13 22 14 3 0 3 11 3 0 0 1 0 0 4 3 16 19 13 16 10 8 12 0 0 7 6 0 0 6 0 0 0 0 2 0 0 0 1 34 0 0 9 0 0 0 1 0 0 32 42 30 23 45 42 88 0 0 37 0 0 0 248 7 0 47 0 0 0 0 0 140 0 0 0 0 3 10 36 58 39 0 17 36 34 44 33 0 84 6 0 29 3 115 0 29 0 22 34 16 0 0 0 6 46 0 0 42 22 0 11 0 0 5 5 0 11 5 0 8 16 0 0 0 17 20 3 7 0 0 43 59 0 0 68 55 0 0 0 16 20 5 0 0 0 6 1 1 29 0 0 48 0 0 4 27 8 0 0 54 123 160 0 0 0 32 26 0 11 8 46 82 51 0 0 0 10 0 0 8 0 0 0 12 0 60 156 116 0 0 75 0 0 0 0 0 2 0 0 0 0 0 0 0 0 0 7 3 0 0 9 11 25 31 2 0 0 0 0 0 0 0 0 51 20 24 27 54 89 85 54 22 0 0 0 56 23 0 0 29 2 0 0 0 0 0 2 10 16 18 14 20 19 20 22 20 0 0 0 64 168 158 48 0 7 12 40 32 33 47 30 0 0 25 51 8 0 0 0 0 34 28 0 0 0 30 44 19 0 31 78 33 13 39 0 0 24 22 33 30 18 19 26 41 21 52 37 17 40 74 37 0 5 7 0 7 0 0 7 0 8 16 15 12 14 19 8 11 0 0 0 1 0 4 3 0 6 1 9 7 8 8 9 0 20 4 7 0 0 0 0 0 3 0 0 2 0 0 1 0 5 6 0 0 7 8 3 7 13 2 3 1 5 9 4 13 0 4 1 0 0 13 9 0 9 0 0 0 0 0 0 0 5 4 0 0 0 1 6 3 9 7 6 7 0 0 0 0 0 0 0 0 0 3 9 10 3 4 10 5 10 6 4 0 0 0 0 0 0 0 0 0 0 6 11 0 0 5 6 0 5 4 0 5 1 1 2 2 1 0 0 0 0 0 0 0 0 0 0 0 0 0 0 0 0 0 0 255
255 0 0 0 0 0 0 0 0 0 0 0 0 0 1 0 0 0 0 0 2 0 0 4 27 33 44 82 115 146 157 199 97 55 0 0 0 0 0 0 0 0 0 29 47 26 0 0 0 0 0 0 0 0 0 0 0 0 0 0 0 0 0 0 0 0 0 0 0 0 0 0 0 0 0 0 0 0 0 0 0 0 0 0 0 0 0 0 48 60 125 176 206 189 157 93 111 0 0 0 0 0 0 0 0 0 0 0 0 0 0 0 0 0 0 0 0 0 0 0 0 0 0 0 0 0 0 0 9 10 0 0 0 0 0 140 0 0 0 0 8 2 35 47 0 0 0 0 9 0 0 13 0 0 0 0 1 7 0 0 14 0 0 16 50 23 0 0 11 28 0 0 0 0 135 230 11 0 60 220 0 0 72 18 17 31 14 0 5 23 8 0 4 10 10 0 0 14 17 1 0 0 4 5 14 28 23 16 1 0 0 17 12 0 0 9 6 0 6 0 3 0 2 61 0 182 146 0 0 0 16 0 0 0 4 0 0 0 0 0 192 150 47 122 112 0 20 22 0 0 0 6 0 0 0 15 18 0 0 0 0 0 0 57 0 23 6 0 0 0 16 33 7 0 0 14 8 0 0 8 42 26 0 0 13 35 18 0 69 8 0 0 0 0 0 19 50 0 9 177 204 0 0 0 0 0 0 0 0 0 0 0 0 0 0 0 0 2 0 0 0 0 0 0 0 0 1 1 0 0 0 0 0 0 0 0 0 0 4 32 38 21 0 0 0 61 0 49 0 0 226 90 37 0 50 36 20 29 9 117 8 0 0 0 1 6 30 29 15 15 16 5 0 0 0 0 0 0 0 0 9 16 16 29 50 17 0 0 9 0 1 0 0 10 17 0 0 1 55 54 0 19 61 17 0 0 0 0 60 7 1 2 27 22 8 16 0 0 0 28 0 109 217 0 0 0 0 94 65 0 0 76 0 0 0 0 0 0 0 0 13 8 0 0 11 0 7 0 0 0 0 0 0 3 6 1 19 15 21 17 0 0 10 46 0 11 7 18 29 21 7 0 5 11 14 11 22 11 0 0 16 3 0 33 89 50 0 0 0 0 0 0 0 0 255 24 60 61 85 0 0 128 0 209 56 3 79 104 0 0 0 0 8 0 0 10 3 0 0 9 0 25 2 0 0 28 8 36 0 40 0 0 43 9 0 4 0 0 19 8 0 0 17 44 0 3 12 0 0 10 23 0 0 15 12 0 0 0 0 0 8 2 0 0 0 0 0 0 52 0 63 68 0 7 18 16 41 42 0 0 24 13 0 0 0 45 70 19 0 0 3 24 0 0 0 36 119 112 59 50 3 0 44 0 41 15 76 3 21 4 38 0 0 19 57 3 33 224 126 0 0 20 0 48 5 8 9 0 0 0 0 1 0 0 7 0 0 0 0 0 0 0 0 0 0 0 0 0 0 14 71 59 58 70 57 36 43 43 14 0 0 0 0 0 0 0 3 0 0 1 0 0 0 0 2 3 1 1 2 9 0 0 0 0 0 0 0 0 8 11 0 0 0 0 17 37 0 32 38 0 0 0 27 83 0 38 24 0 0 29 34 0 0 0 21 51 27 0 0 29 0 0 0 0 0 0 47 69 23 0 0 8 0 0 3 41 0 0 16 21 12 2 5 2 22 2 15 15 10 5 17 11 0 0 0 0 1 6 5 11 0 8 3 6 9 4 10 9 0 0 0 0 0 0 0 0 5 0 0 4 3 3 2 0 0 13 0 0 3 0 0 1 0 0 0 0 0 0 0 0 0 0 0 0 0 0 0 0 13 0 0 0 0 2 0 0 12 0 0 0 0 1 6 2 0 0 0 0 0 0 0 0 0 0 0 0 0 3 1 1 1 1 0 0 0 0 0 0 0 0 0 0 0 0 0 0 11 9 7 10 7 10 4 0 5 0 0 2 0 0 0 7 0 0 0 0 2 2 0 0 2 0 0 0 0 0 0 0 0 0 0 0 0 0 0 0 0 0 0 255
255 0 0 0 0 0 0 0 0 0 0 0 0 0 1 2 3 3 5 0 3 0 0 1 0 0 0 0 4 18 25 50 64 118 174 214 216 183 126 97 0 0 0 0 0 0 0 0 0 0 0 0 0 0 0 0 0 0 0 0 0 0 0 0 0 0 0 0 0 0 0 0 19 16 29 15 15 16 18 32 35 64 69 71 55 49 56 35 0 0 0 0 0 0 0 0 0 0 0 0 0 0 0 0 0 0 0 0 0 0 0 0 0 0 0 0 0 0 0 0 0 0 0 0 0 0 0 0 0 0 0 0 0 0 0 0 79 54 54 25 24 1 0 0 8 21 36 17 5 0 0 2 23 21 18 15 9 2 6 8 18 3 0 0 0 0 38 80 56 0 0 0 136 225 89 0 36 0 0 158 147 40 16 31 0 0 0 0 0 3 12 14 0 8 8 0 0 7 8 0 0 6 1 0 1 8 16 0 0 0 0 8 2 0 0 3 28 11 0 4 17 32 3 0 71 70 0 0 0 0 0 0 0 0 2 0 0 0 0 0 0 168 185 0 0 33 156 0 64 21 0 0 0 20 26 5 31 12 27 43 27 0 0 0 0 9 38 25 6 12 13 0 29 14 1 18 18 0 0 7 0 0 0 0 0 19 12 0 63 9 0 13 40 9 0 0 22 0 119 217 0 0 0 0 0 0 0 0 0 0 0 1 0 0 0 0 0 0 0 0 0 0 0 0 0 0 0 0 0 8 8 11 0 0 0 1 0 0 0 0 0 0 18 17 11 0 0 30 0 0 0 255 11 59 0 0 15 28 0 45 33 0 0 23 0 0 17 23 0 0 3 2 0 5 0 0 35 13 14 9 5 3 0 0 3 0 0 1 25 29 27 29 0 15 26 2 0 0 0 0 33 32 0 0 0 0 46 56 11 21 27 46 39 2 0 0 88 0 78 37 0 208 99 0 0 0 0 10 63 69 7 0 0 0 8 3 7 11 16 9 14 2 2 3 13 9 10 0 6 4 0 1 1 7 2 0 0 3 14 14 0 0 12 45 0 0 0 0 7 3 0 0 0 0 0 0 17 27 30 47 7 56 64 31 0 0 0 0 0 0 6 0 0 0 248 125 0 39 181 139 65 255 0 0 111 0 0 0 0 24 77 54 2 0 7 17 16 0 0 45 0 39 40 0 0 30 30 0 0 38 0 0 42 9 0 9 13 0 4 15 0 0 23 6 0 18 18 0 0 5 3 0 84 0 0 17 45 31 0 0 0 0 0 0 0 0 0 0 62 0 50 12 0 46 0 0 0 17 0 0 31 30 0 21 0 1 3 0 0 7 13 36 50 88 99 67 0 0 0 0 38 0 32 0 48 0 36 0 84 0 0 35 14 0 0 0 40 173 3 0 0 23 12 26 14 13 12 10 4 14 0 0 0 0 0 1 0 0 2 7 80 66 21 2 0 0 0 0 3 44 65 59 42 61 41 27 18 19 10 4 0 0 0 0 0 0 0 0 0 0 0 0 0 0 0 0 0 0 0 0 0 0 0 0 0 0 0 1 0 0 0 0 0 0 0 0 0 2 31 36 24 29 23 10 0 0 0 0 0 5 21 0 21 14 10 15 21 0 0 20 0 9 0 8 9 0 0 0 0 0 0 0 0 0 0 1 4 8 19 19 18 18 6 2 0 0 0 4 0 0 0 0 0 0 0 1 3 0 0 2 0 0 2 0 0 4 1 0 0 0 3 0 0 0 0 0 6 0 0 1 0 0 0 2 0 0 0 0 0 0 0 0 0 0 0 0 0 0 0 0 2 0 0 0 0 0 0 0 3 0 0 0 0 5 3 0 8 1 0 0 0 0 3 0 0 0 0 0 0 0 0 0 0 0 1 0 0 0 1 0 0 0 0 0 0 0 0 0 0 0 0 0 3 0 0 0 0 0 0 0 0 0 0 0 5 0 3 3 1 2 2 10 0 3 0 0 3 3 0 0 3 0 0 0 0 0 0 0 0 0 0 0 0 0 0 0 0 0 0 255
255 0 0 0 0 0 0 0 0 0 0 0 0 0 0 1 2 3 5 0 3 0 0 2 5 10 0 6 9 11 7 4 7 9 33 44 63 93 93 91 199 204 169 149 147 143 144 152 56 73 76 97 117 136 147 158 203 255 206 24 32 107 76 38 53 66 54 43 32 38 44 55 13 4 16 20 10 11 3 0 0 0 0 0 0 0 0 0 11 0 0 0 0 0 0 0 0 0 0 0 0 0 0 0 0 0 0 0 0 0 0 0 0 0 0 0 2 11 18 5 33 15 23 27 34 34 28 36 33 50 51 57 25 0 0 0 0 0 2 10 20 0 0 0 0 0 19 15 19 13 36 59 19 13 0 0 0 0 0 8 0 20 77 99 82 17 0 0 0 0 67 95 44 0 0 0 29 0 0 0 217 117 0 0 16 1 11 11 2 0 0 16 0 12 8 0 0 5 7 0 1 5 11 0 4 6 9 0 6 0 0 0 0 0 0 19 6 11 0 0 6 37 27 16 104 0 0 0 0 26 6 8 23 18 19 10 4 2 0 0 0 0 0 152 231 11 0 57 0 3 56 55 20 0 14 36 5 0 0 36 30 0 0 6 0 0 27 27 23 25 7 0 33 5 4 7 6 0 0 8 0 0 9 1 3 16 13 0 0 0 0 0 0 7 40 84 54 244 184 0 0 0 0 0 8 0 0 0 0 0 0 0 0 0 0 0 0 0 0 0 0 0 0 0 0 0 0 0 0 0 0 0 0 0 0 0 0 0 0 0 0 0 0 0 45 0 83 28 81 0 0 255 232 0 0 62 16 22 31 23 54 42 66 46 0 0 3 0 0 0 0 0 0 0 0 0 6 8 7 1 0 0 0 0 1 2 0 0 0 0 0 0 0 0 5 9 12 24 10 5 0 0 1 10 37 51 39 27 0 14 53 40 26 0 0 0 7 2 27 0 168 152 0 0 0 0 0 0 11 112 70 0 0 0 0 1 0 6 10 4 5 0 0 0 1 0 4 0 0 0 0 0 5 7 6 0 0 2 8 10 5 0 5 24 0 8 2 6 6 5 0 1 19 4 0 0 8 2 15 46 28 73 51 0 0 0 0 0 0 0 24 0 0 0 30 255 97 57 87 140 0 139 66 0 0 0 0 0 97 132 29 0 0 14 23 4 0 10 5 44 0 3 61 5 0 23 75 0 2 31 0 0 31 15 0 0 53 0 2 12 0 12 23 0 3 28 11 0 0 5 0 0 80 0 0 21 30 0 0 0 0 0 10 14 0 0 0 0 33 0 33 0 0 65 0 0 0 5 0 0 25 8 0 4 0 0 0 0 0 39 25 4 0 0 0 34 22 7 27 75 35 0 28 0 55 0 36 0 96 0 0 51 75 16 0 2 103 75 0 0 14 0 66 0 12 8 1 1 4 0 9 9 36 39 34 37 43 51 43 45 25 18 0 0 0 0 33 43 63 77 77 50 31 30 4 0 0 0 0 0 0 0 0 0 0 0 0 0 0 0 0 0 0 0 0 0 0 0 0 0 0 0 0 0 0 0 0 0 0 0 0 0 0 0 0 0 0 0 0 0 22 49 36 7 0 28 43 12 0 11 18 0 18 0 0 0 10 12 6 41 0 43 22 38 113 62 0 29 53 32 32 37 38 17 27 41 5 0 0 5 2 0 0 0 1 0 0 0 0 0 2 0 5 0 0 0 0 1 0 4 0 0 0 2 0 2 0 0 7 7 0 0 3 5 0 0 7 4 3 0 5 3 2 0 4 0 2 4 5 0 3 0 0 0 0 4 3 6 3 0 11 6 6 6 7 8 9 12 0 1 0 0 5 7 6 0 16 5 1 0 3 5 3 1 9 6 6 6 6 6 6 6 6 5 3 1 0 6 3 2 2 3 3 3 3 3 3 3 3 1 7 1 6 1 7 5 0 0 0 0 0 5 3 0 4 0 3 4 3 0 0 13 0 3 0 0 3 3 0 0 3 0 0 0 0 0 0 0 0 0 0 0 0 0 0 0 0 0 0 255
255 0 0 0 0 0 0 0 0 0 0 0 0 0 0 2 0 0 0 0 3 0 0 2 14 19 10 16 2 6 0 0 8 0 0 0 0 0 9 21 45 58 107 153 163 182 170 154 255 255 255 255 255 255 255 255 255 255 255 129 128 205 165 111 47 51 30 9 0 0 0 0 0 0 0 0 0 0 0 0 0 0 0 0 0 0 0 0 0 0 0 0 0 0 0 0 11 3 2 0 0 0 0 0 12 2 6 11 20 15 35 24 32 22 26 36 38 36 39 38 51 37 39 38 49 46 47 52 47 45 51 34 40 22 10 0 0 0 0 0 0 0 0 0 18 19 17 0 0 0 0 0 0 8 7 6 21 35 32 61 91 69 1 0 0 0 0 0 6 35 52 32 0 0 0 0 0 49 0 0 3 155 47 0 16 5 10 38 34 0 0 0 0 6 0 0 1 5 6 0 9 7 5 0 0 6 12 0 5 4 0 0 0 6 7 15 0 0 7 0 0 16 32 84 0 0 0 21 59 11 5 66 1 5 11 15 20 32 12 15 0 0 0 0 143 143 94 80 0 6 39 40 0 0 0 12 0 0 0 0 0 0 28 67 0 0 0 0 0 2 0 0 0 0 0 0 0 0 0 15 0 17 25 8 0 0 0 0 0 6 60 71 48 0 0 8 165 250 0 0 0 23 0 0 13 0 0 1 0 0 0 0 0 0 0 0 0 0 0 3 0 0 0 0 0 0 0 0 0 0 0 0 0 0 0 0 0 0 0 0 0 0 0 0 0 0 23 0 13 1 0 0 255 93 17 59 0 23 24 0 0 11 47 9 0 0 0 0 10 6 3 10 11 16 18 17 0 0 0 0 6 1 0 0 0 7 6 3 0 0 0 0 4 15 12 7 8 19 7 0 0 0 66 47 37 26 0 0 33 35 27 0 0 0 0 16 0 92 0 60 255 0 0 0 2 32 14 0 0 20 71 47 0 0 0 0 0 0 0 0 6 0 8 0 0 5 11 0 10 0 2 2 3 0 0 0 0 0 7 7 1 5 5 12 33 28 18 10 12 4 0 3 6 14 13 19 22 18 14 54 9 4 0 0 0 0 13 0 16 0 54 0 0 0 0 255 232 0 0 54 0 0 21 165 0 68 0 0 4 52 3 23 0 37 34 4 0 16 33 34 0 0 56 27 0 5 85 0 40 16 0 0 19 21 0 0 45 0 0 12 0 5 23 0 0 0 0 9 0 8 7 3 10 0 12 32 0 0 0 43 0 4 15 23 17 0 0 0 0 5 30 0 6 75 0 8 4 19 2 0 21 3 0 0 44 11 0 0 11 38 9 0 26 0 0 0 21 7 0 7 0 0 10 0 53 0 34 0 61 0 0 37 36 0 0 42 186 0 0 0 31 0 37 0 8 7 3 4 9 22 20 26 0 8 11 7 0 0 0 0 0 0 0 11 20 49 57 82 63 59 14 0 0 0 0 0 0 0 0 0 0 0 0 0 0 0 0 0 0 0 3 0 0 0 0 0 0 0 0 4 0 0 0 0 0 0 0 0 0 0 0 0 0 0 0 0 0 0 0 0 0 11 29 36 0 30 47 17 0 1 8 0 28 14 16 20 25 25 31 52 0 37 0 0 112 50 0 39 0 0 0 0 0 0 0 0 0 0 0 0 0 0 0 0 0 0 0 0 1 0 1 0 8 0 0 0 2 0 0 4 0 0 0 0 0 0 0 0 11 11 0 0 0 0 6 8 1 4 0 1 5 1 0 0 4 0 0 0 0 7 0 0 8 0 4 1 0 3 0 0 5 3 3 4 6 0 1 7 0 3 0 0 0 1 2 0 10 4 0 0 3 6 5 0 3 0 0 0 0 0 0 0 0 0 0 5 2 1 0 8 0 0 0 0 0 0 0 0 0 0 4 0 4 0 5 3 3 3 2 0 0 0 0 0 2 0 4 6 0 2 0 8 0 3 0 0 3 3 0 0 3 0 0 0 0 0 0 0 0 0 0 0 0 0 0 0 0 0 0 255
255 0 0 0 0 0 0 0 0 0 0 0 0 0 0 2 0 0 0 0 3 0 0 4 0 0 0 0 15 23 17 33 25 35 39 50 61 42 20 0 0 0 0 0 0 0 5 1 0 0 0 0 0 0 0 0 0 0 0 0 0 0 0 0 0 0 0 0 0 0 0 0 0 0 0 0 0 0 0 0 0 0 0 0 4 9 19 0 11 0 0 0 0 8 0 0 0 0 2 10 12 13 20 26 37 32 28 26 40 33 43 42 31 38 31 33 30 22 25 14 22 22 18 15 15 9 6 7 0 0 0 0 0 1 9 17 0 2 0 0 0 0 0 0 35 13 16 31 68 96 99 98 63 67 73 75 90 77 72 102 66 51 0 0 0 15 39 50 87 0 0 0 0 13 9 0 0 1 0 0 0 44 161 95 0 0 0 0 8 17 0 21 0 0 0 3 5 0 0 0 11 5 9 0 0 2 12 0 5 0 0 0 3 4 10 13 0 3 11 16 45 76 46 48 0 0 16 59 34 0 0 47 19 14 4 16 28 27 17 1 1 54 0 0 0 0 107 159 158 49 0 0 0 1 1 0 44 26 2 0 0 0 0 11 28 0 0 0 0 0 0 6 0 0 0 0 0 6 10 9 6 29 26 7 0 1 13 0 40 0 0 0 29 106 134 241 110 0 0 0 0 0 29 0 0 0 0 0 0 0 0 0 0 0 0 0 0 0 1 6 0 0 0 0 0 0 0 0 0 2 0 0 0 0 3 0 0 0 0 3 0 0 0 0 0 0 0 0 0 0 0 0 0 253 100 0 72 32 0 32 0 3 29 7 0 0 0 0 24 15 19 16 26 22 25 16 6 6 9 12 15 4 4 5 0 0 3 11 12 13 21 37 26 20 0 0 0 0 0 0 0 19 42 16 0 0 22 44 90 66 0 0 0 0 0 0 14 0 20 221 0 0 7 24 0 22 25 0 0 0 6 64 45 30 24 11 0 0 8 0 15 2 9 8 11 9 8 7 12 9 5 0 3 2 6 4 0 4 10 5 10 0 0 0 2 1 0 0 0 4 0 8 0 7 23 55 62 55 25 58 0 0 0 0 0 30 18 0 16 0 9 0 5 0 0 89 141 15 0 152 93 0 0 218 68 102 0 0 0 11 25 80 0 41 38 0 0 25 24 13 0 0 56 26 0 0 84 0 42 0 0 0 0 9 10 0 36 0 4 17 0 0 20 0 0 0 3 5 8 7 8 12 0 36 22 0 0 0 19 39 20 0 0 9 27 23 0 0 0 5 45 0 1 54 0 36 31 36 7 0 8 0 0 0 39 30 14 0 0 10 0 0 0 17 53 32 0 0 0 49 0 0 51 0 53 0 23 0 57 17 44 32 0 0 19 68 181 0 0 0 0 21 0 5 16 12 16 24 28 31 29 36 12 22 9 9 0 0 0 0 26 30 42 60 54 33 21 12 0 0 0 0 0 0 0 0 0 0 0 0 0 0 7 0 0 0 0 3 0 0 2 0 14 4 9 11 2 7 1 13 7 12 12 7 9 6 0 10 0 1 0 0 0 0 0 0 0 0 0 0 0 0 0 0 0 0 20 25 44 52 73 61 0 3 19 1 0 0 0 7 24 117 18 0 92 27 0 34 0 0 0 0 0 0 0 0 0 0 0 0 0 0 17 2 0 0 0 0 0 0 0 0 9 0 0 0 0 6 0 2 0 4 3 2 1 0 0 0 2 2 0 1 7 5 4 10 0 0 0 0 0 1 0 0 0 0 0 0 0 0 0 0 7 0 2 0 1 5 3 3 0 0 0 0 0 0 0 0 0 0 0 0 0 3 0 0 6 0 0 0 0 0 2 0 3 0 0 0 0 0 0 0 0 0 0 2 0 0 0 0 0 0 0 0 0 0 0 0 0 0 0 1 0 1 0 0 1 0 0 0 0 0 1 0 1 0 5 0 2 0 0 4 0 3 0 0 3 3 0 0 3 0 0 0 0 0 0 0 0 0 0 0 0 0 0 0 0 0 0 255
255 0 0 0 0 0 0 0 0 0 0 0 0 0 1 2 4 5 7 0 3 0 0 5 0 1 0 0 1 0 0 0 0 0 0 2 0 0 0 0 60 42 9 0 0 0 0 0 0 0 0 0 0 0 0 0 0 0 0 0 0 0 0 1 0 0 0 0 0 0 4 0 0 0 0 5 0 0 5 0 0 0 0 0 5 9 22 10 74 69 79 88 72 75 66 57 61 60 70 76 58 59 67 65 37 37 37 34 39 35 36 35 19 21 18 17 12 1 0 0 0 4 2 4 0 0 0 0 0 0 0 0 0 0 0 0 14 15 0 0 0 0 0 0 0 0 0 0 0 4 14 9 42 53 55 36 20 0 0 0 0 0 0 0 67 73 32 0 0 0 0 0 0 0 0 6 5 0 11 20 0 0 78 74 91 50 14 0 0 4 14 9 2 0 0 5 8 0 0 1 5 4 0 0 0 10 8 0 0 6 8 0 0 8 2 0 21 7 10 57 123 110 4 0 0 18 42 19 12 22 25 0 46 27 17 23 23 24 4 0 54 0 0 0 0 0 0 38 100 92 145 121 47 6 15 41 6 19 27 32 26 5 0 0 34 10 16 33 28 5 0 0 10 20 24 9 4 9 4 0 0 18 10 0 0 13 20 8 51 0 0 4 133 190 108 98 0 0 0 16 26 0 0 5 0 0 0 0 0 0 0 0 0 0 0 0 0 0 0 0 0 0 0 0 0 0 0 0 0 0 0 0 0 0 0 0 0 0 0 0 0 0 0 13 0 45 0 22 0 0 76 0 0 67 182 41 17 0 4 28 8 3 7 39 29 42 31 0 0 0 0 0 0 0 0 0 4 0 1 0 1 0 0 0 17 9 2 3 0 0 0 0 0 0 0 0 0 0 5 0 73 36 0 0 16 35 44 32 22 3 0 0 0 0 0 0 41 12 206 2 0 0 0 68 0 0 0 14 0 0 0 0 71 37 38 34 30 21 17 8 11 0 2 3 9 11 12 0 19 5 1 5 9 8 3 0 4 0 9 2 0 1 0 0 0 1 3 8 18 29 36 49 43 48 44 38 16 0 0 0 0 0 0 0 0 0 0 0 2 0 0 0 0 0 0 0 200 251 0 106 177 0 0 32 0 0 0 0 106 100 11 0 0 32 35 0 0 7 9 3 11 0 33 25 0 2 51 0 38 0 0 10 0 7 12 0 9 0 0 11 0 0 21 0 21 8 0 12 4 0 0 0 4 0 0 0 0 55 32 0 16 0 0 0 24 36 0 0 0 0 45 0 0 35 0 34 27 28 0 0 24 4 0 0 16 3 7 0 0 0 0 0 0 0 0 0 26 52 74 97 10 0 76 0 67 0 15 0 0 20 64 15 0 28 75 125 0 0 0 0 0 15 0 11 0 0 0 0 0 0 1 4 28 30 33 37 27 25 24 17 14 11 0 0 0 0 0 0 0 0 0 0 0 0 0 0 0 0 0 0 0 0 0 0 4 0 0 0 0 0 5 0 1 0 0 2 0 0 0 0 0 0 3 2 0 1 0 0 0 3 0 0 4 0 0 0 0 0 0 0 0 0 0 0 0 0 0 0 0 0 0 0 0 47 81 80 63 71 91 160 0 15 0 0 0 0 0 0 0 0 0 5 1 0 7 12 0 0 0 0 0 0 1 0 2 0 3 0 0 0 2 7 0 2 2 3 2 3 0 0 4 1 0 0 0 0 0 2 0 0 0 4 0 0 0 6 0 0 1 0 3 0 0 0 0 0 0 0 1 4 1 0 7 1 1 0 1 0 0 0 0 0 0 0 0 0 0 0 0 0 0 0 0 0 2 0 6 0 0 0 5 1 0 0 0 0 0 0 0 0 0 0 0 1 0 0 0 1 0 2 0 0 0 0 0 0 0 0 0 0 0 0 0 0 0 1 0 0 0 0 1 2 4 0 0 0 5 2 0 3 0 0 0 3 0 0 3 3 0 0 3 0 0 0 0 0 0 0 0 0 0 0 0 0 0 0 0 0 0 255
255 0 0 0 0 0 0 0 0 0 0 0 0 0 2 0 6 0 0 0 3 0 0 8 21 22 10 4 0 0 0 0 7 0 0 0 0 0 0 14 0 0 0 0 0 0 0 0 0 0 0 0 0 0 0 0 0 0 0 0 24 0 0 0 20 26 20 21 12 5 9 6 31 34 31 34 37 45 39 25 77 66 62 68 71 68 73 59 0 0 0 9 15 20 19 13 42 33 18 12 5 2 0 0 15 21 15 18 13 10 9 12 5 5 9 5 5 0 0 8 0 11 0 0 0 0 0 7 7 24 31 32 27 13 6 4 0 0 0 0 0 8 4 27 6 0 0 0 0 0 0 0 0 0 0 0 0 0 0 0 0 0 0 0 0 0 0 0 39 0 0 0 31 37 0 0 53 0 31 85 0 0 0 0 84 76 64 2 0 2 15 0 11 0 0 8 10 0 1 4 1 12 0 0 0 12 9 2 0 5 11 0 0 5 6 0 34 10 11 43 33 0 0 0 11 24 19 0 3 51 44 0 30 15 18 16 9 0 1 5 0 0 94 23 34 17 0 0 0 0 120 144 62 0 0 39 0 0 0 18 14 20 15 9 1 1 1 35 31 7 0 10 0 19 15 0 0 7 0 0 0 0 0 0 0 17 12 0 0 55 161 206 174 14 0 0 0 117 87 0 36 48 0 5 3 1 5 3 12 8 11 1 12 5 4 9 13 9 17 8 20 15 12 20 21 18 14 24 0 1 3 0 1 6 0 8 15 12 6 0 2 22 31 50 0 15 0 32 16 0 81 56 0 0 114 204 0 0 71 21 25 11 12 4 20 33 49 0 0 0 0 0 0 0 0 0 0 0 0 0 0 0 0 0 6 13 0 0 0 0 0 0 0 0 0 0 10 39 50 51 27 4 5 19 40 56 2 0 0 0 0 0 9 18 15 0 16 120 81 0 0 73 0 57 4 0 0 23 35 0 0 0 1 0 4 16 17 8 13 0 0 0 2 0 0 0 0 0 8 0 0 0 0 0 0 0 6 0 0 0 0 0 0 0 0 0 9 12 16 14 8 31 22 34 2 0 0 0 0 0 0 10 29 27 12 0 1 0 12 0 0 59 0 23 0 0 163 255 0 0 43 0 0 0 22 0 0 0 16 34 38 6 15 1 0 0 0 14 8 0 6 0 0 11 18 2 0 0 26 0 4 35 0 1 28 0 39 0 0 15 0 13 20 0 16 0 0 11 5 0 0 0 0 0 0 0 17 31 8 0 0 8 9 0 5 18 22 45 0 0 24 30 0 9 0 4 25 11 0 0 35 27 0 0 8 0 0 0 0 0 2 4 80 11 0 0 28 59 0 0 24 0 44 0 60 0 5 5 0 0 16 0 0 71 57 75 0 0 0 0 0 0 0 0 0 0 0 0 0 0 0 0 0 0 0 0 0 0 0 0 0 0 0 0 0 0 0 0 0 0 0 0 6 6 2 0 34 23 34 25 13 7 11 1 22 9 18 20 12 15 11 14 1 10 13 13 11 15 9 15 1 0 3 5 5 1 0 0 27 17 27 27 26 27 27 22 38 38 39 46 33 0 0 0 0 0 0 0 0 0 0 0 0 0 0 0 0 0 0 0 0 0 0 0 0 0 0 0 0 0 0 0 0 0 0 0 0 0 0 0 0 0 0 0 22 0 11 6 17 9 15 17 0 7 0 0 0 2 5 0 3 0 1 2 3 3 3 8 0 0 8 2 0 5 3 11 0 6 4 2 0 5 3 3 1 0 1 2 1 1 6 0 12 5 4 3 4 8 6 6 9 3 8 3 8 5 0 8 10 9 4 0 5 8 5 2 2 2 1 3 2 8 4 0 7 3 3 3 3 3 3 3 2 1 0 0 5 2 0 4 0 3 3 3 3 3 3 2 1 0 0 3 0 3 0 6 6 0 0 0 3 0 0 0 3 2 4 3 0 0 0 3 1 3 0 0 3 3 0 0 3 0 0 0 0 0 0 0 0 0 0 0 0 0 0 0 0 0 0 255
255 0 0 0 0 0 0 0 0 0 0 0 0 0 2 0 0 0 1 0 3 0 0 8 0 0 0 0 2 2 3 0 0 9 12 15 15 6 0 0 14 12 0 0 0 4 23 26 43 27 13 10 17 28 32 42 2 61 28 0 47 57 29 42 55 38 29 39 46 54 61 58 29 25 39 41 51 55 53 54 67 37 33 33 31 32 19 19 62 57 46 45 29 17 17 1 5 0 0 0 13 21 16 2 0 0 0 0 0 0 0 0 0 0 0 7 13 22 23 34 0 0 7 13 13 14 13 21 7 11 7 0 0 7 20 52 5 22 30 20 11 11 0 0 39 44 60 84 106 117 87 93 114 119 87 83 96 107 138 133 77 71 77 63 30 0 0 0 1 16 42 23 0 0 3 51 0 0 0 0 0 0 0 0 0 6 119 49 0 6 9 0 23 0 0 2 14 0 0 17 0 0 4 0 0 25 21 12 0 21 31 0 0 13 18 0 19 82 186 197 6 0 0 57 0 10 9 0 0 0 0 0 0 0 0 0 0 0 0 24 3 0 21 0 0 47 0 61 0 0 0 3 213 255 152 0 43 26 9 0 0 4 23 32 0 0 0 14 3 0 0 26 0 0 6 9 19 49 42 12 16 32 25 12 19 37 26 36 190 255 209 0 0 0 0 72 112 0 0 32 0 0 17 0 0 0 0 0 0 0 0 0 14 3 5 11 11 9 0 0 0 2 0 0 0 0 0 0 0 4 0 0 2 5 0 1 0 0 12 14 18 2 0 0 0 65 12 0 63 21 0 2 142 0 0 167 51 0 0 48 49 0 11 6 1 0 33 47 78 71 50 20 0 0 0 0 0 0 0 0 0 0 0 29 0 0 0 0 0 0 0 0 0 30 56 58 38 30 17 0 0 51 75 77 52 26 0 2 0 0 0 0 6 0 7 34 165 134 0 0 4 14 83 0 0 14 7 0 0 0 0 0 0 0 0 29 52 41 23 0 21 0 8 8 15 14 21 0 32 21 14 16 20 19 22 19 32 24 27 22 23 28 34 38 19 29 35 40 43 55 44 90 30 19 0 0 0 0 0 7 28 0 0 0 0 0 0 0 7 0 0 97 0 77 39 0 0 252 23 73 74 54 20 0 81 0 81 133 0 0 3 35 27 2 0 0 0 11 17 32 9 0 0 0 42 0 0 8 27 0 24 55 0 0 54 0 70 0 0 14 20 55 50 0 11 0 0 9 21 0 2 44 0 0 0 68 68 0 8 100 0 16 33 1 0 10 35 100 0 0 19 67 0 0 0 0 42 17 0 0 76 59 0 0 86 57 32 0 9 33 27 0 3 30 22 0 0 0 0 0 18 0 0 0 71 0 28 29 0 0 0 19 46 80 0 0 0 42 0 20 0 0 13 0 0 0 0 0 0 0 0 0 0 0 0 0 0 0 0 0 0 0 0 0 0 0 0 0 19 16 13 12 0 0 12 39 7 0 6 0 0 3 21 13 5 5 22 22 17 7 17 15 0 0 3 4 1 2 0 0 5 5 16 15 18 17 21 17 9 3 0 7 24 18 11 4 41 0 0 41 76 84 78 109 160 142 110 104 91 78 50 42 7 12 0 0 0 0 0 0 0 0 0 0 0 0 0 0 0 0 0 0 0 0 0 0 0 0 0 0 0 1 0 0 0 0 0 0 0 0 15 15 0 0 0 0 0 0 0 1 6 3 4 0 0 0 0 0 0 0 0 0 0 0 0 4 0 0 0 0 0 2 0 0 0 0 0 1 11 7 5 0 0 0 0 0 0 0 0 0 6 5 12 8 3 9 6 16 0 0 0 0 0 2 0 0 4 0 0 0 0 0 0 0 6 6 6 6 6 6 6 5 4 3 3 2 0 7 6 9 0 0 0 0 0 0 0 0 5 3 1 8 4 11 8 8 0 2 3 1 0 1 0 0 0 1 7 7 1 0 0 0 0 0 0 0 2 3 0 0 3 0 0 0 0 0 0 0 0 0 0 0 0 0 0 0 0 0 0 255
255 0 0 0 0 0 0 0 0 0 0 0 0 0 1 4 0 1 1 0 2 0 0 10 6 14 17 9 3 6 2 8 0 0 0 0 0 0 0 0 0 0 0 0 0 0 0 0 6 16 27 34 35 35 36 35 19 27 24 30 29 19 23 13 36 35 29 34 17 20 12 17 40 35 28 20 11 13 7 0 4 1 2 0 0 0 0 0 0 0 0 0 0 0 2 0 16 15 15 12 7 5 7 12 16 17 16 15 15 16 17 20 12 12 8 4 0 0 0 5 5 5 8 4 3 2 0 0 0 0 0 0 4 0 0 3 0 2 5 7 21 18 25 21 10 14 23 24 24 37 59 82 84 101 111 122 117 114 105 102 78 76 69 61 55 52 41 36 33 15 7 27 41 30 22 22 7 14 9 3 10 4 3 0 0 0 0 0 39 38 14 0 15 22 12 6 8 6 3 10 1 20 18 13 7 0 0 20 0 0 0 0 32 36 40 69 159 180 0 0 0 0 0 0 0 0 0 0 0 0 0 0 0 0 0 0 0 0 0 0 0 0 0 0 0 0 0 0 0 0 0 0 0 0 115 244 131 64 30 0 0 0 0 10 28 17 12 0 19 26 24 33 44 33 28 6 0 0 0 0 0 0 0 54 142 207 211 246 29 0 0 0 0 0 0 0 0 0 16 11 0 0 14 11 0 0 6 7 13 10 0 0 27 0 0 0 0 0 5 17 0 4 0 6 3 11 11 15 0 4 5 7 0 1 2 4 14 13 12 4 2 0 15 24 0 0 0 0 0 3 7 4 58 0 0 0 15 70 26 0 0 23 43 16 21 21 2 0 4 7 18 47 51 50 43 54 0 0 0 0 18 49 36 41 1 8 5 30 79 73 62 47 48 33 28 17 22 22 4 13 28 6 0 0 0 0 0 7 0 0 0 19 5 0 1 101 0 0 0 11 56 0 0 23 0 0 0 0 0 0 0 1 18 0 0 0 0 0 5 21 61 28 36 9 23 3 0 0 16 0 9 10 5 4 7 4 0 0 0 0 26 30 31 30 46 44 51 46 38 5 0 0 0 0 0 0 0 0 0 0 0 0 0 0 0 0 0 0 18 5 0 9 1 8 0 0 0 0 177 106 0 68 147 0 0 0 0 0 0 0 24 46 0 0 21 25 19 25 8 0 0 5 8 23 27 33 0 0 0 8 26 23 14 0 0 0 57 0 0 0 0 38 0 0 21 13 0 6 11 6 0 0 0 0 42 33 20 0 9 6 4 8 16 19 23 24 11 66 24 0 0 26 114 36 0 45 31 26 17 0 0 0 0 0 36 0 23 40 0 80 81 0 18 9 32 86 55 0 0 34 11 90 82 0 0 17 28 0 0 0 26 63 58 18 0 0 0 0 0 0 0 0 0 0 0 0 0 0 0 0 0 0 0 0 0 0 0 0 0 0 0 0 0 0 0 4 10 0 20 0 0 0 1 5 0 0 0 0 9 9 0 0 8 14 4 0 0 0 0 5 3 0 22 14 7 0 3 0 0 0 19 0 0 0 3 6 0 5 0 14 23 34 27 25 22 3 16 21 35 26 20 28 33 47 10 30 35 51 58 71 84 94 88 93 106 118 126 118 116 129 132 132 115 91 73 66 58 39 27 17 10 17 16 28 23 5 36 18 10 0 7 2 5 0 32 19 2 3 0 0 0 0 21 16 14 12 9 9 0 0 7 5 5 4 13 12 12 14 16 17 15 13 11 10 9 13 0 3 3 3 2 1 0 0 17 10 5 0 0 0 14 18 12 8 5 11 9 12 9 14 0 0 0 0 0 5 0 0 0 4 4 2 4 4 2 0 10 6 2 9 14 18 13 14 0 0 0 0 0 0 0 0 2 0 0 0 0 0 0 0 1 4 5 7 0 1 2 0 4 0 0 0 0 0 0 0 0 0 0 0 1 5 0 0 3 0 0 0 1 6 0 0 8 4 7 3 1 3 0 0 3 0 0 0 0 0 0 0 0 0 0 0 0 0 0 0 0 0 0 255
255 0 0 0 0 0 0 0 0 0 0 0 0 0 0 3 0 0 0 0 1 3 0 4 0 0 0 0 2 0 0 0 0 1 0 0 0 0 0 0 15 10 14 7 21 17 15 9 0 2 0 0 2 5 0 6 20 25 20 24 19 22 27 22 18 23 18 25 12 20 16 12 0 5 5 6 3 10 0 0 3 0 0 0 0 0 0 0 4 1 0 4 0 6 4 2 1 0 0 0 0 0 0 0 0 0 0 0 0 0 0 3 0 0 0 0 0 0 0 0 2 5 2 0 0 0 5 0 12 12 13 15 10 12 13 17 0 0 0 0 4 0 0 4 0 8 0 2 1 5 5 12 3 7 7 10 4 6 6 17 8 14 15 16 16 18 18 21 10 14 20 17 22 18 11 12 8 22 16 22 21 15 9 19 13 2 0 0 12 23 27 35 0 0 0 0 0 0 0 4 19 6 0 0 0 0 1 27 61 46 35 44 68 87 89 155 0 0 0 0 0 3 0 0 0 0 0 0 0 0 0 0 0 0 0 0 0 0 0 0 0 0 0 0 0 0 0 0 0 0 0 0 0 0 0 0 97 86 141 169 166 111 57 0 27 2 3 4 0 0 0 0 0 0 2 25 53 64 80 106 166 200 227 228 150 14 0 0 0 0 0 0 12 25 19 6 0 0 0 0 0 0 0 0 5 3 7 6 3 2 3 0 33 10 0 0 4 6 9 10 9 4 9 6 11 7 13 14 7 9 9 10 11 12 12 12 13 5 7 11 8 4 6 15 0 8 11 8 4 1 1 15 0 25 11 0 0 59 96 0 0 7 31 25 32 31 36 22 19 13 14 3 2 0 9 16 36 37 32 21 45 30 29 24 39 40 37 28 25 10 10 2 22 20 14 25 33 31 21 43 48 24 0 0 0 0 0 0 0 32 45 0 0 69 100 124 0 0 0 0 11 0 0 27 0 0 0 0 0 0 0 0 0 0 0 0 0 0 0 0 1 0 7 19 26 33 38 32 22 11 14 16 22 23 19 31 51 43 35 30 39 24 25 13 26 13 0 0 0 0 0 0 0 0 0 0 0 0 0 0 0 0 0 0 0 0 0 0 2 0 0 6 3 2 0 0 0 0 0 174 103 0 0 117 25 0 0 0 26 10 0 0 0 0 0 0 0 15 0 0 25 20 2 3 22 20 0 0 0 0 0 0 0 0 4 0 23 24 18 0 7 11 1 0 0 22 50 33 0 0 0 0 46 30 42 39 18 9 10 17 3 0 4 5 5 6 11 23 54 0 0 0 9 34 33 44 0 0 0 0 0 0 3 93 0 0 32 7 0 0 0 0 0 0 13 33 26 23 27 47 0 0 0 0 0 0 29 0 96 29 0 0 5 0 0 0 27 16 7 3 12 15 17 12 12 4 9 10 10 11 5 8 0 0 0 0 0 0 0 0 0 0 0 0 0 1 2 0 13 0 0 4 3 4 11 4 0 4 7 6 5 0 9 25 13 14 7 8 10 0 3 0 18 8 5 6 16 8 14 6 24 9 9 10 16 18 18 25 0 0 0 0 0 0 0 0 27 15 18 9 4 4 0 7 8 14 12 14 10 8 6 10 48 48 50 55 46 47 47 43 20 26 16 13 20 20 26 27 2 10 8 11 11 14 21 5 20 5 14 17 10 13 21 15 0 0 1 9 9 4 10 0 9 0 0 1 2 5 0 0 0 0 0 0 0 0 0 0 0 0 0 0 0 0 0 0 0 0 0 0 0 0 0 0 0 2 0 0 0 0 1 1 2 0 0 0 0 2 0 5 0 0 0 0 0 5 0 1 0 1 0 0 0 0 0 0 8 0 0 0 0 3 0 1 0 0 0 0 0 0 0 0 3 0 0 0 0 0 0 0 0 1 0 0 0 1 0 0 4 0 0 0 0 0 0 0 0 1 1 0 0 0 0 0 7 0 2 2 1 4 0 0 5 0 3 0 0 3 0 0 3 0 0 0 0 0 0 0 0 0 0 0 0 0 0 0 0 0 0 255
255 0 0 0 0 0 0 0 0 0 0 0 0 0 0 3 0 0 6 0 0 1 2 10 0 4 5 0 0 0 0 0 6 10 2 8 5 1 2 9 5 8 8 15 13 13 14 26 17 26 23 21 17 23 20 19 17 15 20 16 21 16 21 21 5 7 3 9 13 11 7 14 11 11 2 2 0 6 5 4 11 9 9 9 9 9 9 7 14 12 11 10 8 7 6 6 0 0 0 0 0 0 0 0 0 0 0 0 0 0 0 0 0 0 0 0 0 0 0 0 8 2 8 5 4 0 6 0 0 0 0 0 0 0 0 0 8 11 4 5 5 7 1 3 14 10 8 5 8 8 6 23 0 10 15 12 17 21 24 20 33 37 38 40 31 40 31 37 13 20 19 19 26 21 21 17 25 32 22 27 25 26 26 17 50 16 0 0 0 0 0 16 5 12 11 12 24 24 17 20 0 0 0 0 11 27 32 37 25 82 154 198 183 99 0 0 0 0 0 0 0 0 0 0 0 0 0 0 0 0 0 0 0 0 0 0 0 0 0 0 0 0 0 0 0 0 0 0 0 5 16 0 0 0 0 0 0 0 0 0 0 35 72 82 127 119 125 141 157 165 167 174 221 225 213 219 226 207 182 192 83 32 0 0 0 0 0 0 0 0 0 42 17 0 0 0 0 0 1 0 3 0 15 6 10 0 2 4 20 18 7 0 25 11 10 14 15 15 18 11 18 18 15 12 8 13 10 8 16 15 15 16 17 18 18 19 12 14 16 19 14 18 12 20 9 17 12 18 15 21 7 23 19 0 0 0 0 0 0 74 0 0 0 0 0 11 17 0 26 1 10 15 12 14 25 28 33 28 28 19 20 15 12 0 16 26 21 22 22 12 25 24 41 20 12 6 23 24 20 25 0 0 0 0 0 0 0 0 0 1 0 0 49 111 30 0 0 0 0 0 4 0 9 28 4 12 14 13 9 5 5 22 0 0 0 0 0 0 0 0 0 0 0 0 0 0 0 0 50 29 36 35 37 44 44 45 34 39 31 30 28 3 0 0 0 0 0 0 0 0 0 0 0 0 0 0 0 0 0 0 0 0 0 0 0 0 2 0 0 0 0 0 0 0 0 0 5 0 0 7 177 99 0 0 12 9 20 42 19 0 0 0 33 18 10 2 14 24 10 0 2 0 0 0 0 3 0 9 0 0 0 0 0 10 0 0 0 20 45 1 0 0 0 34 0 10 12 0 0 0 0 0 55 25 31 17 0 0 5 14 14 12 10 4 4 11 14 21 48 77 4 0 0 24 58 0 18 2 26 40 25 0 0 50 0 0 14 0 0 0 0 0 15 45 66 10 1 27 23 0 0 15 3 0 0 21 19 0 119 29 0 0 0 0 0 0 12 0 9 17 23 26 19 13 22 24 23 25 35 38 36 33 39 36 31 40 36 35 38 26 51 37 37 31 32 35 27 16 18 9 11 18 14 13 16 13 24 27 30 26 14 8 12 16 0 7 12 9 3 5 0 0 3 0 0 0 7 7 13 7 19 6 6 7 3 14 4 12 0 2 9 7 8 6 7 3 20 16 19 10 4 0 0 0 19 11 16 14 16 11 16 7 0 0 0 0 0 0 0 3 51 48 45 50 39 40 38 38 40 34 33 39 34 29 27 19 32 16 13 16 17 19 14 17 5 10 10 11 6 13 4 0 12 6 6 7 0 0 0 1 2 2 1 0 0 0 0 0 0 0 0 0 0 0 0 0 5 3 3 3 3 3 3 4 0 0 0 0 0 0 3 2 1 0 8 13 3 0 0 0 4 6 0 2 0 1 0 0 0 0 0 0 2 0 3 0 8 0 0 0 3 5 0 1 0 0 0 0 0 0 0 0 0 0 0 0 0 0 0 0 0 0 3 0 0 0 2 0 4 0 0 0 0 0 0 0 0 1 0 1 0 0 0 0 1 0 0 0 0 0 0 0 4 0 3 0 0 3 0 0 3 0 0 0 0 0 0 0 0 0 0 0 0 0 0 0 0 0 0 255
255 0 0 0 0 0 0 0 0 0 0 0 0 0 0 3 0 0 4 3 0 0 0 7 0 0 0 1 0 0 0 0 9 9 6 6 6 5 11 10 0 0 0 0 0 4 2 4 5 8 8 9 8 8 8 8 0 0 0 0 0 0 0 0 0 0 0 0 0 0 0 0 0 1 1 1 8 7 6 5 4 3 3 3 3 3 3 2 1 0 0 0 0 1 2 0 4 0 0 0 0 0 0 0 0 0 0 0 0 0 0 3 0 0 0 0 0 0 0 2 0 0 0 0 0 0 0 0 4 0 0 0 0 0 0 0 9 10 4 6 7 10 4 6 8 2 7 9 10 6 10 14 0 0 0 0 0 0 0 3 0 0 0 0 0 0 0 0 0 0 0 1 0 0 0 0 0 4 1 4 0 0 4 0 26 3 0 0 0 0 0 0 15 12 17 18 17 12 9 3 103 117 129 140 154 155 140 132 115 71 0 0 0 0 0 0 0 0 38 21 0 0 0 0 0 0 0 0 0 0 0 0 0 0 0 0 0 0 0 0 5 0 0 0 9 0 0 0 0 0 0 0 35 37 22 34 0 0 0 0 0 0 0 0 0 0 0 0 0 0 0 0 0 0 0 0 0 0 0 0 0 0 0 0 0 0 0 0 31 0 0 0 0 0 0 20 2 3 9 3 8 0 14 2 0 0 0 0 0 0 0 0 0 0 0 1 0 0 0 0 9 0 0 2 0 3 0 0 0 0 0 0 0 0 0 0 0 0 0 0 0 2 4 1 0 6 2 0 2 0 5 0 53 0 0 59 12 0 0 55 28 22 19 0 0 0 0 0 39 4 17 24 9 14 7 12 0 0 0 0 1 0 0 0 0 0 0 0 7 9 26 41 29 18 0 0 0 0 0 0 0 0 0 0 13 11 6 0 4 0 13 100 107 16 0 0 0 6 30 22 8 10 19 5 0 6 11 13 2 1 4 15 0 0 4 7 3 0 0 0 0 0 0 0 0 0 0 0 0 0 0 0 0 0 0 0 0 0 0 0 0 0 0 0 0 0 0 0 0 0 13 0 0 0 0 0 0 0 0 0 0 0 0 0 0 0 0 0 0 0 0 0 0 0 0 0 0 35 0 0 51 225 113 0 13 0 0 3 31 25 32 54 57 36 3 2 33 32 15 0 0 0 0 0 0 1 5 32 0 0 0 0 4 16 5 34 0 0 6 0 0 0 18 57 37 23 0 0 11 38 28 0 16 1 4 0 0 0 1 14 12 0 10 6 7 15 18 19 0 69 46 0 0 41 64 0 75 0 0 42 101 35 0 0 65 0 0 0 30 63 0 0 167 105 37 0 0 0 0 0 34 49 46 27 31 57 34 0 37 4 0 0 0 9 10 3 0 0 0 0 0 5 0 0 0 0 0 0 0 0 0 0 20 20 12 20 18 21 18 9 28 18 15 16 16 8 14 0 24 11 9 14 8 14 14 7 0 0 8 8 0 0 0 16 0 0 0 0 0 0 0 0 0 0 0 0 0 0 0 0 0 0 0 0 0 5 0 0 21 11 6 8 10 13 8 19 0 0 0 0 0 0 0 7 0 0 0 2 1 2 5 0 9 4 14 15 18 23 22 23 0 1 0 0 0 0 7 4 13 17 5 1 3 0 1 0 3 0 0 0 0 0 0 4 3 1 5 0 0 0 0 0 2 0 0 0 0 0 4 2 1 0 0 0 0 0 0 0 0 0 0 0 0 0 0 0 5 3 3 3 3 3 3 5 0 1 4 0 0 0 3 3 11 3 0 1 0 5 3 4 7 6 0 0 0 3 0 0 0 4 3 1 0 0 0 0 6 1 0 0 0 2 5 0 0 0 0 0 0 0 0 0 5 3 3 3 3 3 3 3 4 0 0 0 3 0 0 0 2 0 0 0 0 0 0 0 0 1 1 0 0 0 0 0 4 0 0 0 0 4 0 0 2 0 3 0 0 3 0 0 3 0 0 0 0 0 0 0 0 0 0 0 0 0 0 0 0 0 0 255
255 0 0 0 0 0 0 0 0 0 0 0 0 0 0 3 0 0 3 1 2 4 0 3 0 2 0 1 3 0 4 0 1 1 4 0 4 8 3 10 7 12 12 12 12 12 12 14 0 1 0 0 0 0 0 0 8 3 2 1 0 0 0 0 3 4 10 5 10 5 10 7 0 0 0 4 0 0 0 0 0 0 0 0 0 0 0 0 0 0 0 0 0 0 0 0 7 0 0 0 0 0 0 0 0 0 0 0 0 0 0 3 0 0 0 0 0 0 0 3 0 0 0 0 0 0 0 0 7 4 3 2 9 6 13 13 6 0 2 4 6 0 2 2 0 0 0 0 0 0 4 14 10 19 23 19 13 16 17 10 2 4 5 6 6 6 0 0 7 15 4 4 4 5 8 11 2 8 3 12 5 9 4 0 8 6 8 25 21 19 1 0 0 0 0 0 0 0 0 0 0 0 0 0 0 0 0 0 0 0 0 0 0 0 0 54 0 20 27 0 0 63 59 0 9 0 8 0 4 1 7 11 0 0 2 0 5 4 6 1 1 0 0 2 9 5 11 0 26 13 0 0 0 11 16 26 68 80 59 19 0 0 0 0 0 0 0 0 0 0 0 0 0 0 0 0 0 0 0 0 0 0 0 0 22 20 0 0 0 0 0 0 0 0 0 0 6 0 0 0 0 0 1 0 19 0 0 4 8 16 11 12 0 1 2 5 13 8 7 0 16 6 3 8 2 8 4 8 12 9 9 11 13 15 15 14 15 7 11 15 3 0 10 13 0 4 2 0 15 11 10 3 0 31 39 0 0 15 0 0 14 17 30 0 0 0 0 0 18 5 26 22 35 28 25 11 5 16 37 29 43 23 28 31 41 50 26 22 28 21 1 2 10 3 0 0 0 0 0 0 0 0 19 6 0 0 0 0 3 52 138 144 27 0 0 73 10 28 31 2 6 18 9 0 0 0 0 0 0 0 0 0 0 0 0 0 0 0 0 1 16 8 0 0 0 0 0 0 0 0 0 0 0 0 0 0 0 0 0 0 0 0 0 0 0 0 0 0 0 0 0 0 1 0 2 5 9 11 9 2 15 7 3 7 0 4 12 0 4 8 2 8 1 0 0 1 0 58 0 0 0 0 80 250 154 0 0 0 53 70 22 0 14 0 0 0 0 0 0 0 3 23 16 19 17 18 23 45 0 9 20 21 16 6 16 57 0 4 0 0 24 54 46 52 47 39 0 0 32 56 37 0 0 0 3 7 8 8 14 10 17 2 1 0 0 5 5 22 0 35 47 7 5 46 64 0 46 0 0 0 53 22 0 0 6 0 0 0 15 65 0 34 119 0 0 0 0 0 0 12 0 0 0 11 35 34 7 0 0 0 0 0 18 11 4 0 30 18 29 30 27 29 25 8 37 19 22 20 25 23 26 19 21 11 19 17 16 22 14 11 25 9 16 10 13 15 13 10 20 20 14 16 16 18 13 12 9 8 13 11 7 5 11 16 0 0 1 13 16 21 16 3 22 18 10 10 9 10 4 4 18 6 6 6 10 11 10 0 20 9 7 3 4 5 6 17 0 4 13 10 10 16 16 30 0 8 10 13 10 9 10 14 16 22 23 25 20 26 25 16 0 0 0 0 0 0 1 3 15 12 0 7 2 7 4 0 22 13 10 16 12 10 8 6 0 0 0 0 0 0 0 0 0 0 0 0 1 0 0 0 2 0 0 1 2 3 3 3 3 3 3 3 3 3 3 3 3 3 3 3 3 3 3 4 2 5 7 0 2 0 4 0 6 0 2 5 2 5 3 5 0 5 3 3 3 6 2 0 0 0 0 0 0 1 1 0 2 0 0 1 6 8 2 2 0 3 3 3 3 3 3 1 0 0 0 0 0 0 0 0 0 0 1 3 0 0 0 0 0 0 0 0 0 0 0 0 0 0 0 0 1 3 4 0 0 1 3 3 3 7 0 0 1 0 3 0 0 3 0 0 3 0 0 0 0 0 0 0 0 0 0 0 0 0 0 0 0 0 0 255
255 0 0 0 0 0 0 0 0 0 0 0 0 0 0 3 0 0 3 0 0 1 2 9 0 6 3 3 3 2 0 0 0 0 1 2 4 0 0 5 1 6 7 0 1 0 0 0 0 0 0 0 1 0 0 0 17 9 9 10 11 12 12 15 0 0 6 0 6 0 6 4 4 13 2 2 2 1 8 5 4 3 3 3 3 3 3 4 5 5 4 2 1 1 2 0 9 3 3 3 3 3 3 3 3 3 3 3 3 3 3 5 0 0 0 0 0 0 0 3 6 9 10 3 5 7 8 14 0 11 9 6 2 6 3 4 0 0 0 0 0 0 0 0 9 0 1 1 0 4 0 8 4 3 0 1 0 0 0 0 14 12 12 12 12 14 16 16 14 15 9 13 14 15 16 9 1 7 10 4 2 3 6 9 3 5 5 7 4 5 5 6 2 0 0 0 0 0 0 0 0 0 0 0 0 0 0 0 0 0 30 84 88 62 8 0 40 0 0 0 15 30 20 0 0 1 5 4 10 8 0 13 0 5 0 1 2 1 3 7 9 3 3 6 10 12 4 1 69 53 39 27 36 28 17 1 7 7 28 55 81 91 88 92 84 93 74 81 81 70 66 57 102 102 95 107 129 153 156 161 151 113 70 24 6 19 44 70 54 66 61 56 46 21 0 0 0 0 0 0 0 0 0 0 15 7 6 9 10 5 12 18 0 8 12 9 0 6 0 0 6 0 0 2 5 2 0 1 5 3 3 4 0 0 0 0 8 0 3 0 5 2 0 0 9 14 3 2 1 0 0 0 25 0 0 0 0 16 0 0 0 0 6 0 0 0 11 22 0 0 0 9 31 21 16 0 29 37 34 36 31 19 25 35 63 46 18 6 30 27 6 0 0 0 0 0 0 0 0 0 0 5 5 0 0 5 35 85 103 124 47 0 0 0 7 11 5 0 0 0 0 3 0 0 0 0 0 0 0 0 0 0 12 0 0 0 0 0 0 0 0 0 0 0 0 0 0 0 18 19 16 16 12 10 7 0 36 26 14 13 25 32 41 40 25 4 0 0 0 0 0 0 0 0 0 0 0 0 7 0 3 1 0 0 0 0 0 0 0 0 0 0 0 0 0 9 0 6 8 0 0 0 0 0 227 75 62 59 23 0 0 20 0 0 0 0 0 0 0 12 0 11 16 5 0 0 0 0 0 13 33 34 23 8 10 40 40 28 9 17 46 80 45 34 0 0 10 0 0 0 0 0 0 0 0 0 0 0 0 0 0 0 0 0 0 0 0 0 0 0 0 0 0 0 16 0 92 53 67 44 3 0 0 31 0 0 60 0 0 22 0 75 25 0 0 0 32 6 0 30 0 0 1 20 32 13 0 0 0 0 0 0 0 0 0 0 22 2 11 12 7 3 7 0 49 25 18 24 18 24 17 12 7 7 5 11 11 10 5 0 6 2 10 5 8 11 17 10 6 3 9 6 1 6 3 2 0 0 1 0 7 11 1 0 21 18 21 16 17 9 6 0 27 14 9 13 5 8 2 0 10 0 0 0 5 14 4 0 10 1 0 3 0 5 7 4 17 18 21 12 7 0 1 8 0 4 6 1 7 6 7 8 0 0 0 0 0 0 0 0 18 14 12 18 16 14 12 11 0 1 7 14 9 14 10 4 8 3 2 1 0 0 0 0 2 4 7 10 7 8 1 4 0 0 4 2 1 0 0 0 5 4 5 7 0 0 0 0 0 0 0 0 0 0 0 1 0 0 0 0 0 0 0 0 0 0 3 0 6 3 0 0 6 0 0 1 7 1 0 3 0 2 6 3 1 3 0 2 3 3 3 0 4 0 4 0 8 0 2 0 3 6 0 0 0 0 0 0 0 0 0 0 5 3 3 3 3 3 3 3 3 3 4 0 1 3 3 3 3 3 3 3 3 3 3 3 3 5 0 4 0 0 2 9 0 0 0 0 0 1 0 0 0 0 3 0 0 3 0 0 3 0 0 0 0 0 0 0 0 0 0 0 0 0 0 0 0 0 0 255
255 0 0 0 0 0 0 0 0 0 0 0 0 0 0 3 0 0 3 0 0 0 0 5 0 1 0 0 0 4 1 11 0 0 0 0 1 3 5 10 0 0 0 0 0 0 0 0 3 2 1 0 1 1 1 0 0 0 0 0 0 0 0 0 0 0 0 0 0 0 0 0 0 0 6 6 5 2 8 3 9 6 6 6 6 6 6 8 1 2 9 5 10 7 6 4 2 0 0 0 0 0 0 0 0 0 0 0 0 0 0 3 6 9 9 9 9 9 9 12 6 9 10 11 12 12 12 17 0 0 0 0 0 0 0 0 0 0 1 4 0 0 0 0 4 3 6 8 8 6 11 15 0 0 0 0 0 0 0 0 2 3 3 3 3 4 0 0 1 0 0 0 0 0 0 0 0 0 0 0 10 0 0 1 0 0 0 0 0 0 2 12 37 32 36 38 41 46 35 39 63 69 68 65 81 93 115 144 145 139 89 57 41 57 75 81 79 47 49 72 35 0 0 81 19 26 35 33 20 18 20 25 22 24 23 20 25 17 29 24 26 19 18 21 23 23 21 21 0 0 0 5 8 17 20 13 60 30 0 0 0 5 33 45 32 47 54 65 82 95 107 110 110 107 96 77 56 46 34 39 1 21 43 66 67 53 18 0 29 7 0 0 0 9 41 42 26 29 16 16 20 19 13 11 18 8 4 5 4 3 0 0 0 0 0 3 0 2 0 0 0 0 0 0 0 0 0 1 0 0 0 0 0 0 1 0 0 4 0 1 0 2 0 0 0 0 0 2 0 0 0 1 73 0 0 33 43 0 0 43 0 0 0 0 0 15 17 27 0 0 0 0 0 0 0 0 3 0 0 0 0 0 0 0 0 0 0 0 0 0 0 0 0 0 0 0 0 0 7 14 0 4 0 0 3 39 53 94 45 15 0 0 0 19 0 0 7 0 0 0 0 0 0 5 0 7 3 4 8 5 8 0 36 12 14 3 8 8 8 10 0 2 2 5 18 29 30 32 16 19 21 17 17 10 12 6 14 11 12 3 10 2 11 10 32 30 21 23 14 39 50 65 7 14 0 1 10 11 0 0 11 5 4 4 5 0 0 2 0 2 0 0 0 0 0 13 0 0 31 15 0 0 0 0 61 38 130 122 13 0 0 104 0 0 0 10 17 4 0 52 0 0 3 0 0 0 0 8 0 0 7 2 7 0 0 0 12 31 8 0 0 9 0 0 0 0 0 0 0 0 0 0 0 0 0 0 0 0 0 0 0 0 0 0 0 0 0 0 0 0 0 0 0 0 0 0 50 81 116 50 0 0 28 48 0 0 96 7 0 55 46 0 0 0 13 34 32 17 0 0 88 39 23 30 14 0 0 0 0 0 0 0 0 0 5 0 0 0 0 0 0 0 0 0 16 0 0 0 0 0 0 0 6 4 0 4 5 7 5 0 10 0 0 6 2 7 5 9 0 0 0 0 0 0 0 0 0 0 0 2 0 4 6 0 21 9 2 6 0 0 0 0 1 1 0 0 0 0 0 0 0 0 0 0 0 0 0 0 4 6 0 2 3 6 1 0 1 0 3 0 0 0 0 0 0 0 0 0 0 0 0 0 25 30 32 27 34 34 26 23 10 4 9 4 11 2 4 5 0 0 0 0 0 0 1 0 0 0 0 0 0 0 0 0 10 5 6 9 6 7 8 10 2 2 1 0 0 0 0 0 0 2 0 0 0 0 0 0 0 0 0 0 0 0 0 1 2 3 3 3 3 3 3 5 0 4 2 3 0 0 3 0 5 0 0 0 6 0 0 2 0 0 0 0 4 4 0 1 1 1 0 0 3 4 3 0 7 0 0 0 4 7 1 0 0 0 0 0 0 0 0 0 3 0 0 0 0 0 0 0 0 1 3 6 0 0 1 2 3 3 3 3 3 3 3 3 3 5 0 4 0 2 4 2 0 1 3 3 3 6 3 2 0 0 3 0 0 3 0 0 3 0 0 0 0 0 0 0 0 0 0 0 0 0 0 0 0 0 0 255
255 0 0 0 0 0 0 0 0 0 0 0 0 0 0 2 0 0 2 0 0 0 0 5 2 1 6 4 2 0 0 4 0 0 4 0 0 1 0 0 0 2 10 9 9 9 18 18 0 0 7 6 5 3 10 8 7 6 6 7 9 3 5 6 6 4 11 7 14 10 17 18 0 0 0 0 0 0 0 0 4 0 0 0 0 0 0 1 0 0 0 0 1 7 6 6 6 6 6 6 6 6 6 6 6 6 6 6 6 6 6 8 0 0 0 0 0 0 0 0 0 0 0 0 0 0 0 0 8 10 8 13 16 20 17 18 10 12 13 6 8 9 9 10 11 13 6 0 0 0 0 8 0 3 2 10 8 16 15 27 0 0 0 0 0 0 0 0 15 15 9 3 6 0 5 2 1 0 5 0 1 4 3 7 0 16 19 26 31 11 0 0 11 0 0 1 17 26 38 47 0 33 45 58 69 56 56 71 18 27 41 56 48 37 23 10 23 43 51 37 42 48 32 15 11 27 34 30 22 23 20 28 20 14 15 14 13 8 23 14 19 22 20 23 26 32 26 22 24 35 44 26 30 21 38 46 20 10 19 35 52 51 30 15 12 0 0 0 0 0 0 0 0 0 6 14 16 20 9 41 44 30 23 20 37 45 35 14 21 40 60 63 44 30 16 2 27 18 1 7 18 24 16 5 20 8 8 5 9 13 17 21 6 10 4 8 11 7 13 15 0 1 7 3 9 6 11 9 8 9 9 9 9 9 10 15 10 14 14 17 10 14 7 10 12 16 12 12 4 5 1 12 0 33 75 0 0 57 62 0 0 0 0 0 14 47 31 0 19 5 0 0 0 0 0 0 0 0 0 0 0 0 0 0 0 0 5 0 0 0 0 0 0 5 13 8 0 0 0 24 19 22 7 17 70 110 83 55 0 0 0 3 41 0 0 26 0 0 0 6 0 0 0 29 0 0 0 0 1 0 0 0 4 0 4 3 11 6 14 3 23 25 29 22 23 15 19 19 11 22 20 28 30 25 30 25 8 25 31 30 21 9 13 7 0 0 16 16 7 0 0 0 9 21 18 14 17 15 15 9 10 5 0 3 8 4 8 11 0 0 0 0 0 0 7 16 61 0 0 36 0 0 47 0 0 0 0 131 194 116 4 0 0 0 0 11 21 0 0 41 0 0 32 32 36 39 76 141 0 0 0 0 22 37 33 44 0 40 66 51 14 0 0 0 0 0 0 0 0 0 0 0 0 0 0 0 0 0 0 0 0 0 0 0 0 0 0 0 0 0 0 0 0 0 0 0 0 0 26 6 3 46 2 0 83 0 23 0 0 137 69 0 0 4 67 28 0 0 4 0 100 20 0 0 0 0 0 0 0 0 0 0 7 5 11 0 21 13 11 6 0 0 18 18 0 0 0 0 7 8 16 8 11 9 25 32 25 24 9 0 20 2 5 4 2 2 2 6 3 3 3 3 1 8 5 8 11 5 1 2 12 8 1 0 0 1 0 5 2 11 12 14 0 0 0 0 9 8 17 20 19 12 3 7 17 19 18 9 0 2 13 15 8 12 8 7 0 4 15 13 13 20 34 32 12 20 16 23 22 14 16 14 0 0 0 0 0 0 0 0 0 0 0 3 2 2 4 0 20 18 19 11 11 9 7 2 16 12 10 17 15 13 20 20 0 0 0 2 0 0 0 0 7 6 6 6 6 6 6 7 0 2 0 0 0 0 0 0 0 0 0 0 0 0 0 0 0 0 0 0 0 0 0 0 0 2 2 6 1 0 1 0 1 0 0 0 5 1 2 3 3 7 0 0 1 8 0 2 0 0 0 0 0 0 0 0 0 0 0 1 9 5 7 3 0 0 0 0 0 0 0 0 1 0 0 0 0 0 0 1 2 4 0 0 0 0 1 0 0 0 0 0 0 0 0 0 0 0 0 0 0 0 0 5 0 0 0 0 0 3 0 0 0 0 4 1 0 2 0 0 2 0 0 0 0 0 0 0 0 0 0 0 0 0 0 0 0 0 0 255
255 0 0 0 0 0 0 0 0 0 0 0 0 0 0 1 2 2 1 0 0 0 0 4 0 0 0 0 0 0 1 0 4 2 0 0 0 0 0 8 0 0 0 0 0 0 0 0 0 2 0 0 0 3 0 0 0 0 0 0 0 0 0 0 1 0 0 0 0 0 0 0 3 4 3 3 2 1 0 0 1 0 0 0 0 0 0 0 6 6 5 3 0 0 0 0 0 0 0 0 0 0 0 0 0 0 0 0 0 0 0 0 1 3 3 3 3 3 3 7 2 5 5 5 5 3 10 7 5 3 2 0 0 0 0 0 0 0 0 0 0 0 0 2 0 0 0 0 5 3 2 5 0 3 2 1 0 0 0 0 0 3 3 3 3 3 3 2 0 0 1 2 3 1 8 6 4 6 5 11 10 12 9 12 3 2 0 0 0 2 9 5 2 9 8 2 4 0 0 4 1 6 5 8 3 7 9 11 14 25 27 21 27 34 32 37 11 9 10 15 14 13 21 21 5 11 5 4 5 6 5 7 1 5 6 6 6 4 3 7 0 0 0 0 0 0 0 3 0 0 0 0 0 0 0 0 0 0 0 0 0 0 0 0 7 9 14 16 17 9 12 18 11 10 6 7 4 12 7 14 0 4 10 2 2 3 10 22 3 6 5 0 3 8 13 5 15 16 18 17 14 5 0 0 0 0 0 0 0 0 0 0 5 9 5 3 0 4 1 4 0 1 7 3 1 0 0 4 0 0 0 0 0 0 0 3 0 0 0 0 0 0 0 0 0 3 0 5 4 2 7 28 7 12 0 19 4 0 0 0 17 21 7 0 0 0 0 0 8 0 0 0 0 0 0 0 0 0 0 0 0 0 0 0 0 0 0 0 0 0 0 1 0 0 0 0 11 12 0 0 0 24 92 144 107 0 0 0 0 0 0 0 0 0 0 0 4 1 0 0 0 0 0 0 0 0 0 0 0 0 10 10 0 0 0 0 0 0 4 0 1 0 0 0 0 0 1 5 2 0 0 0 6 5 5 17 9 9 4 10 9 17 14 22 12 11 7 4 14 17 20 18 5 0 0 1 0 0 0 0 18 15 11 8 5 1 0 0 11 15 13 14 9 4 0 1 0 15 8 0 0 0 0 0 7 0 0 0 0 42 153 200 51 41 3 0 0 0 12 73 40 33 0 0 0 0 0 0 18 21 6 17 32 33 0 0 20 0 0 0 0 0 0 0 0 0 0 0 0 0 0 0 0 0 0 0 0 0 0 0 0 0 0 0 0 0 0 0 0 0 0 0 0 0 0 0 0 0 0 0 42 72 71 85 5 0 0 0 14 56 0 0 0 0 0 0 0 33 39 34 30 32 0 0 0 0 0 0 0 0 0 0 0 0 0 0 0 0 0 0 8 7 3 0 3 0 0 0 0 0 0 0 0 0 0 0 0 0 3 1 11 2 6 6 6 7 0 3 8 6 6 6 5 4 2 0 13 6 5 0 4 1 3 7 0 0 0 0 0 0 0 0 0 0 0 0 0 0 0 0 0 0 0 0 0 0 0 0 0 0 0 0 0 0 0 0 0 0 0 0 0 0 0 0 0 0 0 0 0 0 0 0 2 0 4 1 0 0 4 4 5 5 3 1 0 0 1 0 0 0 0 0 0 0 0 0 5 0 0 2 0 0 0 0 1 3 0 0 0 0 0 0 0 0 0 0 0 0 0 0 0 1 2 3 3 3 3 3 3 3 3 3 3 3 3 3 3 3 3 3 3 3 3 5 5 4 0 3 0 1 0 0 15 3 8 3 4 2 0 0 2 4 0 5 0 0 3 4 0 1 12 5 9 11 11 15 0 0 1 2 0 0 0 0 0 0 0 0 0 0 0 0 9 3 10 10 3 7 1 5 0 1 2 3 3 3 4 7 1 3 3 3 3 3 3 3 2 0 6 2 7 2 9 0 2 1 0 0 0 3 0 0 3 0 0 2 0 1 2 2 1 0 0 0 0 0 0 0 0 0 0 0 0 0 0 0 0 0 0 255
255 0 0 0 0 0 0 0 0 0 0 0 0 0 0 0 0 0 0 0 0 0 0 3 0 3 0 0 0 0 1 0 4 0 0 0 1 1 0 0 1 3 3 3 3 3 3 5 0 0 0 5 2 1 0 6 4 3 3 2 1 0 0 0 0 0 0 0 0 0 0 0 3 0 0 0 0 0 0 0 3 0 0 0 0 0 0 0 0 0 0 0 0 0 0 0 0 0 0 0 0 0 0 0 0 0 0 0 0 0 0 0 0 0 0 0 0 0 0 0 0 0 5 0 0 2 0 0 0 0 0 0 3 0 0 0 1 3 3 3 3 3 3 10 0 0 0 0 0 0 0 0 0 0 0 0 0 0 0 0 0 0 0 0 0 0 0 0 1 2 0 0 0 3 1 0 0 0 5 2 1 4 1 2 4 6 6 6 6 6 7 9 0 0 0 0 4 1 0 0 8 7 0 3 0 0 2 8 0 0 3 0 0 0 1 4 24 18 21 16 11 15 10 16 10 20 18 18 18 18 18 22 17 21 21 21 21 21 21 27 15 19 16 20 16 19 14 22 15 17 16 14 12 18 15 12 19 18 18 18 18 18 18 15 22 20 22 14 17 19 21 21 21 21 22 16 21 8 11 19 8 15 18 13 17 18 19 24 13 11 6 8 11 4 7 9 0 0 0 0 0 2 6 0 14 12 12 12 12 12 12 11 8 13 10 9 7 13 10 12 6 8 5 11 9 9 7 16 7 9 9 9 9 9 9 16 5 12 12 12 12 12 12 19 0 0 1 0 3 0 0 4 0 0 0 0 0 0 0 0 0 0 0 0 0 0 0 0 0 4 2 10 10 14 22 15 17 20 16 18 5 0 0 8 0 0 0 0 0 0 0 0 26 15 6 11 8 29 37 76 166 127 27 0 0 0 0 0 7 0 0 0 0 5 1 0 7 0 0 0 0 0 0 0 1 0 10 3 3 2 4 5 4 6 4 8 11 4 12 2 5 6 7 5 10 7 7 9 13 9 15 10 15 11 8 16 7 7 13 8 13 9 5 11 9 9 7 13 10 10 2 2 10 7 11 15 12 15 9 7 13 12 10 7 14 10 15 8 19 13 9 9 3 0 3 12 0 0 6 1 0 0 0 9 0 0 0 0 0 0 0 0 57 49 52 61 42 12 0 0 0 0 6 49 88 95 95 69 97 60 26 21 3 0 0 0 0 0 0 0 0 0 0 0 0 0 0 0 0 0 0 0 3 0 0 0 0 0 3 0 0 0 0 0 2 0 0 0 0 0 0 0 0 1 0 0 1 0 0 0 0 0 53 141 63 60 169 115 67 66 0 52 101 120 105 92 87 57 8 0 0 0 0 0 0 0 0 0 0 0 0 0 0 0 0 0 5 0 0 0 3 6 1 0 21 4 4 8 11 7 9 4 3 0 0 0 0 0 0 0 7 2 7 8 9 10 13 7 12 9 9 9 9 9 9 1 20 11 10 7 14 11 10 11 0 0 4 2 0 0 4 3 0 5 0 2 5 2 0 0 2 6 3 3 3 0 6 8 0 5 1 5 0 3 7 5 0 1 0 0 0 0 0 0 3 0 0 0 0 0 0 2 0 2 0 0 0 2 0 0 0 0 0 0 0 0 0 0 0 0 0 0 0 0 0 0 1 0 2 0 0 0 4 2 1 0 0 0 0 0 0 0 5 3 3 3 3 3 3 3 3 3 3 3 3 3 3 3 3 3 3 3 3 3 3 3 3 3 3 3 3 3 3 4 0 0 0 2 0 0 0 0 12 0 3 0 3 3 0 0 3 3 0 3 0 0 0 8 0 0 3 1 3 0 0 4 0 0 0 3 0 0 0 0 0 0 0 0 0 0 0 0 2 5 2 1 4 1 0 3 0 0 0 0 0 0 0 2 0 0 0 0 0 0 0 0 0 2 0 2 0 2 2 0 0 0 2 0 0 2 0 4 1 0 0 3 0 0 0 0 0 0 0 0 0 0 0 0 0 0 0 0 0 0 0 0 0 0 0 255
255 0 0 0 0 0 0 0 0 0 0 0 0 0 0 0 0 0 0 0 0 0 0 1 2 5 0 4 0 3 0 2 2 0 0 0 0 0 0 0 0 0 0 0 0 0 0 0 0 0 0 0 0 0 0 0 0 0 0 0 0 0 1 2 0 0 0 0 0 0 0 0 4 3 3 3 3 3 3 0 4 0 0 0 0 0 0 1 2 3 3 3 3 3 3 3 3 3 3 3 3 3 3 3 3 3 3 3 3 3 3 3 3 3 3 3 3 3 3 5 0 0 1 1 1 0 3 3 0 0 3 0 0 0 4 4 0 0 0 0 0 0 0 5 0 3 3 0 6 3 3 6 0 3 3 3 3 3 5 0 2 3 3 3 3 3 3 4 0 0 0 3 0 0 0 0 0 0 0 1 1 0 1 1 0 0 0 0 0 0 0 0 11 13 8 13 0 5 1 2 9 7 8 12 7 11 13 6 9 1 3 4 6 7 0 3 6 9 3 7 10 12 14 8 10 10 9 9 9 9 9 13 0 3 3 3 3 3 3 7 1 3 8 4 8 3 16 13 12 12 12 11 17 14 12 10 8 6 6 6 6 6 6 6 7 0 1 3 6 0 0 0 7 6 7 9 5 9 12 17 4 10 13 9 4 7 9 3 16 10 12 13 16 10 12 13 14 15 15 18 13 8 10 11 12 12 12 12 12 12 12 14 0 0 3 1 0 0 4 5 0 0 0 4 1 0 0 0 1 3 3 3 3 3 3 8 0 0 0 0 0 0 0 5 1 8 0 7 0 0 0 5 5 3 15 1 9 1 3 6 0 4 7 5 4 0 0 5 0 0 0 0 0 0 0 0 4 17 7 6 3 10 25 28 40 33 21 6 7 8 3 0 0 7 45 89 111 109 85 91 0 0 0 0 0 0 0 0 8 0 0 0 0 4 4 0 0 0 0 0 2 0 0 0 14 5 10 7 9 12 17 19 17 18 17 13 17 20 19 10 12 12 12 11 9 16 17 10 14 17 14 9 15 10 16 12 10 7 13 8 13 9 15 11 17 15 12 18 15 16 16 16 23 21 25 30 27 29 22 22 22 6 12 7 12 6 10 15 3 8 10 15 14 16 7 21 8 16 16 11 9 13 3 36 0 12 2 0 0 0 0 0 0 0 0 0 10 20 11 13 46 52 30 6 0 0 0 0 0 0 0 0 0 0 0 0 0 0 0 0 0 0 0 0 12 0 6 8 12 8 18 11 31 17 15 18 19 22 23 18 21 6 10 11 15 20 15 7 27 13 16 16 29 28 19 7 39 36 21 0 0 0 0 0 0 0 9 0 0 10 0 102 0 0 0 0 0 0 0 0 0 0 0 0 0 0 0 0 0 0 0 0 0 0 1 0 0 0 0 0 0 0 3 0 12 0 1 0 6 5 9 1 7 3 2 7 2 8 7 12 3 0 0 0 0 0 0 0 0 0 0 0 0 0 0 0 3 0 3 0 0 0 4 3 11 9 7 6 5 11 8 4 9 15 11 17 12 19 9 7 12 17 14 13 12 10 16 21 0 6 11 7 11 6 11 8 5 1 4 9 6 7 0 0 8 6 6 6 6 6 6 10 0 0 3 1 0 0 4 2 1 0 0 0 0 0 0 3 0 0 0 0 0 0 0 0 3 0 0 2 0 0 0 0 4 3 3 3 3 3 3 1 0 0 0 0 0 0 0 0 0 0 0 0 0 0 0 0 0 0 0 0 0 0 0 0 0 0 0 0 0 0 0 0 0 0 0 0 0 0 6 0 12 0 3 0 3 3 0 0 3 3 0 2 0 2 0 2 0 0 0 0 6 0 2 7 0 0 0 1 0 0 0 0 0 0 0 0 0 0 0 0 0 0 0 0 1 0 0 0 0 0 0 0 0 0 0 0 0 0 0 0 0 0 0 0 0 0 1 0 1 0 5 0 0 0 0 0 4 0 0 2 0 0 0 3 0 0 0 0 0 0 0 0 0 0 0 0 0 0 0 0 0 0 0 0 0 0 0 255
255 0 0 0 0 0 0 0 0 0 0 0 0 0 0 0 0 0 0 0 0 0 0 0 0 1 2 5 0 1 2 9 0 2 9 5 7 6 3 15 1 6 6 6 6 6 6 9 0 0 3 0 0 0 4 2 1 0 0 0 3 7 3 4 0 0 0 0 0 0 0 1 0 0 0 0 0 0 0 0 4 0 0 0 0 0 0 2 0 0 0 0 0 0 0 0 0 0 0 0 0 0 0 0 0 0 0 0 0 0 0 0 0 0 0 0 0 0 0 0 2 0 5 0 0 2 0 7 0 2 0 7 5 3 1 2 4 6 6 6 6 6 6 12 0 0 0 0 0 0 0 0 0 0 0 0 0 0 0 1 0 0 0 0 0 0 0 0 0 1 0 0 4 2 1 0 0 0 0 0 0 3 1 1 2 3 3 3 3 3 3 0 7 0 0 5 0 5 0 0 0 0 0 2 0 0 0 0 10 8 10 2 4 6 9 5 0 0 0 0 0 0 0 0 0 0 0 0 0 0 0 0 0 0 0 0 0 0 0 0 0 0 0 0 0 0 0 0 0 0 0 0 0 0 0 0 0 0 0 0 0 0 0 0 0 0 0 0 0 0 0 0 0 0 0 0 0 0 0 0 0 0 0 0 0 0 0 0 0 0 0 0 0 0 0 0 7 9 9 13 0 5 6 7 0 0 0 0 0 0 0 0 0 0 0 0 0 0 0 0 0 0 0 0 0 0 0 0 0 0 0 0 0 0 0 0 0 0 0 0 0 0 0 0 7 5 9 14 8 14 10 11 3 0 12 11 7 14 6 10 12 13 12 24 7 10 11 3 0 0 0 0 0 0 0 0 0 0 0 0 0 25 26 29 34 12 24 16 23 23 29 32 115 117 99 64 9 0 0 0 0 0 0 0 0 10 9 0 0 0 0 0 0 0 0 2 0 0 0 0 0 0 8 3 3 0 0 2 0 0 0 1 0 0 0 0 0 0 0 0 0 0 0 0 0 0 0 0 0 0 0 0 0 0 0 0 5 0 0 1 0 1 0 0 3 2 0 6 3 3 2 12 0 3 0 0 0 0 0 0 0 0 0 0 1 0 0 8 0 0 0 0 0 0 0 0 0 0 2 0 6 3 5 20 0 21 47 35 30 0 3 0 0 0 0 0 0 0 0 0 0 0 0 0 0 0 0 0 0 0 0 0 0 0 0 0 18 11 18 24 21 16 6 0 26 4 2 2 4 8 21 10 5 8 2 1 0 0 7 0 22 15 14 17 12 13 5 0 26 22 16 16 19 12 5 0 26 30 35 39 28 7 0 0 0 0 0 0 0 0 0 0 0 0 0 0 0 0 0 0 0 0 0 0 0 0 0 0 0 0 0 0 0 0 0 0 0 0 0 0 0 0 0 0 0 0 0 0 0 0 0 0 15 3 3 11 8 6 7 5 0 0 0 0 0 0 0 0 0 0 0 0 0 0 0 0 0 0 0 0 0 0 0 0 0 3 1 0 0 0 2 0 7 6 0 2 0 0 6 5 3 1 0 5 3 2 0 12 0 0 0 0 0 2 0 0 6 8 3 7 4 5 8 1 1 0 0 0 0 0 0 4 0 0 0 4 2 0 0 0 4 3 3 3 3 3 3 8 0 0 0 0 0 0 0 0 3 0 0 3 0 0 0 0 0 0 0 0 0 0 0 0 1 0 0 0 0 0 0 0 0 0 0 0 0 0 0 0 0 0 0 0 0 0 0 0 0 0 0 0 0 0 0 0 0 0 0 1 0 2 3 0 11 0 3 0 3 3 0 0 4 4 0 1 3 0 0 4 0 4 0 0 0 0 0 0 0 3 4 0 4 3 3 3 3 3 3 3 3 3 3 5 0 0 3 1 0 1 0 3 0 0 0 0 0 0 0 0 0 0 0 0 0 0 0 0 0 0 3 0 3 0 6 0 0 0 0 2 0 0 3 1 0 0 0 3 0 0 0 0 0 0 0 0 0 0 0 0 0 0 0 0 0 0 0 0 0 0 0 255
255 0 0 0 0 0 0 0 0 0 0 0 0 0 0 0 0 0 0 0 0 0 0 0 0 0 0 1 2 3 3 9 0 0 0 0 0 0 0 4 0 0 0 0 0 0 0 0 1 2 0 0 4 2 1 0 0 0 2 6 0 4 0 10 3 6 6 6 6 6 6 9 3 6 6 6 6 6 6 2 7 3 3 3 3 3 3 5 0 0 0 0 0 0 0 0 0 0 0 0 0 0 0 0 0 0 0 0 0 0 0 0 0 0 0 0 0 0 0 2 0 0 0 0 0 0 2 3 0 0 0 0 0 0 0 0 0 0 0 0 0 0 0 0 0 3 3 0 6 3 3 5 0 0 0 0 0 0 0 3 0 0 0 0 0 0 0 2 0 4 2 0 0 0 4 2 0 0 0 1 3 0 0 0 0 0 0 0 0 0 0 0 0 2 4 0 0 1 2 1 0 0 0 0 0 1 0 0 2 0 1 2 5 0 1 5 9 13 5 7 8 6 15 8 4 6 6 6 6 6 6 7 8 9 9 9 9 9 9 11 2 11 6 12 6 12 9 7 14 11 10 9 7 13 10 8 7 6 6 6 6 6 6 6 6 6 7 9 12 5 6 10 0 0 0 5 4 5 6 10 0 1 2 5 8 3 5 6 15 14 14 16 10 12 13 16 0 0 0 0 0 0 0 0 10 12 12 12 12 12 12 11 19 18 17 15 12 19 18 20 12 12 19 17 15 12 19 21 15 18 18 18 18 18 18 19 20 21 21 21 21 21 21 23 0 5 0 0 8 4 0 11 0 0 4 0 10 6 0 11 0 0 16 7 14 5 6 4 19 11 19 16 15 5 1 22 0 0 0 0 0 0 0 0 64 78 102 91 110 101 91 102 4 0 0 0 0 0 0 0 0 0 0 0 0 0 0 0 11 0 0 0 8 10 10 10 4 5 11 9 16 20 25 15 10 4 18 16 10 4 8 11 9 0 1 9 7 5 5 0 9 8 1 3 3 4 8 4 11 6 12 6 12 7 13 3 22 15 12 18 12 18 14 13 13 5 4 10 7 6 5 8 0 1 5 9 6 5 7 0 19 16 17 19 12 15 8 17 0 11 7 15 14 18 13 20 7 21 17 14 13 11 8 21 13 21 43 36 51 42 32 28 97 63 22 0 0 0 0 0 0 0 0 0 0 1 41 55 44 42 53 43 40 46 67 73 34 23 34 32 38 39 46 34 37 20 23 26 37 26 25 18 11 10 17 13 27 15 18 6 26 12 14 11 24 22 28 20 29 34 25 22 30 25 28 25 27 26 0 11 54 101 146 168 255 148 148 90 100 156 60 86 125 124 108 96 114 128 151 126 99 76 64 62 62 49 31 7 32 31 27 33 23 15 18 10 22 14 16 16 16 20 20 9 17 6 7 5 11 9 10 0 1 3 0 0 0 0 13 2 12 9 15 10 17 13 10 15 13 12 12 12 12 12 12 9 15 12 10 17 14 13 12 13 0 0 0 0 0 0 0 0 0 0 0 0 0 0 0 0 0 0 0 0 0 0 0 2 0 0 0 0 0 0 0 0 6 0 4 0 5 5 0 2 3 3 3 3 3 3 3 5 0 7 4 2 0 7 5 3 1 0 0 0 0 0 0 6 0 0 0 0 0 0 0 0 3 0 0 3 0 0 0 0 7 6 6 6 6 6 6 4 2 0 0 0 0 0 0 0 0 0 0 0 0 0 0 0 0 0 0 0 0 0 0 0 0 0 0 0 0 0 0 0 0 0 0 2 0 0 0 0 10 0 3 0 3 3 0 0 5 0 0 0 1 1 1 3 0 1 2 4 0 0 2 5 0 0 1 4 1 0 0 0 0 0 0 0 0 0 0 3 0 0 3 2 5 2 0 3 0 0 0 0 0 0 0 0 0 0 0 0 0 0 0 0 0 0 3 0 3 0 7 0 0 0 0 5 3 2 1 0 0 0 0 3 0 0 0 0 0 0 0 0 0 0 0 0 0 0 0 0 0 0 0 0 0 0 0 255
255 0 0 0 0 0 0 0 0 0 0 0 0 0 0 0 0 0 0 0 0 0 0 0 0 0 0 0 0 0 0 5 2 2 0 4 0 4 1 6 0 0 0 0 0 0 0 0 0 0 0 4 1 0 0 0 0 3 0 0 3 0 6 5 0 0 0 0 0 0 0 0 0 0 0 0 0 0 0 0 2 0 0 0 0 0 0 1 2 3 3 3 3 3 3 3 3 3 3 3 3 3 3 3 3 3 3 3 3 3 3 3 3 3 3 3 3 3 3 6 1 0 4 3 3 1 0 8 0 0 4 2 0 0 4 6 0 3 3 3 3 3 3 7 0 0 0 0 0 0 0 0 1 3 3 3 3 3 3 6 0 3 3 3 3 3 3 5 0 0 0 4 2 0 0 0 0 0 1 3 0 5 0 0 5 3 3 3 3 3 3 6 0 0 0 0 0 0 0 0 9 8 1 3 3 6 0 4 0 0 0 0 2 0 0 1 4 6 6 6 6 4 13 8 5 9 9 9 9 9 9 8 7 6 6 6 6 6 6 7 7 6 2 7 2 7 4 3 3 2 9 7 5 3 10 9 9 9 9 9 9 9 9 6 12 10 12 5 7 9 11 17 5 10 8 13 10 8 7 10 5 9 9 11 5 8 10 12 5 6 7 0 3 5 7 0 3 5 7 0 2 4 5 8 1 3 3 3 3 3 3 3 3 3 3 1 7 4 3 6 0 7 4 3 1 7 4 6 0 3 3 3 3 3 3 2 1 0 0 0 0 0 0 1 4 0 4 8 0 0 5 5 0 1 0 0 6 2 2 9 0 0 0 0 2 0 0 0 0 0 0 0 14 2 7 13 9 17 0 0 0 0 0 0 0 0 0 0 0 0 0 0 0 0 0 0 0 0 0 0 0 0 0 0 0 0 0 0 0 0 0 0 0 0 0 0 0 0 0 0 0 0 0 0 2 0 0 0 0 0 3 0 9 6 0 0 0 0 0 0 7 7 2 5 6 8 4 0 0 0 0 0 0 0 0 0 4 0 0 1 0 1 0 7 1 5 5 2 8 5 4 4 0 1 4 0 12 3 6 7 7 6 6 6 5 5 5 11 0 9 0 5 3 6 0 6 8 0 8 9 12 15 17 21 18 7 0 1 12 20 16 6 0 0 8 40 69 95 109 122 158 167 155 145 127 117 108 101 93 91 91 90 78 66 77 78 35 42 33 40 25 36 39 48 38 29 23 25 26 27 21 14 28 27 18 16 16 18 16 8 24 15 3 8 11 5 17 22 0 0 0 6 26 30 38 45 0 36 71 92 75 29 0 0 0 0 60 38 60 116 66 132 77 80 80 92 81 71 58 28 78 59 50 51 41 42 36 27 39 26 23 20 18 20 15 8 17 13 9 13 9 7 9 1 13 14 9 10 11 13 9 15 3 0 0 1 0 0 0 0 3 1 7 3 1 0 6 4 3 3 3 3 3 3 3 0 6 3 2 1 0 5 3 4 4 2 8 6 5 2 8 11 0 2 2 3 3 3 3 5 0 0 0 4 1 0 0 0 4 3 3 3 3 2 1 0 0 0 1 0 2 2 0 0 0 0 0 0 0 0 0 0 0 0 0 4 2 0 0 4 3 3 3 3 3 3 3 8 0 0 0 0 0 0 0 0 3 0 0 4 1 0 0 0 0 0 0 0 0 0 0 0 2 0 0 0 0 0 0 0 0 0 0 0 0 0 0 0 0 0 0 0 0 0 0 0 0 0 0 0 0 0 0 0 0 0 1 5 0 4 0 0 9 0 3 0 3 3 0 0 7 0 0 0 0 0 5 5 0 0 0 1 4 0 0 4 0 3 3 6 3 3 3 3 3 3 3 3 3 3 3 5 0 0 5 4 0 2 0 5 0 3 3 3 3 3 3 2 1 0 0 0 0 0 0 0 0 0 4 0 5 2 2 1 1 0 0 0 0 0 0 0 0 0 0 3 0 0 0 0 0 0 0 0 0 0 0 0 0 0 0 0 0 0 0 0 0 0 0 255
255 0 0 0 0 0 0 0 0 0 0 0 0 0 0 0 0 0 0 0 0 0 0 1 2 3 2 1 0 0 0 2 0 2 0 4 0 5 2 8 0 3 3 3 3 3 3 2 1 0 0 5 2 1 0 0 6 4 3 2 1 0 0 0 5 3 3 3 3 3 3 5 0 0 0 0 0 0 0 0 0 0 0 0 0 0 0 0 0 0 0 0 0 0 0 0 0 0 0 0 0 0 0 0 0 0 0 0 0 0 0 0 0 0 0 0 0 0 0 2 0 0 0 0 0 0 2 4 0 2 0 0 4 2 1 2 0 0 0 0 0 0 0 2 0 3 3 0 6 3 3 5 0 0 0 0 0 0 0 3 0 0 0 0 0 0 0 1 2 3 2 0 0 4 3 0 2 2 4 0 3 2 4 0 3 0 0 0 0 0 0 4 0 1 0 0 0 1 2 0 6 4 5 6 6 8 1 6 0 3 4 0 0 1 4 0 0 0 0 0 0 0 0 0 0 0 0 0 0 0 0 0 0 0 0 0 0 0 0 0 0 0 0 0 0 0 0 0 0 0 0 0 0 0 0 0 0 0 0 0 0 0 0 0 0 0 0 0 0 0 0 0 0 0 0 0 0 0 0 0 0 0 0 0 0 0 0 0 0 0 0 0 0 0 0 0 10 2 4 5 7 9 2 6 0 0 0 0 0 0 0 0 0 0 0 0 0 0 0 0 0 0 0 0 0 0 0 0 0 0 0 0 0 0 0 0 0 0 0 0 0 0 0 0 6 0 3 0 4 2 0 3 0 0 5 4 5 2 0 7 0 1 2 2 0 0 8 7 0 0 0 0 4 2 10 8 39 37 21 16 9 0 0 0 0 0 0 0 0 0 0 0 0 0 32 47 61 19 0 0 0 0 0 22 30 22 32 25 9 0 11 0 6 5 1 0 0 0 0 0 0 0 5 4 0 0 0 0 0 0 0 0 2 0 1 3 3 2 3 0 1 0 1 0 0 0 0 0 7 2 0 4 0 5 0 8 0 0 4 0 4 0 5 4 0 0 0 0 0 0 0 0 7 4 7 9 6 7 1 5 0 0 0 0 0 0 0 0 0 0 0 0 0 1 0 0 0 0 2 0 0 0 0 0 5 3 0 9 26 26 29 41 43 52 50 39 14 0 0 0 0 0 0 11 27 30 26 29 6 10 10 14 16 15 24 27 60 61 40 38 30 22 22 20 14 11 9 9 14 20 1 0 7 7 8 9 11 7 6 0 17 0 2 0 12 5 5 6 0 0 2 5 0 0 4 14 17 0 0 0 0 1 37 43 23 1 86 21 0 0 0 0 0 11 25 38 31 26 14 0 18 5 0 3 15 19 15 12 5 1 4 3 2 6 0 0 0 0 1 0 0 0 0 0 1 0 3 0 2 0 0 0 3 2 8 5 2 0 7 6 0 0 0 0 0 0 0 0 0 0 0 0 0 0 0 0 0 0 0 0 0 0 0 0 2 11 8 6 5 11 8 10 5 10 2 3 3 4 5 9 3 6 4 1 7 6 6 3 9 6 6 7 8 9 9 11 0 2 0 1 0 0 2 0 7 3 3 3 3 3 3 8 0 0 4 1 0 0 4 1 0 0 0 0 0 0 0 3 0 0 0 0 0 0 0 0 5 3 1 0 4 3 2 1 0 0 0 0 0 0 0 0 5 3 3 3 3 3 3 3 3 3 3 3 3 3 3 3 3 3 3 3 3 3 3 3 3 3 3 3 3 3 3 2 2 2 4 0 0 0 4 0 9 0 3 0 3 3 0 0 0 0 0 0 0 0 5 3 3 3 3 3 5 0 0 6 0 0 0 3 0 0 0 0 0 0 0 0 0 0 0 1 2 2 1 1 2 6 1 0 0 0 0 0 0 0 0 0 4 3 3 3 3 3 3 3 3 1 0 3 1 0 0 0 5 3 3 3 3 4 0 0 0 0 0 3 0 0 0 0 0 0 0 0 0 0 0 0 0 0 0 0 0 0 0 0 0 0 0 255
255 0 0 0 0 0 0 0 0 0 0 0 0 0 0 0 0 0 0 0 0 0 0 1 0 0 0 1 0 0 0 2 4 8 2 0 0 0 0 9 0 0 0 0 0 0 0 0 0 0 0 0 0 1 0 0 0 0 0 0 0 0 0 0 5 3 3 3 3 3 3 5 7 9 9 9 9 9 9 9 0 0 0 0 0 0 0 0 0 0 0 0 0 0 0 0 0 0 0 0 0 0 0 0 0 0 0 0 0 0 0 0 0 0 0 0 0 0 0 1 3 0 5 0 0 3 0 10 0 0 0 3 1 0 0 1 2 3 3 3 3 3 3 5 0 0 0 0 0 0 0 0 0 0 0 0 0 0 0 0 0 0 0 0 0 0 0 0 0 0 0 0 2 0 0 0 4 0 3 7 4 3 4 0 2 0 0 0 0 0 0 2 0 4 3 3 3 4 0 0 0 0 0 0 0 1 3 5 0 0 0 0 1 0 0 1 0 0 0 0 5 5 7 11 6 9 9 9 9 9 9 10 2 2 1 0 0 0 0 0 8 3 9 4 11 6 12 13 0 3 1 8 6 6 6 5 13 12 12 12 12 12 12 10 8 7 8 9 10 3 5 7 10 3 3 9 7 5 4 4 5 6 6 7 8 9 11 9 7 11 11 2 4 6 8 8 0 0 0 0 0 0 0 0 0 2 1 0 0 1 2 4 5 5 13 11 10 8 16 16 16 17 7 16 14 13 12 12 12 12 12 12 12 12 12 10 17 15 15 15 15 15 15 15 7 9 3 6 0 5 0 0 13 12 11 10 4 10 8 11 5 0 0 0 0 0 6 13 15 19 6 9 12 7 8 0 0 0 0 6 24 53 61 74 98 98 91 82 81 88 97 118 99 91 66 46 46 59 78 75 100 74 58 28 0 0 8 31 14 7 8 12 15 26 32 36 3 4 9 7 6 2 6 9 0 0 3 9 2 0 0 7 7 8 1 3 4 4 16 12 3 1 8 4 9 14 12 6 18 12 9 14 7 13 9 22 0 0 6 1 8 4 12 1 20 11 12 10 17 14 13 11 1 0 3 8 6 8 2 6 8 9 9 8 15 12 19 17 25 24 23 22 22 15 18 10 17 22 19 18 18 17 26 17 19 21 24 6 7 0 0 18 0 0 0 0 0 9 15 38 38 39 30 26 5 2 13 24 45 31 22 17 28 21 8 0 0 0 0 6 10 15 14 16 11 15 5 18 19 27 25 4 4 6 9 12 17 15 15 11 40 16 14 13 19 24 33 26 46 43 39 30 15 7 3 0 16 20 25 35 31 28 1 0 43 0 13 0 0 66 9 63 7 0 0 0 0 0 7 15 16 9 0 11 18 23 9 0 7 5 1 12 23 20 21 14 4 7 17 18 21 24 29 27 18 17 16 13 20 18 18 13 8 2 0 7 6 5 4 4 14 15 14 13 12 12 12 10 8 6 6 6 6 6 6 7 8 8 16 15 14 12 19 21 0 0 0 0 0 0 0 0 0 0 0 0 0 2 0 0 0 0 0 0 0 0 0 0 0 0 0 0 0 0 0 0 0 0 0 5 3 3 0 0 7 3 3 3 3 3 3 8 0 0 0 0 0 0 0 0 0 0 0 0 0 0 0 0 0 0 0 0 0 0 0 0 0 0 0 3 1 0 0 6 4 3 3 3 3 3 3 1 0 0 0 0 0 0 0 0 0 0 0 0 0 0 0 0 0 0 0 0 0 0 0 0 0 0 0 0 0 0 0 0 3 0 0 1 0 0 0 0 6 0 0 0 2 2 0 0 0 0 0 0 0 0 0 0 1 0 0 0 1 2 3 8 0 0 0 2 0 0 0 0 0 0 0 0 0 0 0 0 0 0 0 0 0 2 0 2 0 0 0 0 0 0 0 0 0 0 0 0 0 0 0 0 0 0 3 1 0 0 0 0 2 0 0 0 0 1 3 0 0 0 0 2 0 0 0 0 0 0 0 0 0 0 0 0 0 0 0 0 0 0 0 0 0 0 0 255
255 0 0 0 0 0 0 0 0 0 0 0 0 0 0 0 0 0 0 0 0 0 0 1 2 3 2 1 0 0 0 2 0 0 0 2 3 3 2 4 6 9 11 4 6 6 7 0 10 6 6 6 5 4 3 2 10 9 10 2 4 6 8 8 0 0 0 0 0 0 0 0 0 0 0 0 0 0 0 0 0 0 0 0 0 0 0 0 5 3 3 3 3 3 3 5 0 0 0 0 0 0 0 0 0 0 0 0 0 0 0 0 0 0 0 0 0 0 0 0 1 1 2 2 2 1 0 0 1 3 2 1 0 0 0 0 0 0 0 0 0 0 0 0 9 9 9 8 7 6 6 9 3 6 6 6 6 6 6 9 3 6 6 8 1 3 3 4 0 0 0 4 0 2 14 10 0 0 0 0 0 0 0 2 1 0 0 0 0 0 0 1 1 1 0 0 0 1 2 5 0 0 2 0 0 0 0 0 5 3 3 3 4 5 6 10 0 7 6 5 6 0 2 0 0 0 0 0 0 0 0 3 0 0 4 1 7 3 10 7 5 0 6 2 1 0 3 4 0 3 2 1 0 0 0 0 0 0 0 0 0 0 0 0 0 0 0 0 0 0 0 0 1 2 2 1 0 0 0 0 0 0 0 0 0 0 1 9 0 0 1 0 1 3 0 0 10 3 5 6 8 2 5 8 1 1 8 6 6 8 1 3 3 2 1 0 0 0 0 0 0 0 0 0 0 0 0 0 1 0 0 0 0 0 0 0 0 0 0 0 0 0 0 0 0 0 0 0 0 2 4 7 0 0 0 0 0 0 0 0 0 0 6 10 3 3 1 4 0 0 0 0 0 0 3 2 5 15 13 17 11 10 3 8 4 10 14 23 36 41 40 44 0 6 15 22 16 15 13 10 8 18 6 14 28 29 7 0 21 16 21 15 8 1 0 0 3 13 4 5 7 0 1 0 26 17 23 20 22 26 22 9 5 11 6 9 11 3 7 3 3 2 1 0 0 0 0 0 6 2 0 2 3 7 0 0 0 0 2 0 0 0 0 0 0 0 0 0 0 0 0 0 3 2 0 0 0 0 1 0 2 0 0 1 0 0 0 0 0 0 0 0 0 0 0 0 1 0 0 0 0 0 0 0 0 0 0 0 2 3 2 4 15 17 15 16 10 12 10 8 6 10 0 5 10 15 7 8 1 3 11 15 9 14 21 25 12 10 1 6 7 3 4 0 4 7 6 4 0 0 2 5 15 12 9 6 4 3 3 0 0 0 0 0 0 0 0 0 0 0 0 0 0 0 7 14 4 3 2 1 0 3 8 7 10 7 15 14 11 9 4 14 2 15 21 25 25 21 16 14 6 9 9 6 1 0 3 6 16 15 13 9 5 3 4 4 12 8 4 0 0 0 0 0 0 0 0 0 0 0 0 0 15 9 8 7 6 6 6 5 4 3 3 3 3 3 3 0 15 12 12 12 12 12 12 15 0 2 1 0 0 0 0 1 5 8 7 6 6 5 4 4 5 7 0 2 3 5 0 1 2 3 2 1 0 0 0 0 5 3 3 4 5 6 6 7 0 0 4 1 0 0 6 4 2 0 0 0 0 0 0 3 6 8 7 6 6 5 4 3 3 3 3 3 3 3 3 3 3 3 3 3 3 3 3 3 3 3 2 1 0 0 0 0 2 0 0 0 0 0 0 0 7 6 6 6 6 6 6 6 6 6 6 6 6 6 6 6 6 6 6 6 6 6 6 7 0 0 0 0 5 3 3 0 7 6 0 3 5 3 8 0 2 2 6 5 1 1 2 3 3 3 3 3 3 3 3 2 1 0 0 0 0 0 0 3 5 6 3 1 0 0 0 0 0 0 0 0 0 0 0 0 0 0 0 0 0 1 2 6 0 3 3 3 3 3 3 3 3 3 3 3 3 3 3 3 3 2 1 0 0 0 0 4 1 0 0 0 0 0 1 2 3 3 2 1 0 0 0 0 0 0 0 0 0 0 0 0 0 0 0 0 0 0 0 0 0 0 0 255
255 0 0 0 0 0 0 0 0 0 0 0 0 0 0 0 0 0 0 0 0 0 0 0 0 0 0 0 0 0 0 3 0 0 0 0 0 0 0 0 0 0 2 0 0 0 1 0 4 0 0 0 0 0 0 0 0 0 1 2 5 0 0 0 0 0 0 0 0 0 0 1 2 3 3 3 3 3 3 2 1 0 0 0 0 0 0 0 3 0 0 0 0 0 0 2 0 0 0 0 0 0 0 0 0 0 0 0 0 0 0 0 0 0 0 0 0 0 0 0 0 0 0 0 0 0 0 0 0 0 0 0 0 0 0 0 0 0 0 0 0 0 0 0 3 0 0 0 0 0 0 3 0 0 0 0 0 0 0 3 0 0 0 3 0 0 0 1 2 4 0 1 0 0 0 4 0 0 3 1 0 0 3 1 0 0 0 0 0 0 0 0 0 0 0 0 0 0 0 3 0 0 2 0 0 0 1 0 4 0 0 0 0 0 0 4 0 1 0 0 1 0 2 0 0 0 0 0 0 0 0 2 0 3 0 0 0 4 1 0 0 0 3 0 0 0 3 3 0 0 0 0 0 0 0 0 0 0 0 0 0 0 0 0 0 0 0 0 0 0 0 0 0 0 0 0 0 0 0 0 0 0 0 0 0 0 0 7 0 0 0 2 2 0 0 0 2 3 0 0 1 3 0 1 0 0 1 0 0 1 0 0 0 0 0 0 0 0 0 0 5 3 3 3 3 3 3 1 0 0 0 0 0 0 0 0 0 0 0 0 0 0 0 0 1 3 3 3 3 3 3 6 0 1 0 1 0 1 0 0 3 5 0 0 0 0 0 1 3 7 3 0 5 0 0 0 0 0 0 0 0 0 3 1 0 1 0 0 0 0 0 2 6 15 17 11 14 15 15 19 4 9 11 13 13 14 18 10 18 14 13 12 12 12 12 7 17 16 19 13 17 20 17 18 0 0 0 0 0 0 2 2 2 0 0 0 3 0 3 0 7 6 6 6 6 6 6 6 0 0 0 0 3 8 6 17 8 8 7 6 6 6 6 2 7 3 3 3 3 3 3 3 3 3 3 3 3 3 6 0 6 3 3 6 0 3 3 3 3 3 1 8 5 4 3 3 3 3 3 3 3 3 3 0 6 3 3 3 3 3 3 1 8 7 8 12 0 0 1 1 2 5 0 3 4 7 1 8 0 0 1 4 0 3 0 8 5 6 0 6 8 14 9 5 0 0 0 0 0 0 0 0 0 0 0 0 0 0 0 0 13 12 12 14 7 9 9 8 7 5 4 2 9 6 4 0 0 0 0 0 0 0 0 0 0 0 0 0 0 0 0 1 0 0 0 0 0 0 0 1 2 3 3 3 3 3 3 4 0 0 0 0 0 0 0 0 0 0 0 0 0 0 0 0 0 0 0 0 0 0 0 0 3 0 0 0 0 0 0 0 0 0 0 0 0 0 0 0 0 0 0 0 0 0 0 0 0 0 0 0 0 0 0 0 0 0 0 0 0 0 0 0 0 1 3 0 0 0 2 3 3 3 3 3 3 3 3 1 0 0 0 0 0 0 0 0 1 2 0 0 0 3 1 0 0 0 0 0 0 0 0 0 0 0 0 0 0 0 0 0 0 0 0 0 0 0 0 0 0 0 0 0 0 0 0 0 0 0 0 0 0 0 0 0 2 0 0 0 0 0 0 0 0 0 0 0 0 0 0 0 0 0 0 0 0 0 0 0 0 0 0 0 0 0 0 0 0 0 0 0 2 0 0 0 3 1 3 0 0 0 0 1 0 0 3 3 0 0 0 0 0 0 0 0 0 0 0 0 0 0 0 0 0 0 0 0 0 0 0 0 0 0 0 0 0 0 0 0 0 0 0 0 0 0 0 0 0 0 0 3 0 0 0 0 0 0 0 0 0 0 0 0 0 0 0 0 0 0 0 0 0 0 0 3 0 0 0 0 0 0 0 0 0 0 0 0 0 0 0 0 0 0 0 0 0 0 0 0 0 0 0 0 0 0 0 0 0 0 0 255
255 0 0 0 0 0 0 0 0 0 0 0 0 0 0 0 0 0 0 0 0 0 0 0 0 0 0 0 0 0 0 2 0 0 0 0 0 0 0 0 0 0 1 3 0 0 0 0 3 0 0 0 0 0 0 1 3 0 0 0 2 0 0 0 2 0 0 0 0 0 0 0 0 0 0 0 0 0 0 0 0 0 0 0 0 0 0 0 3 0 0 0 0 0 0 1 2 3 3 3 3 3 3 3 3 3 3 3 3 3 3 3 3 3 3 3 3 3 3 3 3 3 3 3 3 3 3 3 3 3 3 3 3 3 3 5 0 0 0 0 0 0 0 0 5 3 3 3 3 3 3 6 0 3 3 3 3 3 3 4 0 0 0 0 0 0 0 0 0 0 0 0 2 5 0 4 2 2 1 0 0 3 1 0 0 0 0 0 0 0 0 0 0 0 0 0 0 0 0 2 0 0 1 3 0 0 0 0 3 0 0 0 0 0 0 3 0 0 0 5 0 3 0 0 0 0 0 0 0 0 0 0 0 0 0 2 0 2 0 0 0 0 3 0 0 0 3 2 0 0 0 0 0 0 0 0 0 0 0 0 0 0 0 0 0 0 0 0 0 0 0 0 0 0 0 0 0 0 0 0 0 0 0 0 0 0 0 5 0 2 0 3 3 0 2 5 0 1 3 0 0 1 2 7 0 2 0 4 4 0 2 0 0 0 0 0 0 0 0 0 0 0 0 0 0 0 0 0 4 3 3 3 3 3 3 3 3 3 3 3 3 3 3 4 0 0 0 0 0 0 0 0 1 0 2 4 8 8 1 4 5 7 8 9 9 9 9 6 22 12 17 12 17 12 16 22 9 14 7 11 6 9 10 12 17 16 13 14 19 19 16 14 27 27 30 24 27 27 27 31 17 21 22 14 15 17 21 17 11 12 12 12 12 11 10 6 11 5 11 6 11 6 12 18 0 0 2 0 3 0 0 0 2 2 8 3 8 3 9 7 8 9 9 9 9 9 9 13 7 17 13 17 11 16 4 3 10 9 9 9 9 9 9 6 21 18 18 18 18 18 18 20 13 15 15 15 15 15 17 7 15 12 12 15 9 12 12 12 12 11 9 7 5 12 10 9 0 0 0 0 0 0 0 0 12 9 9 9 9 9 9 9 9 10 2 5 8 11 13 3 13 5 8 9 11 5 8 12 0 0 3 0 3 0 4 6 4 6 0 6 8 5 10 0 8 6 6 6 6 6 6 6 6 6 6 6 6 6 6 6 6 5 4 4 5 6 6 5 4 2 1 0 0 3 2 2 3 3 3 3 3 3 3 4 5 6 6 6 6 6 6 9 3 6 6 6 6 6 6 7 8 9 9 9 9 9 9 11 4 6 6 6 6 6 6 3 9 6 6 6 6 6 6 6 6 6 6 6 6 6 6 5 4 3 3 3 3 3 3 3 3 3 3 3 3 3 3 3 3 3 3 3 3 3 3 3 3 3 3 3 3 3 3 3 3 3 3 3 3 3 3 4 0 0 0 0 3 0 0 0 0 0 0 0 0 0 0 0 4 3 3 3 3 3 3 4 0 0 0 3 0 0 0 0 4 3 3 3 3 3 3 3 3 3 3 3 3 3 3 3 3 3 3 3 3 3 3 3 3 3 3 3 3 3 3 3 3 3 3 3 3 3 3 2 1 0 0 0 0 0 0 1 2 3 3 3 3 3 3 3 3 3 3 3 3 3 3 3 3 3 3 3 3 3 3 2 1 0 0 3 1 0 0 0 1 0 1 4 0 3 0 0 0 0 3 3 0 0 0 0 0 0 0 0 0 0 0 0 0 0 0 0 0 0 0 0 0 0 0 0 0 0 0 0 0 0 0 0 0 0 0 0 0 0 0 0 0 0 0 2 0 0 0 0 0 0 0 0 0 0 0 0 0 0 0 0 0 0 0 0 0 0 0 2 0 0 0 0 0 0 0 0 0 0 0 0 0 0 0 0 0 0 0 0 0 0 0 0 0 0 0 0 0 0 0 0 0 0 0 255
255 0 0 0 0 0 0 0 0 0 0 0 0 0 0 0 0 0 0 0 0 0 0 0 0 0 0 0 0 0 0 1 2 3 3 3 3 3 3 3 4 0 0 0 3 0 0 0 3 0 0 0 0 0 0 2 0 0 2 0 0 0 0 0 3 0 0 0 0 0 0 0 0 0 0 0 0 0 0 0 0 0 0 0 0 0 0 0 3 0 0 0 0 0 0 0 0 0 0 0 0 0 0 0 0 0 0 0 0 0 0 0 0 0 0 0 0 0 0 0 0 0 0 0 0 0 0 0 0 0 0 0 0 0 0 3 0 0 0 0 0 0 0 0 0 0 0 0 0 0 0 0 0 0 0 0 0 0 0 0 4 3 3 6 0 3 3 2 1 1 3 0 0 3 0 3 0 0 0 0 3 1 0 0 0 0 0 0 0 0 0 0 0 0 0 0 0 0 0 1 3 0 0 0 3 0 0 0 3 0 0 0 0 0 0 3 0 0 3 2 4 0 0 1 3 3 3 3 3 3 3 5 0 0 3 0 4 0 0 6 0 0 3 0 0 0 3 1 2 3 3 3 3 3 3 3 3 3 3 3 3 3 3 3 3 3 3 3 3 3 3 3 3 3 3 3 3 3 3 5 0 0 0 0 0 0 0 2 0 3 0 5 5 0 3 0 0 0 0 3 0 0 0 3 0 0 1 0 0 1 0 0 0 0 0 0 0 0 0 0 5 3 3 3 3 3 3 1 0 0 0 0 0 0 0 0 0 0 0 0 0 0 0 0 1 3 3 3 3 3 3 5 0 2 3 3 6 4 5 8 1 3 3 3 3 3 3 0 7 5 8 0 2 3 0 3 0 3 11 12 4 6 6 7 11 9 5 4 7 14 10 0 0 0 0 0 0 0 0 0 1 4 6 8 9 12 0 3 0 0 0 0 0 0 7 6 5 3 1 0 5 2 0 13 9 11 13 13 17 15 16 11 6 8 6 12 10 7 13 14 0 3 3 3 3 3 3 6 0 0 0 0 0 0 0 0 5 3 3 3 3 3 3 1 0 0 0 0 0 0 0 0 0 0 0 0 0 0 0 0 0 0 0 0 0 0 0 0 0 0 1 0 0 0 1 0 7 6 6 6 6 6 6 4 2 0 0 0 0 0 0 1 0 0 0 0 1 0 0 0 5 0 0 0 1 0 0 0 6 5 3 8 5 1 8 12 0 0 0 0 2 0 4 0 5 0 0 0 0 0 0 0 0 0 0 0 0 0 0 5 0 0 3 1 0 0 0 0 2 0 7 5 3 0 7 6 6 6 6 6 6 6 6 8 1 3 3 3 3 3 3 5 0 0 0 0 0 0 0 3 0 0 0 0 0 0 0 0 0 0 0 0 0 0 0 0 5 3 3 3 3 3 3 3 3 3 3 3 3 3 3 4 0 0 0 0 0 0 0 0 0 0 0 0 0 0 0 0 0 0 0 0 0 0 0 0 0 0 0 0 0 0 0 0 0 0 0 0 0 0 0 0 0 1 2 4 0 0 1 2 3 3 3 3 3 3 3 1 0 0 0 0 0 0 0 0 0 1 0 0 4 2 1 0 0 0 0 0 0 0 0 0 0 0 0 0 0 0 0 0 0 0 0 0 0 0 0 0 0 0 0 0 0 0 0 0 0 0 0 0 0 0 0 0 0 0 0 0 0 0 0 0 0 0 0 0 0 0 0 0 0 0 0 0 0 0 0 0 0 0 0 0 0 0 0 0 0 0 3 0 0 0 4 0 7 0 0 1 0 0 3 0 0 0 3 3 0 0 0 0 0 0 0 0 0 0 0 0 0 0 0 0 0 0 0 0 0 0 0 0 0 0 0 0 0 0 0 0 0 0 0 0 0 0 0 0 0 0 0 1 2 3 3 3 3 3 3 3 3 3 3 3 3 3 3 3 3 3 3 3 3 3 2 1 0 0 0 0 0 0 0 0 0 0 0 0 0 0 0 0 0 0 0 0 0 0 0 0 0 0 0 0 0 0 0 0 0 0 0 255
255 0 0 0 0 0 0 0 0 0 0 0 0 0 0 0 0 0 0 0 0 0 0 0 0 0 0 0 0 0 0 0 0 0 0 0 0 0 0 0 1 2 4 0 0 2 4 0 2 0 0 0 0 0 0 2 0 0 2 0 0 0 0 0 3 0 0 0 0 0 0 0 0 0 0 0 0 0 0 0 0 0 0 0 0 0 0 0 3 0 0 0 0 0 0 0 0 0 0 0 0 0 0 0 0 0 0 0 0 0 0 0 0 0 0 0 0 0 0 0 0 0 0 0 0 0 0 0 0 0 0 0 0 0 0 1 0 0 0 0 0 0 0 0 0 0 0 0 0 0 0 3 0 0 0 0 0 0 0 0 3 0 0 3 0 0 0 0 4 3 0 0 0 3 0 2 0 0 4 2 1 0 0 0 0 0 0 0 0 0 0 0 0 0 0 0 0 0 0 0 1 2 4 0 0 2 4 0 2 0 0 0 0 0 0 2 0 3 0 0 1 0 3 0 0 0 0 0 0 0 0 2 0 3 0 0 1 0 3 4 0 0 3 0 0 0 3 0 0 0 0 0 0 0 0 0 0 0 0 0 0 0 0 0 0 0 0 0 0 0 0 0 0 0 0 0 0 0 0 3 0 0 0 0 0 0 0 1 1 0 5 2 2 5 0 5 0 4 0 0 2 4 0 0 0 0 4 1 1 4 0 2 3 3 3 3 3 3 3 1 0 0 0 0 0 0 0 0 2 0 0 0 0 0 0 0 0 0 0 0 0 0 0 2 0 0 0 0 0 0 0 0 0 0 0 1 4 2 2 4 0 0 0 0 0 0 0 0 0 0 0 0 4 4 6 1 0 0 0 0 0 0 0 3 1 1 0 3 4 9 4 0 11 9 10 13 7 9 8 9 10 13 6 8 9 12 6 9 18 18 18 19 11 11 10 10 1 10 9 8 7 6 5 7 0 0 3 5 1 0 2 9 0 3 2 1 0 0 0 7 0 0 0 0 0 0 0 0 0 0 0 0 0 0 0 0 0 0 0 0 0 0 0 0 0 0 0 0 0 0 0 0 0 0 0 0 0 0 0 0 0 0 0 0 0 0 0 0 0 0 0 0 0 0 0 0 1 0 0 0 0 0 0 0 0 0 0 0 0 0 0 0 0 0 0 0 0 0 0 0 0 0 0 0 0 0 0 0 4 3 2 0 7 5 4 7 0 0 0 0 0 0 0 0 7 3 3 3 3 3 3 3 3 3 3 3 3 3 3 9 0 0 0 0 0 0 0 0 4 1 0 0 4 1 0 0 0 0 0 0 0 0 0 0 0 0 0 0 0 0 0 0 1 3 3 3 3 3 3 6 0 0 0 0 0 0 0 0 1 0 0 0 0 0 0 0 0 0 0 0 0 0 0 0 0 0 0 0 0 0 0 1 2 3 3 3 3 3 3 3 3 3 3 3 3 3 3 5 0 0 0 0 0 0 0 0 5 3 3 3 3 3 3 3 3 3 3 3 3 3 3 3 3 4 0 0 0 2 4 0 0 0 0 0 0 0 0 0 2 0 0 0 0 0 0 2 0 4 2 0 0 0 4 3 3 3 3 3 3 3 3 3 3 3 3 3 3 3 3 3 3 3 3 3 3 3 3 3 3 3 3 3 3 3 3 3 3 3 3 3 3 3 3 3 3 3 3 3 3 3 3 5 0 0 0 0 0 0 0 0 0 0 0 0 0 0 0 0 0 0 0 0 0 0 0 0 5 2 0 0 4 2 1 0 4 2 4 0 0 0 0 4 0 0 3 3 0 0 0 0 0 0 0 0 0 0 0 0 0 0 0 0 0 0 0 0 0 0 0 0 0 0 0 0 0 0 0 0 0 0 0 0 0 0 0 0 0 0 0 0 0 0 0 0 0 0 0 0 0 0 0 0 0 0 0 0 0 0 0 0 0 0 0 0 0 0 0 0 0 0 0 0 0 0 0 0 0 0 0 0 0 0 0 0 0 0 0 0 0 0 0 0 0 0 0 0 0 0 0 255
255 0 0 0 0 0 0 0 0 0 0 0 0 0 0 0 0 0 0 0 0 0 0 0 0 0 0 0 0 0 0 0 0 0 0 0 0 0 0 0 0 0 1 3 0 0 1 1 1 0 0 0 0 0 0 1 3 0 0 0 2 0 0 0 2 0 0 0 0 0 0 0 5 3 3 3 3 3 3 5 0 0 0 0 0 0 0 0 3 0 0 0 0 0 0 0 5 3 3 3 3 3 3 3 3 3 3 3 3 3 3 3 3 3 3 3 3 3 3 3 3 3 3 3 3 3 3 3 3 3 3 3 3 3 3 8 0 0 0 0 0 0 0 0 0 0 0 0 0 0 0 3 0 0 0 0 0 0 0 0 1 0 0 0 0 0 0 0 8 0 2 0 0 2 0 1 5 2 1 0 0 0 0 0 0 0 0 0 0 0 0 0 0 0 0 0 0 0 0 0 0 0 1 3 0 0 1 1 1 0 0 0 0 0 0 1 1 0 0 5 0 3 0 0 0 0 0 0 0 0 0 0 0 1 0 3 0 3 0 2 0 0 3 0 0 0 3 0 0 0 0 0 0 0 0 0 0 0 0 0 0 0 0 0 0 0 0 0 0 0 0 0 0 0 0 0 0 0 0 3 0 0 0 0 0 0 0 1 2 1 0 4 4 0 1 5 0 1 3 0 0 1 2 4 0 2 0 4 4 0 2 0 0 0 0 0 0 0 0 0 4 3 3 3 3 3 3 0 6 3 3 3 3 3 3 3 3 3 3 3 3 3 3 6 0 3 3 3 3 3 3 5 0 0 0 0 0 3 0 0 2 0 0 0 0 0 0 1 2 3 2 0 0 0 0 0 2 4 3 11 9 9 9 12 1 0 0 0 0 4 0 0 2 1 2 5 0 0 0 12 0 2 5 0 0 2 4 5 4 3 3 4 5 6 6 6 5 4 3 4 5 6 6 8 0 0 1 5 3 3 5 1 0 0 0 0 0 0 0 0 1 0 0 0 0 0 0 0 4 2 3 4 5 6 6 7 0 0 0 0 0 0 0 2 0 0 0 0 0 0 0 0 4 3 3 3 3 3 3 0 6 3 3 6 0 3 3 1 7 4 3 3 0 6 3 4 0 0 0 0 0 0 0 0 7 3 3 3 3 3 3 3 3 6 0 3 3 6 0 0 4 1 2 4 6 0 2 4 0 0 0 0 0 0 0 0 6 3 0 5 8 6 1 0 0 0 0 0 0 0 0 0 0 0 0 0 0 0 0 3 0 5 1 6 0 6 2 2 0 0 1 0 0 0 1 0 0 0 0 0 0 0 0 3 0 0 0 0 0 0 0 1 0 0 0 0 0 0 0 0 0 0 0 0 0 0 0 0 0 0 0 0 0 0 0 3 0 0 0 0 0 0 0 0 0 0 0 0 0 0 0 0 0 0 0 0 0 0 0 0 0 0 0 0 0 0 0 0 0 0 0 0 0 0 0 0 0 0 0 0 0 0 0 0 0 0 0 0 0 0 0 0 0 0 0 2 4 0 0 0 2 3 3 3 3 3 3 0 6 3 3 3 3 3 3 5 0 0 0 4 2 0 0 0 0 0 0 0 0 0 0 0 0 0 0 0 0 0 0 0 0 0 0 0 0 0 0 0 0 0 0 0 0 0 0 0 0 0 0 0 0 0 0 0 0 0 0 0 0 0 0 0 0 0 0 0 0 0 0 0 0 0 0 0 0 0 0 0 0 0 0 0 0 0 0 0 0 0 0 3 1 0 0 0 1 0 1 4 0 3 0 2 0 0 3 3 0 0 0 0 0 0 0 0 0 0 0 0 0 0 0 0 0 0 0 0 0 0 0 0 0 0 0 0 0 0 0 0 0 0 0 0 0 0 0 0 0 0 0 0 0 0 0 0 0 0 0 0 0 0 0 0 0 0 0 0 0 0 0 0 0 0 0 0 0 0 0 0 0 0 0 0 0 0 0 0 0 0 0 0 0 0 0 0 0 0 0 0 0 0 0 0 0 0 0 0 0 0 0 255
255 0 0 0 0 0 0 0 0 0 0 0 0 0 0 0 0 0 0 0 0 0 0 0 0 0 0 0 0 0 0 0 0 0 0 0 0 0 0 0 0 0 0 1 4 0 0 0 0 0 0 0 0 0 0 0 0 0 1 2 5 0 0 0 0 0 0 0 0 0 0 0 3 0 0 0 0 0 0 3 0 0 0 0 0 0 0 0 3 0 0 0 0 0 0 0 3 0 0 0 0 0 0 0 0 0 0 0 0 0 0 0 0 0 0 0 0 0 0 0 0 0 0 0 0 0 0 0 0 0 0 0 0 0 0 6 0 0 0 0 0 0 0 0 0 0 0 0 0 0 0 3 0 0 0 0 0 0 0 0 8 3 3 6 0 3 3 0 5 4 0 2 2 1 0 0 3 0 0 0 0 0 0 0 0 0 0 0 0 0 0 0 0 0 0 0 0 0 0 0 0 0 0 1 4 0 0 0 0 0 0 0 0 0 0 0 0 0 4 2 4 1 0 2 3 3 3 3 3 3 3 5 0 0 0 0 4 0 0 9 0 0 3 0 0 0 3 0 0 0 0 0 0 0 0 0 0 0 0 0 0 0 0 0 0 0 0 0 0 0 0 0 0 0 0 0 0 0 0 3 0 0 0 0 0 0 0 3 0 0 2 0 0 2 0 0 0 0 1 4 0 0 0 1 1 0 4 1 1 4 0 2 3 3 3 3 3 3 3 1 0 0 0 0 0 0 0 0 2 0 0 0 0 0 0 0 0 0 0 0 0 0 0 2 0 0 0 0 0 0 0 0 0 2 0 2 0 2 0 0 12 9 9 9 9 9 9 9 1 2 2 9 7 5 4 5 7 10 1 1 1 2 3 4 9 7 2 5 14 8 11 4 5 4 0 0 0 0 0 0 0 0 0 0 0 0 0 0 0 0 0 0 0 0 0 0 0 0 0 0 0 0 0 0 0 1 5 1 0 0 3 0 9 2 0 0 0 0 0 0 10 6 6 6 6 6 6 2 17 5 6 7 0 2 3 3 3 3 3 3 3 3 3 6 0 3 3 3 3 3 3 3 3 3 3 3 3 3 3 0 6 3 3 6 0 3 3 2 0 7 6 5 2 8 6 7 0 0 0 0 0 0 0 0 10 6 6 6 6 6 6 6 6 8 2 5 6 8 1 0 13 10 2 4 6 9 2 5 0 0 0 1 2 3 3 0 9 3 0 5 8 6 10 4 5 3 3 3 3 3 3 5 0 0 0 0 0 0 0 7 0 0 4 8 2 7 3 11 2 2 1 0 0 3 1 0 0 0 0 0 0 0 0 3 0 0 0 0 0 0 0 1 2 3 3 3 3 3 3 5 7 9 9 9 9 9 9 9 0 0 0 0 0 0 0 5 0 0 0 0 0 0 0 0 0 0 0 0 0 0 0 0 4 3 3 3 3 3 3 3 3 3 3 3 3 3 3 3 3 3 3 3 3 3 3 3 3 3 3 3 3 3 3 3 3 3 3 3 3 3 3 3 3 3 4 0 0 2 3 4 0 0 0 0 0 0 0 0 2 0 0 0 0 0 0 1 2 3 2 0 0 4 3 3 3 3 3 3 3 3 3 3 3 3 3 3 3 3 3 3 3 3 3 3 3 3 3 3 3 3 3 3 3 3 3 3 3 3 3 3 3 3 3 5 0 0 0 0 0 0 0 0 5 3 3 3 3 3 3 3 3 3 3 3 3 3 3 3 3 3 3 3 3 3 3 5 0 0 3 1 0 0 4 0 7 0 0 3 0 1 4 1 0 0 3 3 0 0 0 0 0 0 0 0 0 0 0 0 0 0 0 0 0 0 0 0 0 0 0 0 0 0 0 0 0 0 0 0 0 0 0 0 0 0 0 0 0 0 0 0 0 0 0 0 0 0 0 0 0 0 0 0 0 0 0 0 0 0 0 0 0 0 0 0 0 0 0 0 0 0 0 0 0 0 0 0 0 0 0 0 0 0 0 0 0 0 0 0 0 0 0 0 0 0 0 0 0 0 0 255
255 0 0 0 0 0 0 0 0 0 0 0 0 0 0 0 0 0 0 0 0 0 0 0 0 0 0 0 0 0 0 0 0 0 0 0 0 0 0 0 0 0 0 0 2 0 0 0 0 0 0 0 0 0 0 0 4 3 4 0 0 0 0 3 0 0 0 0 0 0 0 0 3 0 0 0 0 0 0 1 0 0 0 0 0 0 0 0 3 3 3 3 3 3 3 1 8 6 6 6 6 6 6 6 6 6 6 6 6 6 6 6 6 6 6 6 6 6 6 6 6 6 6 6 6 6 6 6 6 6 6 6 6 6 6 9 0 0 0 0 0 0 0 0 0 0 0 0 0 0 0 0 0 0 0 0 0 0 0 0 9 6 6 8 1 3 3 0 6 4 0 0 0 0 0 0 4 3 2 1 0 0 0 0 0 0 0 0 0 0 0 0 0 0 0 0 0 0 0 0 0 0 0 0 2 0 0 0 0 0 0 0 0 0 0 0 1 1 8 6 8 3 0 0 0 0 0 0 0 0 0 0 0 0 0 0 0 0 3 5 0 0 0 0 0 0 2 0 0 0 0 0 0 0 0 0 0 0 0 0 0 0 0 0 0 0 0 0 0 0 0 0 0 0 0 0 0 0 0 2 0 0 0 0 0 0 0 0 0 0 0 0 0 0 0 0 0 0 0 0 0 0 0 0 0 0 2 0 0 2 0 0 0 0 0 0 0 0 0 0 4 3 3 3 3 3 3 2 1 0 0 0 0 0 0 0 0 0 0 0 0 0 0 1 4 7 5 3 1 0 0 0 3 0 6 4 4 0 0 0 0 0 0 0 0 0 0 0 0 0 0 0 0 0 1 2 0 0 0 0 0 0 0 0 0 0 0 0 0 0 0 0 3 4 5 6 6 6 7 9 12 6 8 9 9 10 11 14 7 10 11 12 12 11 10 5 11 8 9 11 14 9 11 14 0 0 2 0 0 0 2 0 7 0 0 0 1 0 0 0 0 0 0 0 0 0 0 0 0 0 0 1 3 0 0 0 6 6 6 6 7 8 9 9 0 0 0 0 0 0 0 1 0 0 0 0 0 0 0 0 3 3 3 5 0 0 0 1 1 0 0 0 3 0 0 0 4 3 3 3 3 3 3 0 0 0 0 0 0 0 0 0 0 0 0 0 0 0 0 0 1 0 0 0 0 0 0 0 0 0 0 1 0 0 0 0 5 0 0 0 0 5 0 0 6 3 4 5 6 6 7 10 4 6 6 6 6 6 6 12 0 0 0 0 0 0 3 0 7 6 5 3 9 7 6 5 4 3 3 3 3 3 3 6 0 3 3 3 3 3 3 2 1 0 0 0 0 0 0 4 0 0 0 0 0 0 0 0 5 6 6 6 6 6 6 10 0 0 0 0 0 0 0 0 0 0 0 0 0 0 0 0 0 0 0 0 0 0 0 0 0 0 0 0 0 0 0 0 0 0 0 0 0 0 0 0 0 0 0 0 0 0 0 0 0 0 0 0 0 0 0 0 0 0 0 0 0 0 0 0 0 0 0 0 0 0 0 0 0 0 0 0 0 0 0 0 0 0 0 0 3 1 0 0 0 0 0 0 0 0 0 0 0 0 0 0 0 0 0 0 0 0 0 0 0 0 0 0 0 0 0 0 0 0 0 0 0 0 0 0 0 0 0 0 0 0 0 0 0 0 0 0 0 0 0 0 0 0 0 0 0 2 1 0 0 0 0 0 0 0 0 0 0 0 0 0 0 0 0 0 0 3 1 0 8 9 2 4 0 0 5 0 0 0 1 3 2 3 2 1 0 0 0 0 0 0 0 0 0 0 0 0 0 0 0 0 0 0 0 0 0 0 0 0 0 0 0 0 0 0 0 0 0 0 0 0 0 0 0 0 0 0 0 0 0 0 0 0 0 0 0 0 0 0 0 0 0 0 0 0 0 0 0 0 0 0 0 0 0 0 0 0 0 0 0 0 0 0 0 0 0 0 0 0 0 0 0 0 0 0 0 0 0 0 0 0 0 0 0 255
255 0 0 0 0 0 0 0 0 0 0 0 0 0 0 0 0 0 0 0 0 0 0 0 0 0 0 0 0 0 0 0 0 0 0 0 0 0 0 0 0 0 0 0 1 2 3 3 3 3 3 3 3 3 3 2 1 0 1 2 3 3 3 8 0 0 0 0 0 0 0 0 3 0 0 0 0 0 0 0 7 6 6 6 6 6 6 9 0 0 0 0 0 0 0 0 0 0 0 0 0 0 0 0 0 0 0 0 0 0 0 0 0 0 0 0 0 0 0 0 0 0 0 0 0 0 0 0 0 0 0 0 0 0 0 0 3 3 3 3 3 3 3 3 3 3 3 3 3 3 3 6 0 3 3 3 3 3 3 2 0 0 0 0 0 0 0 0 0 0 4 3 3 1 7 5 0 0 0 2 0 0 0 0 0 0 0 0 0 0 0 0 0 0 0 0 0 0 0 0 0 0 0 0 1 2 3 3 3 3 3 3 3 3 3 7 0 0 0 0 0 0 0 0 0 0 0 0 0 0 0 0 12 8 7 5 4 2 1 2 4 5 4 3 3 2 1 0 0 0 0 0 0 0 0 0 0 0 0 0 0 0 0 0 0 0 0 0 0 0 0 0 0 0 0 0 0 0 0 1 2 3 3 3 3 3 3 5 6 7 5 4 4 5 7 9 2 3 3 4 5 6 6 8 1 2 1 0 0 1 2 3 3 3 3 3 3 3 3 2 1 0 0 0 0 0 0 0 0 0 0 0 0 0 0 0 0 0 0 0 0 5 3 8 0 0 0 0 5 1 8 5 4 2 1 0 1 2 4 5 6 6 6 6 6 6 6 5 5 5 6 5 4 2 1 2 4 6 6 6 7 8 9 8 8 9 10 8 7 0 1 3 0 0 0 0 0 0 0 0 0 0 0 0 0 0 0 2 0 0 0 0 0 0 0 0 10 0 0 2 0 0 0 0 0 0 0 0 0 0 0 0 9 5 6 6 7 8 9 8 7 6 6 6 6 6 6 6 0 0 0 0 0 0 0 1 0 0 0 0 0 0 0 0 5 3 3 3 3 3 3 4 5 6 6 6 6 6 6 9 0 0 0 0 0 0 0 1 0 0 1 0 0 0 1 0 3 0 0 0 0 0 0 0 5 3 3 3 3 3 3 5 0 0 1 3 0 0 0 0 3 0 5 4 5 8 1 3 3 3 3 4 5 6 6 9 0 0 2 2 0 0 0 0 4 0 2 0 0 0 0 0 0 0 0 0 0 0 0 0 2 4 2 0 0 0 0 0 0 0 0 0 0 0 0 0 1 0 0 0 0 0 0 3 0 0 0 0 0 0 0 0 5 3 3 3 3 3 3 9 0 3 3 3 3 3 3 3 0 0 0 0 0 0 0 0 0 0 0 0 0 0 0 0 0 0 0 0 0 0 0 0 0 0 0 0 0 0 0 0 7 6 6 6 6 6 6 6 6 6 6 6 6 6 6 6 6 6 6 6 6 6 6 8 1 3 3 3 3 3 3 3 3 3 3 4 5 6 6 8 1 3 3 3 3 3 3 3 3 3 3 3 3 3 3 3 3 3 3 2 1 0 0 0 0 0 0 0 0 0 0 0 0 0 0 0 0 0 0 0 10 6 6 6 6 6 6 6 6 6 6 6 6 6 6 8 1 3 3 3 3 3 3 4 5 6 6 6 6 6 8 0 11 6 6 6 6 6 6 12 0 0 2 0 3 8 5 14 5 6 6 6 6 6 6 8 0 1 0 0 0 0 0 0 0 0 0 0 2 0 0 0 8 1 8 3 0 0 0 2 0 0 0 0 0 0 0 0 0 0 0 0 0 0 0 0 0 0 0 0 0 0 0 0 0 0 0 0 0 0 0 0 0 0 0 0 0 0 0 0 0 0 0 0 0 0 0 0 0 0 0 0 0 0 0 0 0 0 0 0 0 0 0 0 0 0 0 0 0 0 0 0 0 0 0 0 0 0 0 0 0 0 0 0 0 0 0 0 0 0 0 0 0 0 0 0 0 0 0 255
255 0 0 0 0 0 0 0 0 0 0 0 0 0 0 0 0 0 0 0 0 0 0 0 0 0 0 0 0 0 0 0 0 0 0 0 0 0 0 0 0 0 0 0 0 0 0 0 0 0 0 0 0 0 0 0 0 0 0 0 0 0 0 5 0 0 0 0 0 0 0 0 2 0 0 0 0 0 0 0 3 0 0 0 0 0 0 5 0 0 0 0 0 0 0 0 0 0 0 0 0 0 0 0 0 0 0 0 0 0 0 0 0 0 0 0 0 0 0 0 0 0 0 0 0 0 0 0 0 0 0 0 0 0 0 0 2 0 0 0 0 0 0 0 0 0 0 0 0 0 0 3 0 0 0 0 0 0 0 1 2 3 3 3 3 3 3 2 1 0 3 0 0 0 3 3 0 0 0 3 0 0 0 0 0 0 0 0 0 0 0 0 0 0 0 0 0 0 0 0 0 0 0 0 0 0 0 0 0 0 0 0 0 0 0 5 0 0 0 0 0 0 0 0 0 0 0 0 0 0 0 0 5 0 0 0 0 0 0 0 0 0 0 0 0 0 0 0 0 0 0 0 0 0 0 0 0 0 0 0 0 0 0 0 0 0 0 0 0 0 0 0 0 0 0 0 0 0 0 0 0 0 0 0 0 0 0 0 0 0 0 0 0 0 0 3 0 0 0 0 0 0 0 3 0 0 0 0 0 0 0 0 0 0 0 0 0 0 0 0 0 0 0 0 0 0 0 0 0 0 0 0 0 0 0 0 0 0 0 0 0 3 0 7 0 0 0 0 3 0 3 0 0 0 0 0 0 0 0 0 0 0 0 0 0 0 0 0 0 0 0 0 0 0 0 0 0 0 0 0 0 0 0 0 0 0 0 0 3 0 0 2 0 0 0 0 0 0 0 0 0 0 0 0 0 0 0 0 1 0 0 0 0 0 0 2 1 2 2 3 0 0 0 0 0 0 0 0 0 0 0 0 3 0 0 0 0 0 0 0 0 0 0 0 0 0 0 1 2 3 3 3 3 3 3 5 0 0 1 0 0 0 0 0 3 0 0 0 0 0 0 0 0 0 0 0 0 0 0 5 0 0 0 0 0 0 0 0 1 2 0 0 0 3 1 0 3 0 0 0 0 0 0 0 3 0 0 0 0 0 0 2 0 0 0 1 3 0 0 0 3 0 3 0 0 3 0 0 0 0 0 0 0 0 0 5 0 0 0 0 0 0 0 0 2 0 2 0 0 0 1 4 0 0 0 0 0 0 0 0 5 3 3 3 3 3 3 0 4 0 0 0 0 1 0 0 0 0 0 0 0 0 0 2 0 0 0 0 0 0 0 0 2 0 0 0 0 0 0 5 0 0 0 0 0 0 0 0 0 0 0 0 0 0 0 1 2 3 3 3 3 3 3 3 3 3 3 3 3 3 3 3 3 3 3 3 3 3 3 2 1 0 0 0 0 0 0 0 0 0 0 0 0 0 0 0 0 0 0 0 0 0 0 3 0 0 0 0 0 0 0 0 0 0 0 0 0 0 0 2 0 0 0 0 0 0 0 0 0 0 0 0 0 0 0 0 0 0 0 0 0 0 0 0 0 0 0 0 0 0 0 0 0 0 0 0 0 0 0 0 7 3 3 3 3 3 3 3 3 3 3 3 3 3 3 5 0 0 0 0 0 0 0 0 0 0 0 0 0 0 2 0 5 0 0 0 0 0 0 8 0 0 1 0 0 3 0 0 0 0 0 0 0 0 0 1 2 3 3 3 3 3 3 7 0 0 0 3 0 0 0 0 5 0 6 3 0 0 0 3 0 0 0 0 0 0 0 0 0 0 0 0 0 0 0 0 0 0 0 0 0 0 0 0 0 0 0 0 0 0 0 0 0 0 0 0 0 0 0 0 0 0 0 0 0 0 0 0 0 0 0 0 0 0 0 0 0 0 0 0 0 0 0 0 0 0 0 0 0 0 0 0 0 0 0 0 0 0 0 0 0 0 0 0 0 0 0 0 0 0 0 0 0 0 0 0 0 0 0 255
255 0 0 0 0 0 0 0 0 0 0 0 0 0 0 0 0 0 0 0 0 0 0 0 0 0 0 0 0 0 0 0 0 0 0 0 0 0 0 0 0 0 0 0 0 0 0 0 0 0 0 0 0 0 0 0 0 0 0 0 0 0 0 4 0 3 3 3 3 3 3 2 1 0 0 0 0 0 0 0 5 3 3 3 3 3 3 6 0 3 3 3 3 3 3 3 3 3 3 3 3 3 3 3 3 3 3 3 3 3 3 3 3 3 3 3 3 3 3 3 3 3 3 3 3 3 3 3 3 3 3 3 3 3 3 2 1 0 0 0 0 0 0 0 0 0 0 0 0 0 0 3 0 0 0 0 0 0 0 0 0 0 0 0 0 0 0 0 0 0 3 0 0 0 3 3 0 0 0 3 0 0 0 0 0 0 0 0 0 0 0 0 0 0 0 0 0 0 0 0 0 0 0 0 0 0 0 0 0 0 0 0 0 0 0 4 0 3 3 3 3 3 3 3 3 3 3 3 3 3 3 0 4 0 0 0 0 0 0 0 0 0 0 0 0 0 0 0 0 0 0 0 0 0 0 0 0 0 0 0 0 0 0 0 0 0 0 0 0 0 0 0 0 0 0 0 0 0 0 0 0 0 0 0 0 0 0 0 0 0 0 0 0 0 0 3 0 0 0 0 0 0 0 3 0 0 0 0 0 0 0 0 0 0 0 0 0 0 0 0 0 0 0 0 0 0 0 0 0 0 0 0 0 0 0 0 0 0 0 0 0 3 0 5 0 0 2 0 2 0 3 0 0 0 0 0 0 0 0 0 0 0 0 0 0 0 0 0 0 0 0 0 0 0 0 0 0 0 0 0 0 0 0 0 0 0 0 0 3 0 0 1 2 3 3 3 3 3 3 3 3 3 3 3 3 3 3 2 4 0 2 4 4 2 0 8 0 0 0 3 1 1 0 0 0 0 0 0 0 0 0 0 0 0 0 0 0 0 0 0 0 0 0 0 0 0 0 0 0 0 0 0 0 0 0 0 0 0 2 5 0 0 0 0 0 0 0 0 0 0 0 0 0 0 0 0 0 0 0 4 0 3 3 3 3 3 3 4 0 0 0 3 0 0 0 0 2 0 0 0 0 0 0 0 3 0 0 0 0 0 0 1 2 4 0 0 1 3 0 0 1 0 1 0 0 1 0 0 0 0 0 0 0 0 0 4 0 3 3 3 3 3 3 1 0 0 1 3 0 0 0 2 0 0 0 0 0 0 0 0 0 0 0 0 0 0 0 0 5 0 0 0 5 2 0 3 0 0 0 0 0 0 0 0 0 0 0 0 0 0 0 0 0 0 0 0 0 0 0 4 0 3 3 3 3 3 3 2 1 0 0 0 0 0 0 3 0 0 0 0 0 0 0 0 0 0 0 0 0 0 0 0 0 0 0 0 0 0 0 0 0 0 0 0 0 0 0 0 0 0 0 0 0 0 0 0 0 0 0 0 0 0 0 3 0 0 0 0 0 0 0 0 0 0 0 0 0 0 0 0 0 0 0 0 0 0 0 0 0 0 0 0 0 0 0 0 0 0 0 0 0 0 0 0 0 0 0 0 0 0 0 0 0 0 0 0 0 0 0 0 0 0 0 0 0 0 0 0 0 0 0 0 0 0 0 0 0 0 0 0 0 0 0 0 0 0 0 0 0 0 0 0 3 0 0 0 0 0 0 7 0 0 0 2 0 2 0 0 0 0 0 0 0 0 0 0 0 0 0 0 0 0 0 4 0 2 0 0 0 4 2 0 3 0 6 3 0 0 0 3 0 0 0 0 0 0 0 0 0 0 0 0 0 0 0 0 0 0 0 0 0 0 0 0 0 0 0 0 0 0 0 0 0 0 0 0 0 0 0 0 0 0 0 0 0 0 0 0 0 0 0 0 0 0 0 0 0 0 0 0 0 0 0 0 0 0 0 0 0 0 0 0 0 0 0 0 0 0 0 0 0 0 0 0 0 0 0 0 0 0 0 0 0 0 0 0 0 0 0 255
255 0 0 0 0 0 0 0 0 0 0 0 0 0 0 0 0 0 0 0 0 0 0 0 0 0 0 0 0 0 0 0 0 0 0 0 0 0 0 0 0 0 0 0 0 0 0 0 0 0 0 0 0 0 0 0 0 0 0 0 0 0 0 3 0 0 0 0 0 0 0 0 0 0 0 0 0 0 0 0 0 0 0 0 0 0 0 0 0 0 0 0 0 0 0 0 0 0 0 0 0 0 0 0 0 0 0 0 0 0 0 0 0 0 0 0 0 0 0 0 0 0 0 0 0 0 0 0 0 0 0 0 0 0 0 0 0 0 0 0 0 0 0 0 0 0 0 0 0 0 0 3 0 0 0 0 0 0 0 0 0 0 0 0 0 0 0 0 0 0 3 0 0 0 3 3 0 0 0 3 0 0 0 0 0 0 0 0 0 0 0 0 0 0 0 0 0 0 0 0 0 0 0 0 0 0 0 0 0 0 0 0 0 0 0 3 0 0 0 0 0 0 0 0 0 0 0 0 0 0 0 0 3 0 0 0 0 0 0 0 0 0 0 0 0 0 0 0 0 0 0 0 0 0 0 0 0 0 0 0 0 0 0 0 0 0 0 0 0 0 0 0 0 0 0 0 0 0 0 0 0 0 0 0 0 0 0 0 0 0 0 0 0 0 0 3 0 0 0 0 0 0 0 3 0 0 0 0 0 0 0 0 0 0 0 0 0 0 0 0 0 0 0 0 0 0 0 0 0 0 0 0 0 0 0 0 0 0 0 0 0 3 0 3 0 0 0 3 1 0 3 0 0 0 0 0 0 0 0 0 0 0 0 0 0 0 0 0 0 0 0 0 0 0 0 0 0 0 0 0 0 0 0 0 0 0 0 0 3 0 0 0 0 0 0 0 0 0 0 0 0 0 0 0 0 0 0 0 7 0 3 0 0 3 0 13 0 0 0 1 0 4 2 2 2 3 3 3 3 3 3 5 0 0 0 0 0 0 0 0 0 0 0 0 0 0 0 0 0 0 0 0 0 0 0 0 5 3 4 0 0 2 3 4 0 0 0 0 0 0 0 0 0 0 0 0 0 0 0 0 0 0 0 0 0 0 0 0 0 1 0 0 4 2 1 0 0 0 0 0 0 0 0 0 2 0 0 0 0 0 0 0 0 1 3 0 0 0 2 1 0 2 0 4 4 0 2 0 0 0 0 0 0 0 0 0 0 0 0 0 0 0 0 0 5 0 0 0 3 0 0 0 0 0 0 0 0 0 0 0 5 3 3 3 3 3 3 0 9 3 2 0 0 4 3 7 0 0 0 0 0 0 0 0 2 0 0 0 0 0 0 2 0 0 0 0 0 0 0 0 0 0 0 0 0 0 0 0 4 3 3 3 3 3 3 8 0 0 0 0 0 0 0 0 0 0 0 0 0 0 0 0 0 0 0 0 0 0 0 0 0 0 0 0 0 0 0 0 0 0 0 0 0 0 0 0 0 0 0 0 0 0 0 2 0 0 0 0 0 0 0 0 0 0 0 0 0 0 0 0 3 0 0 0 0 0 0 0 0 0 0 0 0 0 0 0 0 0 0 0 0 0 0 0 0 0 0 0 0 0 0 0 0 0 0 0 0 0 0 2 0 0 0 0 0 0 0 0 0 0 0 0 0 0 0 0 2 0 0 0 0 0 0 0 0 0 0 0 0 0 0 0 0 0 0 0 0 0 0 5 0 4 1 0 3 1 0 0 0 0 0 0 0 0 0 0 0 0 0 0 0 0 0 2 0 0 4 2 0 0 0 0 1 0 6 3 0 0 0 3 0 0 0 0 0 0 0 0 0 0 0 0 0 0 0 0 0 0 0 0 0 0 0 0 0 0 0 0 0 0 0 0 0 0 0 0 0 0 0 0 0 0 0 0 0 0 0 0 0 0 0 0 0 0 0 0 0 0 0 0 0 0 0 0 0 0 0 0 0 0 0 0 0 0 0 0 0 0 0 0 0 0 0 0 0 0 0 0 0 0 0 0 0 0 0 0 0 0 0 255
255 0 0 0 0 0 0 0 0 0 0 0 0 0 0 0 0 0 0 0 0 0 0 0 0 0 0 0 0 0 0 0 0 0 0 0 0 0 0 0 0 0 0 0 0 0 0 0 0 0 0 0 0 0 0 0 0 0 0 0 0 0 0 2 0 0 0 0 0 0 0 0 0 0 0 0 0 0 0 0 0 0 0 0 0 0 0 0 0 0 0 0 0 0 0 0 0 0 0 0 0 0 0 0 0 0 0 0 0 0 0 0 0 0 0 0 0 0 0 0 0 0 0 0 0 0 0 0 0 0 0 0 0 0 0 0 0 0 0 0 0 0 0 0 0 0 0 0 0 0 0 3 0 0 0 0 0 0 0 0 0 0 0 0 0 0 0 0 0 0 3 0 0 0 3 3 0 0 0 3 0 0 0 0 0 0 0 0 0 0 0 0 0 0 0 0 0 0 0 0 0 0 0 0 0 0 0 0 0 0 0 0 0 0 0 2 0 0 0 0 0 0 0 0 0 0 0 0 0 0 0 0 2 0 0 0 0 0 0 0 0 0 0 0 0 0 0 0 0 0 0 0 0 0 0 0 0 0 0 0 0 0 0 0 0 0 0 0 0 0 0 0 0 0 0 0 0 0 0 0 0 0 0 0 0 0 0 0 0 0 0 0 0 0 0 3 0 0 0 0 0 0 0 3 0 0 0 0 0 0 0 0 0 0 0 0 0 0 0 0 0 0 0 0 0 0 0 0 0 0 0 0 0 0 0 0 0 0 0 0 0 3 0 0 0 0 0 0 0 0 2 0 0 0 0 0 0 0 0 0 0 0 0 0 0 0 0 0 0 0 0 0 0 0 0 0 0 0 0 0 0 0 0 0 0 0 0 0 3 0 0 0 0 0 0 0 0 0 0 0 0 0 0 0 0 0 0 0 4 5 0 2 2 0 5 10 0 0 2 0 3 1 0 8 0 0 0 0 0 0 0 3 0 0 0 0 0 0 0 0 0 0 0 0 0 0 0 0 0 0 0 0 0 0 0 0 2 0 1 3 6 0 0 1 2 3 3 3 3 3 3 3 3 3 3 3 3 3 3 5 0 0 0 0 0 0 0 2 0 4 2 0 0 0 4 3 3 3 3 3 3 3 3 2 1 0 0 0 0 0 0 0 0 0 0 2 4 0 0 0 4 0 4 1 1 4 0 2 3 3 3 3 3 3 3 5 0 0 0 0 0 0 0 0 1 2 4 0 0 2 4 0 4 3 3 3 3 3 3 1 0 0 0 0 0 0 0 0 5 0 0 6 3 1 0 4 0 3 3 3 3 3 3 1 8 6 6 6 6 6 6 8 1 3 3 3 3 3 3 5 0 0 0 0 0 0 0 0 0 0 0 0 0 0 0 5 0 0 0 0 0 0 0 0 0 0 0 0 0 0 0 0 0 0 0 0 0 0 0 0 0 0 0 0 0 0 0 0 0 0 0 0 0 0 0 0 0 0 0 0 0 0 0 1 2 3 3 3 3 3 3 5 0 0 0 0 0 0 0 0 10 6 6 6 6 6 6 6 6 6 6 6 6 6 6 6 6 6 6 6 6 6 6 6 6 6 6 6 6 6 6 6 6 6 6 6 6 6 6 8 1 3 3 3 3 3 3 3 3 3 3 3 3 3 3 1 8 6 6 6 6 6 6 6 6 6 6 6 6 6 6 7 0 0 0 0 0 0 0 3 0 0 0 3 1 0 0 0 0 0 0 0 0 0 0 0 0 0 0 0 0 0 0 0 0 0 0 0 3 1 0 0 0 0 6 3 0 0 0 3 0 0 0 0 0 0 0 0 0 0 0 0 0 0 0 0 0 0 0 0 0 0 0 0 0 0 0 0 0 0 0 0 0 0 0 0 0 0 0 0 0 0 0 0 0 0 0 0 0 0 0 0 0 0 0 0 0 0 0 0 0 0 0 0 0 0 0 0 0 0 0 0 0 0 0 0 0 0 0 0 0 0 0 0 0 0 0 0 0 0 0 0 0 0 0 0 0 0 0 255
255 0 0 0 0 0 0 0 0 0 0 0 0 0 0 0 0 0 0 0 0 0 0 0 0 0 0 0 0 0 0 0 0 0 0 0 0 0 0 0 0 0 0 0 0 0 0 0 0 0 0 0 0 0 0 0 0 0 0 0 0 0 0 1 2 3 3 3 3 3 3 5 0 0 0 0 0 0 0 1 2 3 3 3 3 3 3 0 6 3 3 3 3 3 3 3 3 3 3 3 3 3 3 3 3 3 3 3 3 3 3 3 3 3 3 3 3 3 3 3 3 3 3 3 3 3 3 3 3 3 3 3 3 3 3 5 0 0 0 0 0 0 0 0 0 0 0 0 0 0 0 3 0 0 0 0 0 0 0 0 5 3 3 3 3 3 3 5 0 0 3 0 0 0 3 3 0 0 0 3 0 0 0 0 0 0 0 0 0 0 0 0 0 0 0 0 0 0 0 0 0 0 0 0 0 0 0 0 0 0 0 0 0 0 0 1 2 3 3 3 3 3 3 3 3 3 3 3 3 3 3 2 1 0 0 0 0 0 0 0 0 0 0 0 0 0 0 0 0 0 0 0 0 0 0 0 0 0 0 0 0 0 0 0 0 0 0 0 0 0 0 0 0 0 0 0 0 0 0 0 0 0 0 0 0 0 0 0 0 0 0 0 0 0 0 3 0 0 0 0 0 0 0 3 0 0 0 0 0 0 0 0 0 0 0 0 0 0 0 0 0 0 0 0 0 0 0 0 0 0 0 0 0 0 0 0 0 0 0 0 0 3 0 0 5 3 3 3 3 3 3 2 1 0 0 0 0 0 0 0 0 0 0 0 0 0 0 0 0 0 0 0 0 0 0 0 0 0 0 0 0 0 0 0 0 0 0 0 3 0 0 0 5 3 3 3 3 3 3 3 3 3 3 3 3 3 3 3 4 0 1 3 3 1 0 9 0 0 0 3 1 0 0 0 0 0 0 0 0 0 0 3 0 0 0 0 0 0 0 0 0 0 0 0 0 0 0 0 5 3 3 3 3 3 3 2 2 2 3 4 0 1 3 2 1 0 0 0 0 0 0 0 0 0 0 0 0 0 0 1 2 3 3 3 3 3 3 5 0 0 0 4 2 0 0 0 0 0 0 0 0 0 0 0 0 0 0 0 0 0 0 0 5 4 0 0 1 3 0 0 1 0 1 0 0 1 0 0 0 0 0 0 0 0 0 1 2 3 3 3 3 3 3 5 0 0 1 3 0 0 1 0 0 0 0 0 0 0 0 0 4 3 3 3 3 3 3 0 6 3 1 0 4 3 2 4 0 0 0 0 0 0 0 0 0 0 0 0 0 0 0 0 0 0 0 0 0 0 0 1 2 3 3 3 3 3 3 6 0 3 3 3 3 3 3 6 0 3 3 3 3 3 3 3 3 3 3 3 3 3 3 3 3 3 3 3 3 3 3 5 0 0 0 0 0 0 0 0 0 0 0 0 0 0 0 0 0 0 0 0 0 0 0 0 0 0 0 0 0 0 0 3 0 0 0 0 0 0 0 0 1 0 0 0 0 0 0 0 0 0 0 0 0 0 0 0 0 0 0 0 0 0 0 0 0 0 0 0 0 0 0 0 0 0 0 0 0 0 0 0 0 0 0 0 0 0 0 0 0 0 0 0 0 0 0 0 0 0 0 0 0 0 0 0 0 0 0 0 0 0 0 0 0 0 0 0 0 0 0 0 0 1 1 1 0 0 0 0 0 0 0 0 0 0 0 0 5 3 3 3 3 3 3 3 3 3 2 0 0 4 3 2 0 0 6 3 0 0 0 3 0 0 0 0 0 0 0 0 0 0 0 0 0 0 0 0 0 0 0 0 0 0 0 0 0 0 0 0 0 0 0 0 0 0 0 0 0 0 0 0 0 0 0 0 0 0 0 0 0 0 0 0 0 0 0 0 0 0 0 0 0 0 0 0 0 0 0 0 0 0 0 0 0 0 0 0 0 0 0 0 0 0 0 0 0 0 0 0 0 0 0 0 0 0 0 0 0 0 0 255
255 0 0 0 0 0 0 0 0 0 0 0 0 0 0 0 0 0 0 0 0 0 0 0 0 0 0 0 0 0 0 0 0 0 0 0 0 0 0 0 0 0 0 0 0 0 0 0 0 0 0 0 0 0 0 0 0 0 0 0 0 0 0 0 0 0 0 0 0 0 0 3 0 0 0 0 0 0 0 2 0 0 0 0 0 0 0 0 5 0 0 0 0 0 0 0 0 0 0 0 0 0 0 0 0 0 0 0 0 0 0 0 0 0 0 0 0 0 0 0 0 0 0 0 0 0 0 0 0 0 0 0 0 0 0 3 0 0 0 0 0 0 0 0 0 0 0 0 0 0 0 3 0 0 0 0 0 0 0 0 3 0 0 0 0 0 0 3 0 0 3 0 0 0 3 3 0 0 0 3 0 0 0 0 0 0 0 0 0 0 0 0 0 0 0 0 0 0 0 0 0 0 0 0 0 0 0 0 0 0 0 0 0 0 0 0 0 0 0 0 0 0 0 0 0 0 0 0 0 0 0 0 0 0 0 0 0 0 0 0 0 0 0 0 0 0 0 0 0 0 0 0 0 0 0 0 0 0 0 0 0 0 0 0 0 0 0 0 0 0 0 0 0 0 0 0 0 0 0 0 0 0 0 0 0 0 0 0 0 0 0 0 0 0 0 3 0 0 0 0 0 0 0 3 0 0 0 0 0 0 0 0 0 0 0 0 0 0 0 0 0 0 0 0 0 0 0 0 0 0 0 0 0 0 0 0 0 0 0 0 0 3 0 0 3 0 0 0 0 2 0 0 2 0 0 0 0 0 0 0 0 0 0 0 0 0 0 0 0 0 0 0 0 0 0 0 0 0 0 0 0 0 0 0 0 0 0 0 3 0 0 0 3 0 0 0 0 0 0 0 0 0 0 0 0 0 0 2 0 2 0 0 0 0 2 0 0 0 0 0 1 2 3 3 3 3 3 3 3 3 3 5 0 0 0 0 0 0 0 0 0 0 0 0 0 0 0 0 3 0 0 0 0 0 0 1 3 0 0 0 2 0 0 0 2 0 0 0 0 0 0 0 0 0 0 0 0 0 0 0 0 0 0 0 0 0 0 1 2 3 2 0 0 4 3 5 0 0 0 0 0 0 0 0 0 0 0 0 0 0 0 0 3 1 3 0 0 1 2 2 0 4 0 5 5 0 4 0 0 0 0 0 0 0 0 0 0 0 0 0 0 0 0 2 0 0 0 1 4 0 0 0 5 3 3 3 3 3 3 1 0 0 0 0 0 0 0 0 0 0 0 2 0 0 0 6 0 0 0 0 0 0 0 1 2 3 3 3 3 3 3 2 1 0 0 0 0 0 0 0 0 0 0 0 0 0 0 5 0 0 0 0 0 0 0 0 0 0 0 0 0 0 0 0 0 0 0 0 0 0 0 0 0 0 0 0 0 0 0 3 0 0 0 0 0 0 0 0 0 0 0 0 0 0 0 0 0 0 0 0 0 0 0 0 0 0 0 0 0 0 0 3 0 0 0 0 0 0 0 0 5 3 3 3 3 3 3 3 3 3 3 3 3 3 3 3 3 3 3 3 3 3 3 3 3 3 3 3 3 3 3 3 3 3 3 3 3 3 3 2 1 0 0 0 0 0 0 0 0 0 0 0 0 0 0 1 2 3 3 3 3 3 3 3 3 3 3 3 3 3 3 2 1 0 0 0 0 0 0 0 5 4 0 0 0 0 0 0 0 0 0 0 0 0 0 0 3 0 0 0 0 0 0 0 0 0 0 4 2 0 0 0 0 0 6 3 0 0 0 3 0 0 0 0 0 0 0 0 0 0 0 0 0 0 0 0 0 0 0 0 0 0 0 0 0 0 0 0 0 0 0 0 0 0 0 0 0 0 0 0 0 0 0 0 0 0 0 0 0 0 0 0 0 0 0 0 0 0 0 0 0 0 0 0 0 0 0 0 0 0 0 0 0 0 0 0 0 0 0 0 0 0 0 0 0 0 0 0 0 0 0 0 0 0 0 0 0 0 0 255
255 0 0 0 0 0 0 0 0 0 0 0 0 0 0 0 0 0 0 0 0 0 0 0 0 0 0 0 0 0 0 0 0 0 0 0 0 0 0 0 0 0 0 0 0 0 0 0 0 0 0 0 0 0 0 0 0 0 0 0 0 0 0 0 0 0 0 0 0 0 0 2 0 0 0 0 0 0 0 0 0 0 0 0 0 0 0 0 4 0 0 0 0 0 0 0 0 0 0 0 0 0 0 0 0 0 0 0 0 0 0 0 0 0 0 0 0 0 0 0 0 0 0 0 0 0 0 0 0 0 0 0 0 0 0 3 0 0 0 0 0 0 0 0 0 0 0 0 0 0 0 2 0 0 0 0 0 0 0 0 2 0 0 0 0 0 0 2 0 0 5 3 3 1 8 6 0 0 0 2 0 0 0 0 0 0 0 0 0 0 0 0 0 0 0 0 0 0 0 0 0 0 0 0 0 0 0 0 0 0 0 0 0 0 0 0 0 0 0 0 0 0 0 0 0 0 0 0 0 0 0 0 0 0 0 0 0 0 0 0 0 0 0 0 0 0 0 0 0 0 0 0 0 0 0 0 0 0 0 0 0 0 0 0 0 0 0 0 0 0 0 0 0 0 0 0 0 0 0 0 0 0 0 0 0 0 0 0 0 0 0 0 0 0 0 2 0 0 0 0 0 0 0 0 0 0 0 0 0 0 0 0 0 0 0 0 0 0 0 0 0 0 0 0 0 0 0 0 0 0 0 0 0 0 0 0 0 0 0 0 0 1 0 0 2 0 0 0 0 2 0 0 2 0 0 0 0 0 0 0 0 0 0 0 0 0 0 0 0 0 0 0 0 0 0 0 0 0 0 0 0 0 0 0 0 0 0 0 2 0 0 0 2 0 0 0 0 0 0 0 0 0 0 0 0 0 0 2 0 0 0 0 0 0 0 0 6 6 8 1 4 0 0 0 0 0 0 0 0 0 0 0 0 0 0 0 0 0 0 0 0 0 0 0 0 0 0 0 2 0 0 0 0 0 0 1 0 0 0 0 0 0 0 0 0 0 0 0 0 0 0 0 0 0 0 0 0 0 0 0 1 3 3 3 3 3 3 2 1 0 0 0 6 4 3 5 0 0 0 0 0 0 0 0 0 0 0 0 0 0 0 0 3 0 1 3 0 0 0 0 0 8 4 11 11 4 8 0 1 0 0 0 0 0 0 1 2 2 1 0 0 1 2 3 4 0 0 0 0 0 0 0 1 0 0 0 0 0 0 0 7 6 6 6 6 6 6 8 0 1 0 0 1 0 0 0 0 0 0 0 0 0 0 2 0 0 0 0 0 0 0 0 2 0 0 0 0 0 0 0 0 0 0 0 0 0 0 4 0 0 0 0 0 0 0 0 0 0 0 0 0 0 0 0 0 0 0 0 0 0 0 0 0 0 0 0 0 0 0 0 0 0 0 0 0 0 0 0 0 0 0 0 0 0 0 0 0 0 0 0 0 0 0 0 0 0 0 0 0 0 0 0 0 0 0 0 0 0 0 0 0 0 0 0 0 0 0 0 0 0 0 0 0 0 0 0 0 0 0 0 0 0 0 0 0 0 0 0 0 0 0 0 0 0 0 0 0 0 0 0 0 0 0 0 0 0 0 0 0 0 0 0 0 0 0 0 0 0 0 0 0 0 0 0 0 0 0 0 0 0 0 0 0 0 0 0 0 0 0 0 0 0 0 0 0 0 0 0 0 0 0 0 0 0 0 0 0 0 0 0 0 0 0 0 0 0 0 0 0 0 2 3 0 0 8 4 0 0 0 2 0 0 0 0 0 0 0 0 0 0 0 0 0 0 0 0 0 0 0 0 0 0 0 0 0 0 0 0 0 0 0 0 0 0 0 0 0 0 0 0 0 0 0 0 0 0 0 0 0 0 0 0 0 0 0 0 0 0 0 0 0 0 0 0 0 0 0 0 0 0 0 0 0 0 0 0 0 0 0 0 0 0 0 0 0 0 0 0 0 0 0 0 0 0 0 0 0 0 0 255
255 0 0 0 0 0 0 0 0 0 0 0 0 0 0 0 0 0 0 0 0 0 0 0 0 0 0 0 0 0 0 0 0 0 0 0 0 0 0 0 0 0 0 0 0 0 0 0 0 0 0 0 0 0 0 0 0 0 0 0 0 0 0 0 0 0 0 0 0 0 0 1 2 3 3 3 3 3 3 4 5 6 6 6 6 6 6 4 2 0 0 0 0 0 0 0 0 0 0 0 0 0 0 0 0 0 0 0 0 0 0 0 0 0 0 0 0 0 0 0 0 0 0 0 0 0 0 0 0 0 0 0 0 0 0 3 0 0 0 0 0 0 0 0 0 0 0 0 0 0 0 1 2 3 3 3 3 3 3 2 1 0 0 0 0 0 0 2 5 0 0 0 0 0 0 0 6 3 2 1 0 0 0 0 0 0 0 0 0 0 0 0 0 0 0 0 0 0 0 0 0 0 0 0 0 0 0 0 0 0 0 0 0 0 0 0 0 0 0 0 0 0 0 0 0 0 0 0 0 0 0 0 0 0 0 0 0 0 0 0 0 0 0 0 0 0 0 0 0 0 0 0 0 0 0 0 0 0 0 0 0 0 0 0 0 0 0 0 0 0 0 0 0 0 0 0 0 0 0 0 0 0 0 0 0 0 0 0 0 0 0 0 0 0 0 1 2 3 3 3 3 3 3 6 0 3 3 3 3 3 3 3 3 3 3 3 3 3 3 3 3 3 3 3 3 3 3 3 3 3 3 3 3 3 3 5 0 0 5 3 2 0 5 2 1 0 0 0 0 1 2 2 1 0 0 0 0 0 0 0 0 0 0 0 0 0 0 0 0 0 0 0 0 0 0 0 0 0 0 0 0 0 0 0 0 0 0 0 1 2 3 2 1 0 0 0 0 0 0 0 0 0 0 0 0 0 0 1 3 5 7 8 8 7 5 5 0 0 0 0 0 0 1 0 1 0 0 0 0 0 0 0 0 0 0 0 0 0 0 0 5 3 3 3 3 3 3 2 1 0 0 0 0 0 0 1 2 3 3 4 5 6 6 5 4 3 3 3 3 3 3 3 3 3 3 3 3 3 3 6 0 0 0 0 0 0 0 0 1 0 0 0 0 0 0 0 0 0 0 0 0 0 0 0 0 0 0 0 0 0 0 0 3 0 0 1 2 3 3 6 0 0 0 0 0 0 0 0 1 0 0 0 0 0 0 2 0 0 2 0 0 2 0 0 3 2 3 3 4 5 6 7 0 0 0 0 0 0 0 0 0 0 0 0 0 0 0 0 0 2 0 4 1 0 1 0 1 0 0 0 0 0 0 2 0 0 0 0 0 0 0 0 2 0 0 0 0 0 0 0 0 0 0 0 0 0 0 2 4 6 6 6 6 6 6 6 6 6 6 6 6 6 6 6 6 6 6 6 6 6 6 6 6 6 6 6 6 6 6 9 3 6 6 6 6 6 6 6 6 6 6 6 6 6 6 6 6 6 6 6 6 6 6 8 1 1 8 6 6 8 1 4 5 6 6 6 6 6 6 6 6 6 6 6 6 6 6 6 6 6 6 6 6 6 6 6 6 6 5 3 10 9 9 9 9 9 9 9 9 9 9 9 9 9 9 9 9 9 9 8 7 6 6 6 6 6 6 6 6 6 6 6 6 6 6 7 8 9 9 9 9 9 9 9 9 9 9 9 9 9 9 8 7 6 6 6 6 6 6 5 4 3 4 5 6 6 6 6 6 6 6 6 6 6 6 5 4 3 3 3 3 3 3 3 3 0 4 8 6 5 6 0 1 0 1 0 4 3 2 1 0 0 0 0 0 0 0 0 0 0 0 0 0 0 0 0 0 0 0 0 0 0 0 0 0 0 0 0 0 0 0 0 0 0 0 0 0 0 0 0 0 0 0 0 0 0 0 0 0 0 0 0 0 0 0 0 0 0 0 0 0 0 0 0 0 0 0 0 0 0 0 0 0 0 0 0 0 0 0 0 0 0 0 0 0 0 0 0 0 0 0 0 0 0 0 0 0 0 0 255
255 0 0 0 0 0 0 0 0 0 0 0 0 0 0 0 0 0 0 0 0 0 0 0 0 0 0 0 0 0 0 0 0 0 0 0 0 0 0 0 0 0 0 0 0 0 0 0 0 0 0 0 0 0 0 0 0 0 0 0 0 0 0 0 0 0 0 0 0 0 0 0 0 0 0 0 0 0 0 0 0 0 0 0 0 0 0 0 0 0 0 0 0 0 0 0 0 0 0 0 0 0 0 0 0 0 0 0 0 0 0 0 0 0 0 0 0 0 0 0 0 0 0 0 0 0 0 0 0 0 0 0 0 0 0 3 0 0 0 0 0 0 0 0 0 0 0 0 0 0 0 0 0 0 0 0 0 0 0 0 0 0 0 0 0 0 0 3 0 0 0 0 0 0 0 0 4 0 0 0 0 0 0 0 0 0 0 0 0 0 0 0 0 0 0 0 0 0 0 0 0 0 0 0 0 0 0 0 0 0 0 0 0 0 0 0 0 0 0 0 0 0 0 0 0 0 0 0 0 0 0 0 0 0 0 0 0 0 0 0 0 0 0 0 0 0 0 0 0 0 0 0 0 0 0 0 0 0 0 0 0 0 0 0 0 0 0 0 0 0 0 0 0 0 0 0 0 0 0 0 0 0 0 0 0 0 0 0 0 0 0 0 0 0 0 0 0 0 0 0 0 0 0 3 0 0 0 0 0 0 0 0 0 0 0 0 0 0 0 0 0 0 0 0 0 0 0 0 0 0 0 0 0 0 0 3 0 0 3 0 0 0 3 0 0 0 0 0 0 0 0 0 0 0 0 0 0 0 0 0 0 0 0 0 0 0 0 0 0 0 0 0 0 0 0 0 0 0 0 0 0 0 0 0 0 0 0 0 0 0 0 0 0 0 0 0 0 0 0 0 0 0 0 0 0 0 0 0 0 0 0 0 0 0 0 3 0 0 2 0 0 0 1 0 0 0 0 0 0 0 0 0 0 0 0 0 0 0 0 0 2 0 0 0 0 0 0 0 0 0 0 0 0 0 0 0 0 0 0 0 0 0 0 0 0 0 0 0 0 0 0 0 0 0 0 0 0 0 0 4 0 3 3 3 3 3 3 1 0 0 0 0 0 0 0 0 0 0 0 0 0 0 0 0 0 0 0 0 0 0 0 0 2 0 0 0 0 0 0 4 0 3 3 3 3 3 3 2 1 0 0 0 0 0 0 3 0 0 3 0 0 3 0 0 3 0 0 0 0 0 0 3 0 0 0 0 0 0 0 0 0 0 0 0 0 0 0 3 0 2 0 1 0 0 1 0 0 0 0 0 0 0 0 0 1 3 3 3 3 3 3 2 1 0 0 0 0 0 0 0 0 0 0 0 0 0 0 0 0 0 0 0 0 0 0 0 0 0 0 0 0 0 0 0 0 0 0 0 0 0 0 0 0 0 0 0 0 0 0 3 0 0 0 0 0 0 0 0 0 0 0 0 0 0 0 0 0 0 0 0 0 0 0 3 0 0 1 0 0 1 0 0 0 0 0 0 0 0 0 0 0 0 0 0 0 0 0 0 0 0 0 0 0 0 0 0 0 0 0 3 1 0 0 0 0 0 0 0 0 0 0 0 0 0 0 0 0 0 0 0 0 0 0 0 0 0 0 0 0 0 0 0 0 0 0 0 0 0 0 0 0 0 0 0 0 0 0 0 0 0 0 0 0 0 0 0 0 0 0 0 0 0 0 0 0 0 0 0 0 0 0 0 0 0 0 0 0 0 0 0 0 0 0 0 0 0 0 3 0 0 3 0 0 0 2 0 3 0 0 0 0 0 0 0 0 0 0 0 0 0 0 0 0 0 0 0 0 0 0 0 0 0 0 0 0 0 0 0 0 0 0 0 0 0 0 0 0 0 0 0 0 0 0 0 0 0 0 0 0 0 0 0 0 0 0 0 0 0 0 0 0 0 0 0 0 0 0 0 0 0 0 0 0 0 0 0 0 0 0 0 0 0 0 0 0 0 0 0 0 0 0 0 0 0 0 0 0 0 0 255
255 0 0 0 0 0 0 0 0 0 0 0 0 0 0 0 0 0 0 0 0 0 0 0 0 0 0 0 0 0 0 0 0 0 0 0 0 0 0 0 0 0 0 0 0 0 0 0 0 0 0 0 0 0 0 0 0 0 0 0 0 0 0 0 0 0 0 0 0 0 0 0 0 0 0 0 0 0 0 0 0 0 0 0 0 0 0 0 0 0 0 0 0 0 0 0 0 0 0 0 0 0 0 0 0 0 0 0 0 0 0 0 0 0 0 0 0 0 0 0 0 0 0 0 0 0 0 0 0 0 0 0 0 0 0 2 0 0 0 0 0 0 0 0 0 0 0 0 0 0 0 0 0 0 0 0 0 0 0 0 0 0 0 0 0 0 0 3 0 3 1 0 4 1 0 5 2 0 0 0 0 0 0 0 0 0 0 0 0 0 0 0 0 0 0 0 0 0 0 0 0 0 0 0 0 0 0 0 0 0 0 0 0 0 0 0 0 0 0 0 0 0 0 0 0 0 0 0 0 0 0 0 0 0 0 0 0 0 0 0 0 0 0 0 0 0 0 0 0 0 0 0 0 0 0 0 0 0 0 0 0 0 0 0 0 0 0 0 0 0 0 0 0 0 0 0 0 0 0 0 0 0 0 0 0 0 0 0 0 0 0 0 0 0 0 0 0 0 0 0 0 0 0 3 0 0 0 0 0 0 0 0 0 0 0 0 0 0 0 0 0 0 0 0 0 0 0 0 0 0 0 0 0 0 0 3 0 0 3 0 0 0 3 0 0 0 0 0 0 0 0 0 0 0 0 0 0 0 0 0 0 0 0 0 0 0 0 0 0 0 0 0 0 0 0 0 0 0 0 0 0 0 0 0 0 0 0 0 0 0 0 0 0 0 0 0 0 0 0 0 0 0 0 0 0 0 0 0 0 0 0 0 0 0 0 2 0 0 1 3 0 0 0 0 5 3 3 3 3 3 3 3 3 3 3 3 3 3 3 2 1 0 0 0 0 0 0 0 0 0 0 0 0 0 0 0 0 0 0 0 0 0 0 0 0 0 0 0 0 0 0 0 0 0 0 0 0 0 0 3 0 0 0 0 0 0 0 0 5 3 3 3 3 3 3 3 3 3 3 3 3 3 3 3 3 3 3 3 3 3 3 2 1 0 0 0 0 0 0 3 0 0 0 0 0 0 0 0 0 0 0 0 0 0 0 3 0 0 1 0 0 1 0 0 3 0 0 0 0 0 0 3 0 0 0 0 0 0 0 0 0 0 0 0 0 0 0 2 0 0 3 0 5 0 0 0 5 3 3 3 3 3 3 5 0 0 0 0 0 0 0 0 0 0 0 0 0 0 0 0 0 0 0 0 0 0 0 0 0 0 0 0 0 0 0 0 0 0 0 0 0 0 0 0 0 0 0 0 0 0 0 0 0 0 0 0 0 0 0 3 0 0 0 0 0 0 0 0 0 0 0 0 0 0 0 0 0 0 0 0 0 0 0 2 0 2 0 4 4 0 2 0 0 0 0 0 0 0 0 0 0 0 0 0 0 0 0 0 0 0 0 0 0 0 0 0 0 0 3 1 0 0 4 5 0 0 0 0 0 0 0 0 0 0 0 0 0 0 0 0 0 0 0 0 0 0 0 0 0 0 0 0 0 0 0 0 0 0 0 0 0 0 0 0 0 0 0 0 0 0 0 0 0 0 0 0 0 0 0 0 0 0 0 0 0 0 0 0 0 0 0 0 0 0 0 0 0 0 0 0 0 0 0 0 0 0 0 3 0 0 3 0 0 3 0 0 2 0 0 0 0 0 0 0 0 0 0 0 0 0 0 0 0 0 0 0 0 0 0 0 0 0 0 0 0 0 0 0 0 0 0 0 0 0 0 0 0 0 0 0 0 0 0 0 0 0 0 0 0 0 0 0 0 0 0 0 0 0 0 0 0 0 0 0 0 0 0 0 0 0 0 0 0 0 0 0 0 0 0 0 0 0 0 0 0 0 0 0 0 0 0 0 0 0 0 0 0 0 0 255
255 0 0 0 0 0 0 0 0 0 0 0 0 0 0 0 0 0 0 0 0 0 0 0 0 0 0 0 0 0 0 0 0 0 0 0 0 0 0 0 0 0 0 0 0 0 0 0 0 0 0 0 0 0 0 0 0 0 0 0 0 0 0 0 0 0 0 0 0 0 0 0 0 0 0 0 0 0 0 0 0 0 0 0 0 0 0 0 0 0 0 0 0 0 0 0 0 0 0 0 0 0 0 0 0 0 0 0 0 0 0 0 0 0 0 0 0 0 0 0 0 0 0 0 0 0 0 0 0 0 0 0 0 0 0 1 2 3 3 3 3 3 3 3 3 3 3 3 3 3 3 3 3 3 3 3 3 3 3 3 3 3 3 3 3 3 3 11 0 0 0 0 0 4 2 1 0 0 0 0 0 0 0 0 0 0 0 0 0 0 0 0 0 0 0 0 0 0 0 0 0 0 0 0 0 0 0 0 0 0 0 0 0 0 0 0 0 0 0 0 0 0 0 0 0 0 0 0 0 0 0 0 0 0 0 0 0 0 0 0 0 0 0 0 0 0 0 0 0 0 0 0 0 0 0 0 0 0 0 0 0 0 0 0 0 0 0 0 0 0 0 0 0 0 0 0 0 0 0 0 0 0 0 0 0 0 0 0 0 0 0 0 0 0 0 0 0 0 0 0 0 0 0 3 0 0 0 0 0 0 0 0 0 0 0 0 0 0 0 0 0 0 0 0 0 0 0 0 0 0 0 0 0 0 0 3 0 0 3 0 0 0 3 0 0 0 0 0 0 0 0 0 0 0 0 0 0 0 0 0 0 0 0 0 0 0 0 0 0 0 0 0 0 0 0 0 0 0 0 0 0 0 0 0 0 0 0 0 0 0 0 0 0 0 0 0 0 0 0 0 0 0 0 0 0 0 0 0 0 0 0 0 0 0 0 1 3 0 0 0 3 0 0 0 3 0 0 0 0 0 0 0 0 0 0 0 0 0 0 0 0 0 0 0 0 0 0 0 0 0 0 0 0 0 0 0 0 0 0 0 0 0 0 0 0 0 0 0 0 0 0 0 0 0 0 0 0 0 0 3 0 0 0 0 0 0 0 0 3 0 0 0 0 0 0 0 0 0 0 0 0 0 0 0 0 0 0 0 0 0 0 0 0 0 0 0 0 0 0 3 0 0 0 0 0 0 0 0 0 0 0 0 0 0 0 2 0 2 0 4 4 0 2 0 2 0 0 0 0 0 0 2 0 0 0 0 0 0 0 0 0 0 0 0 0 0 0 0 0 0 0 4 2 3 0 0 3 0 0 0 0 0 0 3 0 0 0 0 0 0 0 0 0 0 0 0 0 0 0 0 0 0 0 0 0 0 0 0 0 0 0 0 0 0 0 0 0 0 0 0 0 0 0 0 0 0 0 0 0 0 0 0 0 0 0 0 0 0 0 2 0 0 0 0 0 0 0 0 0 0 0 0 0 0 0 0 0 0 0 0 0 0 0 0 0 0 4 1 1 4 0 2 3 3 3 3 3 3 3 3 3 3 3 3 3 3 3 3 3 3 3 3 3 3 3 3 3 2 0 0 0 3 1 2 0 0 0 0 0 0 0 0 0 0 0 0 0 0 0 0 0 0 0 0 0 0 0 0 0 0 0 0 0 0 0 0 0 0 0 0 0 0 0 0 0 0 0 0 0 0 0 0 0 0 0 0 0 0 0 0 0 0 0 0 0 0 0 0 0 0 0 0 0 0 0 0 0 0 0 0 0 0 0 0 0 0 0 3 0 0 3 0 4 0 0 3 1 0 0 0 0 0 0 0 0 0 0 0 0 0 0 0 0 0 0 0 0 0 0 0 0 0 0 0 0 0 0 0 0 0 0 0 0 0 0 0 0 0 0 0 0 0 0 0 0 0 0 0 0 0 0 0 0 0 0 0 0 0 0 0 0 0 0 0 0 0 0 0 0 0 0 0 0 0 0 0 0 0 0 0 0 0 0 0 0 0 0 0 0 0 0 0 0 0 0 0 0 0 0 255
255 0 0 0 0 0 0 0 0 0 0 0 0 0 0 0 0 0 0 0 0 0 0 0 0 0 0 0 0 0 0 0 0 0 0 0 0 0 0 0 0 0 0 0 0 0 0 0 0 0 0 0 0 0 0 0 0 0 0 0 0 0 0 0 0 0 0 0 0 0 0 0 0 0 0 0 0 0 0 0 0 0 0 0 0 0 0 0 0 0 0 0 0 0 0 0 0 0 0 0 0 0 0 0 0 0 0 0 0 0 0 0 0 0 0 0 0 0 0 0 0 0 0 0 0 0 0 0 0 0 0 0 0 0 0 0 0 0 0 0 0 0 0 0 0 0 0 0 0 0 0 0 0 0 0 0 0 0 0 0 0 0 0 0 0 0 0 8 0 1 0 1 5 1 0 0 0 0 0 0 0 0 0 0 0 0 0 0 0 0 0 0 0 0 0 0 0 0 0 0 0 0 0 0 0 0 0 0 0 0 0 0 0 0 0 0 0 0 0 0 0 0 0 0 0 0 0 0 0 0 0 0 0 0 0 0 0 0 0 0 0 0 0 0 0 0 0 0 0 0 0 0 0 0 0 0 0 0 0 0 0 0 0 0 0 0 0 0 0 0 0 0 0 0 0 0 0 0 0 0 0 0 0 0 0 0 0 0 0 0 0 0 0 0 0 0 0 0 0 0 0 0 0 3 0 0 0 0 0 0 0 0 0 0 0 0 0 0 0 0 0 0 0 0 0 0 0 0 0 0 0 0 0 0 0 3 0 0 3 0 0 0 3 0 0 0 0 0 0 0 0 0 0 0 0 0 0 0 0 0 0 0 0 0 0 0 0 0 0 0 0 0 0 0 0 0 0 0 0 0 0 0 0 0 0 0 0 0 0 0 0 0 0 0 0 0 0 0 0 0 0 0 0 0 0 0 0 0 0 0 0 0 0 0 0 0 1 2 4 0 0 2 4 0 0 0 0 0 0 0 0 0 0 0 0 0 0 0 0 0 0 0 0 0 0 0 0 0 0 0 0 0 0 0 0 0 0 0 0 0 0 0 0 0 0 0 0 0 0 0 0 0 0 0 0 0 0 0 0 2 0 0 0 0 0 0 0 0 0 0 0 0 0 0 0 0 0 0 0 0 0 0 0 0 0 0 0 0 0 0 0 0 0 0 0 0 0 0 0 2 0 0 0 0 0 0 0 0 0 0 0 0 0 0 0 1 1 0 4 1 1 4 0 1 1 0 0 0 0 0 0 1 2 3 3 3 3 3 3 3 3 3 3 3 3 3 3 5 0 3 0 1 0 0 3 0 0 0 0 0 0 0 0 0 0 0 0 0 0 0 0 0 0 0 0 0 0 0 0 0 0 0 0 0 0 0 0 0 0 0 0 0 0 0 0 0 0 0 0 0 0 0 0 0 0 0 0 0 0 0 0 0 0 0 0 0 0 0 0 1 2 3 3 3 3 3 3 3 3 3 3 3 3 3 3 3 3 3 3 3 3 3 3 5 0 0 1 0 0 1 0 0 0 0 0 0 0 0 0 0 0 0 0 0 0 0 0 0 0 0 0 0 0 0 0 0 0 0 0 4 2 0 0 0 1 3 3 3 3 3 3 3 3 3 3 3 3 3 3 3 3 3 3 3 3 3 3 3 3 3 3 3 3 3 3 3 3 3 3 3 3 3 3 3 3 3 3 3 3 3 3 3 3 3 3 3 3 3 3 3 3 3 3 3 3 3 3 3 3 3 3 3 3 3 3 3 3 3 3 3 3 3 3 5 0 0 0 3 0 0 3 0 1 0 3 1 0 0 0 0 0 0 0 0 0 0 0 0 0 0 0 0 0 0 0 0 0 0 0 0 0 0 0 0 0 0 0 0 0 0 0 0 0 0 0 0 0 0 0 0 0 0 0 0 0 0 0 0 0 0 0 0 0 0 0 0 0 0 0 0 0 0 0 0 0 0 0 0 0 0 0 0 0 0 0 0 0 0 0 0 0 0 0 0 0 0 0 0 0 0 0 0 0 0 0 0 0 0 0 255
255 0 0 0 0 0 0 0 0 0 0 0 0 0 0 0 0 0 0 0 0 0 0 0 0 0 0 0 0 0 0 0 0 0 0 0 0 0 0 0 0 0 0 0 0 0 0 0 0 0 0 0 0 0 0 0 0 0 0 0 0 0 0 0 0 0 0 0 0 0 0 0 0 0 0 0 0 0 0 0 0 0 0 0 0 0 0 0 0 0 0 0 0 0 0 0 0 0 0 0 0 0 0 0 0 0 0 0 0 0 0 0 0 0 0 0 0 0 0 0 0 0 0 0 0 0 0 0 0 0 0 0 0 0 0 0 0 0 0 0 0 0 0 0 0 0 0 0 0 0 0 0 0 0 0 0 0 0 0 0 0 0 0 0 0 0 0 5 0 2 0 0 2 0 0 0 0 0 0 0 0 0 0 0 0 0 0 0 0 0 0 0 0 0 0 0 0 0 0 0 0 0 0 0 0 0 0 0 0 0 0 0 0 0 0 0 0 0 0 0 0 0 0 0 0 0 0 0 0 0 0 0 0 0 0 0 0 0 0 0 0 0 0 0 0 0 0 0 0 0 0 0 0 0 0 0 0 0 0 0 0 0 0 0 0 0 0 0 0 0 0 0 0 0 0 0 0 0 0 0 0 0 0 0 0 0 0 0 0 0 0 0 0 0 0 0 0 0 0 0 0 0 0 3 0 0 0 0 0 0 0 0 0 0 0 0 0 0 0 0 0 0 0 0 0 0 0 0 0 0 0 0 0 0 0 3 0 0 3 0 0 0 3 0 0 0 0 0 0 0 0 0 0 0 0 0 0 0 0 0 0 0 0 0 0 0 0 0 0 0 0 0 0 0 0 0 0 0 0 0 0 0 0 0 0 0 0 0 0 0 0 0 0 0 0 0 0 0 0 0 0 0 0 0 0 0 0 0 0 0 0 0 0 0 0 0 0 0 1 3 0 0 1 0 6 3 3 3 3 3 3 3 3 3 3 3 3 3 3 5 0 0 0 0 0 0 0 0 0 0 0 0 0 0 0 0 0 0 0 0 0 0 0 0 0 0 0 0 0 0 0 0 0 0 0 0 0 0 0 1 2 3 3 3 3 3 3 0 6 3 3 3 3 3 3 3 3 3 3 3 3 3 3 3 3 3 3 3 3 3 3 5 0 0 0 0 0 0 0 1 2 3 3 3 3 3 3 5 0 0 0 0 0 0 0 0 0 0 1 0 0 1 0 0 0 0 0 0 0 0 0 0 0 0 0 0 0 0 0 0 0 0 0 0 0 0 0 2 0 0 3 0 5 0 0 0 6 3 3 3 3 3 3 6 0 3 3 3 3 3 3 5 0 0 0 0 0 0 0 0 0 0 0 0 0 0 0 0 0 0 0 0 0 0 0 0 0 0 0 0 0 0 0 0 0 0 0 0 0 0 0 0 0 0 0 0 0 0 0 0 0 0 0 0 0 0 0 0 0 0 0 0 0 0 0 0 0 0 0 0 0 0 0 2 0 2 0 4 4 0 2 0 0 0 0 0 0 0 0 0 0 0 0 0 0 0 0 0 0 0 0 0 0 0 0 0 0 0 3 1 0 0 4 5 0 0 0 0 0 0 0 0 0 0 0 0 0 0 0 0 0 0 0 0 0 0 0 0 0 0 0 0 0 0 0 0 0 0 0 0 0 0 0 0 0 0 0 0 0 0 0 0 0 0 0 0 0 0 0 0 0 0 0 0 0 0 0 0 0 0 0 0 0 0 0 0 0 0 0 0 0 0 0 3 0 0 0 3 0 0 3 0 8 2 1 0 0 1 2 2 1 0 0 0 0 0 0 0 0 0 0 0 0 0 0 0 0 0 0 0 0 0 0 0 0 0 0 0 0 0 0 0 0 0 0 0 0 0 0 0 0 0 0 0 0 0 0 0 0 0 0 0 0 0 0 0 0 0 0 0 0 0 0 0 0 0 0 0 0 0 0 0 0 0 0 0 0 0 0 0 0 0 0 0 0 0 0 0 0 0 0 0 0 0 0 0 0 0 0 255
255 0 0 0 0 0 0 0 0 0 0 0 0 0 0 0 0 0 0 0 0 0 0 0 0 0 0 0 0 0 0 0 0 0 0 0 0 0 0 0 0 0 0 0 0 0 0 0 0 0 0 0 0 0 0 0 0 0 0 0 0 0 0 0 0 0 0 0 0 0 0 0 0 0 0 0 0 0 0 0 0 0 0 0 0 0 0 0 0 0 0 0 0 0 0 0 0 0 0 0 0 0 0 0 0 0 0 0 0 0 0 0 0 0 0 0 0 0 0 0 0 0 0 0 0 0 0 0 0 0 0 0 0 0 0 0 0 0 0 0 0 0 0 0 0 0 0 0 0 0 0 0 0 0 0 0 0 0 0 0 0 0 0 0 0 0 0 2 3 4 3 2 1 0 1 1 1 0 0 0 0 0 0 0 0 0 0 0 0 0 0 0 0 0 0 0 0 0 0 0 0 0 0 0 0 0 0 0 0 0 0 0 0 0 0 0 0 0 0 0 0 0 0 0 0 0 0 0 0 0 0 0 0 0 0 0 0 0 0 0 0 0 0 0 0 0 0 0 0 0 0 0 0 0 0 0 0 0 0 0 0 0 0 0 0 0 0 0 0 0 0 0 0 0 0 0 0 0 0 0 0 0 0 0 0 0 0 0 0 0 0 0 0 0 0 0 0 0 0 0 0 0 0 3 0 0 0 0 0 0 0 0 0 0 0 0 0 0 0 0 0 0 0 0 0 0 0 0 0 0 0 0 0 0 0 3 0 0 3 0 0 0 3 0 0 0 0 0 0 0 0 0 0 0 0 0 0 0 0 0 0 0 0 0 0 0 0 0 0 0 0 0 0 0 0 0 0 0 0 0 0 0 0 0 0 0 0 0 0 0 0 0 0 0 0 0 0 0 0 0 0 0 0 0 0 0 0 0 0 0 0 0 0 0 0 0 0 0 0 1 4 0 0 0 3 0 0 0 0 0 0 0 0 0 0 0 0 0 0 3 0 0 0 0 0 0 0 0 0 0 0 0 0 0 0 0 0 0 0 0 0 0 0 0 0 0 0 0 0 0 0 0 0 0 0 0 0 0 0 0 0 0 0 0 0 0 0 0 3 0 0 0 0 0 0 0 0 0 0 0 0 0 0 0 0 0 0 0 0 0 0 3 0 0 0 0 0 0 0 0 0 0 0 0 0 0 0 3 0 0 0 0 0 0 0 0 0 4 0 5 5 0 4 0 0 0 0 0 0 0 0 0 0 0 0 0 0 0 0 0 0 0 0 0 0 0 0 1 1 0 1 4 2 4 0 0 3 0 0 0 0 0 0 3 0 0 0 0 0 0 0 3 0 0 0 0 0 0 0 0 0 0 0 0 0 0 0 0 0 0 0 0 0 0 0 0 0 0 0 0 0 0 0 0 0 0 0 0 0 0 0 0 0 0 0 0 0 0 0 0 0 0 0 0 0 0 0 0 0 0 0 0 0 0 0 0 0 0 0 0 0 0 0 1 1 0 4 1 1 4 0 2 3 3 3 3 3 3 3 3 3 3 3 3 3 3 3 3 3 3 3 3 3 3 3 3 3 2 1 0 0 3 1 3 0 0 0 0 0 0 0 0 0 0 0 0 0 0 0 0 0 0 0 0 0 0 0 0 0 0 0 0 0 0 0 0 0 0 0 0 0 0 0 0 0 0 0 0 0 0 0 0 0 0 0 0 0 0 0 0 0 0 0 0 0 0 0 0 0 0 0 0 0 0 0 0 0 0 0 0 0 0 0 3 0 0 0 3 0 0 3 0 6 0 0 0 1 3 0 0 2 0 0 0 0 0 0 0 0 0 0 0 0 0 0 0 0 0 0 0 0 0 0 0 0 0 0 0 0 0 0 0 0 0 0 0 0 0 0 0 0 0 0 0 0 0 0 0 0 0 0 0 0 0 0 0 0 0 0 0 0 0 0 0 0 0 0 0 0 0 0 0 0 0 0 0 0 0 0 0 0 0 0 0 0 0 0 0 0 0 0 0 0 0 0 0 0 0 0 255
255 0 0 0 0 0 0 0 0 0 0 0 0 0 0 0 0 0 0 0 0 0 0 0 0 0 0 0 0 0 0 0 0 0 0 0 0 0 0 0 0 0 0 0 0 0 0 0 0 0 0 0 0 0 0 0 0 0 0 0 0 0 0 0 0 0 0 0 0 0 0 0 0 0 0 0 0 0 0 0 0 0 0 0 0 0 0 0 0 0 0 0 0 0 0 0 0 0 0 0 0 0 0 0 0 0 0 0 0 0 0 0 0 0 0 0 0 0 0 0 0 0 0 0 0 0 0 0 0 0 0 0 0 0 0 0 0 0 0 0 0 0 0 0 0 0 0 0 0 0 0 0 0 0 0 0 0 0 0 0 0 0 0 0 0 0 0 0 0 0 0 0 0 0 1 0 1 0 0 0 0 0 0 0 0 0 0 0 0 0 0 0 0 0 0 0 0 0 0 0 0 0 0 0 0 0 0 0 0 0 0 0 0 0 0 0 0 0 0 0 0 0 0 0 0 0 0 0 0 0 0 0 0 0 0 0 0 0 0 0 0 0 0 0 0 0 0 0 0 0 0 0 0 0 0 0 0 0 0 0 0 0 0 0 0 0 0 0 0 0 0 0 0 0 0 0 0 0 0 0 0 0 0 0 0 0 0 0 0 0 0 0 0 0 0 0 0 0 0 0 0 0 0 2 0 0 0 0 0 0 0 0 0 0 0 0 0 0 0 0 0 0 0 0 0 0 0 0 0 0 0 0 0 0 0 0 0 0 0 0 0 0 2 0 0 0 0 0 0 0 0 0 0 0 0 0 0 0 0 0 0 0 0 0 0 0 0 0 0 0 0 0 0 0 0 0 0 0 0 0 0 0 0 0 0 0 0 0 0 0 0 0 0 0 0 0 0 0 0 0 0 0 0 0 0 0 0 0 0 0 0 0 0 0 0 0 0 0 0 0 2 0 0 0 4 3 3 3 3 3 3 3 3 3 3 3 3 3 3 5 0 0 0 0 0 0 0 0 0 0 0 0 0 0 0 0 0 0 0 0 0 0 0 0 0 0 0 0 0 0 0 0 0 0 0 0 0 0 0 0 0 0 0 0 0 0 0 0 5 3 3 3 3 3 3 3 3 3 3 3 3 3 3 4 5 5 4 3 3 2 1 3 0 0 0 0 0 0 0 0 0 0 0 0 0 0 0 2 0 0 0 0 0 0 0 0 0 4 0 5 5 0 0 0 0 0 0 0 0 0 0 0 0 0 0 0 0 0 0 0 0 0 0 0 0 0 0 0 0 0 0 5 3 5 0 0 5 3 3 3 3 3 3 5 0 0 0 0 0 0 0 2 0 0 0 0 0 0 0 0 0 0 0 0 0 0 0 0 0 0 0 0 0 0 0 0 0 0 0 0 0 0 0 0 0 0 0 0 0 0 0 0 0 0 0 0 0 0 0 0 0 0 0 0 0 0 0 0 0 0 0 0 0 0 0 0 0 0 0 0 0 0 0 0 0 0 5 3 3 5 0 0 0 0 0 0 0 0 0 0 0 0 0 0 0 0 0 0 0 0 0 0 0 0 0 0 0 0 0 0 6 4 3 5 0 0 0 0 0 0 0 0 0 0 0 0 0 0 0 0 0 0 0 0 0 0 0 0 0 0 0 0 0 0 0 0 0 0 0 0 0 0 0 0 0 0 0 0 0 0 0 0 0 0 0 0 0 0 0 0 0 0 0 0 0 0 0 0 0 0 0 0 0 0 0 0 0 0 0 0 0 0 0 0 0 0 0 2 0 0 2 0 5 0 0 0 1 0 0 0 2 0 0 0 0 0 0 0 0 0 0 0 0 0 0 0 0 0 0 0 0 0 0 0 0 0 0 0 0 0 0 0 0 0 0 0 0 0 0 0 0 0 0 0 0 0 0 0 0 0 0 0 0 0 0 0 0 0 0 0 0 0 0 0 0 0 0 0 0 0 0 0 0 0 0 0 0 0 0 0 0 0 0 0 0 0 0 0 0 0 0 0 0 0 0 0 0 0 0 255
255 0 0 0 0 0 0 0 0 0 0 0 0 0 0 0 0 0 0 0 0 0 0 0 0 0 0 0 0 0 0 0 0 0 0 0 0 0 0 0 0 0 0 0 0 0 0 0 0 0 0 0 0 0 0 0 0 0 0 0 0 0 0 0 0 0 0 0 0 0 0 0 0 0 0 0 0 0 0 0 0 0 0 0 0 0 0 0 0 0 0 0 0 0 0 0 0 0 0 0 0 0 0 0 0 0 0 0 0 0 0 0 0 0 0 0 0 0 0 0 0 0 0 0 0 0 0 0 0 0 0 0 0 0 0 0 0 0 0 0 0 0 0 0 0 0 0 0 0 0 0 0 0 0 0 0 0 0 0 0 0 0 0 0 0 0 0 0 0 0 0 0 0 0 1 1 1 0 0 0 0 0 0 0 0 0 0 0 0 0 0 0 0 0 0 0 0 0 0 0 0 0 0 0 0 0 0 0 0 0 0 0 0 0 0 0 0 0 0 0 0 0 0 0 0 0 0 0 0 0 0 0 0 0 0 0 0 0 0 0 0 0 0 0 0 0 0 0 0 0 0 0 0 0 0 0 0 0 0 0 0 0 0 0 0 0 0 0 0 0 0 0 0 0 0 0 0 0 0 0 0 0 0 0 0 0 0 0 0 0 0 0 0 0 0 0 0 0 0 0 0 0 0 1 2 3 3 3 5 0 0 0 0 0 0 0 0 0 0 0 0 0 0 0 0 0 0 0 0 0 0 5 3 3 3 4 5 5 4 3 3 2 1 0 0 0 0 0 0 0 0 0 0 0 0 0 0 0 0 0 0 0 0 0 0 0 0 0 0 0 0 0 0 0 0 0 0 0 0 0 0 0 0 0 0 0 0 0 0 0 0 0 0 0 0 0 0 0 0 0 0 0 0 0 0 0 0 0 0 0 0 0 0 0 0 0 0 0 0 0 1 2 3 4 0 0 0 0 0 0 0 0 0 0 0 0 0 0 0 0 0 0 0 5 3 3 3 3 3 3 3 3 3 3 3 3 3 3 3 3 5 0 0 0 0 0 0 0 0 0 0 0 0 0 0 0 0 0 0 0 0 0 0 0 0 0 0 0 0 0 0 0 0 0 0 0 0 0 0 0 0 0 0 0 0 0 0 0 0 0 2 3 0 0 0 0 0 0 0 0 0 0 0 0 0 0 0 1 2 3 3 3 3 3 3 5 0 0 1 0 0 0 6 5 8 3 0 0 3 10 1 3 3 3 3 3 3 3 3 3 3 3 3 3 3 3 3 3 3 2 0 0 0 0 0 0 0 0 0 0 0 0 0 0 0 0 0 0 0 0 0 1 2 3 3 3 3 3 3 3 3 3 3 3 3 3 3 3 3 3 3 3 3 3 3 3 3 3 3 3 3 3 3 3 3 3 3 3 3 3 3 5 0 0 0 0 0 0 0 0 0 0 0 0 0 0 0 0 0 0 0 0 0 0 0 0 0 0 0 0 0 0 0 0 0 0 0 0 0 0 0 0 0 0 0 0 0 0 0 0 0 0 0 0 0 0 0 0 0 0 0 0 0 0 0 0 0 0 0 0 0 0 0 0 0 0 0 0 0 0 0 0 0 0 3 8 6 8 1 3 3 3 3 3 3 3 3 3 3 3 3 3 3 3 3 5 0 5 1 8 8 1 5 0 0 0 0 0 0 0 0 0 0 0 0 0 0 0 0 0 5 3 3 3 3 3 3 3 3 3 3 3 3 3 3 3 3 3 3 3 3 3 3 4 5 5 3 1 0 0 1 0 4 0 0 0 1 2 3 2 1 0 0 0 0 0 0 0 0 0 0 0 0 0 0 0 0 0 0 0 0 0 0 0 0 0 0 0 0 0 0 0 0 0 0 0 0 0 0 0 0 0 0 0 0 0 0 0 0 0 0 0 0 0 0 0 0 0 0 0 0 0 0 0 0 0 0 0 0 0 0 0 0 0 0 0 0 0 0 0 0 0 0 0 0 0 0 0 0 0 0 0 0 0 0 0 0 0 0 255
255 255 255 255 255 255 255 255 255 255 255 255 255 255 255 255 255 255 255 255 255 255 255 255 255 255 255 255 255 255 255 255 255 255 255 255 255 255 255 255 255 255 255 255 255 255 255 255 255 255 255 255 255 255 255 255 255 255 255 255 255 255 255 255 255 255 255 255 255 255 255 255 255 255 255 255 255 255 255 255 255 255 255 255 255 255 255 255 255 255 255 255 255 255 255 255 255 255 255 255 255 255 255 255 255 255 255 255 255 255 255 255 255 255 255 255 255 255 255 255 255 255 255 255 255 255 255 255 255 255 255 255 255 255 255 255 255 255 255 255 255 255 255 255 255 255 255 255 255 255 255 255 255 255 255 255 255 255 255 255 255 255 255 255 255 255 255 255 255 255 255 255 255 255 255 255 255 255 255 255 255 255 255 255 255 255 255 255 255 255 255 255 255 255 255 255 255 255 255 255 255 255 255 255 255 255 255 255 255 255 255 255 255 255 255 255 255 255 255 255 255 255 255 255 255 255 255 255 255 255 255 255 255 255 255 255 255 255 255 255 255 255 255 255 255 255 255 255 255 255 255 255 255 255 255 255 255 255 255 255 255 255 255 255 255 255 255 255 255 255 255 255 255 255 255 255 255 255 255 255 255 255 255 255 255 255 255 255 255 255 255 255 255 255 255 255 255 255 255 255 255 255 255 255 255 255 255 255 255 255 255 255 255 255 255 255 255 255 255 255 255 255 255 255 255 255 255 255 255 255 255 255 255 255 255 255 255 255 255 255 255 255 255 255 255 255 255 255 255 255 255 255 255 255 255 255 255 255 255 255 255 255 255 255 255 255 255 255 255 255 255 255 255 255 255 255 255 255 255 255 255 255 255 255 255 255 255 255 255 255 255 255 255 255 255 255 255 255 255 255 255 255 255 255 255 255 255 255 255 255 255 255 255 255 255 255 255 255 255 255 255 255 255 255 255 255 255 255 255 255 255 255 255 255 255 255 255 255 255 255 255 255 255 255 255 255 255 255 255 255 255 255 255 255 255 255 255 255 255 255 255 255 255 255 255 255 255 255 255 255 255 255 255 255 255 255 255 255 255 255 255 255 255 255 255 255 255 255 255 255 255 255 255 255 255 255 255 255 255 255 255 255 255 255 255 255 255 255 255 255 255 255 255 255 255 255 255 255 255 255 255 255 255 255 255 255 255 255 255 255 255 255 255 255 255 255 255 255 255 255 255 255 255 255 255 255 255 255 255 255 255 255 255 255 255 255 255 255 255 255 255 255 255 255 255 255 255 255 255 255 255 255 255 255 255 255 255 255 255 255 255 255 255 255 255 255 255 255 255 255 255 255 255 255 255 255 255 255 255 255 255 255 255 255 255 255 255 255 255 255 255 255 255 255 255 255 255 255 255 255 255 255 255 255 255 255 255 255 255 255 255 255 255 255 255 255 255 255 255 255 255 255 255 255 255 255 255 255 255 255 255 255 255 255 255 255 255 255 255 255 255 255 255 255 255 255 255 255 255 255 255 255 255 255 255 255 255 255 255 255 255 255 255 255 255 255 255 255 255 255 255 255 255 255 255 255 255 255 255 255 255 255 255 255 255 255 255 255 255 255 255 255 255 255 255 255 255 255 255 255 255 255 255 255 255 255 255 255 255 255 255 255 255 255 255 255 255 255 255 255 255 255 255 255 255 255 255 255 255 255 255 255 255 255 255 255 255 255 255 255 255 255 255 255 255 255 255 255 255 255 255 255 255 255 255 255 255 255 255 255 255 255 255 255 255 255 255 255 255 255 255 255 255 255 255 255 255 255 255 255 255 255 255 255 255 255 255 255 255 255 255 255 255 255 255 255 255 255 255 255 255 255 255 255 255 255 255 255 255 255 255 255 255 255 255 255 255 255 255 255 255 255 255 255 255 255 255 255 255 255 255 255 255 255 255 255 255 255 255 255 255 255 255 255 255 255 255 255 255 255 255 255 255 255 255 255 255 255 255 255 255 255 255 255 255 255 255 255 255 255 255 255 255 255 255 255 255 255 255 255
