P3
128 128
255
255 255 255 255 255 255 255 255 255 255 255 255 255 255 255 255 255 255 255 255 255 255 255 255 255 255 255 255 255 255 255 255 255 255 255 255 255 255 255 255 255 255 255 255 255 255 255 255 255 235 255 255 255 255 255 255 255 255 255 255 255 255 255 255 255 255 255 255 255 255 255 234 255 255 255 255 255 203 255 255 255 255 255 255 255 255 255 255 255 255 255 255 255 255 255 255 255 255 255 255 255 255 255 255 255 255 255 255 255 255 255 255 255 255 255 255 241 255 255 255 255 255 219 255 255 255 255 255 220 255 255 255 255 255 255 255 255 255 255 255 255 255 255 255 255 255 255 255 255 226 255 255 255 255 255 255 255 255 255 255 255 246 255 255 255 255 255 252 255 255 255 255 255 255 255 255 255 255 255 255 255 255 255 255 255 255 255 255 255 255 255 255 255 255 255 255 255 248 255 255 255 255 255 255 255 255 255 255 255 255 255 255 225 255 255 255 255 255 255 255 255 255 255 255 255 255 255 238 255 255 255 255 255 255 255 255 255 255 255 196 255 255 255 255 255 255 255 255 255 255 255 255 255 255 255 255 255 255 255 255 255 255 255 255 255 255 255 255 255 255 255 255 255 255 255 255 255 255 255 255 255 255 255 255 255 255 255 255 255 255 255 255 255 255 255 255 255 255 255 255 255 255 255 255 255 255 255 255 255 255 255 255 255 255 255 255 255 255 255 172 180 255 255 255 255 255 255 255 255 255 255 255 243 255 255 237 255 255 255 255 255 255 255 255 255 255 255 255 255 255 255 255 255 255 255 255 255 255 255 232 255 255 255 255 255 240 255 255 255 255 255 255 255 255 238 255 255 255 255 255 255 255 255 255
255 255 255 2 0 23 13 0 0 5 0 0 0 0 0 19 0 9 3 0 0 0 9 0 0 0 14 19 0 0 3 24 57 27 46 46 20 42 112 54 4 0 69 45 64 0 0 0 0 0 0 0 0 11 0 0 51 0 24 30 7 17 0 0 0 0 0 3 8 0 0 0 37 35 14 0 27 36 1 0 0 46 14 0 0 0 0 4 0 34 16 3 0 0 0 0 0 13 55 0 0 0 0 0 4 5 13 14 17 0 1 0 12 28 8 0 0 5 32 79 8 5 32 4 35 56 20 0 0 0 21 88 23 38 0 0 0 0 28 0 0 30 0 0 0 7 0 0 0 50 0 32 0 0 0 69 4 32 31 0 0 0 15 0 0 23 0 0 0 0 0 0 0 0 0 0 0 0 0 0 0 0 0 0 25 48 31 0 0 0 17 41 13 14 43 2 6 0 12 11 0 3 0 10 0 2 0 0 34 98 0 0 0 3 25 45 13 19 48 0 0 40 12 15 9 1 10 11 0 0 0 0 0 0 37 50 52 0 0 2 0 0 0 49 17 0 27 32 21 26 15 47 8 23 0 3 15 0 28 0 0 0 0 69 7 10 24 0 0 0 0 23 56 5 6 0 0 0 13 14 0 0 21 0 0 0 15 0 24 0 0 0 3 0 16 4 14 8 0 0 0 0 0 66 108 0 31 53 37 28 32 47 67 123 130 41 0 0 0 0 0 0 24 109 1 14 0 13 13 23 35 11 0 42 10 0 12 13 56 0 0 0 23 0 0 13 0 0 10 15 0 0 0 0 0 5 0 0 0 0 0 0 0 27 14 0 9 32 57 0 0 0 0 0 0 41 51 45 255 255 203 255 255 169
255 255 255 0 0 0 0 0 89 0 20 27 0 0 0 15 16 0 0 0 26 0 7 26 0 0 0 0 14 48 27 22 19 0 0 0 40 34 63 13 0 0 45 28 0 18 0 0 0 0 0 0 0 0 41 13 0 11 0 0 24 0 0 14 0 16 0 16 0 0 0 0 0 0 0 0 0 42 0 0 0 0 9 58 50 39 31 0 37 28 0 9 33 0 0 0 0 4 71 74 23 0 0 0 0 0 50 70 0 0 0 0 0 0 0 0 0 0 0 0 0 0 0 10 13 0 31 16 0 18 0 0 0 6 51 0 1 0 7 40 77 0 0 0 32 0 0 0 1 70 19 0 0 0 0 0 57 26 0 0 0 56 0 4 10 0 0 0 7 44 26 5 14 53 3 0 0 0 19 52 5 0 0 6 9 0 0 0 0 0 0 0 13 34 33 18 5 0 0 0 0 0 3 66 3 0 6 24 0 0 0 0 42 0 0 0 11 24 0 0 0 0 0 0 0 0 10 0 4 11 18 0 0 33 0 0 0 0 0 0 0 0 0 0 0 0 44 39 51 6 13 8 0 20 90 0 24 33 0 9 74 0 0 0 21 3 0 0 0 47 0 0 0 0 0 0 19 15 0 0 2 38 5 24 77 0 0 1 10 35 82 0 0 2 0 0 62 10 0 0 0 0 16 0 0 0 35 94 98 17 27 0 50 73 43 146 205 37 0 0 0 0 0 0 22 0 0 6 1 0 15 0 0 0 19 44 0 0 0 16 17 0 0 14 110 32 5 0 27 9 0 0 0 0 22 19 64 32 47 53 0 1 0 14 0 0 0 0 0 54 67 65 141 112 49 165 65 0 0 0 0 73 0 104
255 255 255 31 7 0 2 0 0 8 0 0 0 32 136 13 0 0 0 0 0 12 0 0 21 0 0 0 18 10 0 6 0 14 6 0 22 35 0 13 51 50 20 27 50 0 0 0 0 0 0 0 0 0 1 6 21 11 27 22 15 54 109 0 27 0 0 0 0 9 22 0 0 0 0 0 1 31 54 4 0 19 40 25 19 0 0 0 0 0 2 0 0 1 17 7 16 0 0 6 15 66 0 0 38 17 28 75 30 4 0 22 24 91 0 0 0 6 32 50 16 0 0 0 0 0 0 6 42 0 0 0 23 5 0 0 0 0 0 0 2 16 19 8 0 0 0 0 36 88 36 0 0 0 32 81 27 0 0 0 12 0 10 13 64 26 0 0 0 0 16 25 0 0 13 0 0 12 0 0 25 14 3 18 7 46 0 0 0 9 0 18 0 9 23 9 4 15 22 0 0 0 0 0 21 40 28 0 0 3 0 39 35 13 0 0 0 0 25 2 16 26 23 9 0 3 0 2 28 1 9 44 40 36 0 0 0 0 13 21 0 0 0 0 0 0 61 25 0 19 0 0 27 0 0 25 36 0 5 0 0 3 0 0 22 0 0 0 24 10 34 24 0 20 15 26 0 0 0 0 0 0 0 3 32 0 0 0 31 1 0 0 0 0 24 20 14 0 0 8 0 0 0 0 0 0 46 75 40 16 54 74 21 37 41 99 145 103 97 114 49 0 0 0 0 8 52 49 10 0 0 0 0 0 34 71 46 0 0 10 0 0 0 0 4 0 0 0 0 0 0 8 0 0 0 0 0 0 0 0 10 17 40 0 20 0 27 0 15 250 170 50 207 135 24 0 0 78 0 0 0 255 155 218
255 255 255 0 0 0 0 30 29 0 0 30 0 0 0 29 18 0 0 0 32 0 36 114 13 27 69 0 2 0 15 11 46 16 0 14 10 0 0 12 1 28 68 7 0 7 0 0 0 0 14 0 0 0 12 46 65 0 0 0 8 0 0 13 6 7 31 4 0 21 50 117 0 0 0 14 0 0 51 16 0 7 0 0 12 0 0 0 3 90 9 14 0 25 0 0 38 0 0 0 34 82 43 0 0 0 4 0 14 5 0 21 0 0 22 16 0 0 0 0 2 0 0 0 27 72 3 6 0 16 0 0 0 23 131 9 0 0 30 17 17 0 26 36 32 0 0 0 3 0 0 0 0 1 22 76 3 18 16 4 8 0 7 0 0 0 20 0 12 15 0 0 11 44 0 0 0 33 0 0 1 46 101 11 32 21 0 0 0 0 11 0 19 0 0 35 19 2 0 17 14 0 5 0 39 7 0 15 2 0 4 0 6 37 0 0 28 51 84 15 7 6 19 9 19 0 18 10 0 7 53 38 12 0 0 0 0 0 50 105 83 44 10 0 0 0 0 0 20 64 113 146 20 0 8 0 0 0 0 28 33 0 26 85 18 0 0 14 27 42 0 0 43 11 0 0 0 27 108 0 0 0 8 29 11 13 0 22 0 23 0 1 0 0 0 0 69 0 0 11 20 0 0 0 0 0 0 0 0 58 98 48 9 37 49 35 58 60 140 182 128 0 0 0 0 0 0 0 0 0 37 10 16 0 23 55 0 13 31 55 31 7 12 25 0 47 44 11 6 2 7 42 7 0 0 1 51 30 0 0 0 0 13 73 33 5 183 154 92 106 38 0 0 0 0 0 0 0 0 0 0 255 124 157
255 255 255 0 4 0 26 0 0 19 0 0 0 24 98 10 0 0 0 0 0 0 3 26 33 27 0 0 0 0 7 6 46 0 0 0 7 20 0 34 91 147 46 25 0 0 0 0 0 0 6 0 0 0 25 25 30 24 2 0 43 14 52 0 0 0 0 33 25 0 0 0 0 0 0 0 0 10 0 6 32 33 10 0 0 0 0 0 32 51 46 15 0 0 0 80 28 32 47 0 0 15 12 0 0 0 7 69 0 5 29 6 0 0 0 2 34 0 16 21 2 0 40 0 0 0 0 0 0 22 30 35 0 12 0 6 13 5 0 0 0 36 8 0 0 0 0 12 22 27 0 5 0 25 15 0 0 0 15 0 9 11 32 18 7 0 0 3 7 13 30 0 6 5 10 0 1 0 0 0 22 4 1 8 41 45 1 0 26 0 13 35 10 0 0 0 0 28 0 0 0 15 21 69 0 0 19 0 0 0 0 12 75 0 0 0 0 0 0 0 26 37 26 9 0 17 0 0 0 0 0 0 14 48 56 24 0 0 0 0 6 0 0 0 0 0 0 0 0 40 30 0 8 0 0 0 0 0 18 15 34 19 37 10 4 0 0 8 3 7 0 13 0 25 17 0 3 17 11 0 0 9 7 0 38 11 0 41 0 49 75 10 0 32 4 0 0 0 7 31 0 0 31 0 0 15 0 0 0 35 56 0 42 71 78 9 30 37 66 109 71 166 184 56 0 0 0 0 0 0 0 10 22 15 0 0 29 2 12 11 33 24 0 0 4 0 18 27 0 0 45 2 70 117 23 25 38 0 1 13 73 63 27 233 201 72 72 11 0 0 0 0 0 0 0 0 28 68 0 0 1 255 199 252
255 255 255 7 2 42 0 42 61 0 0 0 0 0 37 3 0 10 25 0 0 7 33 97 28 0 9 0 23 50 4 9 4 0 0 0 5 30 55 22 0 0 82 28 0 16 0 68 0 0 0 0 0 0 14 0 0 0 15 0 0 0 0 26 0 2 0 41 54 0 0 25 0 14 19 45 31 0 0 10 50 0 6 0 0 38 26 18 0 0 3 0 0 0 1 20 53 21 0 0 0 6 23 0 0 3 0 11 0 0 0 50 15 0 0 27 99 32 0 0 36 0 0 7 0 0 0 4 20 41 0 0 0 2 11 16 0 0 0 11 3 0 10 32 7 27 37 14 0 0 48 1 13 18 0 0 0 0 0 3 1 0 0 19 51 15 0 0 53 21 0 0 0 5 8 29 0 0 0 0 0 0 0 0 26 58 42 0 0 0 5 2 0 10 0 0 14 32 23 8 0 24 0 0 17 0 0 25 20 36 0 0 0 10 17 47 24 22 42 18 0 0 0 0 0 9 22 33 0 0 0 18 7 21 1 26 30 0 0 0 0 0 0 0 0 1 0 2 86 52 31 38 14 6 12 23 30 8 0 9 0 10 0 28 10 43 32 0 0 100 2 0 0 0 0 0 15 6 0 0 0 0 0 16 0 29 0 0 8 0 0 1 0 0 0 12 0 29 2 0 11 0 0 2 27 45 0 0 0 0 0 0 61 84 0 2 48 113 11 53 45 142 166 97 41 65 0 0 0 0 0 0 27 26 24 0 0 6 16 58 29 0 0 0 27 41 17 0 0 0 0 0 11 58 0 0 0 93 6 0 244 210 101 87 0 0 0 27 128 0 0 0 0 11 55 0 0 0 9 0 0 255 178 174
255 255 255 14 0 0 0 3 103 22 0 0 0 0 0 0 0 42 0 0 0 0 33 0 16 0 0 0 11 65 5 2 0 0 0 0 8 31 78 43 49 0 33 51 46 0 0 0 0 0 0 0 0 0 10 0 0 21 40 27 45 34 13 0 7 0 14 0 0 0 0 0 0 0 2 27 0 0 0 0 0 10 0 0 24 8 0 4 0 0 8 6 18 0 35 18 10 8 0 0 0 0 3 35 31 3 11 0 13 21 0 0 0 7 0 0 45 0 7 23 0 15 40 14 0 0 0 0 0 0 29 69 34 41 49 0 0 0 10 0 0 21 5 5 7 4 0 0 37 111 0 0 0 0 11 0 0 0 0 2 11 27 0 0 19 22 12 9 0 0 26 10 0 9 17 0 0 6 0 0 56 14 0 0 0 0 54 0 0 0 0 12 4 0 0 28 51 50 0 0 0 0 0 0 6 30 28 12 8 0 28 0 0 0 0 0 0 4 0 25 0 5 0 0 7 43 55 24 3 0 0 0 0 16 54 45 34 0 0 0 13 22 0 0 0 0 0 0 0 48 0 0 2 32 74 5 27 61 0 2 4 10 26 30 6 0 9 0 0 0 0 4 7 0 0 33 15 26 14 11 36 0 5 0 0 0 0 32 18 0 0 7 18 60 0 13 68 0 0 3 0 0 0 0 0 0 10 0 2 0 0 0 75 59 0 45 96 85 0 7 14 59 96 106 153 185 84 0 0 0 0 0 0 71 38 0 12 0 0 0 16 12 0 0 84 53 0 0 0 0 0 33 0 0 33 51 0 244 228 134 58 0 0 0 0 0 0 0 0 10 15 21 0 0 0 37 37 49 63 21 41 248 141 179
255 255 255 0 6 27 11 0 0 0 14 28 6 15 66 0 7 57 25 31 0 0 28 50 0 36 51 11 0 0 0 4 40 0 0 0 13 16 0 33 41 11 73 22 0 20 0 21 0 0 7 29 29 96 2 2 0 2 0 0 29 2 0 0 8 43 25 0 0 19 4 0 0 0 0 10 5 18 13 28 40 44 13 0 47 17 15 0 12 60 0 0 0 0 0 63 33 29 0 12 0 0 0 0 7 0 0 0 0 0 31 22 3 0 0 2 3 4 0 15 30 11 0 4 32 0 0 3 17 0 0 0 0 10 0 0 0 23 10 0 0 0 25 136 0 8 64 0 0 0 32 0 0 27 0 0 0 18 0 0 0 6 0 0 0 0 9 49 6 9 28 15 2 0 28 33 16 0 2 52 0 0 0 0 0 19 3 5 16 0 0 16 37 7 0 7 0 0 0 15 43 0 0 29 19 28 27 0 0 27 1 0 24 8 18 30 0 2 36 0 0 29 10 0 0 0 19 110 3 5 0 0 0 0 50 15 0 0 0 49 32 19 4 5 0 0 0 0 35 50 8 0 6 12 55 13 0 0 18 9 0 8 0 0 20 17 0 0 9 0 0 0 0 13 25 0 7 0 34 0 2 41 0 0 0 2 0 23 0 9 0 0 0 0 11 3 7 11 29 0 49 15 22 0 29 24 9 14 47 0 0 0 0 0 0 61 121 55 23 44 42 9 49 129 120 170 109 99 150 43 0 0 0 0 0 0 0 0 2 13 9 0 28 26 7 10 0 0 0 11 27 42 46 44 180 177 28 138 50 37 0 0 0 0 0 0 0 41 30 0 0 0 39 44 0 28 0 1 0 0 0 255 193 183
255 255 255 0 0 0 0 85 114 2 0 0 5 0 0 11 22 0 21 4 0 36 5 0 17 0 0 0 0 0 0 0 25 0 7 42 14 28 67 32 42 90 50 22 0 0 0 0 0 0 0 0 8 2 1 0 0 0 30 73 0 0 0 0 11 0 0 5 0 5 0 0 1 28 60 0 3 0 0 0 0 0 0 28 0 0 0 4 0 0 29 4 0 4 2 5 0 18 0 18 45 56 0 0 0 26 19 0 26 23 0 0 12 0 0 0 0 5 16 26 3 0 8 0 0 0 0 0 7 0 0 23 13 54 108 32 58 85 2 0 0 31 0 0 50 0 0 6 7 0 0 7 0 0 3 17 9 5 12 0 0 22 15 0 0 0 16 0 37 30 13 0 0 17 0 0 59 0 13 7 32 1 0 29 28 53 0 0 0 0 15 53 0 11 27 0 11 8 0 0 7 0 7 34 46 7 0 24 0 2 0 0 3 28 11 0 0 0 24 27 0 0 32 15 0 0 5 73 47 0 0 28 42 52 6 0 0 19 58 74 0 0 0 0 0 24 0 9 15 32 0 0 12 4 24 0 7 0 5 5 0 0 0 0 13 5 11 0 0 0 0 2 32 0 23 38 0 0 26 0 0 24 2 20 0 0 0 61 38 16 0 3 0 0 18 0 0 0 0 53 29 10 0 0 8 12 0 0 10 7 11 0 0 0 0 0 0 0 56 98 68 1 21 0 27 70 148 151 180 78 0 0 0 0 0 0 57 15 0 40 10 0 0 49 71 0 0 0 71 50 28 255 183 116 42 13 0 0 0 0 0 0 0 4 0 9 0 0 0 48 37 17 0 0 0 0 15 43 30 39 15 236 111 137
255 255 255 7 0 0 9 7 45 0 3 20 0 40 42 7 21 53 14 2 10 0 4 0 0 0 54 0 7 24 24 0 0 12 0 10 16 13 5 31 37 0 44 41 30 22 0 0 0 0 0 0 10 0 16 0 0 19 111 180 30 0 0 5 0 22 6 4 35 0 1 20 0 0 6 0 0 0 52 0 0 11 6 0 0 29 49 0 1 32 0 35 61 0 0 0 6 0 0 22 0 0 0 22 80 0 0 0 3 0 0 0 0 33 6 0 0 0 0 0 30 0 0 27 0 0 0 10 2 21 0 18 0 0 0 7 0 0 0 19 42 0 1 1 0 43 137 23 12 49 2 0 0 11 4 10 2 0 0 36 25 0 37 0 0 0 0 0 55 0 0 0 0 0 49 0 0 19 0 0 11 0 0 24 21 10 0 9 24 32 42 49 17 15 18 33 19 24 41 0 0 0 0 1 0 0 27 8 17 50 2 0 0 0 29 56 0 0 0 28 4 0 0 17 14 7 0 0 0 0 0 0 0 25 0 0 0 0 12 34 18 32 35 6 0 0 0 0 0 23 18 19 23 6 0 0 11 71 0 0 0 0 39 53 23 13 26 0 27 14 0 0 0 18 14 0 24 10 26 0 0 0 9 9 0 0 0 17 0 0 0 4 41 177 0 0 0 6 7 21 11 18 8 4 13 9 5 0 37 15 1 0 0 0 0 0 0 0 84 138 39 17 65 105 0 28 44 78 123 110 184 217 74 0 0 0 0 0 0 0 8 19 0 0 0 52 44 40 214 181 82 102 66 19 0 0 0 0 0 17 0 0 0 0 22 17 3 0 0 0 0 0 0 40 74 5 0 0 3 0 0 247 91 177
255 255 255 0 0 0 0 0 65 19 15 0 12 39 82 0 0 0 0 0 77 4 13 0 0 9 112 33 42 0 0 0 0 0 0 0 13 29 11 34 13 0 68 33 0 0 0 1 0 0 0 0 55 47 33 0 0 0 0 0 38 33 30 0 0 0 0 0 0 0 8 0 2 0 8 0 0 26 0 0 13 19 39 85 8 19 0 0 0 0 36 47 8 0 0 4 0 31 91 37 0 0 0 37 93 0 0 0 10 14 0 0 12 41 15 80 160 16 0 0 0 14 105 0 0 0 17 48 70 0 0 0 7 0 32 14 20 59 0 3 7 17 0 0 6 20 2 42 0 0 18 0 0 81 0 0 13 0 0 0 0 0 0 0 0 0 191 255 0 124 255 0 2 203 0 0 67 0 0 0 0 0 0 35 0 0 0 0 0 24 0 0 1 0 0 33 0 0 0 22 22 2 6 32 61 0 0 6 21 6 0 0 0 55 10 7 0 25 65 32 0 0 0 24 61 31 40 27 17 37 26 0 0 40 0 13 20 0 0 0 25 0 0 0 0 2 0 0 0 0 22 53 14 6 0 0 15 27 3 31 41 6 11 1 0 0 0 6 26 31 10 8 69 0 5 14 23 0 0 0 22 48 0 0 18 18 32 0 26 5 0 0 24 53 0 1 0 24 0 0 0 13 73 0 0 0 12 5 10 12 0 0 15 10 18 0 0 44 0 0 0 70 73 0 5 40 59 14 42 83 117 173 108 24 0 0 0 0 0 0 0 0 0 0 43 176 176 52 125 54 5 0 0 0 0 0 0 0 0 0 32 7 34 0 0 0 85 70 51 0 0 0 67 43 63 0 0 0 1 15 0 255 165 208
255 255 255 0 9 0 19 0 6 0 52 0 25 21 71 21 0 0 12 0 0 0 0 0 0 6 67 21 15 0 0 0 15 0 0 46 13 40 77 18 31 38 99 52 22 0 6 13 0 0 46 0 0 0 44 1 0 0 5 6 0 0 0 3 11 12 0 0 0 29 26 0 0 0 0 37 5 0 34 35 11 0 0 0 5 0 0 5 0 8 0 0 1 20 3 0 0 0 0 20 3 0 0 0 14 17 19 13 26 0 0 13 0 0 2 31 65 23 0 0 0 0 0 37 26 38 0 0 1 0 40 60 43 0 0 0 32 40 36 25 0 30 0 0 0 0 0 18 77 139 0 46 218 0 148 250 0 0 71 28 82 45 21 4 0 67 87 0 28 50 0 104 96 0 130 255 255 80 245 255 54 128 207 54 255 255 0 0 18 0 0 0 0 0 0 45 27 26 3 1 0 11 0 0 0 48 87 0 0 42 22 25 0 3 0 0 0 0 0 22 19 97 0 0 25 0 0 5 23 19 32 50 0 0 0 24 24 20 10 19 8 32 92 0 0 0 0 0 19 32 0 0 52 4 0 9 11 0 0 0 2 0 0 0 10 14 5 0 0 0 0 0 0 17 13 7 0 0 0 7 11 17 0 0 0 0 17 25 38 15 0 6 0 0 0 4 44 26 27 6 9 0 0 0 0 0 0 8 40 18 12 0 0 0 0 0 0 42 0 0 0 77 112 33 26 86 166 1 24 9 53 115 123 180 187 40 0 0 0 0 0 0 176 176 111 118 60 0 0 0 0 0 1 75 0 21 49 21 0 0 27 45 10 0 6 0 0 22 32 26 81 77 0 0 0 0 0 0 36 10 12 255 147 187
255 255 255 2 0 0 7 15 0 1 34 12 15 0 53 0 6 0 0 0 40 0 0 0 0 14 14 11 24 0 0 1 95 0 0 0 14 7 0 13 21 12 86 66 8 0 0 0 0 0 0 0 0 0 0 1 16 0 41 63 46 24 0 26 41 22 0 49 70 68 18 15 0 8 13 30 33 1 0 0 0 14 42 69 62 44 0 16 7 3 0 0 0 24 16 0 8 35 93 28 1 0 19 0 4 6 6 0 0 12 33 31 17 0 0 8 33 28 0 0 9 39 14 13 0 0 27 0 0 0 0 0 44 0 0 25 0 0 28 0 0 0 54 131 0 19 62 84 122 63 0 0 0 17 0 0 39 83 143 0 169 255 0 44 118 5 110 233 0 27 78 0 19 176 0 0 0 0 0 0 21 0 0 31 106 78 80 154 226 136 213 121 6 161 239 0 0 0 0 0 0 7 0 0 0 19 13 0 12 34 26 5 0 0 29 109 20 18 0 5 36 41 17 0 0 42 21 0 0 0 44 29 9 0 0 0 18 19 0 0 0 25 12 0 0 0 0 0 23 29 49 43 19 21 0 6 20 58 0 0 44 13 0 0 2 5 0 5 2 18 0 8 36 35 2 0 14 0 0 0 3 18 36 16 45 0 0 21 16 0 0 0 0 0 0 13 27 4 0 0 0 0 12 0 16 65 11 0 0 0 0 0 0 0 0 11 0 0 0 0 0 0 0 0 90 114 0 0 42 64 0 30 62 128 183 161 72 123 79 79 0 0 149 127 13 0 0 0 0 0 0 0 0 0 0 0 0 0 0 0 53 64 77 0 0 0 31 0 0 0 5 32 0 0 0 30 17 0 0 0 0 255 126 163
255 255 255 13 0 50 21 66 72 23 44 74 27 25 0 8 0 0 0 0 0 0 4 0 38 37 50 21 12 0 19 4 0 0 22 11 26 50 6 12 46 27 58 0 0 0 0 8 0 0 0 14 0 0 48 11 0 20 4 0 0 0 0 0 0 0 18 0 0 0 0 0 0 1 4 0 0 0 0 0 0 11 0 0 0 0 6 55 14 0 19 0 0 0 0 22 20 0 0 0 14 25 0 9 33 0 0 0 24 0 0 0 0 0 7 17 0 0 0 0 0 0 0 0 0 0 38 3 52 0 0 65 41 174 255 0 0 0 0 72 61 39 85 63 0 25 26 53 71 120 50 49 0 54 9 0 4 0 0 0 0 0 0 0 0 0 0 0 27 0 0 38 57 47 55 15 0 0 89 163 0 22 71 0 0 0 6 15 0 0 0 108 109 163 77 113 230 255 0 32 136 0 0 0 0 0 0 63 46 48 35 44 42 45 0 0 0 0 0 58 47 50 0 0 0 0 0 13 5 19 0 0 0 0 0 3 2 45 5 0 0 0 0 0 0 51 0 0 0 30 5 0 29 21 0 3 27 0 25 28 63 0 0 0 10 2 4 0 0 12 0 0 42 0 13 45 0 58 9 0 0 0 0 7 4 0 0 4 4 39 46 0 0 0 3 0 0 17 10 23 3 18 58 0 0 7 0 0 0 6 11 7 3 9 59 11 6 7 0 0 5 0 0 0 46 53 0 38 125 194 0 13 11 40 77 91 219 255 128 60 0 0 0 0 0 0 0 0 0 0 0 0 10 18 43 62 24 0 0 0 37 35 52 0 0 0 0 14 46 1 0 0 49 56 35 8 66 116 0 0 5 255 143 177
255 255 255 22 32 0 18 47 2 24 36 44 90 51 30 0 0 0 0 0 0 31 0 13 16 21 9 0 56 75 26 6 0 0 0 12 32 19 1 14 62 90 98 64 0 44 19 5 0 0 21 0 0 9 0 0 8 0 0 43 29 118 218 17 7 0 0 0 4 11 0 0 11 2 0 0 0 17 78 10 9 5 0 0 29 19 0 0 0 62 5 43 52 0 13 33 23 0 0 32 0 0 22 0 0 18 31 21 11 31 106 9 26 11 0 0 19 1 0 0 33 28 76 113 184 121 34 122 114 0 3 0 11 29 15 26 0 0 0 0 0 13 0 0 0 0 0 0 0 0 0 2 107 0 0 39 49 152 196 0 22 55 0 144 227 49 33 39 38 108 128 0 0 121 4 0 0 11 0 0 33 79 101 0 0 62 38 0 0 0 37 70 58 7 0 0 63 93 105 102 35 121 255 255 0 0 0 0 0 0 16 0 0 0 41 51 15 11 0 0 23 32 0 0 0 4 37 48 0 8 31 0 7 42 0 16 0 0 12 83 0 2 21 0 0 0 0 0 0 0 0 81 20 0 0 12 12 8 24 10 0 0 0 0 6 7 0 10 10 0 13 0 37 7 0 0 0 9 11 33 3 11 0 0 0 2 0 0 0 0 31 4 9 15 0 0 26 6 5 0 0 19 24 0 0 0 0 0 19 14 2 0 15 1 0 30 0 0 22 22 0 0 0 0 0 0 0 83 97 22 16 52 1 15 73 136 255 255 255 249 0 0 0 0 0 24 17 62 0 9 0 14 0 0 55 28 41 0 0 19 65 98 92 14 0 0 0 0 9 49 23 7 23 28 47 17 0 6 0 0 0 255 172 162
255 255 255 35 63 11 12 0 0 74 69 36 71 23 0 0 0 0 23 5 0 52 39 20 14 33 0 22 42 56 0 0 0 0 0 8 43 37 15 22 3 0 47 47 31 39 0 0 0 0 0 0 23 20 54 0 0 18 0 0 0 0 0 20 0 0 33 60 9 14 13 12 0 3 12 0 12 37 0 21 54 0 20 55 65 0 0 0 0 0 22 0 0 0 0 0 20 20 42 0 29 59 0 0 0 0 0 0 0 0 23 11 0 0 0 0 0 255 255 246 0 0 0 0 0 30 0 0 0 0 0 0 0 0 0 0 0 0 0 55 137 78 37 0 0 0 3 29 46 9 19 0 0 0 0 0 0 35 86 0 0 0 34 76 34 0 0 0 0 0 59 30 0 0 0 23 37 9 33 115 39 10 0 0 29 37 2 0 67 20 31 0 0 0 54 22 16 0 0 0 76 74 121 51 127 187 126 0 9 88 0 0 0 0 0 0 34 33 69 52 32 0 0 0 30 57 14 0 0 0 0 57 4 0 51 0 0 0 20 5 39 2 0 0 0 83 0 0 0 26 15 0 10 17 44 22 20 6 0 0 9 5 3 0 8 0 20 8 9 0 0 7 33 13 4 11 12 0 0 14 56 45 0 0 0 0 0 0 37 9 0 14 0 0 0 59 77 26 0 0 0 0 0 10 0 43 0 0 0 20 8 0 0 0 20 0 28 69 0 26 75 0 0 0 0 0 0 0 0 0 78 175 203 202 255 255 255 255 45 0 0 0 0 0 0 0 0 0 0 0 0 64 54 41 0 1 0 32 2 0 0 0 0 0 0 0 0 0 0 3 0 0 0 0 0 0 0 0 69 71 55 237 91 132
255 255 255 8 32 70 34 40 57 99 30 0 0 0 0 0 0 0 24 28 0 46 4 0 0 52 73 36 8 12 0 0 0 0 4 81 0 27 0 23 32 70 82 13 0 6 0 9 0 0 0 0 0 0 0 37 51 3 0 0 0 21 34 4 0 0 0 0 6 0 1 21 0 0 0 24 0 0 0 0 0 0 15 44 5 2 0 0 8 51 0 1 0 0 14 9 0 0 59 0 0 2 38 43 21 0 29 54 14 17 5 6 0 8 0 0 0 0 0 0 0 0 0 0 18 10 12 0 0 19 69 97 20 0 47 0 0 0 0 0 0 45 31 19 0 35 125 0 9 23 75 90 50 0 0 0 37 0 0 8 0 0 34 10 0 76 46 0 34 117 101 0 88 197 0 0 0 0 49 100 0 0 104 22 29 0 0 0 77 39 6 0 0 4 38 48 17 0 0 24 135 13 0 0 4 72 155 127 162 126 82 250 255 0 0 0 0 0 0 29 0 0 25 22 1 15 11 4 17 12 14 0 19 48 14 13 7 0 0 30 53 10 0 0 0 0 0 0 0 48 15 0 52 22 0 23 38 17 0 17 66 28 0 0 0 0 17 0 0 0 0 6 0 2 27 18 35 0 0 0 30 63 32 16 0 0 0 14 5 3 13 0 0 0 0 0 0 0 6 36 0 0 14 42 26 0 0 0 0 4 12 13 20 5 31 22 0 0 3 0 0 0 0 0 0 0 35 0 0 0 255 255 132 255 255 50 0 0 0 0 0 0 0 0 42 0 0 0 37 68 33 10 7 41 23 16 0 11 0 6 0 0 0 49 57 79 30 49 51 0 4 16 0 0 3 134 96 63 0 0 0 65 0 90
255 255 255 62 24 0 67 66 19 76 43 0 0 0 0 0 0 0 35 0 0 62 29 0 18 27 7 19 47 0 0 35 57 5 0 0 0 15 0 46 34 24 56 67 77 43 25 0 0 0 0 0 0 4 37 0 0 17 24 0 62 51 41 0 0 10 39 22 3 33 0 0 0 5 87 0 11 12 0 7 57 15 0 0 23 0 15 0 4 27 12 0 0 20 20 0 21 0 0 25 3 0 0 0 20 25 10 0 0 0 0 0 0 0 129 127 0 0 6 81 0 29 37 0 0 0 0 0 6 0 0 0 0 29 91 32 0 0 8 74 22 0 0 9 22 0 0 49 0 0 0 0 0 0 60 246 41 73 13 16 44 108 0 0 41 0 0 0 39 0 0 38 93 73 0 0 0 28 43 0 0 3 33 75 8 0 0 59 98 0 0 0 32 77 96 20 0 5 27 49 19 0 0 0 24 48 48 24 0 0 85 126 98 142 210 58 0 0 0 0 0 0 0 0 0 0 21 63 22 0 0 0 25 79 0 0 0 20 24 106 39 5 0 30 0 0 0 0 0 34 0 7 17 27 46 20 23 0 1 0 0 1 9 6 5 8 10 11 5 0 0 0 36 13 4 9 0 0 0 10 13 7 25 70 85 0 0 0 3 9 18 8 0 37 20 46 126 31 0 0 1 3 53 0 0 9 0 0 0 0 14 22 0 0 0 6 14 0 3 6 15 11 0 0 0 0 21 140 99 37 239 101 0 0 0 0 0 0 6 0 14 20 15 0 0 26 1 0 12 0 0 34 17 10 0 0 0 0 0 0 46 71 42 14 0 0 0 0 0 8 0 5 95 87 64 90 68 36 0 0 0 255 255 255
255 255 255 28 46 80 129 31 0 0 0 40 0 0 0 0 0 0 42 22 48 56 8 0 21 52 86 11 4 12 12 30 13 10 0 17 21 0 0 31 22 0 58 22 0 0 0 0 0 0 0 0 18 48 0 0 14 0 3 2 0 9 0 27 0 16 0 12 26 25 4 0 12 0 0 0 0 0 36 7 13 0 6 0 33 28 0 44 21 57 0 0 0 0 16 43 14 2 30 0 13 37 46 6 0 0 0 40 0 0 4 126 166 142 0 0 0 15 0 0 2 0 0 31 0 0 40 73 92 0 0 0 0 0 0 109 49 29 0 0 0 58 71 37 0 53 106 72 105 86 0 11 0 11 0 0 0 42 79 0 0 0 5 0 33 6 38 7 0 0 0 74 128 21 0 30 47 2 0 0 39 88 74 0 0 0 18 53 0 0 0 0 25 22 0 0 0 79 59 46 0 0 0 26 3 0 0 0 0 36 0 43 103 122 198 195 227 255 255 255 255 255 0 0 0 0 0 0 89 42 0 37 45 11 0 0 0 27 49 22 3 0 0 0 0 61 0 0 0 65 69 65 29 16 61 32 12 0 20 37 0 15 10 69 9 32 18 0 3 0 5 0 0 3 0 0 0 0 0 68 44 14 40 29 3 36 14 0 10 6 10 0 0 0 0 36 42 4 0 0 4 4 0 0 16 0 16 19 89 20 6 3 11 3 34 0 0 46 0 4 0 11 1 0 76 86 94 255 255 84 0 0 0 0 0 0 0 0 0 0 0 0 0 14 18 62 16 16 0 22 19 43 0 0 0 0 0 91 75 25 34 0 1 0 36 39 0 0 0 0 0 0 37 34 6 0 0 0 0 0 0 255 255 255
255 255 255 93 79 52 41 1 0 0 0 0 0 0 35 0 0 0 2 12 2 54 57 71 28 7 0 6 9 27 10 0 0 0 15 17 0 38 42 33 35 0 78 57 60 28 0 0 0 0 0 0 0 0 59 31 0 0 0 51 44 1 0 0 0 0 0 6 8 2 29 41 0 0 0 0 0 19 0 13 42 0 0 0 22 17 0 0 0 0 17 42 38 27 34 12 21 12 21 0 0 0 0 0 18 5 0 0 21 20 41 103 58 0 0 0 7 0 0 0 0 0 66 24 2 0 0 0 0 0 5 41 25 10 0 0 27 28 24 2 0 0 8 22 0 0 0 0 0 11 0 0 0 7 0 0 0 0 0 80 154 102 4 0 0 44 82 0 0 0 35 45 12 0 0 80 115 4 0 0 4 96 102 0 0 44 59 114 79 0 0 0 83 91 7 0 0 0 0 0 0 0 15 127 84 82 42 48 33 28 26 48 82 0 1 0 9 0 0 162 218 199 120 219 220 0 0 0 0 0 27 34 24 0 12 0 0 4 5 10 0 0 0 0 0 0 0 0 0 34 19 1 25 18 12 18 26 40 0 0 0 0 0 14 22 32 11 33 46 77 84 31 3 0 0 0 0 0 0 33 0 0 34 70 96 52 58 13 0 18 0 0 0 19 1 7 0 0 0 13 0 14 88 1 0 0 17 16 20 0 21 22 0 0 0 0 4 0 0 0 0 20 49 70 255 242 106 0 0 0 0 0 0 13 108 88 0 0 0 0 0 0 33 26 60 0 4 0 20 21 19 0 0 8 7 24 16 60 76 50 0 0 0 0 0 0 0 0 15 146 147 83 0 0 0 0 0 0 255 239 205 255 255 255
255 255 255 96 26 0 0 0 0 0 0 27 22 39 47 0 0 0 20 0 13 56 39 0 35 13 0 19 46 0 12 1 0 0 7 31 15 14 69 36 20 24 64 55 51 0 0 0 0 0 30 0 0 29 25 0 0 0 39 31 28 26 5 26 38 29 0 0 0 22 23 21 22 8 18 26 1 0 34 0 0 0 0 7 0 53 55 16 0 0 0 0 27 0 0 0 15 0 0 7 0 0 0 0 0 0 37 52 156 107 0 0 0 0 0 0 0 0 0 0 47 17 18 46 36 30 17 57 15 6 0 0 17 21 59 0 0 0 0 0 0 14 0 0 0 15 41 39 0 0 7 17 74 12 0 0 0 0 0 0 0 0 0 0 12 0 21 19 0 0 53 21 33 0 31 145 172 16 0 0 33 100 87 64 53 57 44 50 0 0 0 0 0 0 54 23 92 158 85 98 10 34 53 50 12 12 0 0 12 2 14 0 0 0 0 57 1 0 0 47 53 8 216 255 218 0 0 0 0 0 0 53 12 1 0 60 70 40 3 0 7 24 18 37 0 0 0 0 0 43 29 40 0 0 10 43 37 0 0 0 0 0 0 43 18 23 45 28 33 10 57 20 0 0 0 0 0 0 0 0 0 0 104 85 90 30 43 67 51 18 0 0 0 0 8 30 45 0 14 6 23 6 0 0 0 0 0 0 0 32 0 0 0 0 19 0 0 0 3 7 77 212 186 47 255 107 0 0 0 0 0 0 9 0 0 0 13 0 0 54 85 91 43 19 0 27 32 5 0 0 0 0 0 0 112 77 0 0 0 0 0 0 0 0 0 0 42 55 59 0 0 0 0 0 0 138 156 135 119 88 28 255 255 255
255 255 255 0 0 0 0 0 0 8 19 0 0 1 0 0 0 0 0 0 4 36 31 47 0 48 98 16 5 0 17 23 10 0 11 67 0 39 0 9 10 0 47 3 0 44 0 0 0 0 0 0 0 0 44 16 9 0 22 30 2 0 0 15 23 9 10 33 51 25 28 35 0 7 61 0 0 27 30 33 10 16 0 0 38 0 0 53 2 0 0 0 39 60 12 6 13 0 0 25 28 14 0 0 0 74 66 20 0 0 28 0 0 16 10 0 0 0 40 84 0 0 0 29 4 9 0 0 0 78 80 8 40 72 60 0 0 67 42 52 0 41 52 50 0 0 7 9 63 93 0 0 0 0 0 0 34 105 139 24 0 0 50 60 15 0 0 0 0 0 0 21 0 0 0 28 47 10 0 0 25 135 156 0 0 0 0 0 0 59 96 159 59 112 127 49 12 0 0 0 48 0 0 0 0 23 115 4 8 24 3 0 0 19 0 25 0 0 0 0 0 67 67 129 138 255 255 253 0 0 0 0 0 0 9 0 6 61 24 2 0 0 22 0 0 0 0 0 0 51 0 0 21 12 0 4 34 55 11 17 0 27 15 0 0 0 20 33 38 0 87 41 60 96 91 55 0 0 0 0 0 0 143 57 0 60 35 39 31 62 70 21 30 43 6 0 0 0 19 11 0 0 34 0 25 75 5 0 0 9 46 74 0 0 0 9 0 0 139 107 53 255 237 28 0 0 0 0 0 4 4 0 0 0 0 0 65 66 35 0 0 0 40 29 9 0 0 0 0 0 0 54 61 22 5 0 18 0 0 60 4 15 0 0 0 4 0 0 16 0 0 0 114 88 63 157 162 188 0 0 0 255 255 255
255 255 255 0 0 0 0 12 42 0 12 29 10 20 0 0 0 0 38 0 0 74 45 0 40 55 42 0 0 44 17 4 0 0 0 0 23 28 0 48 27 0 74 33 0 0 0 0 0 0 0 0 20 39 5 17 36 43 29 15 16 0 0 9 5 0 19 0 0 0 0 0 0 0 0 34 10 0 0 0 0 0 63 167 0 0 0 18 20 0 0 11 0 0 0 0 0 23 61 6 1 0 41 25 75 0 0 0 0 0 0 33 42 39 10 0 0 0 0 0 43 70 77 22 19 0 11 0 0 0 0 0 0 0 0 55 0 0 47 12 0 32 0 0 29 78 77 27 31 0 0 0 56 41 18 29 61 56 67 0 0 0 0 0 15 0 0 0 0 0 0 107 90 0 54 118 98 21 0 0 0 0 0 60 131 172 60 112 96 80 21 0 0 0 0 6 58 129 20 43 21 11 0 0 12 0 2 0 0 0 0 0 47 15 76 123 54 32 0 42 0 0 25 54 94 101 173 231 255 255 255 0 0 0 0 0 0 0 0 2 0 1 2 16 0 0 0 0 35 29 36 44 24 36 40 42 37 0 0 0 8 2 0 0 0 21 16 37 20 0 69 62 71 63 84 81 0 0 0 0 0 22 44 109 98 60 31 0 62 33 0 27 39 40 0 0 44 5 0 0 11 0 0 23 0 0 0 0 0 0 0 22 0 0 0 27 38 58 255 255 236 0 0 0 0 0 0 20 58 36 0 0 0 17 12 14 28 18 3 38 38 47 0 0 0 0 0 0 117 70 20 0 0 0 0 23 17 0 0 0 0 0 0 0 0 19 0 0 0 48 45 54 109 105 17 98 80 0 0 0 0 255 255 255
255 255 209 0 0 16 14 0 0 29 34 57 0 0 0 0 0 53 0 0 0 47 23 0 7 0 0 24 56 42 21 23 51 4 16 35 24 67 143 11 0 0 60 51 147 24 3 0 0 0 10 0 0 0 27 0 0 24 29 0 0 0 12 7 17 27 0 14 14 10 0 0 0 1 0 0 25 73 0 0 0 0 35 54 54 9 0 60 0 0 0 0 36 0 6 6 28 17 36 0 0 0 49 39 0 8 9 20 0 0 0 0 0 0 4 9 0 63 7 0 34 0 0 0 0 9 0 66 169 0 55 96 0 51 112 0 0 0 0 0 0 2 0 0 55 0 0 0 13 49 0 0 0 50 33 0 0 0 0 36 23 0 5 33 51 19 0 0 0 0 2 92 166 80 0 0 0 0 0 0 101 142 84 45 67 55 0 7 26 0 37 84 47 48 0 15 0 0 0 0 31 0 0 96 0 41 67 42 24 0 37 0 0 0 0 0 0 0 47 0 0 0 0 0 0 0 0 0 165 195 181 48 255 255 0 0 0 0 0 0 0 0 0 0 15 33 0 0 0 81 31 0 19 5 0 36 45 103 4 2 0 7 0 0 27 6 0 25 8 0 107 58 30 98 32 0 0 0 0 0 0 0 0 0 0 107 14 0 111 107 107 33 45 35 29 42 0 13 0 0 0 0 42 3 0 0 0 0 27 17 33 14 25 0 0 212 163 26 255 130 0 0 0 0 0 0 0 0 0 0 7 7 0 12 53 19 18 0 5 0 0 0 0 0 16 74 78 53 80 61 8 0 0 0 32 33 51 52 39 10 0 11 30 0 0 0 72 134 111 140 104 68 72 50 17 0 0 0 13 7 0 255 255 255
255 237 241 13 0 0 0 0 7 39 8 0 11 0 0 0 0 0 17 0 0 39 56 32 20 14 3 13 21 19 16 0 0 0 0 0 0 21 42 27 34 0 44 31 23 51 11 0 0 0 0 0 0 0 11 0 0 33 11 0 0 26 35 25 0 0 0 7 25 0 0 0 1 35 90 0 0 0 25 0 0 3 0 28 0 0 1 0 22 39 4 3 27 38 1 23 3 0 0 149 172 114 0 0 28 35 7 0 89 46 0 0 0 50 0 4 58 0 0 0 60 84 25 0 4 23 117 36 0 17 0 0 51 9 0 28 98 129 0 0 44 2 0 0 39 35 66 20 21 23 0 46 180 36 0 0 30 50 75 0 0 0 0 44 114 11 64 88 61 36 0 0 0 0 54 123 160 40 82 47 5 44 77 33 41 0 0 0 0 11 11 49 0 0 20 17 19 5 12 0 0 0 0 0 0 0 0 0 34 131 12 15 30 0 19 71 39 16 0 0 22 81 0 14 48 0 0 2 44 25 0 123 123 115 255 255 255 18 0 0 0 0 0 0 0 0 0 0 0 94 23 0 24 47 46 4 36 12 0 3 17 0 0 2 2 30 11 0 69 107 68 47 0 111 73 17 0 0 0 0 0 13 0 0 0 0 0 2 53 72 55 72 33 10 33 41 0 54 7 0 0 0 7 0 21 58 9 0 0 11 13 32 104 93 88 255 255 145 0 0 0 0 0 0 0 0 0 0 0 0 75 64 31 42 5 9 20 40 28 0 0 0 0 0 0 56 20 0 0 0 23 0 0 0 19 16 0 0 0 0 0 0 0 0 0 0 173 144 40 15 0 0 0 0 0 18 34 88 38 56 37 255 255 255
255 232 198 39 6 0 0 14 23 17 17 1 0 0 0 0 0 52 0 31 128 54 0 0 33 11 5 5 8 0 0 19 93 14 21 56 33 24 3 43 17 0 94 10 0 6 0 13 0 0 0 0 0 0 0 41 68 20 24 0 2 23 106 17 32 69 89 31 0 0 0 0 0 0 0 6 0 0 23 61 51 0 0 9 7 0 0 12 25 0 17 17 0 0 0 0 0 0 0 60 15 0 0 0 0 0 0 0 0 0 0 36 30 0 0 0 0 0 0 0 48 16 0 0 0 0 0 0 106 0 0 0 21 0 0 7 72 0 2 46 84 47 0 0 0 0 0 40 57 27 0 0 0 0 0 0 0 31 0 104 44 0 66 8 0 0 0 0 0 0 0 50 65 4 24 95 207 35 65 123 0 0 0 3 32 82 0 0 0 0 7 88 22 0 0 0 0 0 36 59 72 5 27 95 50 66 41 3 0 0 0 0 1 1 0 0 21 3 0 0 0 0 17 11 0 0 0 0 15 47 68 0 0 0 22 86 168 255 255 255 0 0 0 0 0 0 0 6 3 75 33 0 26 2 0 8 11 0 23 9 15 28 0 0 0 0 0 61 54 74 80 40 0 72 69 12 0 0 0 0 0 0 0 0 0 0 0 0 94 39 0 126 74 14 56 80 113 39 47 21 0 14 29 0 0 0 0 9 9 28 32 50 255 255 143 0 0 0 0 0 0 50 48 36 0 0 0 116 74 53 0 0 0 0 0 3 14 0 0 0 0 0 85 97 100 0 0 0 0 5 2 34 0 0 0 0 0 0 0 0 33 42 62 193 181 122 42 33 0 0 0 17 0 0 0 47 79 72 17 22 0 255 255 255
255 255 246 51 39 0 0 33 58 18 17 0 0 2 6 0 0 0 38 0 0 73 38 16 6 54 132 6 39 0 0 0 0 0 0 3 0 20 12 10 47 86 48 21 79 0 0 0 0 0 32 0 26 20 2 14 5 0 0 0 0 0 5 38 4 0 0 0 0 0 5 31 37 26 0 0 0 0 29 0 0 0 0 12 79 45 16 0 0 15 22 46 40 0 0 0 255 255 255 15 0 0 43 10 0 9 36 69 2 7 6 10 53 101 47 0 0 17 1 0 0 3 22 89 41 0 23 56 30 0 0 39 10 0 17 15 0 0 72 121 91 0 0 43 35 0 0 70 72 50 16 71 113 22 0 0 3 0 7 0 0 0 0 0 0 101 105 0 109 142 28 17 51 157 21 0 0 0 0 0 22 31 0 0 34 128 14 0 0 0 0 36 47 0 0 6 31 0 28 41 59 0 8 10 0 0 37 0 20 26 7 57 101 9 20 0 35 34 39 9 35 57 0 0 0 0 0 3 0 0 0 5 5 0 24 0 0 191 255 219 0 149 255 0 0 0 0 0 0 70 45 22 46 48 53 21 51 76 0 7 0 28 10 2 8 23 31 0 32 69 68 25 0 83 46 13 0 0 0 0 0 0 9 27 23 0 0 0 0 0 0 84 0 0 76 0 0 0 0 0 0 0 0 0 0 0 0 0 0 179 78 0 255 155 0 0 0 0 0 0 0 14 8 34 0 0 0 7 0 0 0 0 0 40 0 3 0 0 0 1 0 0 29 27 0 0 0 0 74 33 19 36 49 16 0 0 0 0 0 0 187 230 172 96 98 87 0 0 0 0 0 24 36 45 0 2 0 0 0 5 0 255 255 255
255 255 202 10 0 0 0 0 18 14 0 4 3 0 0 0 0 0 0 0 0 54 89 87 20 2 0 34 11 0 24 0 0 21 22 0 12 41 35 36 18 0 89 64 0 44 37 29 0 0 0 0 0 20 47 0 0 13 17 34 13 24 0 15 0 0 57 32 14 0 0 2 0 8 10 7 40 89 35 23 0 0 5 58 47 0 0 22 34 43 0 0 0 0 0 0 255 255 255 0 0 0 0 0 53 0 0 0 48 25 6 0 0 0 13 13 0 0 0 0 20 18 29 34 0 0 103 21 0 0 0 23 33 30 25 22 0 0 66 74 0 0 0 0 43 0 0 66 26 27 6 117 126 0 0 0 0 0 0 0 0 0 130 195 255 47 153 150 22 78 136 29 28 0 12 35 17 13 0 5 6 0 0 0 0 0 52 47 9 0 5 51 7 35 85 0 0 0 0 9 0 13 53 66 10 0 0 0 4 37 5 6 0 17 17 0 0 0 0 8 5 49 38 10 0 17 43 67 11 0 0 0 0 19 0 0 16 54 92 106 255 255 255 0 0 0 0 0 0 92 28 0 71 13 0 36 43 0 0 0 0 0 0 31 20 0 0 44 80 74 77 39 6 55 28 0 0 0 39 0 0 50 9 0 0 19 16 0 0 0 0 0 0 0 39 255 255 102 255 255 123 255 255 0 27 161 29 255 255 199 32 0 0 0 0 0 0 0 6 5 13 0 9 0 17 0 0 30 30 45 7 39 34 47 35 72 0 42 50 0 0 0 0 0 46 59 49 61 17 0 0 0 0 0 0 0 0 217 186 124 166 136 22 0 0 0 0 0 0 48 71 83 4 3 0 0 0 3 0 0 72 255 255 255
255 255 222 30 23 0 0 0 0 0 0 11 34 41 59 0 0 0 13 0 0 38 60 83 29 18 18 8 41 67 0 0 9 0 14 165 10 2 0 27 3 0 43 46 30 27 0 0 0 0 0 17 16 12 25 14 0 0 0 0 19 0 0 0 0 20 0 8 0 0 0 0 1 3 47 0 46 19 0 0 0 16 0 0 0 0 0 34 27 0 0 0 0 0 0 0 241 190 0 0 0 0 0 8 0 0 10 0 0 11 65 130 92 0 0 0 7 32 0 0 0 63 144 0 0 0 26 51 92 26 0 0 72 127 79 0 0 63 73 49 0 0 0 82 48 56 42 24 0 0 0 0 0 0 0 0 0 52 122 86 160 249 29 14 0 67 51 0 0 0 5 0 0 0 37 149 183 0 0 23 57 105 28 13 21 57 0 42 71 0 10 0 18 8 0 10 61 35 43 0 0 0 0 25 23 50 52 0 0 0 0 0 0 34 57 61 55 45 0 0 0 50 0 3 0 0 6 27 0 8 8 16 22 48 4 0 6 0 0 13 105 186 230 178 255 255 0 0 0 40 34 21 28 23 95 35 65 62 18 0 0 9 17 0 7 25 37 19 17 0 82 49 52 112 77 7 0 0 0 0 0 0 0 0 0 0 0 0 0 0 0 255 255 255 234 228 72 0 0 0 0 0 0 28 71 63 36 147 219 255 255 255 0 0 0 0 2 22 1 0 20 64 25 6 0 0 0 20 109 90 0 0 0 0 0 0 26 17 12 10 12 17 5 6 42 77 85 0 0 0 0 0 0 0 112 123 144 195 175 93 0 0 0 0 0 0 36 28 0 15 88 28 15 0 46 19 0 0 2 0 0 255 255 255
255 224 255 0 0 1 34 24 15 0 2 6 0 6 60 0 0 0 0 1 0 60 5 0 14 1 0 32 11 36 22 15 0 17 15 24 12 0 0 48 63 67 67 15 0 60 27 0 0 0 0 0 0 11 2 0 0 0 0 0 0 4 8 33 0 0 21 13 0 0 0 0 0 0 13 1 0 0 13 19 55 0 0 0 50 42 27 24 12 0 0 0 0 255 255 255 191 194 81 0 0 0 31 25 26 46 13 0 16 0 0 30 50 47 0 10 87 50 0 0 41 23 0 0 4 0 11 26 17 88 6 0 0 65 55 0 0 0 117 103 4 80 68 64 0 0 29 0 0 0 0 0 0 169 139 0 66 80 9 129 131 0 0 0 0 0 35 4 0 57 164 8 0 0 0 0 0 0 23 101 0 0 0 0 0 0 21 0 0 0 0 0 4 0 23 0 25 92 0 9 87 0 0 0 0 0 3 55 53 45 8 11 0 8 7 0 0 0 0 14 0 0 0 0 16 6 4 11 0 0 0 0 0 0 0 0 0 0 0 0 40 57 53 236 255 255 0 0 0 0 0 0 73 51 0 22 29 10 5 16 2 0 0 4 30 13 29 31 62 84 98 39 0 67 69 16 0 0 0 0 0 0 0 0 0 0 0 0 255 255 255 158 131 22 0 0 176 78 101 105 44 81 69 17 15 41 48 31 18 255 255 255 0 0 0 0 0 0 0 0 0 1 0 23 40 4 27 23 0 0 0 0 0 51 61 47 12 0 0 0 0 8 73 53 11 0 0 0 0 0 0 0 0 76 239 215 101 61 25 22 0 0 0 22 37 78 28 11 80 1 0 0 1 39 0 0 6 17 0 17 69 255 255 255
255 255 255 0 0 0 6 0 10 13 33 0 19 0 0 0 0 0 0 0 0 40 61 97 31 31 10 15 53 11 33 9 0 0 13 65 5 22 2 16 21 0 62 0 0 0 0 0 0 0 0 0 9 12 0 12 32 37 41 33 47 60 70 0 0 0 4 5 29 9 0 6 44 14 0 25 6 0 0 9 1 0 0 0 56 43 23 0 59 103 0 0 0 255 255 255 73 0 0 0 0 0 0 0 10 0 0 0 58 11 0 38 38 0 0 0 7 0 0 0 69 62 0 74 75 131 0 0 0 27 0 0 0 0 73 56 34 0 25 0 1 5 45 0 0 0 0 0 0 0 144 181 108 20 128 255 0 73 131 0 0 0 0 0 185 55 85 0 0 0 50 68 69 97 0 0 0 0 0 0 35 111 173 0 54 93 2 0 0 21 38 3 28 0 0 15 6 0 0 0 37 37 71 60 25 19 41 0 1 28 0 0 0 0 25 95 0 0 0 7 0 20 0 0 0 0 10 75 43 62 69 13 43 21 43 47 63 2 0 0 16 0 0 129 196 225 161 255 255 0 0 0 67 11 0 23 74 125 0 9 73 32 16 20 20 9 0 8 63 71 107 51 0 83 68 15 0 0 0 0 0 0 196 255 255 255 255 255 0 0 0 0 0 32 90 90 44 49 15 0 0 0 1 14 0 0 0 0 0 255 255 255 143 116 63 0 0 0 28 0 0 0 12 0 14 40 0 8 3 7 0 12 0 34 1 0 0 0 22 0 0 0 36 34 2 0 0 47 0 0 0 208 193 121 123 74 0 0 0 0 0 0 41 40 38 5 6 4 0 3 0 11 27 4 0 0 0 33 12 0 0 255 255 255
255 255 255 0 0 0 17 89 183 0 0 2 16 16 0 0 0 36 0 0 5 74 0 0 10 18 0 0 28 32 0 12 43 0 7 0 0 20 0 28 33 75 93 71 59 27 21 0 0 0 0 0 0 25 25 0 0 0 0 3 6 0 0 2 17 0 16 0 0 20 0 0 0 12 54 14 0 14 0 14 33 0 0 0 55 24 0 0 0 0 0 0 0 209 255 255 148 5 0 0 0 0 49 55 35 12 33 35 0 0 34 0 0 0 49 31 39 46 36 48 65 38 0 0 61 94 0 0 0 48 43 0 98 84 16 0 0 34 134 98 16 0 0 0 0 0 0 133 209 170 107 126 92 0 0 0 24 0 0 0 19 0 0 0 0 27 75 116 37 51 0 0 0 46 0 0 56 19 33 0 0 0 0 0 0 67 22 37 67 0 40 91 0 0 0 22 85 56 11 0 0 6 42 33 5 14 47 12 12 0 1 15 15 20 0 0 2 24 80 33 12 0 31 128 221 38 0 0 0 0 0 0 1 32 0 2 28 0 0 14 0 0 3 2 11 44 134 219 222 0 0 167 28 0 0 27 0 0 19 21 0 23 13 0 12 45 83 80 38 0 7 0 0 0 0 0 0 0 0 255 255 255 255 255 181 0 0 0 40 82 134 72 100 83 14 15 0 12 11 0 0 0 3 0 0 0 0 2 60 255 255 255 152 109 0 0 0 0 10 10 35 45 49 52 0 0 0 0 0 31 39 31 0 0 0 48 0 0 0 78 55 0 0 0 0 0 0 0 88 59 67 180 223 143 0 0 0 0 0 0 20 31 0 35 13 0 0 0 0 0 2 44 0 3 0 0 0 0 13 0 0 255 255 255
255 255 255 20 0 0 55 12 0 0 0 0 0 3 84 0 0 0 0 0 0 58 24 0 25 40 49 17 9 0 10 0 12 0 14 0 36 38 53 44 26 0 35 21 0 0 0 14 0 0 0 9 0 0 38 18 0 13 0 0 0 23 39 31 20 0 28 0 0 34 63 62 0 0 0 7 0 0 72 69 39 42 0 0 57 32 27 0 0 0 0 0 0 229 255 255 16 0 0 0 0 0 0 0 0 0 0 0 20 33 55 158 75 0 32 98 150 0 0 0 40 0 0 30 57 43 0 0 72 64 0 0 55 64 44 0 2 12 0 0 0 0 0 26 127 151 139 45 16 0 0 31 92 0 0 0 82 116 8 0 0 0 0 13 105 51 15 0 0 0 4 57 125 34 0 0 0 31 17 0 0 0 25 17 47 0 0 0 61 0 0 0 75 35 0 19 65 67 0 0 0 0 0 0 11 46 87 0 0 0 0 0 13 5 28 21 36 54 93 23 79 99 0 0 0 54 66 38 12 28 57 27 23 7 0 0 0 6 0 0 2 3 2 0 0 0 57 78 73 123 184 159 0 187 255 6 0 0 0 11 6 24 0 1 35 43 30 7 0 0 0 0 0 0 57 243 255 255 255 61 0 0 0 0 0 69 129 134 56 69 69 2 0 0 0 0 7 0 0 0 12 0 0 32 13 0 0 3 11 255 255 255 9 0 0 0 0 0 3 7 0 31 18 5 21 0 0 0 0 0 0 0 0 14 35 81 86 49 31 63 37 1 0 0 0 0 0 0 255 231 144 59 32 11 0 0 0 40 40 39 24 14 92 18 15 23 0 0 35 0 18 0 7 0 0 8 17 63 0 0 0 255 255 255
255 255 255 0 0 0 33 5 0 1 34 3 20 20 0 0 0 0 30 0 0 32 63 131 21 12 0 6 10 33 0 5 22 0 0 0 7 21 0 26 32 26 71 14 23 31 31 0 0 0 0 0 0 1 2 0 0 26 25 24 27 76 96 0 0 0 3 2 0 0 51 42 0 0 0 36 0 0 0 0 0 0 30 51 9 44 39 0 0 0 158 192 61 135 216 8 0 0 0 0 0 0 8 0 0 36 10 0 24 0 7 15 0 0 0 0 13 20 17 27 35 18 0 25 23 18 28 69 37 61 0 0 0 44 0 0 0 0 6 0 12 119 172 51 36 67 53 46 0 0 0 0 0 0 0 0 7 0 0 27 79 42 33 16 12 0 103 154 9 0 0 0 0 0 0 74 157 38 1 0 30 27 0 0 0 0 0 0 0 17 102 91 6 0 6 0 0 0 0 17 123 48 4 0 7 17 20 0 20 84 33 87 108 5 73 131 42 71 52 0 0 0 49 89 39 0 37 105 16 3 0 17 15 0 24 47 46 6 12 13 3 12 41 0 0 13 0 0 0 38 43 62 52 180 152 44 0 0 31 31 0 17 0 0 0 0 0 0 0 7 128 255 255 118 132 0 0 6 0 0 0 23 68 109 115 35 54 0 0 0 0 1 0 20 0 0 0 3 0 0 0 1 12 0 17 85 0 0 69 255 255 255 0 0 0 0 0 0 58 93 104 0 0 0 25 19 8 0 0 0 0 0 0 17 0 15 8 0 0 0 0 0 0 0 0 181 170 116 145 155 108 0 0 0 0 4 48 34 52 0 0 3 9 0 0 0 14 3 34 0 0 0 3 17 44 37 11 0 0 0 0 255 255 255
255 255 228 27 0 0 0 0 26 0 3 41 3 0 0 0 0 6 32 0 0 68 42 10 0 0 13 17 28 32 7 2 28 25 35 14 13 33 20 18 30 16 75 28 0 11 0 0 0 0 0 0 0 0 0 8 7 0 19 48 0 0 0 12 0 0 0 0 0 14 44 51 4 0 0 0 14 16 18 27 17 54 13 0 53 44 21 0 0 0 255 255 255 0 0 139 0 0 0 0 0 0 5 22 41 0 0 0 0 0 0 43 39 0 0 28 29 0 0 2 79 43 0 21 25 34 0 0 0 62 1 0 0 0 0 51 99 160 50 92 126 45 31 0 0 0 0 17 75 35 0 0 0 82 93 42 9 53 96 0 0 3 0 78 0 25 0 0 0 0 0 9 0 0 0 138 255 54 101 35 0 0 0 14 145 139 22 0 0 0 0 26 46 84 144 0 0 0 0 0 43 12 48 84 0 0 0 28 62 73 0 0 0 0 0 0 0 0 0 68 38 0 15 13 0 0 0 0 0 0 0 0 21 62 0 0 0 3 0 15 38 24 0 3 37 74 0 0 0 0 0 30 0 90 176 0 5 100 0 0 0 2 0 0 0 178 255 147 251 135 0 0 0 0 0 0 32 108 136 39 32 0 0 0 0 0 0 16 0 0 0 0 0 0 11 27 17 8 5 27 11 13 14 17 0 0 36 48 87 255 255 255 0 0 0 14 26 25 0 0 0 14 0 0 0 8 0 0 0 0 0 0 0 8 0 0 0 7 25 0 0 0 14 0 8 205 172 60 38 19 11 0 0 0 33 27 1 10 8 7 8 9 0 18 0 6 0 19 17 28 32 0 0 0 0 0 0 42 0 0 4 255 255 255
255 255 242 10 17 32 0 40 34 77 39 0 3 0 0 0 0 0 4 0 0 37 28 31 14 40 46 24 11 0 7 0 0 0 19 21 7 6 27 14 52 68 71 71 75 0 0 8 0 0 0 0 0 0 40 88 112 0 0 0 8 34 31 21 10 0 35 0 0 0 5 0 0 0 0 0 0 3 4 0 19 10 17 0 26 8 0 0 0 0 255 255 255 0 0 0 23 0 0 0 0 0 0 0 1 5 31 0 0 0 23 101 89 0 0 10 47 0 0 0 43 44 0 0 0 115 91 71 14 0 0 0 13 66 108 34 60 70 62 61 2 0 0 0 48 168 209 0 0 0 91 25 0 57 85 34 49 5 0 0 0 79 0 0 0 24 3 0 0 89 155 30 42 0 0 0 0 0 0 1 31 87 82 24 0 0 23 9 0 0 0 0 28 38 0 11 28 0 28 0 0 0 29 123 5 69 122 0 0 0 8 0 0 42 70 84 0 0 112 0 0 0 0 22 26 0 44 148 28 57 39 44 30 0 0 0 0 12 0 0 3 0 0 10 35 22 2 25 7 47 86 101 0 0 0 15 138 207 0 0 63 103 255 255 0 0 0 0 0 0 0 28 82 69 81 53 34 33 19 0 0 18 0 4 8 0 0 0 20 0 3 0 41 39 17 19 38 0 0 0 15 30 50 0 0 0 44 70 132 255 255 255 0 0 0 35 20 0 25 35 14 0 19 80 0 0 0 0 0 0 24 13 42 30 1 18 0 0 0 0 0 0 165 182 166 89 75 35 0 0 50 0 0 0 0 34 52 7 0 0 7 4 36 0 0 0 0 0 0 11 2 35 0 5 58 12 12 0 0 0 0 255 255 255
255 255 255 0 0 0 0 0 0 0 34 94 31 10 0 0 0 9 0 0 0 30 30 25 13 0 0 27 27 70 8 10 40 22 24 2 19 25 0 33 50 27 77 12 0 43 23 26 0 0 0 0 0 0 6 3 0 62 0 0 10 0 0 0 0 0 21 11 42 0 20 22 11 0 0 3 0 0 0 0 30 29 13 0 18 22 0 0 0 0 255 255 255 2 30 66 54 0 0 11 0 0 93 76 0 0 0 0 0 0 0 31 0 0 13 33 68 3 0 0 116 139 55 40 21 16 0 0 31 0 0 39 46 76 28 0 0 0 6 0 0 61 99 20 0 0 0 46 0 0 0 24 77 0 0 6 0 10 41 14 0 0 28 0 0 0 46 255 52 57 0 0 0 36 0 0 0 27 148 171 0 0 0 43 28 22 0 0 0 0 10 146 0 6 0 0 0 22 32 67 0 1 0 0 3 52 108 20 6 0 17 29 63 0 0 0 0 15 3 54 108 94 0 0 0 5 34 32 0 0 23 0 30 116 0 0 0 0 41 104 0 0 79 0 17 34 0 0 0 0 0 0 0 0 0 74 149 156 0 0 0 17 46 0 0 0 35 54 111 126 42 62 81 0 0 0 0 0 0 4 0 0 0 0 0 0 6 20 20 23 0 5 30 28 20 17 66 0 0 0 23 53 93 0 8 22 180 196 142 255 255 255 0 0 0 20 7 0 0 0 0 42 21 0 0 0 0 98 119 150 64 33 0 0 0 0 0 0 0 46 80 118 201 161 27 31 0 0 0 0 7 7 42 51 42 7 32 0 9 0 14 0 0 0 12 48 19 0 0 9 0 0 0 10 45 0 0 2 26 4 0 255 255 255
255 255 194 0 0 0 46 79 91 0 0 0 0 26 11 0 0 0 0 0 0 54 67 36 12 23 0 0 3 0 0 13 66 0 0 0 30 44 46 25 20 55 58 10 0 67 43 0 0 0 0 0 0 0 19 11 18 0 24 30 9 12 0 18 25 60 17 0 0 0 0 1 6 0 0 0 4 0 10 32 25 18 0 0 0 28 0 0 0 0 255 255 222 0 0 73 6 14 0 0 0 30 41 158 79 0 0 0 27 0 0 62 126 111 0 1 25 0 4 31 0 0 26 0 0 0 0 31 110 32 8 0 55 59 0 26 0 0 78 70 0 0 0 0 84 46 20 29 24 0 46 63 9 0 0 0 0 0 0 24 141 134 39 164 167 29 0 0 0 0 0 55 100 147 46 54 0 0 0 88 14 8 0 53 0 0 16 78 90 31 0 0 9 91 15 0 0 40 0 0 0 27 0 0 42 62 59 28 6 0 0 7 27 47 29 78 10 0 0 0 48 160 0 65 77 9 0 0 20 19 0 0 36 48 21 0 0 5 15 0 74 62 0 0 0 0 0 0 0 115 201 255 54 0 0 0 0 39 0 0 42 8 59 138 56 52 67 10 35 37 0 0 47 0 5 0 6 6 1 0 0 0 5 0 7 0 8 44 20 2 34 65 184 244 0 0 0 10 0 0 83 147 174 2 19 0 255 255 255 0 0 0 0 0 0 0 4 0 9 14 17 41 91 123 0 0 0 0 0 0 7 0 0 0 0 0 0 0 0 221 213 96 54 16 0 0 0 0 0 35 11 9 0 0 9 0 0 5 0 0 3 10 16 21 7 3 0 1 46 19 39 0 12 0 0 7 12 0 14 31 22 255 255 255
255 255 218 0 4 34 0 0 0 7 3 18 45 7 0 0 0 0 0 0 2 43 43 81 18 8 22 30 53 18 4 53 101 10 6 0 0 15 0 23 56 59 83 25 0 0 0 67 0 0 0 0 0 43 23 49 60 0 16 0 43 6 0 0 7 23 0 0 0 0 18 2 9 6 0 0 25 37 21 1 14 16 17 6 49 21 1 0 0 0 255 255 177 12 0 0 57 0 0 0 0 0 117 79 27 0 0 0 67 24 0 0 0 0 0 0 0 120 53 0 0 0 0 31 1 3 79 109 74 0 0 0 52 0 12 0 136 133 0 0 0 61 71 42 59 75 67 11 0 33 28 8 0 0 18 86 79 48 0 0 0 0 0 48 165 0 0 0 65 152 95 18 24 48 0 0 0 0 3 165 13 29 0 0 0 0 0 67 206 0 0 0 6 13 133 10 0 16 21 98 125 0 0 0 0 0 115 0 0 0 8 6 0 10 25 0 5 73 95 0 0 0 20 0 0 0 6 70 26 0 0 5 13 76 33 58 74 0 0 0 0 0 47 0 0 0 145 110 0 0 0 0 0 0 0 20 74 118 74 50 0 27 29 27 0 0 0 0 0 0 0 1 10 22 9 1 0 0 29 0 10 0 0 0 0 0 0 22 31 47 0 0 0 0 0 0 0 24 115 96 0 0 0 16 18 52 255 255 255 0 0 0 9 24 10 5 0 30 23 26 3 29 15 8 0 0 0 16 1 0 0 0 0 0 0 62 43 75 139 135 129 38 9 0 0 0 0 15 9 12 59 16 12 41 0 34 87 33 4 0 0 23 91 0 0 0 0 5 42 0 0 24 0 0 56 8 7 25 0 0 0 255 255 255
255 255 211 0 9 22 0 0 0 0 26 19 0 18 22 0 0 7 0 0 0 36 16 0 17 11 0 15 14 45 0 0 5 0 8 12 0 15 54 40 33 0 86 59 4 3 0 0 0 0 0 0 0 0 42 15 0 0 37 47 0 22 57 28 15 0 0 0 0 0 9 42 0 0 14 0 0 0 36 23 16 44 16 0 0 0 0 0 0 0 222 255 122 0 0 34 0 0 0 5 19 28 48 50 35 8 12 0 0 0 66 0 0 0 0 0 0 0 0 0 0 100 128 64 71 29 0 0 0 17 17 14 23 28 0 0 0 0 69 28 18 43 23 0 0 0 97 0 0 0 28 70 0 0 4 218 82 113 0 20 0 9 0 0 0 16 63 183 8 0 0 16 0 0 19 108 131 23 0 0 0 23 0 23 0 17 0 0 0 63 144 82 48 27 40 0 0 0 0 0 0 23 45 5 5 49 31 21 0 0 30 16 31 0 0 0 26 89 75 2 15 0 0 0 0 0 38 57 18 41 15 19 75 106 0 0 0 0 0 0 146 205 107 0 0 0 0 0 0 0 14 106 78 92 37 15 21 63 0 0 0 0 0 29 0 0 0 17 6 25 0 0 0 9 0 0 0 0 0 14 11 14 9 6 20 33 52 61 96 189 213 0 0 0 81 142 78 0 0 0 0 0 1 174 171 73 255 255 255 0 0 0 0 0 0 48 47 39 2 0 0 0 0 0 74 66 11 0 0 0 0 0 0 0 0 14 221 164 17 60 46 53 0 0 11 57 31 23 16 42 0 0 2 0 21 0 0 0 0 11 0 0 0 16 2 0 0 0 0 29 0 0 0 0 27 9 26 6 6 7 51 255 255 255
255 255 197 0 0 0 0 0 0 6 0 0 0 0 0 0 0 23 0 0 0 62 32 0 24 48 0 17 28 45 14 0 0 1 0 0 46 0 0 38 70 0 73 43 48 0 0 0 0 0 13 0 1 65 15 0 10 37 11 0 2 0 0 1 0 0 10 0 0 6 24 30 20 0 0 35 34 30 25 3 0 0 15 36 0 0 0 0 0 0 151 240 160 0 28 71 0 0 120 0 19 132 0 0 0 22 74 101 35 22 50 0 0 0 0 0 0 129 109 64 58 76 80 61 13 1 0 0 11 0 0 0 0 0 0 52 89 120 41 0 0 0 4 74 82 40 0 0 0 0 13 0 0 9 4 0 0 0 0 0 0 3 42 63 0 25 0 0 3 27 0 63 0 0 64 31 33 84 20 0 118 149 123 169 158 217 112 183 62 0 0 0 0 0 76 14 99 71 44 0 0 43 76 143 0 0 0 11 86 89 10 60 104 0 0 26 17 0 0 10 0 0 35 38 26 17 0 0 0 0 0 0 0 0 80 142 94 10 0 0 41 0 0 4 16 47 84 121 137 46 44 36 27 0 0 0 0 12 0 0 0 20 14 16 24 1 0 0 13 26 0 9 37 14 21 17 0 4 0 0 0 0 5 31 50 78 124 80 0 0 0 12 58 63 0 0 0 129 173 201 0 0 0 255 255 255 0 0 0 0 0 0 2 3 0 34 42 0 0 64 101 0 0 0 28 0 0 0 0 0 0 0 9 122 118 72 114 114 27 0 0 0 0 0 42 0 9 0 0 6 7 0 1 47 0 0 40 0 0 0 0 10 51 0 35 39 17 13 51 0 0 16 0 7 0 0 0 0 0 0 0 255 255 255
255 255 185 38 34 44 14 0 0 0 16 28 0 0 0 0 0 0 0 0 24 51 14 0 0 29 38 16 0 35 10 19 0 0 16 45 2 46 83 6 0 0 87 92 98 22 18 0 0 0 0 0 0 0 0 1 0 0 11 17 22 55 50 0 17 13 0 0 0 27 0 0 0 6 19 0 0 24 0 10 21 0 15 0 0 0 0 167 114 0 128 229 142 2 0 0 24 0 0 8 0 0 0 0 0 80 111 48 0 0 0 0 0 0 106 194 118 84 71 47 0 0 0 0 0 0 0 0 0 0 0 10 89 87 23 0 0 0 67 91 57 37 74 70 0 0 0 0 0 110 36 62 46 0 0 0 35 0 0 106 153 193 142 94 4 144 108 162 57 60 157 159 201 255 0 141 232 0 19 135 0 0 0 0 0 0 87 104 131 124 74 0 93 65 0 59 16 0 63 40 0 1 0 9 72 27 0 52 0 0 119 105 86 151 139 55 110 118 132 15 118 176 17 0 0 0 0 2 46 121 62 110 114 0 0 0 0 0 11 124 40 101 139 8 1 0 0 0 0 0 0 0 0 0 0 15 0 0 4 3 0 0 11 20 0 0 0 0 17 24 12 10 21 13 0 23 0 0 0 0 0 16 43 76 101 34 112 138 44 47 57 64 8 47 184 195 0 0 0 0 51 0 0 255 255 255 0 0 0 0 0 0 44 66 90 0 5 3 0 0 0 77 128 117 2 0 0 0 0 0 0 0 23 225 183 36 18 3 38 0 0 0 2 25 38 23 14 10 28 10 0 15 6 10 11 0 0 0 0 0 12 0 15 13 5 0 2 0 15 0 0 0 0 30 3 29 0 18 0 14 48 255 255 255
255 255 197 11 6 2 22 5 0 0 17 25 22 0 0 0 0 19 0 0 0 46 10 0 0 25 59 14 66 24 0 0 0 0 5 26 7 0 0 60 77 71 57 10 0 6 0 0 0 0 0 0 3 33 43 28 0 20 38 66 0 0 0 22 0 0 0 0 0 0 0 9 41 30 25 0 0 0 47 12 1 39 0 0 0 0 0 81 44 0 70 205 208 0 0 0 0 0 0 25 30 0 5 63 5 99 101 42 72 45 0 0 0 64 76 74 15 0 0 0 36 9 0 60 131 215 0 0 0 8 50 84 92 39 0 11 0 30 64 56 0 0 0 0 3 0 0 30 29 38 7 0 0 9 42 50 17 29 17 97 111 91 0 0 0 0 0 92 0 0 0 0 0 0 8 0 0 0 0 0 240 163 131 193 176 38 0 0 0 27 0 0 236 167 91 255 255 167 0 73 131 68 0 0 255 255 247 255 255 222 75 47 78 0 0 0 255 254 155 0 0 29 0 0 0 112 213 249 15 0 0 0 2 106 26 63 113 69 43 0 31 20 16 0 0 0 10 11 0 1 36 45 3 0 8 0 12 15 12 12 8 0 0 0 13 0 1 7 23 18 0 0 0 11 1 13 18 24 5 32 73 99 136 235 224 89 68 21 156 208 97 0 0 0 0 0 0 0 0 0 255 255 255 255 239 0 0 0 0 8 8 18 32 23 0 0 0 0 0 0 36 101 52 0 0 0 0 0 0 0 129 127 80 152 128 0 0 0 68 0 0 0 4 17 0 33 26 0 2 12 47 0 0 0 0 13 63 0 0 10 16 2 0 0 25 0 11 0 8 26 0 0 0 0 0 10 12 0 0 6 55 255 255 255
255 255 255 4 7 42 0 10 33 0 0 0 0 0 28 0 0 0 14 0 4 34 8 0 17 0 19 13 19 44 21 0 0 0 21 40 0 31 88 29 40 22 97 76 31 20 6 4 0 0 0 0 0 0 0 0 0 2 46 51 7 0 0 26 20 14 17 19 34 9 13 0 45 46 28 26 0 0 3 11 19 32 23 0 0 0 0 40 0 0 131 246 255 5 10 139 42 54 5 0 0 0 2 0 0 79 105 64 146 97 0 0 0 11 21 0 0 28 8 11 0 34 55 0 0 0 10 30 39 35 0 0 8 0 0 2 59 71 0 0 25 62 0 0 1 15 56 0 0 0 1 0 0 101 74 43 113 71 0 0 0 77 228 137 0 146 60 0 12 0 0 0 0 0 0 0 0 0 0 0 255 255 197 255 255 37 0 52 255 143 210 255 16 126 238 0 0 0 0 0 0 105 93 11 21 0 0 0 0 0 0 0 18 86 76 48 0 0 0 149 122 86 163 201 52 0 0 0 0 0 0 9 12 0 4 25 7 0 0 0 20 26 13 0 1 29 3 13 65 12 0 0 1 4 0 0 20 68 11 8 34 0 7 0 0 0 0 18 17 0 0 1 36 4 70 87 130 210 230 232 255 255 145 114 58 0 0 0 0 0 0 0 0 0 0 0 0 225 255 255 255 255 255 0 0 0 0 0 0 32 11 4 36 1 0 0 0 0 60 29 7 0 0 0 0 0 0 26 41 39 225 187 101 27 18 11 0 0 14 39 57 29 0 0 55 11 0 0 0 0 22 19 13 0 0 0 0 0 9 0 15 0 0 0 3 0 13 4 0 0 3 45 10 6 10 0 0 22 2 0 0 255 255 255
255 249 196 47 30 11 0 0 20 0 0 0 0 0 7 61 0 0 4 0 0 51 55 6 28 9 0 0 51 30 0 10 0 7 0 6 0 13 0 34 16 0 84 72 72 23 12 0 0 0 0 0 0 0 6 0 14 23 1 0 1 26 35 0 0 0 0 0 0 0 22 43 0 0 3 0 0 3 16 8 5 30 53 67 0 0 0 0 0 0 236 255 95 0 0 0 60 112 0 31 0 0 0 0 0 125 77 0 0 0 0 0 0 4 0 0 0 54 84 89 0 0 0 27 3 0 33 28 7 0 0 20 68 76 57 20 0 0 0 0 0 85 37 0 0 0 0 0 6 57 73 74 56 38 78 117 0 0 0 92 96 79 0 29 114 0 0 39 16 0 0 255 195 121 132 139 245 0 79 186 62 21 80 53 178 255 0 0 0 0 0 0 0 0 0 255 255 255 0 0 0 0 12 121 0 0 0 0 0 0 0 0 0 0 0 0 0 119 207 188 20 0 0 0 0 8 113 197 75 83 53 16 7 0 0 13 42 0 0 0 37 24 8 0 9 12 0 0 16 7 0 0 0 28 17 18 7 14 11 0 0 0 0 38 15 33 55 56 107 127 181 255 255 255 255 255 32 0 0 0 0 0 0 0 0 0 0 0 0 0 0 0 0 0 231 255 246 255 255 255 0 0 0 0 0 0 2 15 25 31 33 33 23 39 17 0 0 0 98 79 55 0 0 0 0 0 0 206 197 143 43 68 89 0 0 0 3 0 24 6 57 3 0 0 0 0 0 0 0 0 1 0 13 24 0 1 28 0 0 22 28 0 0 0 3 108 15 0 0 0 0 23 4 0 0 0 0 15 26 35 22 255 255 255
255 255 215 0 0 10 32 28 0 0 0 0 0 29 36 0 6 9 0 0 0 21 0 0 0 27 71 5 30 89 0 0 0 10 11 0 12 22 53 23 40 76 108 59 17 0 0 0 0 0 0 0 0 14 21 31 0 0 38 4 14 0 0 14 51 65 16 0 0 15 30 0 0 0 10 43 19 0 0 0 0 0 12 0 46 0 0 0 0 0 255 255 169 8 8 0 54 113 104 55 67 0 0 0 0 51 175 201 7 134 131 77 1 0 0 28 11 0 0 0 49 19 0 87 95 0 44 16 32 0 15 0 0 0 0 37 28 63 0 25 100 14 33 0 0 0 0 43 69 20 122 27 0 0 0 0 87 91 0 156 64 0 48 16 0 219 145 135 132 165 191 0 0 0 0 0 0 0 0 0 0 0 0 0 0 0 71 54 172 99 167 244 0 0 0 139 214 255 0 0 0 255 255 255 0 0 0 0 0 0 0 0 0 255 255 255 44 0 0 0 81 224 93 135 100 27 60 15 30 39 8 15 0 3 3 33 15 0 0 0 37 22 0 30 13 48 0 0 0 1 0 0 0 0 0 0 0 0 20 46 56 86 81 22 192 227 210 255 255 255 0 0 0 0 0 0 0 0 0 0 0 0 0 0 0 0 0 0 42 76 170 255 255 208 255 255 255 0 0 0 0 0 0 0 0 0 46 26 14 3 0 0 0 0 5 4 0 0 52 31 0 0 0 0 0 0 34 244 209 96 7 0 0 0 0 0 17 29 3 13 0 0 0 0 15 20 14 13 9 26 70 29 8 0 11 0 0 11 0 0 9 29 9 3 9 73 7 0 0 0 0 39 7 0 0 0 0 8 7 31 31 255 255 255
255 255 255 36 0 0 0 0 0 0 0 0 0 0 0 37 4 25 2 0 0 23 51 55 0 3 14 16 38 0 19 1 0 0 29 30 7 8 0 22 50 78 102 32 0 29 0 0 0 0 0 0 0 67 27 51 42 19 0 26 0 0 0 2 0 0 10 20 28 0 0 13 0 0 0 10 4 14 25 0 0 0 34 76 14 0 0 0 0 0 255 255 255 35 37 0 30 104 111 28 0 0 0 0 0 0 1 121 0 0 0 78 61 67 0 0 0 0 0 0 44 31 32 37 24 44 25 66 114 0 0 5 0 0 0 71 63 39 0 0 57 0 0 0 55 52 15 94 102 58 0 0 0 12 70 110 255 217 38 101 43 116 0 4 17 0 0 0 37 35 111 0 0 0 0 0 0 0 0 5 105 134 139 55 42 25 0 0 0 146 131 144 74 64 0 152 225 255 0 0 0 255 255 255 0 0 0 0 0 29 255 255 255 0 0 0 34 86 97 122 155 66 0 0 0 0 0 0 0 37 35 0 0 9 11 26 0 0 0 0 0 0 5 0 0 0 0 34 36 0 20 31 2 16 49 62 67 68 112 176 204 255 255 241 0 0 0 0 0 14 0 0 0 0 0 0 0 0 0 0 0 0 86 121 146 158 76 0 213 237 156 255 255 255 0 0 0 0 0 0 10 18 2 0 17 6 38 18 0 0 0 0 0 0 0 73 84 68 53 176 181 0 0 0 171 145 90 147 138 24 0 0 0 7 82 94 29 15 0 9 20 7 0 0 36 12 24 60 0 0 0 0 0 7 0 29 46 0 0 0 0 10 0 2 0 0 0 4 21 49 17 0 0 0 0 27 0 0 0 7 40 255 255 255
255 255 243 0 17 31 0 12 0 16 33 73 0 22 60 0 0 0 0 0 0 15 69 142 9 0 0 19 26 32 0 0 20 0 9 10 0 7 37 23 39 67 87 43 0 32 17 29 0 0 0 0 0 0 0 0 0 3 0 0 32 0 0 47 54 56 0 0 0 5 0 0 0 32 27 0 0 24 73 15 0 17 36 18 46 29 0 0 0 0 156 168 0 104 90 0 20 21 0 80 91 0 0 0 0 60 63 70 113 2 0 0 0 0 31 0 0 121 147 77 82 93 81 33 34 28 0 0 0 0 10 97 80 18 12 36 34 0 0 0 15 158 122 78 147 77 0 171 114 8 0 0 45 255 246 116 0 0 30 0 0 0 224 255 255 0 0 0 0 0 27 0 0 0 0 0 0 255 255 255 213 206 67 0 0 0 0 0 0 90 87 72 85 96 119 0 0 0 0 0 0 53 159 255 0 0 0 255 255 184 0 0 0 90 164 205 92 113 14 0 0 0 5 0 0 15 29 33 34 0 10 10 0 0 6 4 17 0 0 0 2 10 42 0 0 0 0 0 0 20 0 0 102 124 116 247 255 255 88 0 0 0 0 0 0 0 0 37 143 202 0 55 151 120 90 0 218 203 141 187 147 13 4 21 1 168 89 25 255 255 255 0 0 0 0 0 0 0 0 0 78 109 114 0 9 51 32 1 24 0 0 0 0 0 0 98 22 0 0 0 0 0 0 0 255 230 134 36 17 0 0 0 0 27 53 100 4 0 5 1 8 0 0 0 13 21 0 0 0 13 68 0 29 0 15 0 0 22 60 81 0 0 0 1 0 0 0 0 15 29 2 14 0 20 24 0 1 16 0 0 52 255 255 255
255 255 255 19 0 0 36 45 81 0 0 0 0 0 0 46 0 0 1 0 0 44 18 0 21 18 0 14 40 11 0 12 89 0 0 0 17 21 0 45 65 63 55 37 0 50 0 0 0 0 64 0 0 0 35 37 42 0 0 14 3 40 32 0 0 0 5 3 0 5 26 31 1 12 36 6 4 25 0 0 0 0 4 29 13 21 50 0 0 0 0 0 0 212 255 146 32 51 145 84 139 49 0 0 109 19 67 216 72 135 93 0 0 0 27 32 37 69 46 0 80 105 44 0 0 0 97 0 0 2 107 133 3 0 0 0 0 0 23 90 86 0 0 95 0 0 0 255 255 173 88 69 0 0 0 0 0 0 0 100 79 0 0 0 0 0 0 0 122 122 68 0 0 0 43 82 188 121 85 27 0 0 0 0 0 0 237 255 255 186 199 255 0 0 0 179 255 255 0 0 0 0 0 32 255 232 0 0 0 0 39 35 0 94 146 89 0 0 0 0 0 22 0 56 118 20 2 0 0 11 57 0 0 0 0 0 4 0 0 0 41 34 20 14 14 25 25 98 175 182 243 165 217 255 139 0 0 0 0 0 0 25 71 136 0 8 92 46 152 157 202 164 60 80 47 0 20 21 0 0 0 0 137 153 182 255 255 255 0 0 0 0 0 0 0 0 0 0 0 0 71 20 0 0 2 0 4 0 0 0 0 0 34 22 6 0 86 105 0 0 0 106 101 85 195 140 0 0 0 0 4 27 49 14 13 0 0 2 0 0 0 5 0 22 58 14 0 0 6 14 23 0 0 0 3 0 0 9 0 43 0 12 0 0 9 58 0 0 15 0 5 0 0 0 0 0 0 0 19 0 0 255 255 255
255 255 255 1 0 17 3 0 0 6 0 0 50 7 0 0 0 0 0 0 0 59 1 0 25 43 31 3 33 12 22 0 0 0 0 1 12 13 24 19 57 118 44 18 0 94 26 0 0 0 0 0 0 0 18 31 0 3 7 0 11 34 28 35 4 0 0 0 0 0 0 1 10 0 0 17 28 5 0 0 0 43 14 0 28 2 0 7 0 0 0 0 0 255 255 255 117 214 199 0 0 0 0 0 20 105 25 0 0 0 0 130 135 101 39 40 42 56 87 138 0 0 0 3 20 40 43 14 0 0 0 63 31 0 0 99 34 0 170 81 0 255 226 97 0 0 0 16 15 62 0 0 5 0 0 0 255 255 255 40 35 47 0 0 0 255 255 255 0 0 0 0 0 0 71 52 0 0 0 0 0 0 0 248 252 185 66 62 93 11 0 0 0 0 0 0 0 0 40 169 255 255 254 6 0 0 0 115 183 133 87 106 109 24 25 87 0 0 53 14 1 0 0 0 32 4 25 22 0 0 32 19 0 0 0 0 0 0 18 6 53 44 67 0 0 0 17 102 31 0 0 0 0 0 0 0 0 0 86 104 170 230 255 112 0 0 0 0 0 0 6 0 21 50 24 0 45 0 0 160 125 71 255 255 255 0 0 0 0 0 0 5 0 0 0 15 4 0 0 0 19 34 59 0 0 8 48 47 71 0 0 0 56 0 0 0 0 0 0 0 0 194 189 179 45 44 9 0 0 8 20 43 0 29 21 0 3 18 0 4 0 5 23 37 16 19 0 0 0 11 39 0 10 0 7 10 0 2 5 0 0 0 0 25 0 0 0 0 0 0 24 69 6 14 25 14 14 77 4 13 17 255 255 255
255 255 231 0 30 23 40 11 0 0 12 54 0 0 1 0 0 0 0 0 0 33 21 25 26 10 0 0 36 58 0 19 67 13 22 0 0 3 0 15 24 15 55 35 0 66 25 0 0 0 0 0 9 32 0 0 19 19 0 0 3 0 11 8 0 0 41 50 41 4 0 0 10 4 5 2 0 0 0 0 27 38 29 0 0 5 12 29 31 43 0 0 0 0 0 0 212 255 255 15 0 0 0 0 16 176 255 117 0 0 0 50 1 0 67 73 62 0 0 0 15 7 0 133 57 0 63 33 0 33 0 0 0 0 0 176 106 0 0 34 136 171 122 46 113 67 13 57 64 42 0 0 0 136 142 83 0 0 0 0 0 0 9 0 0 255 255 199 0 0 0 28 24 99 0 3 0 0 0 0 0 0 0 0 0 0 0 0 0 0 0 0 152 255 255 135 103 41 0 0 0 0 0 0 168 202 1 51 70 104 7 44 42 0 0 0 0 0 0 0 0 0 16 50 40 17 0 0 0 0 0 46 65 43 7 44 51 0 0 0 0 0 3 0 0 0 109 137 160 255 199 95 0 0 0 43 139 142 0 0 0 0 0 79 79 143 183 0 0 0 27 26 40 150 111 22 255 255 255 255 255 232 0 0 0 0 0 0 0 0 0 13 37 33 22 4 9 17 10 0 79 77 50 0 0 0 0 0 0 0 0 11 7 18 0 0 0 2 0 0 0 202 156 55 0 0 0 49 26 48 12 54 9 15 24 50 1 0 0 0 8 54 0 0 0 8 0 6 0 8 13 23 0 5 0 0 0 9 36 107 13 33 61 1 0 0 14 0 0 9 0 0 1 13 0 0 0 0 0 0 0 255 255 255
255 255 255 13 0 12 18 9 0 0 0 0 26 56 62 0 0 24 0 0 0 20 46 51 40 51 37 34 34 77 23 0 0 0 0 13 17 32 0 54 53 0 45 57 36 98 53 47 0 0 0 0 0 0 0 1 0 0 21 5 51 67 43 0 0 32 0 0 0 40 1 0 0 13 6 0 3 62 0 8 0 0 0 0 49 0 0 64 18 0 21 10 0 0 0 0 168 226 53 70 88 0 7 20 160 0 0 0 99 0 0 0 0 0 0 0 0 15 5 0 83 57 0 0 18 136 0 0 0 0 0 0 0 47 195 0 0 114 0 0 78 0 0 0 0 0 19 89 82 54 156 174 201 0 0 0 0 12 0 0 0 0 143 192 251 0 0 0 46 4 56 0 0 0 0 0 0 57 58 97 227 253 255 242 255 255 165 227 255 0 0 41 71 136 110 123 98 177 0 0 13 96 136 176 156 160 108 3 0 2 0 26 23 0 0 35 4 0 0 0 0 28 0 0 0 0 0 2 11 0 0 0 5 63 0 0 35 0 0 10 50 16 0 15 0 0 58 106 105 74 180 86 70 0 0 0 0 0 82 206 91 0 0 0 0 0 0 16 70 83 0 0 57 255 255 127 0 0 0 0 0 0 0 0 0 53 55 59 31 0 0 13 25 13 19 6 2 0 9 6 74 38 7 0 0 32 3 0 0 108 66 2 0 0 0 0 0 71 121 128 43 71 27 0 0 0 38 73 90 61 34 18 0 0 0 0 8 0 0 15 19 0 6 0 0 0 2 16 13 7 28 10 1 0 4 3 1 0 0 0 0 0 0 0 8 0 0 1 56 9 5 0 0 15 28 0 0 0 34 28 8 255 255 255
255 255 255 11 8 14 39 36 17 0 0 0 5 4 4 0 0 0 0 0 0 78 0 0 0 0 0 2 45 54 0 3 0 0 0 11 7 31 21 31 45 60 50 12 2 61 36 5 0 0 0 0 0 0 0 46 27 0 0 0 68 45 8 0 0 11 0 0 0 0 0 0 0 0 2 0 0 0 0 0 0 0 8 3 46 22 37 0 88 155 48 50 22 0 0 0 0 0 0 134 255 164 63 91 67 159 126 23 0 0 12 74 57 40 0 0 0 55 65 56 5 0 0 0 0 124 27 62 8 166 92 0 0 0 37 255 249 29 255 204 164 0 0 0 0 0 0 0 0 0 187 219 255 0 0 0 0 0 0 0 0 0 40 0 0 202 194 235 42 41 0 0 0 0 0 0 0 0 0 0 0 0 0 0 0 0 0 0 0 118 83 17 0 0 0 0 0 0 0 0 0 68 34 0 0 0 0 0 4 10 0 0 7 0 0 0 9 53 58 0 0 22 20 21 0 33 43 53 0 0 0 0 0 0 87 71 0 46 0 0 13 0 39 0 4 9 17 14 65 66 145 115 163 76 18 24 0 0 0 0 0 151 215 235 0 0 0 76 119 135 0 34 94 150 131 96 83 0 0 0 0 0 0 0 0 0 0 11 0 50 69 0 0 0 25 18 0 11 2 15 0 0 0 0 0 0 0 0 0 56 13 0 0 0 0 0 0 0 188 210 127 0 0 0 5 0 0 58 90 47 7 0 0 0 8 14 21 0 0 0 0 22 0 3 20 0 24 19 0 5 0 0 0 11 2 0 1 0 5 1 22 18 22 0 0 0 12 0 21 3 0 0 0 0 0 8 22 11 0 0 0 255 255 255
255 255 215 4 0 0 34 51 34 0 0 0 46 33 11 0 0 0 0 0 19 75 13 0 0 25 26 38 50 104 0 7 0 0 44 122 0 0 46 48 63 0 65 46 17 60 33 0 0 0 0 0 0 39 14 35 39 5 2 3 13 25 5 7 0 25 0 7 0 0 3 0 97 14 0 0 0 0 15 0 0 30 0 0 21 7 1 49 47 13 0 0 0 0 0 0 0 0 0 163 255 255 129 255 255 0 0 0 0 0 0 0 20 38 33 35 31 0 12 0 0 0 0 193 127 14 63 15 0 104 104 57 0 0 0 0 0 0 0 0 0 38 59 65 0 0 0 0 0 0 46 41 50 0 0 0 235 231 244 0 0 0 0 0 0 2 29 100 224 245 255 0 0 0 15 12 0 0 0 0 0 0 0 0 0 0 137 128 111 0 0 0 15 105 255 131 80 0 245 190 0 12 18 0 38 60 32 20 30 35 0 0 0 0 0 0 12 0 0 3 73 74 0 0 0 0 0 73 54 29 0 60 55 8 43 40 64 0 18 0 0 0 2 0 0 0 0 0 0 17 41 0 118 111 28 0 0 0 0 0 0 0 0 0 48 10 0 28 33 0 0 0 15 255 255 198 0 0 0 0 0 0 0 15 0 47 0 3 20 0 0 80 103 129 0 0 9 30 0 0 0 0 0 0 9 16 1 0 7 17 15 22 0 0 0 153 142 91 134 98 39 0 0 0 0 38 85 61 75 3 28 26 9 22 15 0 0 0 0 13 18 0 0 0 10 21 0 0 0 3 17 22 23 0 0 13 0 0 8 75 0 0 0 11 35 63 0 0 22 7 18 43 15 1 0 16 24 80 24 0 0 255 255 255
255 255 255 0 5 0 0 0 0 0 12 42 32 34 49 0 0 0 0 0 0 86 41 21 25 16 0 13 27 67 12 0 0 3 12 1 0 0 0 24 30 45 63 41 35 57 6 0 0 0 0 0 0 0 0 0 0 14 16 30 13 0 0 18 0 5 63 0 0 0 12 72 0 0 0 0 35 38 0 0 0 0 6 13 0 0 7 40 10 0 0 0 39 0 0 0 0 0 0 233 255 208 224 255 86 0 0 0 0 0 0 19 0 0 0 34 116 0 0 0 147 149 157 50 0 0 207 128 71 255 167 61 50 154 200 0 0 0 167 255 255 0 0 0 0 0 0 0 0 0 0 0 0 92 126 175 60 70 24 0 0 0 196 172 158 0 0 0 255 255 255 68 7 20 255 255 255 0 0 0 0 0 0 255 255 255 0 0 0 86 186 251 238 185 0 0 0 64 154 75 0 39 86 61 59 93 75 0 0 0 0 0 0 0 0 0 0 121 146 0 73 109 31 0 0 53 0 0 45 3 7 12 39 37 0 0 0 0 14 0 4 0 0 22 15 0 0 33 59 28 79 134 89 125 92 82 0 0 0 0 0 0 0 0 134 124 16 0 0 0 106 155 156 255 255 188 0 0 0 0 18 40 0 0 0 0 0 0 0 0 0 0 0 12 12 0 0 24 0 0 46 47 72 0 0 0 56 5 0 0 0 0 0 0 0 168 196 116 0 0 23 41 18 0 31 49 17 0 0 0 0 0 6 37 48 23 38 73 40 17 31 19 14 23 0 1 7 0 16 6 18 0 13 0 17 0 25 17 0 0 0 0 0 0 4 17 7 6 0 0 0 0 0 20 13 0 0 0 0 0 0 255 255 255
255 255 203 0 40 49 41 21 34 3 0 0 0 1 10 0 0 0 0 0 0 84 33 15 0 4 0 24 26 0 0 0 18 3 5 47 0 0 0 36 87 32 84 17 0 72 54 22 0 0 0 0 0 20 6 0 0 0 14 19 6 27 0 0 46 26 0 46 70 43 0 0 13 29 0 0 31 87 0 0 0 0 0 12 16 73 0 1 0 38 43 51 15 0 0 0 0 0 0 255 255 255 80 131 92 0 0 0 35 79 176 16 0 0 0 0 0 82 64 0 60 21 0 0 0 0 0 0 0 0 0 0 239 198 122 0 0 0 255 255 255 0 0 0 95 100 136 79 80 73 0 0 0 0 0 0 3 0 0 0 0 0 87 89 58 0 0 0 195 255 181 0 0 0 0 0 0 0 0 0 82 169 133 152 0 0 72 107 214 116 91 0 170 71 0 0 0 106 0 0 20 72 104 136 0 0 0 8 0 0 0 15 71 0 52 91 0 0 0 47 0 0 26 0 0 8 38 0 12 22 52 20 27 0 0 22 50 14 14 21 0 0 0 13 23 59 0 16 16 32 69 56 73 165 118 81 0 0 133 25 0 0 0 0 0 0 0 0 0 0 152 255 255 255 255 160 0 0 0 0 0 0 96 0 0 0 4 0 6 22 24 0 0 0 25 63 31 0 0 0 0 0 33 0 21 34 56 41 0 0 0 0 74 64 76 181 169 0 0 0 0 60 32 0 49 35 76 2 0 0 0 0 47 0 0 0 0 0 0 0 0 35 7 6 64 18 41 0 27 1 0 26 28 0 0 0 68 4 25 0 0 0 14 35 45 0 0 0 0 8 0 0 18 0 0 29 23 20 5 3 28 255 255 255
255 255 255 0 0 0 0 0 0 0 26 12 3 54 66 0 0 0 0 0 0 69 33 43 27 45 1 20 52 66 0 3 0 5 19 0 4 16 0 39 29 8 70 43 13 0 0 0 0 0 0 21 0 0 34 0 0 0 2 47 51 1 0 16 0 15 3 20 26 0 0 0 10 0 0 0 0 8 0 0 0 192 183 107 14 0 0 0 0 0 0 0 18 24 20 0 0 0 0 108 0 0 92 255 255 0 0 0 21 0 0 0 0 0 0 26 28 43 102 185 255 224 125 214 123 50 206 125 58 0 0 0 0 0 0 0 0 19 45 21 0 0 0 0 43 43 23 37 47 44 0 2 0 0 0 0 133 159 160 0 0 0 255 255 255 192 156 241 0 0 0 74 52 115 0 0 0 23 58 93 255 138 52 11 20 70 50 72 0 16 5 0 139 74 0 0 0 48 123 4 0 47 106 134 0 0 0 0 33 85 0 34 71 1 0 0 24 0 0 44 19 0 0 0 39 10 76 100 0 0 27 6 0 0 0 7 96 6 3 15 5 7 0 0 31 53 17 0 0 9 31 70 46 112 99 115 31 21 0 0 0 0 0 0 0 0 0 0 0 0 247 255 255 255 255 228 0 0 0 0 138 214 30 7 0 6 17 31 0 29 18 12 23 27 92 37 8 0 0 0 0 0 0 34 14 0 0 0 15 0 0 0 218 185 119 47 62 120 21 0 0 65 110 40 0 0 60 0 0 0 0 0 0 0 0 23 0 0 0 0 0 0 0 0 0 5 0 0 0 0 59 21 26 0 40 39 56 29 20 26 5 33 36 0 0 40 0 0 71 24 21 0 13 0 0 0 9 36 0 0 0 255 255 255
255 255 235 60 16 0 0 0 14 24 17 15 0 0 0 0 0 0 0 0 26 22 0 0 7 37 0 17 30 32 11 0 0 2 22 0 0 3 4 56 27 0 38 50 14 58 3 0 0 0 0 0 0 4 0 69 78 16 0 18 0 0 0 0 3 14 0 0 0 15 24 29 33 21 0 0 3 32 0 0 0 51 167 162 0 0 1 3 81 68 73 52 17 40 49 54 12 0 0 0 0 0 255 255 255 0 0 0 0 0 0 87 105 73 97 57 0 160 38 0 36 0 0 0 0 0 0 0 0 231 255 255 0 0 0 0 0 0 255 255 255 8 0 0 6 56 18 0 0 0 137 147 118 0 0 0 9 21 36 0 0 0 0 0 0 79 80 40 0 0 0 225 255 255 0 0 0 255 237 24 0 0 0 65 89 61 57 17 0 0 87 107 130 161 109 0 0 0 124 46 0 103 220 255 0 0 0 0 0 0 31 0 0 26 0 0 19 42 7 0 0 46 6 0 0 5 0 0 12 2 0 0 22 19 0 0 0 8 11 0 9 0 17 0 0 10 0 2 0 11 31 86 41 122 98 115 94 31 78 0 0 0 0 0 0 0 0 0 0 0 0 0 0 255 255 255 0 0 0 0 0 0 20 0 0 0 0 5 0 0 0 17 1 0 38 41 11 0 0 14 0 0 15 55 51 0 0 0 0 0 0 0 255 245 156 0 0 0 5 8 27 68 59 0 12 11 6 27 36 60 22 0 0 0 0 2 5 6 0 0 0 0 0 24 62 0 0 0 0 0 27 0 0 0 0 0 0 0 0 0 16 13 0 33 54 66 36 9 0 0 0 0 8 24 16 0 9 51 61 22 10 255 255 255
255 255 241 0 0 5 8 21 14 4 17 8 0 0 0 0 0 0 0 0 0 91 78 28 50 0 0 3 30 53 14 0 36 0 2 111 17 25 0 49 51 42 49 81 146 71 15 0 0 0 0 0 0 0 18 7 31 0 0 0 36 35 5 22 14 57 0 0 0 13 47 35 0 0 0 25 0 0 0 0 0 14 0 29 0 0 0 0 0 0 0 0 0 0 0 0 0 0 0 65 75 48 0 0 0 0 0 0 147 17 0 157 130 72 0 33 255 0 70 106 0 0 0 150 241 255 0 0 0 77 43 0 74 121 255 37 28 20 0 0 0 0 0 0 212 205 210 0 0 0 0 0 0 0 14 5 0 0 0 0 0 0 90 100 216 255 255 255 0 0 0 50 133 255 255 255 17 0 0 0 102 106 5 26 0 0 10 11 29 0 25 61 118 103 43 0 0 0 121 158 74 0 0 78 0 0 0 14 0 42 15 0 0 1 0 0 23 37 64 0 0 0 0 25 66 0 0 33 18 34 7 5 19 68 0 25 94 0 0 0 12 6 0 0 0 0 2 0 0 18 5 0 20 68 41 94 128 128 61 0 0 53 35 0 0 0 28 0 0 0 0 0 0 255 255 255 0 0 0 0 0 0 0 36 77 0 0 0 19 11 19 5 33 46 0 0 0 4 0 0 17 0 0 15 7 0 0 0 0 122 152 179 107 89 0 0 0 0 19 66 33 7 10 0 0 0 15 0 0 0 0 18 47 35 14 3 0 13 18 6 34 0 45 0 0 28 18 0 0 25 88 0 0 0 38 50 14 0 7 17 0 0 78 0 0 0 17 0 0 35 15 2 0 0 1 24 26 0 10 2 0 255 255 255
255 255 230 32 15 0 0 0 29 0 0 0 3 13 0 0 0 0 0 0 2 108 48 29 11 54 38 0 37 87 6 8 9 0 3 0 0 12 9 51 47 0 29 16 0 64 0 0 0 0 0 0 0 0 32 0 10 4 0 0 3 27 43 36 0 0 0 1 14 75 33 2 10 13 23 37 5 0 0 0 0 3 11 0 0 0 0 51 61 25 47 17 1 13 0 0 184 32 0 0 0 30 255 255 128 142 72 0 0 0 177 0 70 210 131 3 0 253 157 14 0 0 0 169 174 136 0 0 0 254 255 209 0 0 0 0 0 0 98 88 143 217 232 165 0 0 0 0 0 0 0 0 0 255 255 255 0 0 0 27 11 51 0 37 0 0 0 0 0 0 0 255 255 151 0 0 0 141 229 139 22 48 104 21 0 0 0 0 0 18 58 83 55 105 72 75 83 88 115 226 189 140 64 0 169 142 75 107 152 116 35 59 46 8 22 22 11 18 21 6 0 0 0 0 26 0 0 0 19 0 0 0 28 22 0 0 0 10 3 11 0 0 19 4 24 62 0 10 22 16 52 91 34 76 91 126 242 204 159 21 0 152 16 0 0 0 0 0 0 0 0 0 0 255 255 255 0 0 0 0 0 0 145 131 74 16 21 44 10 25 0 35 35 46 0 0 0 0 16 64 29 13 0 0 0 0 0 0 0 239 228 99 33 0 0 0 0 57 59 62 0 47 41 71 17 17 62 0 0 0 0 3 53 31 25 0 5 37 20 20 35 72 0 20 56 13 17 0 0 0 33 0 0 27 0 0 35 0 0 0 0 0 0 0 0 0 11 20 35 0 0 0 0 0 0 0 7 64 75 9 0 255 255 255
255 255 245 5 9 0 0 0 0 25 20 45 15 45 42 37 3 0 0 0 0 77 17 0 16 25 35 0 17 0 36 16 8 0 20 74 21 34 21 21 13 0 55 53 62 66 22 0 0 0 0 0 0 23 3 27 20 0 13 23 0 45 0 37 14 36 0 0 0 0 0 0 0 0 0 0 0 68 34 0 0 32 22 0 41 15 20 0 0 19 0 0 0 74 161 176 255 255 48 0 0 0 0 0 0 0 0 23 0 63 247 133 57 0 255 166 0 0 0 0 14 19 0 0 0 0 0 0 0 255 255 255 0 0 0 84 45 0 0 0 0 12 27 57 0 0 0 8 0 13 0 0 0 0 0 0 0 0 0 9 0 0 240 255 255 0 0 0 217 255 222 0 0 0 204 255 255 49 0 0 28 118 102 0 0 0 0 0 0 39 113 189 57 129 147 15 168 135 0 0 0 0 0 0 0 0 0 64 0 0 190 163 152 193 194 175 123 179 163 37 67 25 5 0 0 5 0 0 0 0 34 16 55 35 0 6 0 18 0 0 0 0 0 0 15 8 2 2 3 57 99 122 144 228 194 245 251 155 157 24 0 0 0 0 0 0 0 0 0 0 17 0 82 255 255 255 0 0 0 0 0 0 0 0 6 0 0 0 65 92 70 15 16 18 0 0 0 0 0 28 34 7 0 0 0 0 14 2 17 162 173 135 0 0 0 0 21 20 0 28 84 0 0 0 15 0 0 0 0 9 0 1 5 0 0 0 21 0 39 2 0 0 13 18 13 0 0 0 32 32 24 50 20 0 24 18 47 0 0 6 0 0 84 11 1 0 0 0 33 0 0 0 0 27 67 0 0 0 10 0 0 255 255 255
255 255 255 41 0 0 10 6 0 0 0 0 45 0 0 0 0 29 0 0 0 82 55 0 20 61 104 1 20 0 29 19 24 0 0 0 3 12 37 43 22 0 64 76 33 32 4 33 0 0 0 0 0 0 0 0 0 31 0 0 36 2 0 9 0 0 0 0 0 0 14 35 98 48 0 30 0 0 14 8 10 13 45 49 24 0 0 0 0 0 0 0 0 198 162 51 52 0 0 0 0 0 0 0 0 255 255 255 255 146 0 0 0 0 0 1 0 0 0 0 255 255 255 0 0 0 94 95 132 255 255 255 0 0 0 73 63 134 74 154 92 15 17 26 0 0 0 0 0 0 0 0 0 255 255 255 14 61 183 239 227 255 0 0 0 0 0 0 240 101 0 12 55 128 65 19 0 0 30 45 76 127 82 0 0 0 46 154 223 93 248 255 0 0 0 95 0 0 209 170 141 172 204 157 15 20 4 0 0 0 0 0 0 0 0 0 63 44 26 122 169 144 14 103 139 0 0 0 8 0 0 11 0 0 0 38 86 2 0 0 0 0 32 89 117 33 148 187 143 188 240 95 0 0 0 0 0 0 0 0 0 0 0 0 0 0 0 0 0 0 0 0 0 255 255 255 255 223 90 0 0 0 162 115 52 0 0 0 34 7 3 0 0 0 0 0 0 0 0 0 43 29 14 0 0 0 146 156 131 117 83 47 0 0 0 81 100 112 60 48 0 0 0 0 0 12 15 10 0 0 8 2 0 0 0 15 6 7 0 0 7 10 41 13 0 0 0 53 0 0 36 0 2 0 11 14 5 9 15 18 22 26 30 20 35 26 23 41 46 8 0 0 21 0 0 0 0 29 0 3 32 255 255 255
255 255 255 5 13 22 11 44 70 0 44 54 45 18 0 0 0 0 0 0 0 114 3 0 15 0 70 25 19 42 12 0 0 0 8 65 0 17 0 45 51 62 46 43 30 95 12 0 0 0 0 44 13 46 8 27 29 0 3 0 18 139 196 0 0 21 0 3 24 0 0 10 0 0 23 0 0 39 0 0 0 0 0 0 0 0 0 25 28 44 87 144 159 46 0 0 0 214 255 0 0 0 0 0 0 255 255 255 133 0 0 100 48 0 0 0 0 122 215 255 0 0 0 49 53 76 0 0 0 255 255 255 0 0 0 200 185 227 0 0 0 0 0 0 211 172 165 0 0 0 0 0 0 0 0 0 205 255 188 0 0 0 0 0 0 255 255 255 0 0 9 86 30 0 22 0 0 32 130 158 0 0 0 50 73 97 207 255 255 0 0 0 195 46 0 229 200 147 255 237 158 195 106 4 255 255 255 255 255 193 121 46 43 0 0 0 0 0 0 0 0 0 40 60 39 20 27 36 0 0 0 1 6 22 0 25 5 10 0 0 14 0 37 110 153 82 0 0 0 0 0 0 126 59 71 245 181 81 255 255 65 255 190 28 40 31 23 0 0 0 0 0 0 255 255 255 165 123 25 0 0 0 0 35 13 49 26 51 56 47 8 0 19 50 0 19 29 35 0 0 0 0 0 0 0 0 249 228 149 0 0 0 0 0 0 28 38 0 0 0 0 26 38 49 0 0 48 2 7 43 0 10 90 4 10 34 0 0 0 17 5 26 14 11 0 0 0 0 13 0 13 0 0 0 17 0 0 0 37 48 0 0 0 23 0 0 15 24 47 35 23 0 0 27 37 0 0 3 0 0 0 255 255 255
255 255 255 27 0 0 22 1 0 42 18 0 26 15 0 0 0 0 0 0 0 96 47 15 19 24 0 15 49 11 1 3 26 27 15 0 0 35 21 30 6 26 33 60 0 115 99 89 0 0 0 0 0 0 37 16 0 0 8 71 21 10 0 46 34 4 23 2 0 20 32 13 58 0 0 21 7 0 0 0 0 0 0 7 0 0 198 26 0 0 1 59 86 44 27 14 255 255 0 255 255 87 255 255 131 0 0 0 0 0 0 0 79 57 0 0 0 89 77 19 0 0 0 198 255 235 0 0 0 239 255 255 0 0 0 235 255 255 0 0 0 0 0 0 255 255 255 0 0 0 0 0 0 17 0 0 0 0 0 0 0 190 124 120 35 0 0 0 163 218 30 7 4 0 19 55 12 28 99 152 21 0 14 255 255 255 0 0 0 41 0 0 48 22 0 0 0 0 0 0 0 0 0 0 0 0 0 0 0 0 255 255 241 255 255 255 135 73 44 0 0 0 4 0 0 11 19 24 0 0 0 8 72 80 7 22 13 57 77 75 194 244 224 251 117 0 200 110 16 0 0 0 0 0 0 0 0 0 0 0 0 27 0 5 0 0 0 0 0 0 0 0 0 255 255 255 84 0 0 0 0 0 0 0 0 25 13 72 5 0 0 0 0 0 23 0 0 27 0 0 0 0 0 0 0 0 185 255 255 0 0 0 33 36 40 48 63 12 19 13 9 13 0 41 0 0 0 48 15 0 0 3 2 10 0 0 0 12 40 0 2 0 0 11 25 20 0 0 23 0 20 0 0 0 0 26 0 0 0 0 8 11 24 22 14 21 7 1 0 0 0 0 58 51 39 24 23 0 39 48 42 255 255 255
255 255 201 0 0 25 0 0 42 4 0 7 0 6 35 0 0 0 0 0 0 74 54 35 10 30 23 4 39 90 22 30 6 0 0 0 18 22 0 16 37 74 49 22 0 101 47 0 0 0 0 0 0 15 0 0 0 0 0 0 0 0 0 55 4 0 0 0 0 0 0 0 8 12 8 0 0 0 0 0 0 85 255 255 172 148 0 53 0 0 77 79 98 120 52 0 16 76 189 0 0 0 18 0 0 0 0 0 121 172 255 104 0 1 238 255 255 77 130 141 30 8 82 255 255 255 0 0 0 255 255 255 0 0 0 241 255 255 0 0 0 0 0 0 0 0 0 255 255 255 0 0 0 46 0 0 0 0 0 0 0 0 255 255 0 152 255 255 32 0 0 0 0 64 40 108 146 75 94 117 214 255 244 0 0 0 0 0 0 0 0 0 0 0 0 0 0 3 0 0 0 0 17 125 193 166 123 0 0 0 0 0 0 0 0 0 144 156 45 0 0 4 8 28 68 0 0 0 8 0 0 1 20 0 63 101 160 249 255 232 49 0 0 0 0 0 0 0 0 0 0 0 0 0 0 0 0 0 0 30 41 93 26 0 0 0 0 0 0 0 0 0 0 248 255 240 122 117 90 0 0 0 0 0 0 22 22 12 0 0 0 0 11 27 21 37 57 66 112 74 0 0 0 130 92 28 101 76 0 0 0 0 82 84 53 0 7 0 0 1 45 0 0 0 0 0 2 0 0 0 20 0 0 31 59 43 28 23 79 1 0 0 0 24 35 18 0 0 0 0 0 26 33 23 0 0 0 20 0 0 12 27 40 27 32 0 1 3 0 16 0 0 0 0 3 64 0 0 0 24 28 255 255 255
255 255 240 0 0 0 0 0 0 27 32 8 30 14 0 0 0 0 0 0 0 145 70 0 13 4 0 51 54 0 8 0 0 0 0 120 27 34 87 4 45 112 32 0 0 91 45 0 0 0 0 0 0 4 73 22 16 74 73 63 10 2 0 0 0 0 0 29 32 7 7 0 28 0 0 0 0 0 255 154 0 255 255 255 0 0 0 0 0 0 200 152 2 0 0 0 255 255 255 29 0 0 0 0 0 68 133 206 0 0 0 138 186 225 0 0 0 0 0 0 27 0 7 213 237 243 0 0 0 0 0 0 0 0 0 21 34 0 0 0 0 0 0 0 36 0 0 0 0 0 0 0 0 111 114 199 0 0 0 255 255 241 0 0 0 106 20 0 64 58 0 0 0 0 57 143 189 187 255 165 0 0 0 0 0 0 0 0 0 0 0 0 168 107 61 90 92 132 0 0 0 0 0 0 255 255 255 255 255 255 0 0 0 0 0 0 82 90 137 0 0 0 41 8 0 0 0 0 0 0 0 27 68 70 168 255 244 31 0 0 0 0 0 0 0 0 0 0 0 0 0 0 255 255 255 0 0 0 0 0 0 12 33 62 18 17 10 0 0 0 0 0 0 163 166 116 204 158 93 37 63 168 0 0 0 50 57 48 0 0 0 0 0 0 0 0 0 0 0 0 0 0 0 255 253 176 58 19 0 0 1 52 42 32 0 0 0 0 6 4 8 0 0 0 9 9 28 4 0 46 0 0 11 0 2 8 1 0 0 0 0 10 2 7 0 0 1 21 42 11 0 0 1 32 27 13 27 0 0 18 45 19 0 0 0 66 0 0 0 0 0 0 10 3 0 12 3 31 0 0 0 255 255 255
255 255 228 12 0 0 69 15 0 0 0 28 0 13 16 0 0 6 0 0 0 108 78 28 16 32 35 12 30 37 0 14 27 3 17 0 12 29 0 17 32 0 43 43 0 95 54 0 0 0 0 0 0 0 0 0 0 0 0 0 36 13 3 17 18 21 39 55 18 106 89 83 205 172 67 0 0 0 0 0 0 0 0 0 134 18 0 187 214 169 255 255 0 0 0 0 0 0 0 0 0 0 157 195 222 0 0 0 30 72 111 0 0 0 0 0 0 0 0 0 37 0 0 243 255 255 0 0 0 30 4 14 0 0 0 0 0 0 238 250 255 0 0 0 0 0 11 10 0 0 0 0 0 0 0 0 0 0 0 0 0 0 187 255 255 0 0 0 0 0 109 109 167 169 126 255 207 0 0 0 70 7 0 21 0 0 0 0 0 0 0 0 255 255 185 0 0 0 0 0 0 0 0 0 218 255 255 212 255 255 0 0 0 160 131 15 0 0 0 0 0 0 2 0 0 0 0 0 12 0 0 49 101 126 173 255 255 0 0 0 0 0 28 67 65 10 0 0 0 0 0 136 255 255 255 0 0 0 0 0 0 0 0 0 32 50 24 0 0 0 107 176 192 40 0 0 255 255 154 0 0 0 51 98 82 0 0 0 0 0 0 31 24 71 45 30 29 0 0 0 0 0 0 203 226 166 0 0 0 12 25 54 14 6 6 21 24 49 18 34 37 0 0 0 3 31 26 0 3 0 0 0 33 19 24 43 19 9 0 0 0 6 19 19 25 4 0 0 3 8 77 9 0 0 0 1 0 8 2 0 28 0 0 34 24 2 36 24 24 0 0 0 0 0 0 0 0 0 0 0 0 255 255 255
255 255 215 0 4 33 0 2 0 13 26 36 8 40 40 0 0 0 0 0 0 125 36 0 4 3 82 52 31 3 18 27 0 0 0 0 27 0 12 38 38 57 18 11 41 94 7 0 0 0 0 0 6 34 27 25 6 12 25 5 0 2 30 23 0 0 86 36 0 0 0 0 0 0 0 0 0 65 48 117 137 236 255 255 255 255 103 255 255 255 0 0 0 0 0 0 0 0 0 69 68 131 255 255 255 0 0 0 0 0 0 176 163 161 65 67 0 103 194 184 0 0 0 255 255 255 0 0 0 0 0 0 33 18 0 0 0 0 0 0 2 109 84 77 0 0 0 103 75 66 0 0 0 0 0 135 255 255 255 49 13 36 71 0 0 20 63 23 107 194 255 97 255 195 0 0 0 64 0 0 73 10 38 149 137 72 132 170 173 0 0 0 92 11 0 154 233 255 102 213 255 255 255 255 221 255 255 112 116 0 42 0 0 0 0 0 42 23 0 7 0 0 0 0 0 0 0 3 0 0 0 75 213 234 94 205 190 0 0 0 161 85 54 0 11 225 0 178 255 255 255 255 255 255 252 0 0 0 7 11 71 35 0 0 0 0 22 0 0 0 81 82 71 0 0 0 255 255 255 0 0 0 84 97 57 0 0 0 0 0 0 0 0 0 61 42 0 0 0 0 35 37 13 102 77 0 0 0 8 80 74 54 0 0 0 0 9 0 2 0 0 8 19 24 39 0 0 2 0 0 8 3 0 15 0 0 28 18 0 0 0 0 0 5 15 19 0 0 27 0 0 0 30 59 17 33 27 0 22 32 0 0 0 17 35 73 0 0 0 0 0 0 0 0 0 45 26 10 78 49 0 255 255 255
255 255 232 15 29 45 50 48 12 0 0 0 31 4 8 13 12 32 0 0 0 158 96 8 23 75 13 4 24 22 6 15 32 0 0 36 0 48 50 34 79 0 24 22 67 104 54 0 0 0 0 0 0 9 46 37 14 14 15 0 29 43 40 0 0 0 255 255 255 0 0 0 74 29 18 255 255 79 220 109 69 246 212 235 0 0 0 0 0 0 0 0 0 255 255 255 82 43 0 0 0 0 0 0 0 0 0 0 148 255 255 59 116 142 0 0 0 88 95 119 41 0 44 177 151 108 0 0 0 0 0 0 0 0 0 0 0 0 0 0 0 1 0 0 27 78 94 101 58 58 0 0 0 63 47 0 0 0 0 171 255 255 44 9 0 82 169 170 155 255 255 0 0 0 49 0 0 19 24 53 0 0 0 32 11 42 41 77 0 52 28 24 95 20 0 0 0 0 0 0 0 0 0 0 0 0 0 0 17 202 29 200 209 57 42 0 0 0 0 0 14 82 8 0 0 0 0 0 7 0 0 74 195 253 70 162 170 79 35 0 84 86 74 35 0 0 89 0 0 0 0 0 0 0 0 0 0 0 130 130 17 0 0 0 0 0 24 0 0 0 76 61 44 0 0 0 255 255 255 0 0 0 118 111 57 0 0 0 9 33 80 26 5 0 0 0 27 0 0 0 162 191 237 54 0 0 0 0 0 19 40 21 17 15 0 0 12 67 25 0 0 0 0 18 17 0 35 12 0 0 0 53 97 0 0 8 8 0 0 0 44 105 19 12 1 0 0 0 1 0 2 0 0 0 28 7 24 0 0 0 0 0 0 0 0 0 0 0 44 73 46 0 61 86 47 62 55 24 37 57 7 255 255 255
255 255 255 24 0 10 9 35 22 0 0 21 13 30 9 0 0 0 0 0 0 136 66 8 23 18 38 29 24 55 11 31 0 0 14 0 1 18 48 29 29 0 11 33 51 111 55 0 0 0 0 0 0 0 16 2 16 11 0 0 37 21 2 0 0 0 233 171 0 46 227 255 173 123 231 255 255 255 0 0 0 0 0 0 39 15 29 0 0 0 0 0 0 0 0 0 255 255 255 255 255 255 255 255 255 0 0 0 0 0 0 0 0 0 74 31 93 32 73 76 41 52 80 175 255 255 0 0 0 0 0 0 3 0 0 62 66 49 0 0 0 11 0 0 0 0 0 0 0 0 0 0 0 255 255 197 1 0 19 55 0 0 0 0 15 179 255 255 0 0 0 0 0 0 73 91 46 26 20 38 22 28 13 37 22 12 0 0 0 5 0 0 6 28 11 66 23 0 2 0 0 50 40 0 41 0 0 32 10 7 0 0 0 0 87 118 0 0 0 15 63 85 0 0 0 0 0 0 5 0 0 53 132 128 32 101 85 0 0 0 7 0 0 0 0 0 29 13 47 103 106 69 58 28 8 54 30 8 99 83 0 0 0 0 0 0 0 0 0 0 71 89 55 0 0 0 255 255 255 0 0 0 0 0 0 11 0 0 0 0 0 152 173 68 0 0 0 0 0 0 241 207 92 0 0 0 74 78 19 30 61 53 0 0 0 0 0 9 6 0 0 0 0 21 0 0 0 0 0 0 19 8 15 0 0 0 36 3 0 0 0 0 18 0 0 4 3 9 41 22 0 0 0 7 35 0 0 0 0 2 0 0 0 31 0 0 67 59 21 69 61 0 35 57 9 0 0 4 16 9 0 255 255 255
255 255 235 23 8 0 0 0 0 0 0 0 31 38 22 0 0 0 0 0 0 124 84 21 40 13 0 10 14 20 0 9 0 8 0 88 0 20 53 54 89 117 12 0 0 120 33 0 0 0 6 0 23 24 0 10 0 38 30 9 3 29 16 0 0 0 11 0 0 186 182 0 0 0 0 0 0 0 0 0 0 188 209 255 0 0 0 0 0 0 2 0 0 54 30 15 100 100 142 0 0 0 53 14 20 0 0 0 0 0 0 31 39 73 0 0 0 112 169 250 22 0 21 0 0 0 238 255 255 0 0 0 0 0 0 0 0 0 0 0 0 61 84 82 35 44 30 0 0 0 255 255 251 0 0 0 77 114 11 32 78 157 193 255 255 0 0 0 0 0 0 23 0 0 30 64 121 0 11 1 9 26 20 0 12 75 21 47 83 9 60 57 21 0 52 16 22 113 0 0 0 22 81 102 0 64 81 33 72 105 25 110 158 0 0 0 0 0 0 41 32 0 0 0 0 0 0 0 3 0 0 34 131 189 34 121 171 0 16 0 31 0 0 22 37 43 11 0 37 9 44 49 0 0 0 91 88 57 92 53 0 12 51 131 0 0 0 56 66 47 80 87 95 0 0 0 255 255 255 0 0 0 90 107 76 0 0 0 0 0 0 69 105 40 0 0 0 96 82 25 78 115 129 0 0 0 34 50 60 9 14 11 8 16 0 0 0 0 20 12 0 1 1 8 27 24 0 0 0 0 20 9 17 0 7 0 0 4 73 0 21 92 36 33 0 0 0 0 50 14 41 0 44 85 0 0 0 0 0 0 68 78 32 74 118 34 53 83 118 17 17 0 4 9 11 0 4 39 0 0 0 255 255 255
255 255 181 8 0 6 6 0 6 0 0 0 45 24 0 0 0 0 0 0 0 148 80 0 39 54 70 17 37 20 29 10 0 7 0 0 1 22 0 43 18 0 58 33 2 88 55 50 0 0 0 0 0 0 15 0 0 44 0 0 0 0 0 0 0 0 0 0 0 0 0 139 255 255 255 190 255 255 255 255 255 0 0 0 0 0 0 0 0 0 79 19 34 95 111 19 0 0 0 255 255 255 0 0 0 0 0 0 0 0 25 255 255 255 13 0 114 0 0 0 157 190 255 218 255 255 0 0 0 0 0 0 0 0 0 59 51 36 0 0 0 0 0 10 0 0 0 0 0 0 255 115 0 0 0 50 123 66 0 145 177 165 226 255 255 0 0 0 72 15 4 39 21 0 0 0 9 17 0 1 19 20 74 3 0 0 15 65 38 0 0 0 20 71 53 0 15 8 3 18 11 37 12 0 11 0 0 0 30 21 0 0 0 0 0 10 0 5 0 0 8 0 0 0 0 0 0 0 4 0 0 25 106 112 53 161 216 0 0 0 0 6 84 0 12 0 22 0 0 48 10 0 23 0 0 110 62 66 87 57 0 0 0 0 0 0 0 0 0 0 94 68 17 0 0 0 255 255 255 0 0 8 0 0 0 66 69 109 0 0 0 44 19 0 0 0 0 211 188 92 24 10 0 21 0 0 57 51 0 0 7 101 18 0 0 0 0 0 0 34 100 0 0 20 0 16 31 9 0 0 0 0 2 45 11 0 13 0 0 0 0 0 0 0 0 0 15 55 1 4 0 0 0 0 0 0 0 61 54 32 88 91 15 16 31 51 20 23 0 2 0 0 0 0 13 0 0 0 19 16 0 255 255 255
255 255 214 1 34 35 0 0 3 3 36 84 57 23 0 0 0 0 0 0 0 161 81 20 33 0 0 0 47 116 0 18 44 9 23 0 8 5 46 14 75 67 33 45 42 99 50 18 0 0 0 0 0 0 4 0 0 0 14 116 52 232 255 166 147 0 0 107 231 255 151 0 0 0 0 0 0 0 0 0 0 0 0 0 0 0 0 17 42 97 0 0 0 0 0 0 249 255 255 0 0 0 0 0 0 0 0 0 0 0 0 0 0 0 0 0 0 243 255 255 8 0 0 0 0 0 255 255 183 255 255 151 0 0 0 19 0 0 2 14 46 0 18 25 0 0 0 255 255 255 0 0 0 76 176 97 168 231 230 255 255 255 0 0 0 0 0 0 131 71 0 26 11 57 22 30 31 0 0 0 8 31 0 15 0 0 0 10 0 5 27 55 23 33 0 0 0 0 0 12 12 0 16 0 18 50 73 4 45 7 3 52 107 0 0 0 13 43 39 1 8 79 19 0 0 0 0 0 0 0 0 31 108 117 62 146 172 0 0 0 4 0 0 33 24 0 0 0 27 1 0 75 0 30 54 48 67 36 151 88 0 0 0 28 0 38 57 0 0 22 18 14 14 0 0 0 255 255 255 75 150 169 0 0 0 15 0 0 0 27 25 0 0 0 0 0 0 255 255 177 0 0 21 56 28 25 30 47 2 0 16 0 0 1 0 0 0 26 0 0 0 36 0 0 3 0 0 0 5 0 0 0 0 0 0 1 0 0 0 26 11 0 42 30 10 4 2 0 0 0 0 0 0 0 39 25 0 80 111 70 28 52 39 0 10 20 5 0 0 29 0 0 0 0 57 0 0 0 0 0 22 255 255 255
255 255 238 0 0 0 0 0 0 27 29 32 22 30 14 0 0 0 0 0 0 140 106 10 68 79 77 17 40 3 0 17 0 12 7 0 1 13 3 23 56 110 19 0 0 83 22 0 0 0 0 0 0 9 15 1 0 0 40 66 0 0 0 39 0 0 49 57 34 0 0 0 0 0 21 69 108 168 0 0 0 0 0 0 209 239 255 0 0 0 255 255 255 164 166 93 0 0 0 0 0 0 0 0 0 17 4 39 0 0 0 0 0 17 157 96 30 0 0 0 0 0 0 0 0 0 203 133 73 80 21 26 0 0 0 0 0 19 7 0 12 0 0 0 0 0 0 243 131 0 0 0 0 130 158 139 255 255 227 0 0 0 0 0 0 45 41 47 101 89 49 13 26 6 0 0 0 0 14 48 25 13 2 9 0 0 0 5 27 0 52 65 36 37 6 7 41 166 15 37 8 0 0 10 15 10 0 30 0 0 2 9 0 0 0 30 44 41 0 0 23 64 9 16 0 0 0 0 6 0 0 8 93 106 56 202 255 0 0 0 0 0 0 0 24 3 8 25 13 25 0 0 30 25 0 99 36 0 92 59 0 0 0 0 38 45 19 4 31 0 29 30 0 0 0 0 255 255 255 255 255 211 0 0 0 0 0 0 41 35 22 0 0 0 0 0 0 211 224 70 0 0 0 67 73 18 0 23 1 5 0 0 0 22 122 0 0 0 16 14 45 5 0 0 0 20 48 29 0 0 0 15 75 63 22 74 17 0 0 0 14 97 3 19 13 0 0 0 0 0 0 12 10 66 70 79 39 55 18 0 9 0 20 0 0 0 0 13 18 0 0 0 0 0 28 5 4 0 5 8 39 255 255 255
255 209 212 0 0 0 34 41 43 53 11 0 23 0 0 0 5 35 0 0 0 166 50 0 19 15 32 20 27 36 14 6 6 0 0 2 13 17 8 37 54 22 36 35 19 118 57 9 0 0 0 0 0 0 0 0 0 14 0 0 19 0 0 102 0 0 0 0 0 143 255 255 126 212 181 21 0 0 49 0 0 248 255 255 0 0 0 0 0 0 0 0 0 42 0 0 0 0 0 10 0 0 0 0 0 42 34 0 42 40 5 0 0 4 0 2 25 0 0 0 169 100 0 0 0 0 220 189 75 221 175 0 248 255 255 0 0 0 0 0 0 0 0 0 255 255 132 0 0 0 136 255 225 225 255 253 255 255 39 0 0 0 0 0 0 32 25 19 137 82 0 0 0 28 34 23 77 8 0 0 25 5 18 0 7 40 0 0 0 2 0 0 26 0 0 0 33 35 2 7 0 0 0 46 0 36 29 3 2 0 11 44 91 0 0 0 19 0 0 12 14 0 0 0 0 31 0 0 0 0 0 6 20 41 67 210 233 0 0 0 0 0 0 21 13 11 0 0 0 0 0 0 48 26 45 105 58 18 19 0 0 0 0 0 0 0 0 31 0 0 25 0 0 0 0 0 255 255 255 255 255 131 0 0 0 0 0 0 134 133 44 0 0 0 166 140 99 123 82 19 0 0 0 60 95 32 0 0 33 11 0 0 0 5 26 0 17 18 18 0 0 0 8 0 11 12 56 0 14 28 0 0 0 0 0 0 11 25 0 0 0 0 24 23 17 0 0 0 0 0 0 83 78 12 42 77 16 14 17 17 0 6 0 2 0 0 0 0 11 16 0 0 0 0 0 11 35 72 13 24 0 255 255 255
255 227 255 0 0 0 0 13 10 0 0 11 0 19 26 0 0 24 0 0 0 173 88 1 34 28 9 20 21 9 0 53 41 0 0 0 0 33 50 29 18 13 32 27 59 117 69 0 0 0 0 0 0 0 113 255 255 0 0 0 5 0 0 137 255 255 155 255 247 0 0 0 0 0 0 235 190 177 171 255 255 0 0 0 111 174 197 5 0 0 57 109 246 180 158 255 45 0 0 0 0 0 59 31 82 16 5 0 0 0 0 0 0 0 0 0 0 34 40 13 0 0 0 0 0 0 0 194 255 0 0 0 255 255 19 186 118 36 0 0 0 0 0 0 255 168 0 0 0 0 255 255 247 255 255 255 0 0 0 0 0 0 0 0 0 31 26 40 78 23 0 19 30 51 13 0 0 0 0 0 15 0 8 7 33 2 10 26 13 0 0 0 33 0 0 10 40 100 2 2 6 0 22 57 20 0 0 1 3 0 4 1 0 0 0 7 0 0 0 11 63 99 0 0 0 0 0 0 8 0 0 0 0 0 69 184 221 0 77 129 0 0 0 5 20 6 0 8 12 20 0 5 20 32 66 180 127 19 0 0 0 0 0 0 0 0 27 14 39 61 0 0 0 0 0 0 255 255 255 204 212 210 0 0 0 0 0 0 0 56 41 0 0 0 243 210 110 8 0 5 0 35 113 28 42 20 10 0 0 2 0 42 0 4 0 14 18 57 8 0 0 0 0 0 14 0 0 0 0 0 2 0 0 0 26 60 60 10 4 0 0 15 19 18 0 0 0 0 49 12 0 63 91 21 24 22 17 11 0 0 0 0 11 1 0 0 0 0 64 13 13 0 7 28 62 17 26 35 0 0 0 255 255 255
255 255 255 0 0 9 0 0 0 29 13 0 40 34 32 0 0 0 0 0 0 155 109 38 41 35 0 50 27 0 25 25 24 0 0 0 0 12 4 17 23 50 28 7 0 114 60 0 0 0 0 0 0 0 255 255 100 0 0 33 166 117 13 18 79 164 0 0 0 0 0 0 255 255 240 0 30 0 0 0 0 0 0 0 106 114 109 0 0 0 69 161 152 127 228 233 255 255 255 0 0 0 55 40 23 0 3 0 0 0 0 0 0 0 102 13 0 255 232 22 0 0 0 0 22 202 255 255 255 255 255 255 0 0 0 119 114 72 0 0 0 255 230 83 0 0 0 131 255 255 255 255 255 0 0 0 0 0 0 0 9 8 0 0 0 0 0 19 94 23 0 25 57 55 2 37 35 0 0 0 5 0 0 0 52 106 4 2 0 7 39 96 0 0 0 0 14 68 2 31 0 0 16 15 25 9 59 2 26 14 17 50 75 2 9 47 3 0 0 0 4 83 0 0 0 0 0 0 0 0 0 1 0 0 34 119 118 62 188 144 0 0 0 0 0 0 0 0 16 11 1 50 58 36 57 189 112 0 0 0 0 0 0 16 53 0 0 202 173 90 0 0 0 0 0 0 255 255 255 189 114 0 0 0 0 0 0 0 0 0 0 0 0 0 248 214 103 0 0 0 51 59 0 12 14 0 0 0 22 12 0 0 33 33 0 0 0 0 5 0 20 0 0 0 22 0 10 5 28 16 0 0 0 32 26 0 0 0 0 34 28 0 0 0 16 0 0 16 107 112 68 33 53 9 1 0 0 0 0 5 0 0 0 0 0 29 11 10 3 10 22 32 6 23 36 0 0 0 0 0 0 255 255 255
255 245 221 17 0 0 0 0 0 0 48 77 0 19 0 0 0 0 0 0 0 199 101 47 55 57 23 0 0 52 15 36 88 0 13 0 6 23 11 27 63 35 53 59 0 137 47 0 0 0 0 0 0 0 0 0 0 0 0 0 0 34 86 140 238 255 0 0 0 0 0 0 46 16 41 58 72 125 0 0 0 101 143 170 165 255 255 16 0 25 0 0 0 236 255 255 0 0 0 0 0 0 0 0 0 58 6 0 0 0 25 0 0 0 76 117 225 0 0 0 84 115 103 189 117 0 0 0 0 0 0 0 0 0 0 0 0 0 0 0 0 255 255 0 0 0 0 255 255 255 62 82 0 0 0 0 7 0 49 0 0 13 32 11 0 19 0 0 39 0 0 0 10 54 15 8 6 39 9 0 10 0 0 16 0 9 0 15 60 12 0 0 0 12 0 0 0 0 0 0 0 5 0 0 17 34 32 0 23 33 33 15 23 0 0 0 0 0 0 1 79 130 0 0 0 0 0 0 0 0 0 0 0 0 22 111 166 85 248 255 0 0 0 26 28 32 22 33 7 0 13 15 142 78 5 90 92 0 0 0 0 0 0 0 3 57 51 118 69 45 33 9 0 0 0 0 255 255 180 82 0 0 98 120 170 0 0 0 0 0 0 50 48 27 101 134 60 0 0 0 67 87 40 0 4 35 0 18 25 14 0 0 0 3 3 0 23 74 0 97 149 12 0 0 0 0 0 0 6 59 5 23 43 0 1 20 0 0 0 11 16 38 0 0 0 45 52 0 60 91 0 5 16 4 0 0 31 6 0 14 0 0 0 3 21 63 1 33 67 4 0 0 0 0 0 15 10 0 0 11 15 255 255 255
255 255 255 34 0 0 19 38 50 18 0 0 16 3 0 0 0 6 0 0 0 134 111 54 67 43 22 41 28 0 23 43 72 8 1 0 13 5 83 42 25 47 36 44 0 89 18 0 0 0 0 0 0 0 120 247 255 78 41 3 0 0 0 227 106 0 0 0 0 28 47 18 0 28 93 0 0 0 50 16 0 0 0 0 255 255 170 0 0 0 20 0 59 211 255 255 0 0 0 43 0 0 0 0 0 93 127 83 0 0 0 0 0 0 154 126 104 255 255 255 118 0 0 255 255 255 0 0 0 0 0 0 0 0 10 0 0 0 255 255 255 0 0 0 0 0 0 255 255 255 0 0 0 0 0 0 0 0 0 0 0 0 142 80 26 0 0 0 64 32 0 14 34 45 0 0 0 0 0 10 19 29 3 8 30 17 0 0 0 0 26 19 19 0 0 25 35 98 0 0 0 14 22 49 0 16 17 0 0 0 12 62 55 0 0 0 48 39 26 48 62 73 51 86 103 20 3 0 0 0 22 24 0 0 43 103 133 110 255 255 0 0 0 20 0 0 0 0 0 52 0 0 178 127 35 17 0 0 0 0 0 0 16 25 96 55 0 187 143 81 0 13 12 0 0 0 227 255 250 178 228 176 255 255 177 0 0 0 0 0 0 255 213 121 84 15 0 11 0 0 13 11 0 17 0 0 17 22 0 0 0 0 4 16 0 0 0 0 30 7 0 13 13 0 26 38 75 27 0 13 0 0 0 34 43 64 0 0 0 0 0 0 0 0 0 96 103 33 62 74 50 1 0 0 15 0 0 0 0 0 6 15 59 8 31 14 0 1 2 9 0 0 0 0 0 0 0 71 9 19 26 255 255 255
255 242 230 0 0 0 7 45 40 6 41 26 19 0 0 0 0 0 0 0 0 158 99 16 28 11 0 12 40 72 4 14 25 0 0 0 2 34 46 21 59 68 16 0 0 86 26 0 0 1 247 81 79 34 0 0 0 24 0 0 0 14 24 180 182 168 0 0 0 0 0 22 18 88 105 67 57 57 0 0 0 186 242 255 95 50 35 0 0 0 139 154 125 72 109 11 0 0 0 255 255 255 0 0 0 0 0 0 255 255 255 0 0 0 104 119 173 0 0 0 0 0 0 138 175 169 0 0 0 0 0 0 0 0 0 167 255 255 255 201 47 111 142 147 255 255 138 178 191 197 0 0 0 0 0 0 0 0 4 0 0 0 108 163 155 0 0 0 90 43 3 45 43 1 18 2 0 0 4 42 18 0 0 0 0 83 14 0 0 0 14 0 0 0 22 0 0 0 0 26 48 21 0 0 14 36 37 17 0 0 36 25 0 0 0 0 90 114 137 53 25 0 5 19 41 78 101 108 33 0 0 7 0 0 48 147 138 85 222 235 0 0 0 48 46 42 0 37 87 100 47 0 195 181 76 0 0 0 0 0 0 0 0 0 20 0 0 0 2 21 0 0 0 0 0 0 0 0 0 255 255 224 149 140 101 0 0 0 0 0 0 255 255 199 23 0 0 11 57 158 0 23 45 0 0 17 31 29 5 0 0 0 12 4 12 0 0 0 37 0 0 0 3 0 0 1 0 15 4 14 0 21 0 0 0 61 60 39 0 0 0 13 26 15 23 83 78 0 16 21 0 0 0 0 0 0 26 0 3 0 13 0 10 0 0 0 15 0 0 1 0 0 0 8 73 0 5 3 0 0 0 255 255 255
255 255 255 12 0 0 17 0 0 28 2 0 6 0 0 0 5 13 0 0 0 144 58 0 45 33 31 19 35 0 0 37 31 0 8 0 6 4 0 38 49 29 56 44 29 104 48 17 0 0 0 0 0 0 0 0 0 31 0 0 79 27 0 28 56 77 144 37 10 0 37 63 255 255 82 10 0 25 0 0 0 255 255 255 0 0 0 0 0 0 141 189 242 13 38 136 165 140 189 213 255 255 0 0 0 23 37 0 15 0 0 0 0 0 0 0 0 0 0 0 255 255 255 0 0 0 0 0 0 0 0 0 0 0 0 255 255 138 211 135 7 255 255 250 239 255 255 0 0 0 0 0 0 24 0 0 19 37 34 0 0 0 187 212 230 24 0 0 32 18 0 0 0 0 15 0 3 0 0 11 22 14 0 0 36 38 9 0 0 1 29 31 1 1 0 33 0 0 5 0 0 0 0 0 0 9 48 0 18 52 25 50 72 0 0 0 57 0 0 0 0 0 0 0 0 0 0 0 0 0 0 0 0 0 2 0 0 0 0 0 0 0 0 0 0 0 23 0 10 199 138 42 3 0 0 0 0 0 0 0 0 0 0 0 183 103 66 0 0 0 15 0 0 116 63 0 0 0 0 255 255 255 255 255 229 0 0 0 0 0 0 231 223 176 0 0 0 53 75 70 0 0 0 0 0 91 0 0 1 0 0 19 15 13 0 0 42 107 13 0 0 0 0 43 0 0 8 21 0 0 22 24 10 16 0 9 0 12 40 0 0 10 67 48 0 59 83 59 0 13 0 0 0 28 8 0 0 18 41 64 0 5 0 0 0 37 0 18 58 0 25 33 0 14 26 0 0 0 11 6 0 255 255 255
255 255 205 76 12 0 0 0 0 0 31 46 0 0 0 0 0 0 0 0 0 100 125 168 18 23 7 14 0 4 0 6 66 0 0 0 1 0 8 35 84 65 39 15 0 110 65 0 0 0 0 0 0 0 24 24 0 15 0 0 46 95 172 59 19 0 0 0 0 77 118 178 0 0 0 0 0 0 255 255 255 0 0 0 99 87 129 22 0 115 145 218 143 0 0 0 228 255 234 140 185 252 0 0 0 0 0 0 255 255 255 255 255 240 0 0 0 0 0 0 69 53 0 0 0 0 90 56 28 224 127 44 209 255 255 15 0 0 0 0 0 255 255 255 0 0 0 0 0 0 116 255 255 32 0 0 0 0 0 0 0 0 155 175 129 0 0 0 33 26 15 32 13 41 10 10 2 0 0 6 11 0 48 0 0 60 0 10 6 5 20 14 0 0 18 7 0 6 0 0 9 0 31 29 25 0 0 13 35 0 16 24 8 26 53 2 13 66 168 57 0 0 110 0 0 30 0 0 0 0 29 17 244 255 39 128 140 22 0 0 6 8 10 0 21 75 53 12 38 255 157 0 0 0 0 0 0 20 0 0 0 0 0 0 109 58 29 0 0 0 0 0 1 0 0 0 0 0 0 255 255 255 207 145 94 0 0 0 99 143 110 128 132 96 0 0 0 22 53 38 23 1 0 22 0 0 0 19 0 0 0 0 31 0 0 0 0 0 19 0 0 15 33 5 0 7 24 0 4 0 0 0 26 17 15 0 0 0 0 0 0 0 92 97 26 52 43 13 6 0 6 0 0 0 0 7 7 12 17 10 0 0 13 0 0 14 0 0 0 18 0 3 0 0 0 5 0 0 3 0 0 255 255 255
255 255 255 0 13 38 37 39 59 56 39 21 0 14 11 0 0 0 0 0 0 104 71 28 34 31 0 50 51 49 0 0 0 5 0 0 0 20 72 47 73 72 18 25 22 120 90 57 0 0 0 0 0 13 0 12 0 0 0 0 20 0 0 255 255 255 0 0 0 61 46 81 0 0 0 180 255 255 0 0 0 0 0 0 64 70 37 36 47 3 27 13 0 104 171 210 0 0 0 66 59 1 197 216 255 0 0 0 0 0 0 255 204 19 0 0 0 0 0 0 0 0 0 133 78 120 50 36 70 255 255 255 0 0 0 70 0 0 255 255 255 0 0 0 0 0 0 2 0 0 0 0 0 42 11 0 0 0 37 0 0 0 137 119 70 0 0 0 43 16 42 34 35 9 0 11 0 0 0 0 6 0 0 0 0 0 23 0 0 0 17 30 0 0 0 0 39 0 5 33 67 14 27 35 24 13 0 5 11 5 2 7 15 6 8 37 0 0 0 0 0 0 9 0 0 52 255 255 20 0 0 46 155 181 0 89 119 4 0 0 0 0 0 0 14 1 164 80 0 115 60 0 0 0 9 4 10 21 0 0 0 64 61 64 255 237 34 0 0 0 84 56 50 0 0 0 0 0 0 255 255 240 89 101 76 0 0 0 112 87 23 75 31 0 0 0 31 54 24 0 0 17 65 0 22 42 15 0 31 31 60 75 0 0 0 0 15 4 29 33 69 29 0 0 63 5 0 0 14 84 15 0 0 11 22 43 0 0 72 0 0 0 87 104 72 16 5 0 0 0 0 0 0 3 8 30 50 10 14 15 6 0 0 0 0 0 22 10 0 12 14 41 0 4 9 0 4 54 0 11 0 255 255 255
255 234 167 16 0 0 2 0 0 46 21 0 0 0 0 0 0 0 0 4 53 102 77 72 22 15 28 16 39 83 0 0 0 13 0 0 13 28 15 17 26 0 25 23 4 100 42 0 0 0 0 0 0 0 6 0 0 0 0 0 236 255 255 82 161 206 0 0 0 3 0 0 255 255 255 0 0 0 0 0 0 0 0 0 0 0 0 0 0 0 0 0 0 83 86 89 0 0 19 69 57 150 161 200 125 0 0 0 195 222 255 147 126 86 0 0 0 0 0 0 255 255 255 171 51 0 121 248 246 203 255 182 0 0 0 133 99 75 0 0 0 0 0 0 0 0 0 20 0 0 0 4 0 30 38 38 0 0 0 0 0 0 205 255 255 0 0 0 68 48 30 28 12 0 16 7 27 0 0 0 0 18 24 2 26 35 0 21 51 3 0 12 12 0 0 6 16 49 0 0 0 0 0 1 14 16 16 2 35 37 0 0 3 0 7 0 0 0 20 0 0 3 21 0 0 52 237 255 0 0 0 45 131 112 25 93 87 24 0 0 0 0 0 51 13 0 255 229 72 0 0 0 0 0 41 22 1 0 0 0 0 0 0 47 171 117 31 0 0 7 69 15 5 0 0 0 0 0 0 255 255 255 103 77 20 0 0 52 157 120 48 65 0 0 5 15 0 12 0 0 0 0 25 15 7 0 0 0 0 0 6 0 60 0 0 0 0 0 0 0 0 0 0 103 0 0 0 21 22 0 0 0 17 3 47 0 0 0 0 0 0 0 83 116 35 0 8 0 16 4 16 5 8 24 4 24 57 8 0 0 0 0 0 0 0 8 6 0 0 9 2 0 6 16 0 0 0 0 3 2 0 255 255 255
255 206 220 5 14 45 0 0 0 39 47 41 0 0 0 0 0 0 0 0 0 65 51 41 12 13 6 32 10 0 0 8 17 0 7 95 6 0 0 53 79 38 43 65 50 106 39 0 0 0 0 0 0 0 0 0 0 112 255 255 0 0 0 162 137 127 0 0 0 168 165 140 117 164 215 0 0 0 117 175 213 0 10 2 0 0 0 31 22 0 0 0 0 106 136 0 0 0 0 189 229 185 82 107 118 1 0 0 107 0 0 0 0 0 79 23 32 0 0 0 0 0 0 71 0 41 220 255 255 0 0 0 0 0 0 255 255 87 0 0 0 33 0 0 0 0 39 83 35 0 16 15 20 144 152 94 0 0 1 0 0 0 184 236 197 0 0 0 91 46 0 0 50 96 8 31 16 11 0 0 13 5 49 2 0 0 30 49 29 0 0 30 18 0 0 10 0 0 6 0 0 0 31 49 5 0 1 27 31 12 0 0 7 9 0 0 0 0 28 0 30 68 0 43 100 42 255 255 0 0 0 20 208 255 23 114 30 0 0 40 36 0 0 118 114 96 202 159 106 0 0 0 0 0 26 0 0 0 0 0 38 0 0 25 124 65 15 0 4 0 48 57 21 0 4 17 0 0 0 255 255 181 0 0 0 0 0 0 117 72 0 0 8 87 0 26 109 12 42 42 0 0 0 21 32 0 0 0 8 0 56 121 0 0 32 0 13 18 0 0 1 0 2 23 0 0 0 41 8 8 0 12 32 0 0 0 0 0 0 19 4 29 89 69 9 15 0 0 2 17 61 0 2 31 0 11 39 8 0 0 0 12 41 6 0 0 3 0 0 0 0 91 0 5 42 15 0 0 3 12 40 255 255 255
255 220 232 8 0 0 29 83 57 13 0 3 0 0 0 0 0 2 0 0 0 78 65 103 16 17 0 18 16 0 8 5 0 0 18 32 9 26 2 25 46 36 5 35 51 135 55 0 0 0 0 0 0 0 117 160 137 0 0 0 91 0 0 104 115 168 0 0 0 179 255 255 0 0 0 0 0 0 0 0 0 121 188 255 30 47 0 134 115 98 0 0 0 0 0 0 208 226 252 0 0 0 103 88 61 255 255 255 0 0 0 0 0 0 255 116 0 199 255 255 47 122 172 255 255 255 0 0 0 0 0 0 255 255 255 0 0 0 0 0 0 255 255 255 0 0 0 33 29 0 0 0 0 255 230 120 0 0 0 0 0 0 184 155 58 0 0 8 48 0 0 83 41 0 13 0 0 0 0 0 5 5 21 14 8 0 0 4 16 0 22 0 0 0 0 52 52 108 72 106 105 99 73 7 55 61 85 26 59 89 0 57 123 40 65 103 58 157 127 80 107 5 48 0 0 35 5 0 172 255 187 134 52 72 180 183 155 6 0 0 0 0 21 255 212 135 0 0 0 0 0 0 75 66 33 0 0 5 0 0 0 42 4 0 131 100 34 5 1 0 48 12 13 0 0 0 0 0 0 247 255 255 0 0 0 0 0 0 101 52 0 0 0 0 13 15 0 17 0 0 0 0 0 8 26 32 0 0 17 0 0 0 37 31 0 0 0 20 0 10 0 35 0 0 32 20 47 4 0 0 8 0 16 0 12 0 0 0 0 35 26 0 53 59 0 10 3 0 0 19 78 3 14 0 13 0 0 12 20 64 0 0 0 0 0 12 1 10 5 0 0 6 0 17 10 0 0 0 1 2 0 255 255 255
255 127 174 0 0 0 0 0 0 47 23 16 0 0 0 0 0 0 0 0 0 113 50 13 0 39 41 29 62 30 0 0 83 0 0 0 0 6 65 18 31 0 47 63 55 173 29 0 0 0 0 0 0 0 95 156 209 0 0 0 182 225 252 19 3 19 0 0 0 0 0 0 112 80 83 0 0 0 108 99 72 0 0 0 0 0 0 107 81 146 59 42 2 0 0 0 0 0 0 110 110 176 0 57 201 97 182 168 0 0 0 255 255 255 0 0 0 64 143 177 203 255 252 0 0 0 0 0 0 238 227 151 0 0 0 0 0 0 0 0 0 255 208 58 0 0 0 0 0 0 0 15 0 105 68 0 0 0 0 0 0 5 58 36 0 0 0 0 33 0 0 51 63 62 33 55 58 14 51 79 6 0 0 16 0 0 0 0 6 21 19 13 4 1 0 72 113 41 0 0 0 0 0 0 0 0 0 0 0 0 0 0 0 0 0 0 0 0 0 0 0 0 0 0 0 0 0 0 0 0 0 0 0 0 0 0 0 0 0 0 224 202 126 255 244 74 0 0 0 0 0 0 0 0 0 0 0 0 0 17 44 0 0 0 0 0 0 135 125 100 0 0 0 133 110 0 0 0 0 123 95 26 0 57 226 56 0 0 94 40 0 0 0 21 0 19 8 5 1 0 13 30 46 0 0 0 0 0 7 4 0 0 0 0 20 0 0 0 30 18 0 0 0 0 0 0 0 12 15 0 48 39 40 0 0 8 0 0 0 62 32 0 46 54 10 7 9 10 7 18 84 5 20 34 0 0 5 0 0 0 0 0 0 10 0 0 5 2 0 0 0 0 0 9 46 2 0 15 0 0 32 255 255 255
255 187 243 0 3 15 14 0 0 0 20 6 0 0 0 26 83 86 5 0 0 90 97 63 23 12 51 40 24 0 6 0 0 6 2 2 17 32 9 41 56 122 51 41 0 59 13 0 0 0 0 255 255 255 0 0 0 0 0 0 235 250 189 0 0 0 82 129 207 0 0 0 96 99 75 0 0 0 51 22 0 136 99 220 0 0 0 255 255 255 0 0 64 16 0 0 112 107 89 24 0 0 204 190 144 0 0 0 0 0 0 255 174 0 47 0 0 255 255 255 141 239 127 0 0 0 74 0 0 255 255 186 0 0 0 53 0 0 0 1 36 49 14 0 0 0 0 22 2 0 0 0 0 0 23 47 90 41 7 0 0 32 0 0 0 5 76 112 43 0 0 80 52 27 36 2 0 13 0 0 0 17 5 14 13 47 0 13 0 16 0 0 10 16 19 40 81 108 46 8 31 77 92 56 34 0 47 0 0 0 0 0 10 30 0 0 4 0 36 0 0 0 0 0 0 28 0 47 103 139 244 109 5 52 83 146 146 153 90 79 255 255 115 0 0 0 0 0 8 58 69 6 0 0 63 6 0 0 164 134 88 0 0 0 33 67 76 147 147 54 0 0 0 255 255 243 0 0 0 0 0 0 100 186 255 58 0 0 62 0 0 0 17 129 24 31 5 11 0 0 0 0 0 0 0 0 8 9 23 0 0 13 0 0 42 0 0 26 12 26 50 0 0 36 0 11 3 0 11 44 0 7 9 0 0 0 0 0 49 96 73 0 54 67 48 8 25 0 0 0 44 0 0 0 0 0 0 8 0 0 12 4 0 0 0 0 0 0 0 12 0 43 6 19 0 0 10 16 18 10 5 255 255 255
255 167 226 1 0 0 46 48 35 70 50 11 0 0 0 0 24 50 0 0 0 60 58 57 28 5 0 22 48 170 0 21 0 0 0 0 12 15 0 21 42 0 20 29 44 0 0 74 173 255 255 0 0 0 0 0 0 200 255 255 113 0 0 62 95 87 0 0 0 64 40 15 0 0 0 0 0 0 193 137 90 74 152 180 0 0 0 255 255 238 0 0 0 121 184 211 91 95 153 6 0 0 0 0 0 0 0 47 0 84 207 255 130 0 0 0 0 140 255 255 0 0 0 130 34 38 255 255 255 0 0 0 0 0 19 56 18 19 0 0 0 0 0 0 128 84 10 0 0 0 0 0 0 21 15 22 143 114 37 0 0 0 64 9 0 0 50 26 0 0 0 39 40 2 65 35 52 0 0 0 13 8 0 16 0 0 8 7 35 0 32 32 36 33 2 15 42 64 43 39 39 2 0 0 0 10 9 48 63 0 40 0 24 63 28 74 61 177 232 82 197 146 74 244 188 54 255 255 95 255 200 0 0 0 0 38 31 238 141 19 23 0 0 0 0 0 0 0 0 89 41 0 0 0 0 14 33 0 0 0 0 24 64 2 0 0 0 204 119 60 0 0 0 217 213 93 0 0 0 0 0 0 209 255 255 40 0 0 21 0 0 0 1 54 0 16 16 16 1 0 0 31 40 17 0 0 30 41 79 28 0 0 0 0 0 36 26 0 0 1 38 0 0 3 31 36 0 28 0 0 12 35 72 0 0 0 0 0 0 108 76 22 49 67 0 0 18 83 0 10 4 0 0 0 9 20 51 0 9 79 0 7 12 0 5 67 2 19 17 0 5 36 0 17 78 0 0 0 0 10 42 255 255 255
255 161 216 17 6 0 5 0 0 0 0 0 0 0 0 14 64 9 0 0 0 73 82 108 82 67 0 0 3 0 3 21 0 0 0 0 4 22 0 7 46 149 47 63 173 102 56 43 0 0 0 0 0 0 24 69 179 12 0 0 245 141 0 0 0 0 55 110 100 22 0 0 0 0 0 0 0 10 0 0 0 0 0 0 126 184 236 74 27 61 0 0 0 13 4 34 0 0 0 115 131 113 29 128 255 0 0 122 241 249 183 157 164 240 0 0 0 0 110 136 61 0 0 255 255 255 0 0 0 0 0 0 33 45 47 40 37 0 0 0 0 31 52 56 0 0 11 0 0 0 10 5 0 0 0 0 140 143 55 0 0 1 200 149 106 35 29 0 0 0 0 114 50 0 25 48 31 10 14 15 42 15 0 0 35 66 0 8 38 0 0 13 16 0 0 0 0 0 46 59 39 0 12 9 10 13 0 0 0 7 0 0 0 14 11 1 68 0 0 62 8 83 75 10 74 66 0 0 34 0 0 0 6 47 153 170 93 255 255 152 0 0 0 0 0 30 0 0 0 0 0 23 0 0 0 0 0 0 0 0 0 109 52 0 0 0 0 130 110 74 0 0 0 224 245 183 0 0 0 0 0 0 238 251 164 19 56 72 48 0 0 0 21 55 10 29 14 0 0 14 18 14 3 0 0 0 9 22 32 0 14 12 0 0 75 0 15 0 0 0 0 11 14 27 0 0 45 35 11 0 49 20 0 0 13 45 0 0 0 154 146 0 35 75 117 10 5 15 0 0 0 0 0 0 3 11 16 4 0 0 0 0 0 9 12 47 12 30 24 19 0 0 0 0 0 0 0 0 9 0 0 255 255 255
255 146 186 0 6 9 34 48 0 0 25 29 0 0 0 120 105 38 0 0 0 93 50 6 0 5 28 10 32 45 22 38 60 6 7 53 11 14 0 46 54 0 16 1 0 129 30 0 0 0 0 0 0 0 255 255 255 0 0 0 254 227 146 0 0 0 255 255 255 0 0 0 0 0 0 255 255 255 0 0 0 0 0 0 255 255 255 0 0 0 204 255 255 181 239 220 0 0 0 0 0 0 93 242 255 133 0 0 0 0 0 0 48 155 0 0 77 114 127 0 255 255 237 0 0 0 0 0 0 0 0 7 41 6 0 53 3 0 0 0 31 78 17 0 0 0 0 101 59 18 0 0 10 57 52 29 27 35 0 0 0 0 91 105 90 80 87 45 0 0 0 74 17 0 55 40 27 0 0 0 0 0 0 0 0 26 17 0 0 9 11 2 0 0 0 0 0 0 8 27 43 12 26 41 4 0 9 18 0 0 0 0 0 0 0 0 0 0 0 0 0 0 0 0 0 0 0 0 25 142 132 20 0 56 179 179 68 0 0 0 0 0 0 0 0 0 12 0 0 19 10 9 161 123 52 17 6 0 0 0 3 162 174 63 0 0 0 145 166 89 0 0 0 189 154 31 0 0 0 0 0 0 255 255 255 53 28 57 30 0 0 0 26 20 0 0 0 26 10 61 12 0 0 0 0 0 0 0 0 55 43 0 9 5 15 0 0 0 47 43 0 0 0 0 0 0 0 0 26 40 17 33 59 0 0 1 0 0 0 155 162 0 36 80 130 18 8 0 5 0 0 0 0 28 13 0 0 14 21 15 3 31 109 0 0 0 0 0 0 0 0 0 0 0 0 0 4 0 1 3 32 255 255 255
255 155 217 24 0 25 0 0 0 0 0 0 0 0 0 200 155 39 0 0 19 76 50 71 0 0 0 32 0 0 0 34 39 0 0 0 11 6 31 27 47 0 42 73 106 138 35 0 0 0 1 0 0 0 218 255 255 0 0 0 0 0 0 0 0 0 243 255 255 0 0 0 0 0 0 214 255 255 0 0 0 0 0 0 255 255 255 22 0 0 0 0 0 155 181 190 0 0 0 36 0 0 0 195 255 113 0 0 0 0 57 0 0 0 65 76 213 255 255 19 248 83 0 0 0 0 0 7 11 0 0 0 46 32 0 5 0 0 0 0 0 55 69 46 0 0 11 0 34 63 17 5 0 0 0 23 84 0 0 1 16 16 8 0 0 104 99 24 0 0 0 32 8 0 51 25 2 62 68 48 1 3 0 15 11 42 51 39 34 0 0 0 11 0 0 22 24 0 0 7 44 0 0 0 0 0 0 0 0 0 0 0 0 61 63 14 45 38 82 40 95 83 59 102 131 61 92 122 12 0 0 152 90 25 204 164 48 87 37 0 0 0 9 0 0 0 0 0 1 59 36 9 0 14 0 0 0 0 0 0 0 65 42 0 0 0 36 70 108 99 0 0 0 126 96 23 0 0 0 0 0 0 255 255 255 52 8 0 0 0 0 0 0 0 13 22 2 19 0 0 0 0 1 8 14 13 3 0 0 23 8 46 0 0 65 0 0 0 12 0 0 0 0 0 0 0 0 0 0 7 35 0 0 0 0 0 0 0 0 185 182 26 17 63 127 0 15 0 0 0 0 4 29 99 0 5 40 19 27 21 0 0 0 0 0 0 0 0 42 12 32 41 6 26 39 1 16 68 11 34 92 255 255 255
239 127 184 19 0 0 5 12 34 0 0 4 89 48 0 76 86 61 0 0 0 85 28 0 0 0 0 47 41 14 13 25 89 0 0 0 22 7 31 13 21 0 14 34 119 121 83 18 0 0 0 0 0 0 81 137 183 157 71 0 0 0 0 182 188 160 208 233 245 0 0 0 0 0 0 255 255 255 0 0 0 0 0 0 255 255 255 0 0 0 108 85 99 222 255 255 22 1 0 0 0 0 0 0 0 191 82 74 183 127 73 0 0 0 164 54 71 255 255 35 0 0 0 0 0 14 53 31 10 0 12 32 0 0 0 56 24 6 0 0 53 55 30 0 4 0 0 0 0 0 0 0 0 18 39 0 5 0 0 0 0 3 0 0 3 0 0 21 0 0 0 58 68 14 0 0 0 79 61 39 59 51 18 14 5 21 55 58 52 13 17 7 0 24 29 0 26 65 0 0 0 0 0 0 22 0 0 27 62 59 0 0 0 16 13 9 0 37 80 42 95 97 1 0 0 26 46 43 30 0 8 251 255 122 0 0 0 190 99 0 0 0 32 19 3 0 0 13 36 86 47 14 0 0 0 107 81 44 0 0 0 194 195 143 0 0 0 56 3 0 0 0 0 166 136 114 0 0 0 0 0 0 255 255 255 79 35 0 0 0 25 8 49 48 0 0 0 9 19 71 16 0 0 0 0 13 22 42 43 0 0 26 22 18 0 0 0 0 52 10 45 0 31 104 47 17 0 0 3 82 54 49 0 0 0 0 0 0 0 187 169 28 15 58 101 21 14 0 0 0 0 4 0 0 0 0 0 11 0 0 0 0 23 0 26 44 18 17 45 0 10 40 5 0 0 0 0 0 6 14 52 255 255 255
253 156 196 42 57 27 0 0 0 0 0 3 123 108 60 96 69 39 0 0 0 45 46 29 6 0 0 36 19 44 6 44 9 0 0 0 0 0 84 35 68 14 34 59 42 120 21 0 0 0 0 0 0 0 162 141 44 134 88 42 0 0 0 0 0 0 106 95 38 0 0 0 0 0 0 255 246 219 0 0 0 0 0 0 255 255 255 0 0 0 0 0 0 113 186 255 114 217 255 113 113 111 0 0 0 175 229 132 255 255 150 0 0 0 144 93 74 0 0 0 0 0 0 0 0 0 10 13 9 0 0 5 55 38 16 50 24 0 0 0 3 72 49 27 0 0 0 116 120 35 0 0 5 0 0 20 48 28 0 107 35 0 0 0 7 0 0 0 19 18 0 61 35 16 0 0 0 0 0 0 43 14 0 99 20 0 51 38 10 82 48 2 38 0 0 23 45 43 20 53 86 0 35 101 31 58 50 13 29 21 42 97 94 8 0 11 13 22 0 0 0 11 17 37 39 0 61 47 41 4 23 255 255 199 0 0 0 170 94 16 0 0 0 0 0 0 0 0 2 80 46 0 0 0 0 55 22 0 0 0 0 197 192 77 0 0 11 0 0 0 0 7 22 42 30 0 168 176 106 0 0 0 255 255 255 50 0 0 0 0 0 24 70 29 32 0 0 0 9 53 4 0 0 0 0 0 11 0 0 0 0 0 15 20 31 27 0 0 20 15 0 0 0 0 0 12 0 0 0 0 15 24 9 0 0 0 0 0 0 177 196 82 7 53 114 20 1 0 0 0 20 0 0 0 0 8 34 0 0 0 1 13 0 0 10 1 10 0 1 0 0 0 20 25 26 5 43 48 98 148 139 255 255 255
255 105 181 60 49 10 20 15 16 0 0 0 0 0 0 80 61 0 71 24 0 70 48 0 17 3 0 14 29 0 4 28 14 17 4 0 0 17 11 23 10 51 42 36 8 139 87 0 0 0 0 0 0 0 78 0 0 0 0 0 0 0 0 0 0 0 255 255 252 0 0 0 0 0 0 96 68 91 0 0 0 0 0 0 255 255 255 62 0 16 0 0 0 74 85 154 0 0 0 111 132 102 0 0 0 0 0 0 166 129 62 0 0 0 95 88 0 0 0 0 0 0 0 8 0 0 13 0 0 0 0 0 0 0 0 140 71 13 0 0 0 248 151 5 0 0 0 0 12 29 0 0 0 0 0 0 13 24 31 0 0 0 0 0 0 0 0 0 55 62 19 0 0 0 215 151 24 0 0 18 0 0 0 0 0 0 55 41 27 187 152 79 122 63 22 122 64 30 56 22 34 106 48 0 25 17 0 6 0 0 4 21 0 10 15 50 26 108 155 2 12 0 40 68 103 45 18 20 83 103 85 214 95 0 0 0 0 0 6 66 29 50 36 0 31 63 0 0 0 209 207 95 0 0 0 24 24 24 0 0 0 244 238 147 0 0 0 0 0 0 6 0 0 28 29 0 170 135 100 0 0 0 255 255 255 89 43 0 0 22 84 20 43 44 43 47 45 21 46 47 0 19 42 25 39 56 0 24 26 0 0 36 34 32 0 0 25 0 1 0 0 0 0 3 18 16 56 46 20 0 5 13 27 0 0 0 0 0 0 152 177 63 0 51 98 15 0 0 0 0 0 0 0 6 9 23 54 8 33 63 7 10 20 0 10 58 18 28 0 59 80 79 149 211 154 255 255 209 255 255 152 255 247 23
236 97 182 0 0 5 0 0 0 0 0 5 0 0 0 117 114 44 0 0 0 78 31 8 21 46 103 31 23 0 0 4 23 0 0 85 14 32 0 39 61 7 57 80 82 117 45 0 0 0 0 0 0 0 255 255 255 255 255 255 0 0 0 255 255 198 0 0 0 0 0 0 0 0 0 6 19 4 0 0 0 0 0 0 255 255 255 140 215 212 0 0 0 0 0 0 192 205 182 0 0 0 136 255 255 0 0 26 201 255 255 55 90 217 238 255 255 98 40 0 0 0 0 0 0 0 42 37 20 0 0 23 79 40 0 231 170 35 0 0 0 255 255 113 0 0 0 75 43 19 0 0 0 44 44 20 1 0 29 18 0 12 91 54 13 25 28 22 16 51 56 0 0 13 46 66 62 37 50 28 0 0 0 0 0 0 0 0 0 0 0 0 0 0 0 0 0 0 0 0 0 0 0 0 0 0 18 0 0 0 0 0 0 10 0 0 32 0 0 0 0 0 0 0 0 0 0 0 0 0 0 10 0 0 0 0 0 0 0 0 0 0 11 15 45 49 0 0 0 100 69 0 0 0 0 0 0 0 0 0 0 157 140 113 14 56 67 0 1 18 0 0 0 72 104 69 132 102 0 0 0 0 255 255 255 69 0 0 0 0 0 0 0 0 0 0 0 22 22 44 28 38 58 10 24 24 25 37 45 64 28 0 3 12 35 0 0 0 0 0 39 11 0 0 0 6 7 0 0 3 9 37 55 0 0 0 96 72 0 96 129 99 11 31 68 21 9 0 18 17 1 13 1 29 13 8 0 4 0 0 8 11 0 45 87 22 140 154 90 255 250 67 255 101 0 0 0 0 0 0 0 0 0 124
255 169 183 6 22 15 0 0 0 0 0 12 0 0 0 127 147 55 0 0 0 84 39 0 20 25 3 17 32 29 4 23 8 0 0 0 0 0 22 35 50 62 53 25 0 0 0 0 0 0 0 255 255 255 0 0 0 255 255 255 0 0 0 119 116 115 0 0 0 38 49 55 94 96 56 26 0 0 0 0 0 0 0 0 237 255 255 95 79 0 0 0 0 0 0 0 0 0 0 0 0 0 0 0 0 0 0 0 137 201 186 0 8 18 0 0 0 255 255 255 88 62 122 0 0 0 0 0 0 0 0 0 255 135 55 140 131 61 0 0 0 199 111 0 0 0 0 0 20 36 14 0 0 0 0 0 0 0 0 0 0 0 18 44 9 0 0 0 0 0 19 0 0 0 0 0 0 124 47 0 12 0 0 214 130 64 210 166 175 255 217 152 232 174 144 189 208 176 77 84 82 132 113 79 29 24 1 51 78 60 21 71 53 22 32 58 0 40 0 22 72 100 52 91 71 34 102 125 103 240 236 17 136 255 0 0 0 0 0 0 0 0 0 0 0 0 0 0 0 108 72 44 0 0 0 0 0 0 59 28 0 158 112 23 12 0 0 39 34 0 0 0 0 104 56 29 29 0 0 0 0 0 255 255 255 0 0 0 0 0 0 0 0 0 0 0 0 0 0 0 0 11 0 0 2 49 1 8 0 0 0 37 119 85 32 51 47 9 9 46 39 31 18 0 0 7 0 3 0 0 0 0 0 0 0 0 179 188 43 53 87 103 0 0 0 11 0 1 0 0 0 0 1 31 3 5 0 6 17 40 53 42 0 60 52 57 106 76 55 0 0 0 0 0 0 0 0 0 0 0 0 255 182 153
255 166 205 0 0 0 0 0 7 0 0 17 0 0 0 70 58 14 0 0 0 152 137 98 41 18 1 25 29 25 34 46 76 0 0 0 1 19 27 45 54 0 37 0 0 0 0 143 255 255 235 0 0 0 0 0 0 83 11 0 0 0 0 62 46 27 82 54 0 0 0 0 0 0 0 111 118 63 0 0 0 0 0 0 55 74 41 169 171 255 254 255 255 0 0 0 0 0 0 202 231 255 218 255 255 0 0 13 0 0 0 61 23 47 31 52 64 0 0 0 255 255 78 137 159 255 0 0 0 0 0 0 125 64 24 15 4 0 0 0 0 255 218 71 0 0 0 0 0 5 41 38 36 0 0 0 2 4 33 29 24 29 0 5 30 84 63 54 78 64 29 0 0 11 0 0 9 83 63 25 1 0 0 121 72 10 36 66 44 0 0 0 0 0 0 17 0 0 0 0 0 0 0 0 0 0 0 5 7 40 0 0 0 0 10 39 0 0 0 0 0 0 0 0 18 0 0 0 71 80 26 181 157 99 255 255 178 255 255 255 0 0 108 0 0 0 0 0 0 35 0 0 0 0 19 0 51 104 0 0 0 128 130 89 0 0 0 18 54 91 0 0 23 142 99 45 8 55 64 0 0 0 255 255 79 0 0 0 0 0 102 0 24 85 0 0 0 0 0 0 0 0 0 0 0 0 0 0 0 0 0 0 35 32 45 13 10 0 6 0 6 34 68 86 63 75 98 62 92 138 0 35 37 0 0 0 237 243 115 33 81 81 0 0 0 19 0 0 0 4 11 0 1 14 26 26 36 42 17 0 88 120 62 225 229 154 26 0 0 0 0 0 0 0 16 0 4 15 185 125 15 255 254 253
255 255 255 0 0 0 0 0 0 0 0 0 0 0 0 41 46 21 0 0 0 52 16 0 74 47 1 33 57 93 0 1 0 0 0 0 0 0 58 38 29 28 22 109 255 157 126 0 0 0 0 0 0 10 255 255 255 0 0 0 0 0 0 0 0 0 169 116 88 0 0 0 0 0 0 29 67 0 135 98 112 27 0 0 0 0 0 235 255 255 0 0 0 19 39 16 205 255 255 253 255 255 0 0 0 0 0 6 2 0 12 3 51 0 0 0 0 207 255 255 237 177 90 91 141 0 0 0 0 0 0 0 95 47 14 0 20 33 0 0 12 255 239 100 0 0 0 0 0 0 0 0 0 75 56 1 0 0 0 0 0 0 0 0 0 1 23 6 0 0 0 0 0 0 0 0 0 15 68 108 95 39 0 79 62 59 5 9 11 0 8 11 6 0 0 0 24 62 0 43 73 47 6 0 30 0 0 0 25 40 0 0 0 0 0 0 0 0 0 2 0 0 23 0 0 13 9 0 0 23 51 0 14 0 0 9 0 88 86 5 255 242 137 255 255 248 0 0 84 0 0 0 0 0 0 0 0 0 0 0 0 56 26 0 0 0 0 0 1 0 66 43 41 31 20 0 0 0 0 0 0 0 255 255 38 0 0 0 129 88 19 24 2 0 56 0 0 0 28 80 22 0 0 0 0 23 0 0 0 0 0 0 0 0 0 0 0 0 8 38 88 0 0 0 0 0 0 0 0 0 0 0 16 0 0 0 246 246 97 27 55 0 0 0 0 6 15 25 5 20 7 0 14 23 56 84 64 92 116 167 200 234 130 0 0 0 0 0 0 0 0 0 0 0 0 99 59 16 34 47 36 255 255 237
255 255 255 118 141 72 60 0 0 0 0 0 57 44 27 0 0 0 0 0 0 0 0 0 123 45 0 29 48 61 4 29 77 27 44 16 0 0 0 54 80 33 52 27 0 99 17 0 0 0 0 186 123 0 0 0 0 0 0 0 0 0 0 0 0 0 0 0 0 255 255 255 0 0 0 0 0 0 169 220 238 98 60 0 0 0 0 0 0 0 255 255 255 58 89 117 0 0 0 198 255 255 0 0 0 47 70 84 41 0 43 72 154 192 0 0 0 0 0 0 122 138 255 0 0 0 255 255 255 0 0 0 168 45 0 0 0 1 0 0 0 255 198 9 0 0 0 38 4 0 0 0 0 43 11 0 0 0 28 0 0 0 48 42 18 0 31 42 152 134 58 0 0 0 0 0 0 0 0 0 57 32 0 0 0 0 20 16 50 0 0 0 19 0 0 0 0 0 0 0 0 9 0 47 0 0 3 6 0 1 0 0 4 0 0 0 0 0 34 18 0 0 0 0 69 13 48 11 18 15 38 0 1 10 0 0 0 0 4 43 22 19 5 90 82 40 255 255 190 255 255 255 0 0 0 0 0 0 0 0 0 228 182 94 31 0 0 0 0 0 11 0 0 0 0 0 0 0 53 0 0 45 255 170 0 0 0 56 0 18 49 0 8 24 19 22 0 0 0 29 48 14 0 0 7 27 0 0 0 35 0 0 0 0 0 2 0 0 0 0 0 0 0 0 0 0 0 73 46 0 0 0 0 0 0 0 233 239 108 26 43 43 3 0 0 0 30 63 0 0 0 22 35 1 126 157 79 255 245 90 0 0 0 0 0 0 83 94 58 75 38 48 0 0 0 69 62 41 0 0 0 255 255 209
255 255 255 27 87 94 65 79 93 50 63 59 37 59 0 67 15 0 0 0 0 0 0 0 117 69 28 29 56 51 0 0 0 2 0 0 0 1 3 22 37 61 61 28 0 0 0 0 20 50 112 188 190 155 0 0 0 0 12 22 0 0 0 0 0 0 255 255 255 255 255 255 0 0 0 255 255 255 0 0 0 134 130 110 0 0 0 0 0 0 7 0 0 0 0 0 246 255 255 0 0 0 0 0 2 0 11 0 49 61 48 0 0 11 12 20 54 176 199 214 64 0 0 0 0 0 0 0 0 149 148 192 24 0 0 0 9 0 0 0 0 255 207 67 0 0 0 91 61 19 0 0 9 84 52 44 89 168 94 0 0 29 0 0 0 0 0 0 0 0 0 39 40 23 0 0 0 19 16 8 0 23 36 51 13 0 0 0 0 30 18 11 8 15 0 0 0 9 40 25 2 0 21 11 27 66 73 0 19 14 1 0 0 0 16 27 0 0 7 0 0 8 1 22 0 10 15 0 29 50 42 0 4 18 8 10 0 0 0 8 6 14 0 6 17 39 20 0 0 146 151 103 255 255 255 0 0 173 0 0 0 0 0 0 46 28 27 0 0 7 136 94 19 13 8 0 0 0 0 93 128 112 125 105 32 33 0 0 41 24 12 0 28 14 13 0 0 48 20 29 0 32 64 54 56 74 42 38 31 12 10 11 0 36 58 0 0 0 35 68 32 0 0 0 44 47 62 236 164 16 0 0 0 0 0 0 212 243 84 27 47 48 0 0 0 22 46 44 24 33 59 110 174 162 181 71 0 0 0 0 0 0 0 79 50 28 43 47 0 0 0 0 0 21 25 63 25 0 0 0 0 255 255 234
255 255 255 8 82 100 48 80 126 36 21 6 35 33 77 39 0 0 0 0 0 0 0 0 125 61 59 52 81 97 26 51 0 0 0 0 0 7 41 39 52 0 38 60 44 0 0 25 255 255 255 0 0 0 0 0 0 5 0 24 0 0 0 0 0 0 11 0 0 0 0 0 148 147 99 0 0 0 0 0 0 0 0 0 246 255 255 255 255 178 0 0 0 255 255 255 0 0 0 5 0 0 0 0 0 0 0 18 0 0 0 83 97 79 0 0 0 141 255 218 0 0 0 255 255 255 0 0 0 255 255 255 0 0 0 0 0 7 0 0 0 255 183 15 0 0 0 47 38 37 0 0 0 0 0 0 9 12 0 0 0 0 0 0 23 0 0 0 0 0 0 255 255 4 0 0 0 34 64 33 79 86 52 42 0 0 74 91 14 0 1 0 0 0 0 14 45 69 39 0 0 0 20 0 0 0 26 0 0 0 0 0 0 0 0 0 0 23 21 8 10 2 25 1 0 0 0 5 1 16 19 1 11 52 0 3 15 0 0 7 0 9 23 16 3 10 0 5 0 11 0 0 118 90 33 255 255 189 0 63 243 0 0 0 0 0 0 0 0 0 20 44 23 28 0 0 0 0 0 255 255 208 37 9 0 41 48 27 0 26 54 0 0 41 0 3 0 0 7 16 0 9 3 0 0 8 0 0 0 0 27 37 3 0 16 0 0 33 4 47 82 0 0 31 47 13 0 155 112 4 0 0 13 15 0 0 163 191 130 0 39 61 2 0 47 14 43 83 26 21 0 187 230 117 0 0 0 0 0 0 110 71 10 68 61 30 0 1 0 0 0 0 82 60 35 0 0 0 0 16 53 255 255 193
255 255 255 103 87 71 2 59 59 0 57 52 64 101 64 87 8 0 0 0 0 0 0 0 109 75 66 35 51 0 30 44 69 0 0 0 0 2 0 0 10 0 0 0 30 115 0 0 0 0 0 255 255 255 0 0 0 18 7 0 116 112 30 62 24 66 255 248 187 0 0 0 184 140 71 0 0 0 20 10 0 0 0 0 0 0 0 18 16 0 0 0 0 255 255 209 0 0 0 96 144 132 0 0 0 42 74 76 0 0 0 0 0 0 17 19 0 84 89 153 54 79 110 0 0 0 255 255 255 0 0 0 0 0 0 0 0 0 0 0 86 176 164 106 0 0 48 0 14 30 0 4 29 0 1 46 110 88 0 22 72 157 0 0 0 36 81 69 0 0 62 255 215 105 0 0 0 0 0 0 198 214 192 78 63 35 11 0 12 0 0 0 41 33 43 48 53 6 0 0 22 14 35 43 0 0 0 26 13 0 0 6 0 4 10 58 16 17 18 0 0 9 6 43 62 0 0 0 10 0 0 0 0 6 2 2 0 25 0 0 1 0 0 0 0 6 0 19 44 0 0 0 0 11 78 81 85 64 255 255 249 0 0 0 0 0 0 0 0 0 84 59 5 184 125 55 0 0 0 255 255 255 0 0 0 0 2 28 30 25 0 0 0 0 0 0 6 7 0 0 35 17 29 0 0 0 34 0 0 62 33 9 0 0 0 59 28 0 0 34 12 0 0 19 0 0 0 85 76 8 0 0 0 52 41 3 65 137 166 3 13 0 7 0 0 38 52 65 40 72 32 166 127 5 0 0 0 0 0 0 143 104 24 30 40 46 0 0 0 70 36 0 123 229 255 0 0 0 0 0 0 255 255 255
216 29 90 68 92 100 22 33 69 49 79 87 108 95 31 135 130 113 0 0 0 0 0 0 158 105 1 38 34 47 40 71 93 0 8 21 5 6 41 36 63 37 37 10 0 99 0 0 0 0 71 0 0 0 0 0 0 0 0 0 16 2 0 0 0 0 0 0 0 108 17 0 0 0 0 0 0 0 255 255 255 97 84 113 0 0 0 20 35 0 0 0 0 0 0 0 177 144 63 0 0 0 0 0 0 0 0 0 128 188 165 61 53 77 34 17 0 57 132 198 111 231 232 185 143 47 0 0 0 0 0 0 255 255 255 0 0 0 0 0 0 139 70 0 0 0 0 8 0 0 0 0 0 0 0 0 192 138 42 0 0 0 0 0 0 91 51 0 0 8 0 255 255 144 0 0 0 0 0 0 92 41 0 0 0 0 27 54 70 34 32 0 27 15 0 0 17 42 0 0 0 0 0 22 12 0 0 0 0 49 3 0 0 12 0 0 7 0 0 8 0 0 0 0 2 0 0 0 13 54 70 0 0 0 0 15 0 0 0 16 19 31 0 1 0 0 0 0 0 14 0 0 20 7 0 0 0 0 117 125 108 255 255 255 0 0 0 0 0 0 86 17 0 23 21 0 0 0 0 255 255 255 0 0 0 0 0 0 24 0 0 21 16 0 1 1 11 38 3 0 6 26 32 0 22 58 22 25 13 0 0 0 12 9 41 0 0 0 3 16 42 0 0 75 43 19 3 84 91 17 0 0 0 93 134 0 46 95 111 0 0 13 0 10 28 28 61 86 124 168 78 55 0 0 0 0 0 79 93 41 0 0 0 8 8 0 0 0 9 82 94 47 40 25 0 0 0 0 0 0 0 255 255 255
77 0 30 57 7 23 91 140 79 52 79 86 79 83 36 163 179 120 0 0 0 0 0 0 165 137 65 42 48 69 14 23 0 12 0 2 0 0 0 3 62 46 1 0 0 88 0 0 24 106 234 255 255 255 0 0 0 0 0 0 0 0 0 255 255 255 0 0 0 0 12 36 44 6 0 0 0 0 255 255 255 0 0 0 0 0 0 0 0 0 255 255 255 0 0 0 3 0 0 155 167 176 0 0 0 8 0 32 0 0 0 20 57 75 0 0 0 0 0 0 167 187 125 183 197 232 0 0 0 107 154 255 255 255 255 0 0 0 0 0 1 61 25 0 121 74 39 0 0 0 0 0 0 0 0 12 234 210 115 0 14 69 0 0 0 0 0 0 143 38 0 255 200 104 39 30 0 0 0 0 83 162 208 104 48 0 69 58 68 0 0 0 0 0 0 26 18 62 5 12 0 0 10 0 26 2 0 0 0 2 0 0 29 17 38 46 3 16 16 0 20 48 12 6 25 16 0 0 18 29 0 0 0 7 5 0 39 0 0 0 0 18 54 0 0 0 0 0 0 10 0 0 0 9 51 0 0 0 14 0 0 160 225 219 255 255 255 0 0 0 217 255 255 22 0 0 0 0 0 255 255 204 0 0 4 0 37 41 0 0 30 0 9 59 0 14 46 0 0 0 13 0 0 0 0 0 33 21 11 21 22 27 36 18 15 15 30 11 0 0 0 0 0 0 0 0 0 0 0 0 0 0 0 72 88 41 29 67 89 1 2 0 17 5 0 74 125 109 151 149 45 0 0 0 0 0 0 34 37 67 0 3 0 0 0 0 94 76 26 64 18 21 0 0 0 0 0 2 81 29 0 255 255 255
70 0 52 0 0 0 105 178 171 49 91 116 70 80 41 191 212 141 0 0 0 0 0 0 195 128 47 29 38 59 3 40 0 0 0 4 0 40 34 43 24 48 40 43 75 61 0 0 255 255 243 0 0 0 0 0 0 0 0 0 0 0 0 0 11 19 0 0 0 0 0 0 0 0 0 0 0 0 255 255 255 0 0 0 119 64 51 0 0 0 0 0 0 255 255 255 120 133 196 14 0 42 73 111 230 159 174 202 115 158 120 0 0 0 0 0 0 98 198 255 187 255 200 0 0 0 0 0 0 94 0 0 255 255 255 0 0 0 0 0 0 92 27 0 103 109 0 0 0 0 0 0 0 0 0 12 149 83 0 0 0 0 0 0 5 0 0 0 55 36 34 112 99 0 111 74 14 0 0 0 118 104 57 59 0 0 47 30 4 0 0 25 6 23 0 0 0 0 0 0 9 7 48 64 3 0 0 13 12 0 9 10 0 22 0 0 0 1 15 7 0 0 0 0 6 0 0 10 16 0 0 0 0 0 9 6 0 4 0 0 0 3 44 11 0 0 0 0 0 0 0 17 2 10 49 0 0 0 4 0 26 30 32 61 255 255 236 0 0 0 0 0 0 0 0 0 0 0 0 255 255 152 0 0 0 36 40 43 40 0 0 32 22 34 0 0 0 8 6 75 0 0 0 0 38 112 0 0 0 2 15 0 0 0 31 0 7 35 0 0 2 0 0 0 0 0 0 49 38 0 29 39 0 32 56 70 0 39 93 7 1 0 30 35 75 118 169 36 71 0 0 0 0 7 58 50 0 0 0 0 35 9 0 42 46 1 59 44 51 0 0 0 0 0 0 69 43 24 0 31 70 255 255 255
214 108 148 0 0 0 99 158 125 111 113 102 62 71 36 179 172 117 0 0 0 0 0 0 216 146 45 39 57 63 50 44 76 0 0 0 3 0 26 29 54 0 33 39 0 83 0 0 50 152 232 0 0 0 118 62 80 0 0 0 53 50 37 55 73 28 0 0 3 77 87 72 0 0 0 110 96 44 187 165 151 0 0 0 184 186 105 0 0 0 0 0 0 0 0 0 0 0 0 0 0 0 0 0 0 0 0 0 0 0 0 0 0 20 0 0 0 153 238 222 0 0 0 144 171 189 0 0 0 0 0 0 255 255 255 0 0 0 0 0 43 226 177 78 236 227 167 0 0 0 0 8 55 0 0 0 89 63 62 0 0 0 0 0 0 0 0 0 161 80 0 20 44 92 168 89 0 0 0 0 40 84 99 111 62 17 23 38 0 0 0 10 11 13 0 22 12 0 0 15 0 16 0 0 6 3 13 0 15 25 6 18 65 0 0 0 0 1 10 14 31 0 0 0 0 0 0 0 5 15 24 0 0 0 8 4 76 1 22 0 0 0 0 0 0 5 0 0 0 16 19 16 25 7 0 0 7 14 0 0 0 0 12 40 177 175 160 255 255 255 0 0 0 0 0 0 0 0 0 255 255 255 0 0 0 0 18 32 18 41 17 7 13 0 0 0 0 17 40 32 11 5 0 0 6 40 0 0 0 36 0 0 28 12 0 0 0 0 0 0 0 0 0 0 110 119 8 67 75 73 36 8 25 44 51 49 0 18 21 5 23 14 57 105 91 98 146 38 0 0 0 0 0 0 4 0 0 3 0 0 0 8 70 115 85 7 11 0 0 0 0 0 0 0 0 79 98 58 0 0 0 255 255 255
173 52 131 0 0 0 162 183 112 44 95 132 76 123 81 149 184 112 0 0 0 0 0 0 191 130 46 43 43 0 0 59 31 4 0 0 0 11 83 32 62 9 21 36 0 120 0 0 122 233 255 0 0 0 0 0 0 114 147 95 28 39 39 0 0 0 0 0 0 0 0 0 0 0 0 255 255 255 187 161 211 0 0 0 56 88 45 86 102 111 0 0 10 7 0 0 0 15 35 0 0 0 0 0 0 45 52 54 173 195 221 0 0 0 0 0 0 50 39 68 67 159 132 0 20 0 0 0 78 244 255 255 0 0 0 0 0 0 0 0 0 216 127 36 55 4 0 0 0 0 74 39 0 0 0 0 3 15 40 0 6 58 0 1 0 0 0 0 101 31 0 140 135 121 174 98 0 0 0 0 95 108 78 157 62 0 0 10 41 20 2 0 10 8 20 0 13 31 0 0 0 0 3 117 14 0 0 12 0 0 0 18 49 0 0 0 0 0 0 7 0 0 0 18 36 0 15 33 39 13 0 0 0 13 5 0 0 0 0 0 16 8 0 3 9 0 5 0 0 0 22 85 12 12 9 0 5 11 5 1 0 2 44 70 45 12 31 255 255 255 0 0 0 0 0 0 0 0 0 255 168 50 0 0 44 20 0 22 0 0 0 0 0 12 43 16 15 5 11 0 9 1 7 10 0 0 51 29 0 0 0 0 0 0 60 0 0 0 0 0 0 71 55 0 123 180 148 20 60 102 0 0 0 4 8 6 2 25 41 8 32 43 75 133 35 87 0 0 0 0 0 0 0 3 0 0 22 29 0 0 76 61 26 87 103 71 0 0 0 0 0 0 90 65 33 24 0 0 6 0 0 255 255 255
157 62 118 0 0 0 104 98 90 68 110 92 147 130 97 184 188 111 0 0 0 0 0 0 226 126 0 55 62 85 16 37 37 10 0 18 13 0 0 30 68 68 63 41 15 113 0 0 132 198 139 0 0 0 114 114 66 0 0 0 0 0 0 21 0 0 25 33 53 0 0 0 255 255 255 0 0 0 0 0 0 0 0 0 0 0 0 196 161 163 38 60 0 0 0 0 130 129 69 0 0 0 69 35 33 0 0 0 255 255 255 0 0 0 0 0 0 62 95 87 195 255 253 38 0 88 0 0 0 255 255 240 0 0 0 0 0 0 0 0 0 0 0 23 0 0 0 0 0 0 41 12 6 23 72 62 0 0 0 0 0 0 0 0 0 205 142 34 100 90 72 96 119 100 110 0 0 0 0 0 10 49 68 116 5 0 0 0 61 8 21 30 4 0 50 19 5 0 0 0 0 0 0 0 5 26 9 23 0 0 7 0 0 11 0 11 0 87 140 21 0 0 2 17 14 3 0 0 0 0 0 0 0 41 9 26 37 3 13 6 3 5 0 0 2 43 0 3 22 12 7 13 15 18 0 0 0 0 0 0 0 0 0 23 23 0 0 255 255 224 127 0 0 0 0 0 193 141 91 127 65 0 51 116 73 31 13 0 0 0 0 28 1 0 0 2 4 12 0 6 28 12 1 0 0 33 0 0 0 19 18 0 0 18 53 0 0 0 0 0 0 124 134 25 45 122 130 17 7 0 0 0 0 0 6 25 4 24 77 64 83 32 57 86 93 0 0 0 0 0 0 0 0 0 0 0 0 18 31 59 63 35 0 0 0 0 0 0 0 0 0 0 55 25 31 0 70 136 14 30 15 255 231 253
200 90 136 0 0 0 115 146 144 43 104 114 74 89 79 147 204 155 0 0 0 0 0 0 238 142 9 41 69 31 7 5 5 0 19 0 0 0 0 20 49 3 0 0 30 83 28 0 0 55 255 0 0 0 0 0 0 0 0 28 0 0 0 22 0 0 0 0 22 207 198 145 0 0 0 255 255 255 110 144 138 0 0 0 0 0 0 48 28 0 0 0 0 0 0 0 94 87 46 0 0 0 255 255 255 0 0 0 0 0 0 194 228 224 56 68 136 124 156 47 0 0 0 106 192 162 255 255 255 255 255 255 44 37 255 255 255 177 0 0 0 0 0 0 0 0 0 71 48 0 0 0 0 48 47 11 0 0 0 0 0 0 0 0 0 180 122 0 0 5 23 164 117 27 0 0 0 0 0 39 22 0 0 118 124 87 0 0 15 0 0 9 0 0 0 21 16 0 0 40 125 21 0 0 0 4 90 0 1 35 0 0 0 0 0 0 1 4 0 0 0 0 0 44 66 0 0 0 0 8 22 0 7 0 10 0 36 0 0 0 0 0 0 11 33 12 0 0 9 8 0 5 8 20 33 0 0 12 1 0 19 0 0 0 1 0 0 106 132 134 255 255 255 0 0 0 255 255 172 60 4 0 0 33 50 0 0 38 20 7 8 0 8 0 0 4 43 0 0 0 34 14 0 0 10 39 7 0 5 31 20 23 0 0 23 0 0 0 0 0 81 122 154 46 33 86 152 0 0 0 0 0 34 18 37 93 11 48 29 74 135 74 7 0 0 0 0 0 48 0 0 8 0 0 0 0 0 69 24 0 50 63 49 0 0 0 0 0 0 38 54 28 37 17 0 0 0 0 11 0 0 255 196 250
179 51 105 0 0 0 97 62 38 94 156 151 112 106 117 164 187 102 0 0 0 0 0 0 204 97 0 72 91 96 23 32 98 0 0 42 0 0 51 0 53 73 37 0 0 127 7 0 154 193 223 0 6 0 0 0 0 33 78 55 0 0 0 60 79 34 0 0 0 0 0 0 0 0 0 223 205 168 71 1 4 0 0 0 140 179 145 0 12 2 0 0 0 53 59 85 0 0 0 0 0 0 255 255 255 0 0 0 0 0 0 37 98 105 73 53 32 45 106 67 66 0 66 0 0 0 0 0 0 0 0 0 0 0 0 0 0 0 255 255 255 255 255 255 255 255 255 0 0 0 0 0 0 47 46 20 0 0 19 0 0 0 0 0 0 151 122 68 8 0 18 255 188 25 0 0 1 0 0 0 58 0 0 48 36 55 0 11 58 13 0 0 1 0 0 26 5 0 6 0 0 0 16 10 0 0 0 16 2 0 0 0 0 13 29 31 8 0 0 0 11 0 0 10 11 21 0 8 6 0 0 5 0 0 20 1 24 0 0 0 13 2 0 1 7 29 0 0 0 0 2 0 10 2 3 3 0 0 14 6 0 0 0 0 0 0 41 25 16 50 255 255 255 0 0 0 255 255 67 0 1 30 13 26 0 27 0 0 0 0 0 0 9 45 0 0 4 0 0 5 24 12 19 41 20 0 0 0 0 1 3 3 0 0 22 0 0 0 0 0 0 142 189 91 30 103 103 0 0 0 0 0 0 5 61 168 50 67 7 53 91 6 0 0 0 44 43 33 0 5 0 0 0 8 26 32 58 71 88 45 29 0 0 0 0 0 0 0 0 35 53 47 0 0 0 61 54 25 0 0 0 255 255 255
183 75 129 0 0 0 38 16 9 114 150 133 112 127 104 141 213 171 0 0 0 0 0 0 213 109 13 64 91 0 17 40 0 31 0 0 19 9 0 25 49 20 46 36 2 38 0 0 0 0 122 0 0 0 19 24 56 0 0 0 24 0 3 0 0 0 0 0 0 57 53 49 0 0 0 42 46 0 0 0 0 0 37 50 0 0 0 83 90 66 0 0 0 0 0 0 154 151 140 0 0 0 59 26 0 0 0 0 0 0 0 95 31 55 11 48 70 0 27 0 31 49 120 255 255 255 0 0 0 0 0 0 154 54 0 0 0 0 0 0 0 0 0 0 0 0 0 255 255 198 0 0 0 0 0 0 0 0 2 37 24 25 103 46 0 67 42 0 14 21 70 255 217 49 0 0 0 23 61 97 121 99 69 47 1 0 6 0 0 7 0 0 0 29 104 0 0 0 18 28 46 0 0 0 10 0 0 11 26 78 0 15 13 0 0 0 11 0 0 14 0 42 0 0 15 0 36 66 0 0 28 0 12 34 13 23 107 0 35 4 0 0 0 8 23 29 0 15 0 0 15 60 12 4 1 11 30 46 0 0 47 9 0 0 8 7 28 9 0 1 255 255 255 0 0 0 212 37 0 0 5 68 18 36 0 31 13 11 0 18 32 46 0 0 0 0 0 0 6 27 0 0 0 42 45 64 0 11 20 50 11 0 0 0 23 0 17 51 0 0 0 119 161 101 104 158 121 10 0 0 15 0 0 38 57 53 37 95 52 14 0 0 0 0 0 0 0 11 29 18 0 0 0 0 23 0 0 77 61 2 0 0 0 0 0 0 79 64 47 32 50 85 0 0 18 8 0 0 0 0 9 255 255 255
239 88 155 0 0 0 14 0 0 86 124 145 58 80 69 109 169 137 0 0 0 0 0 0 192 106 35 43 19 0 9 39 27 0 0 31 0 19 57 22 72 158 27 19 0 62 27 0 187 199 197 0 0 0 0 17 14 0 0 0 0 0 0 0 0 16 255 255 255 0 0 0 0 0 0 103 108 97 0 0 0 0 0 0 0 0 0 0 0 0 252 255 255 0 0 0 0 39 55 204 222 255 0 0 0 247 255 255 0 0 0 80 136 241 22 39 171 137 221 210 0 0 0 144 186 205 199 148 168 0 0 0 0 0 0 188 142 64 0 0 0 101 48 24 0 0 0 0 0 0 0 0 5 0 0 0 0 0 0 0 0 9 0 0 12 38 0 0 50 79 132 213 171 20 0 0 0 10 30 9 109 79 29 0 0 0 10 53 60 0 7 35 0 24 0 28 12 0 18 0 0 0 0 0 0 61 185 0 0 0 29 0 0 11 6 0 31 1 0 0 12 0 0 0 0 34 0 0 14 0 0 0 0 21 11 29 0 0 0 0 0 0 3 0 0 0 0 0 0 1 0 0 4 13 20 0 0 0 5 7 0 7 0 0 0 12 0 0 0 30 190 226 166 10 90 245 117 0 0 36 68 79 39 105 137 26 67 31 11 46 53 2 30 45 45 46 0 24 11 0 5 0 0 32 9 0 0 0 0 0 0 50 0 0 0 0 0 0 7 0 0 0 0 0 27 53 0 0 0 0 6 57 160 14 51 67 60 125 58 1 0 0 0 0 0 24 36 11 42 0 0 0 0 0 52 76 66 0 0 15 0 0 0 90 66 20 47 22 11 3 0 12 4 0 0 10 0 0 26 44 49 255 255 252
254 149 177 0 0 0 0 0 0 110 179 146 111 127 44 123 164 90 0 0 0 0 0 0 198 101 0 62 112 192 33 58 112 0 0 0 0 0 23 44 26 0 37 27 0 0 0 0 169 151 123 0 0 30 0 0 0 0 0 36 255 255 183 19 0 0 0 0 0 0 0 0 0 0 0 17 0 0 0 0 0 0 14 18 98 92 101 34 19 34 44 86 73 24 0 0 0 0 0 10 0 0 0 0 0 109 144 105 0 0 0 0 0 0 50 50 0 255 255 255 0 0 0 0 0 0 209 212 202 255 255 255 0 0 0 113 86 25 0 0 0 47 53 68 0 0 0 52 80 79 0 0 34 0 0 0 0 0 0 92 87 48 77 47 13 46 79 43 130 93 44 18 0 0 0 0 0 55 58 21 78 21 26 0 3 0 34 0 0 0 17 31 20 13 3 0 8 4 0 0 44 12 0 0 0 0 0 0 0 0 11 5 0 0 27 88 0 0 88 4 0 19 1 19 1 0 0 59 10 11 1 0 0 7 0 0 29 8 0 0 1 36 0 0 24 41 0 0 0 0 18 69 5 19 0 0 0 48 0 18 39 7 13 27 16 0 0 0 4 33 35 38 56 131 255 208 68 0 0 0 40 107 0 0 0 1 0 0 64 51 74 69 47 7 44 58 32 55 74 90 11 46 48 22 49 26 0 0 0 0 22 46 25 0 0 16 6 31 46 56 115 0 0 19 0 0 0 0 0 0 57 113 151 45 86 77 76 121 2 0 0 0 0 8 26 25 0 0 0 0 17 25 24 49 67 42 0 0 0 0 0 0 0 73 53 0 0 0 0 0 0 0 0 0 0 9 2 14 44 98 110 255 160 157
244 123 183 0 0 0 26 0 0 97 154 150 24 58 129 60 103 88 0 0 0 0 0 0 187 94 0 55 53 17 21 38 38 25 0 0 0 9 0 39 45 46 40 44 42 27 0 0 175 233 211 39 54 95 0 0 0 0 0 0 0 0 0 0 0 0 0 0 0 13 13 0 117 140 152 145 109 67 0 0 34 255 255 208 0 0 0 0 0 0 20 0 0 0 0 0 189 221 199 0 0 0 0 0 0 219 255 255 126 142 252 0 0 0 0 0 0 0 0 0 0 0 0 122 174 216 0 0 0 239 255 255 0 0 0 134 110 69 0 0 0 41 23 0 0 0 0 0 0 6 0 0 0 0 0 0 0 0 0 100 47 0 45 1 0 47 65 78 255 174 67 0 0 0 0 0 0 183 132 13 53 46 44 0 0 0 5 35 112 0 0 0 8 0 0 0 15 81 1 0 0 17 7 39 18 38 68 5 4 0 0 0 0 7 0 0 8 2 0 14 0 0 6 14 19 3 0 0 14 21 6 0 0 0 7 11 45 6 31 41 0 2 30 2 0 0 34 19 11 0 7 11 7 0 0 16 10 19 0 0 0 21 26 70 16 14 8 0 5 24 0 0 4 124 252 244 25 0 0 0 0 0 0 0 0 0 0 0 5 0 0 17 24 18 36 12 0 43 95 148 90 79 38 72 40 12 53 88 50 0 13 0 23 0 0 62 76 0 37 7 0 0 0 0 0 0 0 53 93 131 34 97 142 66 114 94 50 73 0 0 0 0 59 6 0 0 0 0 0 0 0 117 121 41 0 0 0 0 0 0 74 132 168 22 0 0 0 28 24 0 0 0 85 106 123 22 3 0 26 40 47 255 109 121
246 146 197 0 0 0 0 0 0 180 247 204 120 135 145 121 163 116 0 1 22 0 0 0 195 94 0 41 48 37 7 36 5 1 0 0 0 0 9 39 47 0 32 33 0 122 0 0 0 0 21 0 0 0 0 0 0 0 0 0 37 0 0 0 0 0 0 0 47 75 70 28 0 0 0 62 38 33 0 0 0 19 0 0 0 0 0 0 0 0 0 0 0 0 0 0 0 0 0 64 172 255 249 255 255 0 0 0 195 255 125 0 0 0 134 158 255 0 0 0 0 0 0 121 236 255 97 87 146 0 0 0 0 0 0 0 0 0 82 72 45 25 46 50 0 0 1 0 0 2 0 0 0 8 12 53 113 52 0 77 72 40 0 0 0 148 90 0 102 32 0 0 0 14 6 8 24 93 30 0 12 21 59 0 0 0 15 37 75 0 19 37 35 35 0 0 0 13 4 23 0 4 0 0 13 7 59 0 0 0 0 0 0 19 0 0 0 0 28 7 0 0 0 9 8 10 35 51 0 13 33 0 0 0 4 0 0 21 0 0 0 11 28 0 0 0 0 0 3 8 11 4 0 0 0 0 1 2 0 31 50 2 3 1 5 5 0 0 0 0 0 17 41 130 199 190 18 0 0 0 0 0 0 97 129 0 0 0 0 0 0 0 0 0 0 0 0 0 0 0 1 0 0 51 64 61 40 43 54 109 117 112 106 117 189 71 121 79 0 0 40 0 0 0 0 0 0 77 146 83 57 133 204 83 128 40 69 0 0 8 0 39 0 0 0 0 0 0 75 60 77 6 0 0 0 0 0 34 41 41 28 2 0 20 1 32 0 3 0 0 0 0 40 80 73 40 67 48 6 0 0 255 88 109
194 85 170 0 0 0 0 0 0 151 203 140 100 84 43 62 101 67 49 55 1 0 0 0 173 39 0 62 62 40 7 29 69 15 23 0 0 0 17 41 46 93 48 34 50 144 45 0 0 6 132 149 111 91 0 0 0 155 134 102 0 18 79 0 0 0 0 0 0 121 83 16 0 0 0 63 28 0 0 0 0 73 65 25 29 17 74 76 77 36 0 0 0 8 23 0 21 0 0 0 0 0 0 0 0 61 32 187 176 181 146 255 255 255 0 0 0 83 107 160 255 255 255 0 0 0 0 0 0 25 0 0 70 119 71 0 0 0 0 12 0 0 0 0 0 0 6 0 0 0 0 0 0 0 0 0 116 66 11 11 22 75 88 137 135 255 234 55 0 0 0 0 0 0 174 126 43 84 60 50 0 0 20 13 0 0 0 21 45 0 0 0 24 23 18 0 0 8 0 28 77 22 0 0 14 0 0 0 27 5 0 0 0 0 12 50 9 53 115 0 11 24 9 4 6 13 0 16 18 0 0 0 0 16 0 0 0 0 5 18 9 0 45 0 0 0 0 0 15 9 15 6 0 11 45 24 0 0 7 10 0 0 1 22 17 0 0 0 7 22 0 0 0 63 80 98 236 255 255 0 0 0 51 38 3 40 24 0 11 9 4 0 0 16 0 0 0 0 0 0 0 0 0 0 0 0 0 0 0 0 0 0 74 9 0 27 0 0 44 113 61 0 0 0 0 0 0 68 125 139 67 147 171 104 71 0 28 0 0 0 0 0 0 0 0 46 2 0 5 0 0 0 0 0 47 51 59 101 134 110 0 0 0 0 0 0 0 0 0 75 43 33 0 5 14 45 35 47 0 0 0 255 142 198
220 78 129 16 0 0 0 0 0 100 159 159 87 120 130 100 117 106 39 112 69 0 0 0 159 50 0 40 87 110 0 33 11 0 17 0 0 0 0 22 54 0 82 96 15 30 0 0 0 117 167 0 0 0 0 0 0 0 0 0 0 0 0 46 14 1 24 23 21 43 40 51 0 0 0 57 26 67 0 0 0 55 20 42 11 19 0 0 0 0 138 141 125 0 0 0 1 4 0 35 69 87 0 0 0 0 0 0 82 62 119 255 255 255 0 0 0 0 0 0 0 0 15 0 0 0 0 0 0 78 56 0 0 0 0 122 130 173 0 0 29 0 0 0 0 0 0 0 0 0 0 0 0 108 72 20 101 76 0 40 38 31 255 220 91 0 0 0 0 0 0 74 98 92 77 62 8 40 47 3 30 0 0 0 0 37 7 24 0 0 0 0 8 0 0 0 0 0 15 11 50 0 15 44 4 16 0 10 4 27 0 0 0 10 0 0 1 0 0 0 0 0 0 0 0 0 10 45 0 6 24 19 17 0 1 0 0 14 11 0 6 0 0 0 0 2 6 53 76 2 0 0 0 0 0 0 19 52 0 0 0 18 5 0 0 0 43 0 18 28 0 0 40 33 34 31 255 255 234 0 0 0 0 22 0 71 49 72 49 36 6 14 18 19 0 0 0 5 0 0 0 0 0 0 0 0 0 0 0 0 0 0 0 0 0 204 230 188 115 216 151 0 0 0 25 29 49 60 97 70 160 215 156 188 89 0 0 0 0 0 0 0 38 19 31 70 104 51 0 0 0 7 0 0 68 114 154 21 0 0 16 8 61 0 20 2 0 0 0 91 87 96 13 0 0 0 0 0 3 0 0 255 106 160
255 255 255 44 5 0 0 0 0 0 14 0 81 115 118 141 151 128 50 90 76 0 0 0 164 17 0 75 90 135 37 43 51 4 6 33 0 0 11 36 88 117 122 144 51 0 0 0 186 255 255 0 0 0 0 0 0 0 13 46 125 147 113 0 0 28 0 0 0 27 2 0 0 15 46 64 56 34 87 101 68 0 5 0 0 0 2 87 98 94 0 0 0 0 0 0 0 0 0 5 0 0 199 208 171 0 0 0 0 0 0 77 95 54 223 255 255 98 103 200 74 19 88 255 255 255 0 0 0 0 27 22 0 0 0 0 0 0 0 0 0 0 40 38 0 0 9 113 106 33 0 0 0 116 71 12 73 52 69 246 198 79 0 0 0 0 0 0 0 0 30 191 129 40 48 23 0 0 0 0 18 17 23 0 16 30 5 0 0 15 0 0 10 10 57 27 10 0 0 41 64 24 0 0 19 27 30 0 0 0 0 28 75 0 30 66 3 0 0 18 0 22 15 0 0 0 0 0 13 1 0 17 0 10 0 0 20 0 0 35 14 0 3 0 0 0 0 0 0 25 16 12 0 9 0 16 7 0 0 8 17 0 0 0 0 0 14 4 6 5 8 2 0 0 0 15 235 255 221 0 0 0 0 0 0 39 47 45 41 63 25 28 35 48 0 27 34 73 91 93 0 0 0 33 68 115 0 0 0 0 0 0 0 0 0 255 255 255 109 173 87 0 0 0 41 94 23 173 247 205 255 255 108 0 0 0 0 0 0 0 0 0 50 37 0 0 0 0 0 0 1 136 116 88 42 61 17 0 0 0 0 0 0 0 0 0 10 22 9 113 147 169 0 0 0 0 0 0 0 0 0 255 132 165
255 255 255 0 0 0 0 0 0 0 14 4 49 75 79 68 142 108 68 146 145 0 0 0 102 6 0 54 67 66 26 29 0 36 10 0 0 0 40 42 46 0 138 172 15 0 0 0 217 219 107 22 7 59 0 0 0 0 0 0 11 4 0 0 0 0 0 0 0 11 46 52 0 0 0 0 0 0 0 0 0 142 116 112 0 0 0 52 47 50 0 0 0 0 0 20 69 35 6 0 0 0 44 20 0 0 0 0 26 27 0 0 0 0 0 0 0 10 60 1 177 255 255 0 0 0 0 0 0 0 0 0 0 0 25 22 14 0 0 0 0 1 9 31 0 0 0 0 4 47 93 24 0 235 216 163 255 206 45 0 0 0 0 0 0 0 8 0 208 172 71 49 18 0 0 1 33 0 0 55 40 3 0 0 0 27 24 34 0 0 1 0 16 0 0 0 0 0 0 11 103 0 0 0 0 38 99 14 0 0 3 0 0 11 0 45 0 0 0 0 33 64 0 3 52 0 0 0 27 0 0 22 20 0 0 0 0 31 25 5 0 0 15 0 0 89 0 0 0 15 25 74 0 6 26 0 11 24 1 10 1 7 5 32 6 6 23 0 6 22 27 14 37 0 0 0 147 173 160 125 225 255 0 0 0 29 57 91 71 38 6 0 0 0 0 0 0 38 0 0 34 4 0 0 0 0 0 0 0 0 0 0 0 0 0 225 217 106 67 88 0 9 24 0 157 218 190 251 209 19 0 0 0 0 0 0 0 0 0 39 81 49 0 0 0 0 0 0 62 59 12 51 14 0 0 0 0 0 0 0 0 0 0 0 0 0 66 100 139 4 20 0 0 0 0 41 68 42 0 0 0 255 227 255
255 186 175 132 150 150 31 0 0 0 1 0 103 112 87 96 75 52 62 123 99 0 0 0 72 0 0 75 66 73 2 87 33 0 0 0 0 6 63 12 53 0 182 174 111 0 0 0 218 195 187 0 0 0 39 30 14 0 0 14 0 0 0 27 44 57 0 0 0 57 54 24 0 0 0 0 0 18 35 114 140 95 85 40 0 0 0 127 127 83 27 0 3 0 10 0 0 0 0 255 255 255 0 0 0 97 41 103 0 0 0 29 63 33 232 255 255 0 0 0 0 0 0 123 29 0 0 0 0 0 0 0 32 22 17 0 3 5 0 0 0 0 0 5 113 74 10 255 235 81 255 183 34 215 152 49 0 0 0 0 0 0 159 113 9 122 100 20 58 0 0 30 34 0 5 1 0 13 22 1 16 0 0 0 21 85 17 0 0 0 0 4 0 0 32 0 3 0 2 0 0 0 9 14 18 0 0 0 16 26 1 0 0 16 0 0 8 0 0 12 26 3 19 0 0 0 0 36 2 20 59 0 4 40 0 0 0 0 3 34 0 10 0 3 20 6 0 0 0 0 0 0 0 0 15 0 0 0 0 0 0 0 0 10 26 21 0 0 0 0 2 5 12 0 0 0 46 67 97 255 255 254 0 0 0 8 60 91 29 15 0 8 0 0 18 22 40 0 3 0 68 57 35 0 0 47 30 0 0 4 56 21 0 0 0 155 221 106 132 233 255 158 196 95 116 6 0 0 0 0 0 0 0 0 0 0 81 89 52 0 0 0 0 0 0 40 51 13 124 122 108 0 28 49 0 0 17 2 0 0 0 15 15 77 65 71 69 53 56 0 0 0 61 45 46 0 0 0 44 48 32 255 108 128
255 95 131 113 110 22 0 0 0 0 0 0 38 63 51 90 120 86 28 110 122 0 0 0 39 0 0 83 61 41 37 42 47 2 10 64 0 1 39 19 43 23 128 109 27 0 0 0 81 141 115 0 0 0 0 0 0 25 82 120 27 0 0 82 54 0 0 0 0 24 0 10 154 159 137 0 0 0 14 0 0 10 17 0 0 0 0 109 123 160 47 40 0 0 0 0 0 0 0 228 224 255 0 0 0 203 255 111 0 0 0 0 0 0 0 0 0 255 255 255 0 0 0 47 95 139 0 0 26 29 28 0 0 0 0 27 32 26 0 0 0 156 108 23 216 130 0 0 0 0 0 0 0 0 0 0 52 7 0 106 61 7 119 89 55 25 7 48 23 11 6 28 29 33 0 0 0 0 0 16 15 31 0 0 0 0 21 70 74 3 27 98 7 0 0 15 26 15 33 5 17 0 19 0 6 9 9 15 17 8 0 21 20 8 0 0 0 0 54 6 0 0 0 13 43 0 0 0 1 0 0 3 0 0 0 0 17 18 1 0 0 0 0 0 2 6 0 3 47 17 0 0 2 0 0 0 0 0 11 18 12 0 5 33 0 0 0 0 17 24 0 1 19 7 0 4 6 4 49 249 255 206 0 0 0 0 0 0 32 22 22 27 50 23 0 0 14 0 7 20 0 8 0 0 0 0 0 15 58 0 0 0 0 0 0 202 233 118 242 255 238 163 79 0 0 0 0 0 0 0 0 0 0 0 0 0 13 0 0 0 0 0 96 63 88 125 154 151 31 34 11 0 0 0 0 0 0 0 0 0 15 0 0 37 55 2 22 19 0 46 52 38 0 0 0 0 0 0 41 48 21 255 194 235
188 27 73 35 85 80 0 0 0 0 0 0 58 123 121 85 76 77 28 68 12 0 0 0 35 0 0 68 78 34 0 31 0 9 5 0 0 1 19 43 44 29 110 76 0 151 111 92 0 0 8 0 0 0 0 0 0 0 0 0 4 7 37 111 47 57 0 0 0 0 0 0 0 0 0 0 0 0 0 0 0 177 255 255 0 0 0 191 198 255 252 255 255 99 51 10 0 0 0 252 255 215 0 0 0 59 61 205 255 255 255 0 0 0 250 255 255 5 0 0 208 197 145 0 0 0 0 0 0 19 10 23 32 35 40 0 0 4 0 0 0 0 0 0 0 0 0 0 4 16 121 54 0 144 78 30 112 83 44 102 48 4 21 12 0 8 33 1 0 0 0 2 0 0 0 0 26 0 4 39 0 24 79 0 0 0 4 0 0 0 0 0 0 0 21 2 0 0 0 0 0 0 0 0 0 10 39 27 33 16 0 0 0 0 0 0 0 0 0 6 0 4 0 0 0 29 0 0 0 24 50 0 0 0 6 0 3 15 17 0 10 27 91 8 1 0 1 0 28 9 3 0 5 20 39 17 45 29 10 0 77 0 0 0 7 0 0 3 10 8 5 4 20 8 19 25 10 7 28 178 245 193 1 0 0 0 0 0 8 39 69 0 2 0 28 0 0 60 72 54 0 0 35 0 0 0 99 91 45 28 11 0 0 0 0 38 0 0 0 0 0 0 0 0 0 0 0 7 2 0 82 95 74 35 33 0 0 0 0 55 74 38 68 71 54 17 20 0 0 0 0 0 0 19 0 0 0 74 53 28 0 45 64 71 55 85 0 0 14 25 49 93 0 6 21 4 0 0 56 35 9 222 86 142
255 166 210 0 0 0 12 0 0 0 0 0 24 82 91 22 30 32 0 39 42 0 0 0 0 0 0 68 56 43 21 45 67 6 18 0 0 0 0 37 55 26 115 125 59 228 130 0 0 0 0 0 0 6 0 0 0 0 16 21 0 0 0 96 75 82 41 124 104 0 0 0 255 255 255 0 0 0 0 0 0 255 255 255 0 0 0 0 0 0 0 0 0 255 255 255 0 0 0 255 255 255 246 213 143 0 0 0 72 1 0 0 0 0 0 0 0 255 255 186 0 0 0 30 19 0 0 0 0 36 98 78 0 0 0 0 0 0 0 0 0 118 51 0 82 11 0 118 108 64 83 38 0 58 51 100 48 51 57 15 0 0 0 0 27 0 5 8 4 26 18 7 0 0 0 2 0 18 0 0 14 14 40 11 4 0 0 0 50 0 0 0 12 11 0 14 29 0 0 0 0 0 3 49 0 17 39 4 0 0 0 0 0 0 10 38 15 0 0 16 2 0 0 1 5 10 0 4 24 11 21 0 0 24 0 0 0 0 0 15 11 10 23 0 0 2 3 0 9 0 0 0 0 0 52 0 0 0 0 0 0 0 3 12 16 9 0 0 0 0 0 4 0 24 19 0 7 17 20 92 122 103 255 255 255 0 0 0 2 36 26 0 0 0 0 0 0 34 62 8 0 0 0 0 39 53 5 44 22 0 0 0 34 0 17 0 0 23 0 0 0 0 0 45 0 35 42 60 43 2 0 0 0 0 0 0 0 0 0 114 170 214 21 40 16 0 0 0 41 48 41 0 0 2 0 0 0 117 151 145 53 78 78 43 17 0 36 64 11 0 0 0 0 0 0 0 0 0 0 0 23 236 126 190
255 143 145 0 0 0 0 0 0 0 0 0 168 231 216 143 140 64 173 230 216 0 0 0 0 0 0 76 63 80 50 68 67 10 14 0 0 2 11 86 74 25 130 84 32 0 0 0 0 0 0 5 3 37 23 0 4 0 0 0 23 2 13 60 63 25 0 0 0 0 0 0 0 23 0 0 0 0 0 0 0 255 255 255 0 0 0 90 91 75 0 0 0 255 255 255 0 0 0 0 0 0 255 255 255 0 0 0 34 0 0 255 255 255 0 0 0 0 0 0 96 97 251 0 0 0 0 0 0 0 37 77 0 0 3 0 0 0 5 6 0 159 110 78 43 99 97 105 51 3 0 0 0 0 0 15 14 24 0 5 0 0 38 48 39 0 0 0 19 0 0 11 15 69 0 0 47 0 3 0 0 0 0 0 1 9 5 0 0 0 37 70 10 0 0 10 31 64 1 0 0 19 0 0 13 0 0 10 0 0 16 16 8 0 18 49 2 9 41 0 0 23 17 10 0 0 3 1 8 17 0 0 0 3 8 15 0 0 0 17 3 0 0 0 0 0 0 8 53 33 26 0 27 14 51 0 10 77 0 0 0 2 0 0 0 0 7 0 16 19 3 0 0 2 0 0 0 0 51 0 0 0 255 255 255 0 0 0 0 31 22 60 67 70 26 38 0 0 0 33 0 0 17 33 26 4 7 0 0 3 0 0 33 16 0 20 22 27 0 0 0 0 0 0 138 106 38 38 33 0 0 0 0 48 12 0 51 41 0 0 0 51 0 0 0 0 0 0 0 0 0 0 0 0 19 9 5 57 81 94 18 46 48 51 79 172 29 42 6 0 0 1 0 0 5 0 46 39 0 0 0 255 201 151
255 181 213 6 1 0 0 0 0 0 0 0 255 255 190 66 61 71 81 90 53 39 119 54 0 0 0 71 21 0 41 45 0 4 0 0 0 0 0 28 62 51 191 120 0 255 215 210 0 0 5 0 0 0 0 0 6 0 0 0 0 0 0 7 0 0 0 0 0 101 79 29 0 0 0 177 107 136 0 0 0 176 131 102 0 0 0 255 255 255 0 0 0 0 0 0 233 255 255 0 0 0 226 231 95 0 0 0 0 0 0 41 0 0 130 93 179 74 8 10 255 255 255 255 255 255 0 0 0 0 0 0 0 0 0 67 44 47 29 0 0 36 39 0 0 0 0 15 0 0 1 24 60 0 0 0 3 0 0 1 20 39 2 0 0 0 0 0 15 26 0 14 0 0 0 9 0 5 0 1 1 10 27 8 10 0 7 0 0 0 0 8 49 30 0 0 0 0 0 0 0 0 22 85 9 10 46 7 8 6 3 22 2 0 0 0 6 6 0 2 0 0 2 20 15 6 17 13 21 0 43 0 0 0 0 17 12 35 26 48 4 0 11 25 0 13 0 0 0 0 9 0 0 0 0 13 37 0 0 1 0 16 25 115 0 0 0 0 8 33 2 0 30 10 24 10 7 13 22 6 11 15 255 255 245 0 0 0 0 0 0 0 0 0 14 26 68 0 0 0 9 36 73 1 0 0 36 45 23 22 42 79 0 0 19 0 0 0 0 0 0 77 62 24 103 44 0 16 11 10 0 9 99 88 119 74 0 23 40 0 0 16 8 0 0 0 0 0 0 0 0 0 2 0 119 86 21 64 47 48 39 0 0 0 1 27 0 0 0 0 0 0 0 0 0 0 0 0 3 0 45 255 255 230
255 237 255 255 139 137 163 10 86 189 55 176 255 255 255 255 255 255 255 255 255 255 255 255 255 202 140 255 255 255 255 255 255 255 255 255 255 255 255 255 255 255 255 255 255 207 110 215 181 89 189 206 54 140 255 166 205 190 94 208 255 138 173 255 255 255 255 180 232 255 255 255 223 125 148 255 156 237 255 255 255 238 52 80 97 0 28 255 255 255 112 0 93 255 218 255 255 255 255 140 0 17 255 255 255 201 50 114 86 6 120 255 255 255 255 138 100 12 0 0 255 220 209 255 130 237 255 255 255 255 143 224 255 255 218 255 255 200 255 255 254 255 255 222 255 255 200 255 255 255 255 255 255 255 255 255 255 255 255 255 255 255 255 255 250 255 255 255 255 255 250 255 255 255 255 255 213 255 255 255 255 255 238 255 255 247 255 255 255 255 255 226 255 255 255 255 255 255 255 255 255 255 255 255 255 255 255 255 255 255 255 255 255 255 255 255 255 255 255 255 255 255 255 255 255 255 255 255 255 255 255 255 255 236 255 255 255 255 255 255 255 255 255 255 255 255 255 255 255 255 255 255 255 255 255 255 255 255 255 255 255 255 255 255 255 255 255 255 255 255 255 255 255 255 255 255 255 255 255 255 255 255 255 255 255 255 255 255 255 255 255 255 255 163 255 208 196 255 255 230 255 255 255 255 255 255 255 255 255 255 255 238 255 255 220 255 255 255 255 255 255 255 255 255 255 255 191 255 244 222 255 231 180 255 195 197 255 142 212 255 255 255 255 255 255 255 236 247 255 255 255 255 255 255 255 255 255 255 255 255 255 251 255 255 162 148 221 75 112 247 128 200 250 92 130 255 251 242 255 255 255 255 255 255
