P3
128 128
255
199 143 112 255 195 151 228 161 118 226 158 114 222 156 113 223 154 107 224 155 109 218 154 109 225 153 106 226 158 109 234 172 119 233 176 130 241 174 118 237 166 125 220 146 109 182 116 108 161 96 85 155 93 94 171 106 95 171 103 90 177 110 92 174 107 87 174 107 89 177 106 90 179 110 90 179 109 87 185 117 90 193 118 86 197 119 91 199 123 91 198 126 98 210 131 98 199 132 101 206 132 107 199 127 96 206 128 100 204 128 95 202 128 96 206 131 102 208 133 102 209 135 113 210 134 92 210 133 106 207 133 98 206 135 104 207 130 99 207 131 97 206 136 92 207 130 96 208 137 101 205 132 107 206 133 108 202 130 102 203 131 94 204 128 88 205 128 94 201 128 95 201 128 101 204 128 93 206 132 90 208 134 99 207 133 95 207 132 103 209 132 100 205 133 101 202 129 94 203 131 91 208 130 94 209 135 102 201 131 96 203 133 102 203 128 99 202 134 110 204 132 102 204 126 96 195 125 97 196 125 96 188 119 99 175 110 90 173 109 90 183 112 88 206 132 95 219 147 103 222 159 115 225 162 111 222 160 103 224 153 104 219 151 113 221 151 115 218 157 119 223 152 103 221 154 107 220 149 99 226 150 103 220 149 93 221 154 98 223 151 99 224 154 108 220 158 108 216 146 108 227 174 118 241 196 137 255 226 158 255 229 169 247 207 152 200 144 112 167 100 90 158 93 82 180 121 99 191 120 90 194 120 85 194 123 91 185 121 99 185 122 101 191 121 97 195 124 93 193 122 99 195 128 99 186 119 90 191 120 92 192 117 91 195 131 100 196 125 95 190 120 87 179 106 88 219 151 117 255 189 145 216 154 107
255 197 145 255 255 200 255 214 162 255 211 160 255 211 143 255 204 141 255 206 145 255 202 143 255 208 142 255 212 145 255 224 158 255 234 170 255 225 153 255 224 157 255 190 136 247 154 134 216 121 116 207 121 115 230 134 115 234 137 114 235 139 114 239 142 117 232 142 115 236 142 112 237 139 109 234 143 117 240 149 120 251 154 118 255 166 130 255 164 128 255 171 127 255 172 134 255 177 131 255 175 129 255 173 130 255 174 125 255 174 128 255 170 118 255 172 130 255 173 129 255 180 138 255 176 126 255 181 132 255 180 131 255 177 135 255 180 136 255 174 132 255 180 133 255 175 127 255 176 133 255 171 137 255 179 134 255 169 134 255 178 127 255 168 124 255 176 124 255 175 134 255 177 134 255 172 129 255 169 121 255 176 128 255 173 124 255 178 130 255 177 131 255 177 135 255 175 128 255 172 126 255 172 128 255 178 136 255 169 126 255 173 129 255 169 128 255 176 133 255 169 127 255 165 120 255 165 127 255 167 129 251 162 134 236 143 116 228 137 117 241 143 108 255 171 131 255 193 141 255 209 159 255 212 156 255 212 149 255 204 146 255 203 145 255 204 150 255 204 148 255 200 142 255 202 135 255 204 136 255 204 138 255 205 136 255 203 141 255 207 136 255 209 149 255 208 140 255 193 141 255 226 154 255 255 182 255 255 211 255 255 225 255 255 204 255 205 149 235 147 119 211 113 104 239 149 124 255 162 116 254 162 116 252 162 118 250 166 131 248 161 132 250 160 129 255 168 126 255 164 127 255 169 131 252 159 127 255 165 128 255 161 121 255 167 128 255 167 129 255 165 124 255 165 120 255 175 137 255 204 159 218 148 120
229 155 109 255 208 147 227 151 102 225 154 107 227 152 106 221 150 107 227 149 95 225 148 96 223 156 104 227 159 115 236 176 117 238 176 118 244 173 106 240 164 108 215 139 91 177 102 86 156 86 73 154 83 75 166 99 83 179 109 89 179 110 88 175 107 85 176 102 78 175 104 76 176 104 86 177 101 80 181 112 89 191 113 85 193 123 94 201 121 91 196 122 92 202 125 95 204 129 91 206 123 93 205 136 99 204 127 98 207 134 105 205 124 91 206 134 100 204 131 98 209 132 102 211 135 96 212 132 97 214 138 95 208 130 94 211 131 92 206 132 93 213 131 94 204 132 107 207 133 100 205 134 113 209 134 97 205 130 106 207 131 101 203 130 97 210 126 97 206 128 93 201 124 92 204 126 92 205 127 87 205 132 96 210 130 92 205 130 95 208 130 97 208 135 105 207 131 101 202 129 96 200 130 100 202 130 103 199 129 101 202 128 95 196 125 96 202 126 97 198 124 93 200 124 98 199 123 88 198 125 98 193 119 95 181 115 97 170 101 86 164 99 75 187 113 86 209 138 100 223 155 113 226 161 113 223 159 108 223 158 111 221 155 108 219 156 110 226 156 108 223 158 109 226 155 101 227 152 102 224 154 104 220 150 97 228 151 99 221 151 93 223 156 106 217 150 101 216 149 111 214 149 100 230 178 129 247 212 144 255 235 173 255 236 165 236 188 133 183 126 98 154 92 80 169 99 88 187 117 87 192 122 88 193 120 92 185 122 91 187 116 91 192 116 87 190 117 91 193 120 80 191 122 89 195 121 87 194 123 91 196 125 90 196 125 97 211 135 99 222 143 99 204 134 100 172 106 86 157 90 99 110 58 64
222 153 107 255 206 144 226 155 106 223 156 113 224 152 100 226 154 101 224 156 108 226 156 115 229 163 112 230 166 113 232 167 108 238 169 111 239 166 103 235 157 99 215 136 88 180 103 80 158 83 71 153 86 76 171 95 76 181 105 81 179 105 80 181 107 81 182 107 85 177 106 76 178 101 83 183 100 75 184 109 85 196 117 79 195 120 93 199 124 94 200 126 94 205 123 86 208 127 91 208 126 91 206 135 101 208 131 93 211 137 98 211 127 90 208 133 96 204 126 86 205 131 96 209 134 89 214 131 89 212 136 97 209 127 94 212 135 105 208 134 97 210 134 100 208 134 100 211 129 92 200 129 104 212 128 92 206 134 103 208 135 100 206 133 101 206 130 95 207 133 97 207 130 92 209 125 92 210 131 86 211 134 103 210 133 97 208 130 94 204 127 92 211 132 95 209 134 95 205 130 100 203 131 97 204 132 96 207 130 100 202 124 88 205 127 95 203 127 88 206 128 96 199 125 89 200 125 100 198 128 102 191 121 95 183 112 93 176 109 87 167 98 88 182 110 92 194 126 108 223 152 123 225 159 120 223 160 118 218 163 117 225 157 109 226 158 109 228 158 107 225 158 115 230 156 109 226 155 103 225 158 112 223 156 104 224 159 109 226 151 94 217 153 105 214 150 106 216 149 113 213 139 99 218 163 114 237 191 136 253 224 160 255 242 165 255 227 161 216 164 117 181 114 90 163 89 67 190 111 88 183 118 96 185 119 98 189 121 95 193 125 92 194 123 94 193 127 93 196 121 86 192 123 93 195 125 92 194 126 98 206 126 91 206 135 98 226 143 98 209 131 94 173 104 84 97 51 59 92 40 70 61 21 49
228 154 105 255 206 140 229 154 95 225 154 107 227 157 103 223 151 105 223 149 103 222 158 113 231 165 112 234 168 114 230 167 111 234 166 102 236 168 112 235 162 106 209 137 103 179 107 78 150 86 69 152 89 80 170 101 80 179 106 88 182 108 82 183 106 81 179 113 80 177 99 79 177 103 77 179 100 72 192 111 77 198 112 77 199 118 85 198 121 85 199 122 95 205 124 82 203 128 103 208 127 92 204 131 105 211 134 97 208 131 105 210 132 97 207 131 104 203 134 97 206 128 94 205 127 90 209 130 90 211 133 97 212 131 90 209 127 90 212 129 90 209 127 90 206 131 98 207 130 90 209 136 103 208 136 101 210 136 105 213 132 100 205 129 99 206 132 99 207 127 94 205 131 92 209 126 82 209 130 92 215 138 102 213 136 108 210 134 103 207 128 89 209 131 97 208 126 91 202 128 94 205 128 99 206 129 97 202 132 99 206 125 89 200 127 99 204 125 98 203 130 99 210 132 97 199 127 94 198 124 98 195 122 95 190 123 97 185 112 89 170 106 92 170 99 83 184 120 98 212 136 103 227 154 105 228 158 102 224 165 112 228 160 113 229 160 106 227 160 102 232 166 110 231 164 115 228 159 109 228 159 110 225 153 108 228 156 110 222 149 101 222 153 103 218 152 108 218 150 114 209 139 105 215 137 97 227 167 114 250 204 144 255 234 172 255 244 173 244 208 145 200 145 107 165 92 77 162 94 79 184 116 92 190 117 98 191 127 101 195 122 91 194 121 90 185 118 96 189 129 99 188 128 105 196 128 95 201 127 93 215 140 99 228 144 101 214 133 96 166 91 74 99 57 71 68 32 61 100 54 90 86 43 63
222 152 111 255 209 143 227 156 106 228 157 104 229 152 99 225 151 102 224 158 117 230 165 126 227 169 125 234 168 120 229 161 112 231 163 114 231 162 111 234 158 102 221 135 93 188 110 81 161 89 77 159 89 76 167 96 80 177 104 77 180 97 71 182 109 79 181 108 89 173 107 85 179 102 77 182 105 78 188 109 77 190 119 84 195 117 90 199 122 85 200 122 91 208 129 88 200 127 104 210 129 88 205 131 93 211 126 84 210 129 94 207 133 99 209 133 94 209 128 100 209 131 90 209 129 88 213 131 88 215 134 94 215 131 94 208 132 91 211 127 90 208 131 96 210 132 94 211 133 90 211 129 91 209 128 95 207 129 93 205 130 97 202 130 91 209 130 93 202 132 94 209 128 88 202 124 90 204 129 91 209 137 105 209 133 103 210 135 98 211 130 86 209 126 94 208 130 90 207 130 95 208 131 88 208 126 93 206 128 91 203 126 97 203 127 99 211 131 100 209 129 98 208 130 89 199 124 95 199 129 95 194 119 95 188 119 95 184 115 89 169 106 87 168 102 85 182 115 108 205 139 111 225 158 114 224 155 111 227 163 123 229 167 119 232 166 126 227 162 113 227 163 111 227 161 109 230 157 104 222 158 112 225 152 106 226 160 108 227 157 112 218 155 109 222 149 108 215 150 109 219 148 112 210 138 100 218 154 105 235 182 118 251 216 150 255 241 176 255 235 164 234 186 124 190 124 82 157 88 70 173 103 89 182 118 96 197 129 96 194 122 93 195 128 95 189 120 96 191 129 107 187 125 109 195 127 106 210 139 105 237 145 99 220 151 112 167 99 80 93 52 69 64 21 48 65 32 52 122 62 80 98 52 59
226 155 103 255 210 145 231 156 101 225 156 112 226 157 103 226 152 110 223 158 110 229 161 107 231 172 122 236 163 110 229 161 118 226 162 110 229 165 111 239 162 108 221 145 93 183 107 78 156 90 72 156 85 75 169 99 77 186 103 81 184 110 78 182 111 83 177 101 75 170 105 77 176 97 77 173 105 80 187 110 80 187 112 84 197 124 81 201 122 83 199 123 92 201 129 95 198 129 97 207 127 85 202 124 90 209 131 92 208 132 94 201 130 99 203 130 104 199 132 109 209 126 89 208 130 89 214 132 88 210 135 94 217 135 94 208 123 88 212 126 86 208 127 87 211 134 101 204 130 100 213 133 96 205 122 83 206 126 84 205 125 94 207 129 93 204 126 98 205 126 90 205 128 90 202 124 90 206 125 89 205 130 94 216 130 99 207 135 101 213 125 90 205 134 98 205 124 88 203 127 95 203 127 89 209 127 94 204 129 93 202 127 92 202 122 93 204 127 89 208 126 89 211 131 90 206 129 86 197 126 97 198 123 101 192 118 100 188 114 88 175 101 82 166 100 87 181 112 92 196 132 105 221 149 114 223 161 119 228 166 124 230 162 121 229 162 119 226 158 115 227 160 113 226 163 103 227 157 101 224 158 103 226 153 102 226 154 114 225 155 116 223 157 118 218 156 116 218 152 105 217 148 106 213 136 99 209 135 100 229 162 104 244 205 141 255 234 160 255 245 180 250 220 147 203 149 103 160 92 73 161 82 66 188 115 87 199 124 85 191 122 94 192 120 93 177 113 95 190 121 100 188 125 108 214 144 110 231 146 105 214 140 102 163 102 90 97 55 72 70 32 60 72 33 57 92 43 63 131 75 89 100 52 66
230 158 107 255 210 148 229 161 113 229 159 112 227 156 117 229 161 113 231 166 122 234 170 116 229 169 123 228 167 115 223 159 101 225 161 109 230 161 94 237 164 98 224 138 87 186 111 82 167 87 81 154 84 71 175 95 80 180 106 75 180 105 84 185 104 79 178 102 82 175 102 80 180 105 81 179 105 82 186 111 83 194 115 83 198 121 83 199 120 84 192 120 93 200 126 91 206 126 91 208 125 84 205 123 89 206 129 90 211 130 87 203 129 99 205 129 101 205 129 99 214 128 91 209 133 88 213 129 91 211 134 93 209 124 93 211 125 83 206 127 93 209 129 100 204 137 113 213 130 100 208 122 85 209 121 79 205 120 79 200 121 87 200 122 95 209 129 95 207 126 92 210 127 89 202 123 90 202 127 92 198 121 95 208 128 94 204 129 96 213 128 92 209 132 97 208 130 94 206 127 94 206 127 95 203 132 95 209 128 96 205 126 98 207 129 93 205 129 99 204 123 84 206 127 95 202 129 91 203 125 98 201 128 92 190 115 94 185 117 92 177 103 83 175 104 96 186 115 98 202 134 116 225 147 117 221 158 121 227 162 122 230 163 124 224 161 128 222 163 121 222 158 111 226 160 106 225 158 104 227 158 106 221 152 103 227 155 99 225 155 108 220 155 115 220 158 110 224 152 107 219 155 100 215 151 108 207 137 106 214 142 99 233 175 121 250 213 151 255 241 183 255 243 173 238 194 136 193 135 95 160 85 70 170 101 85 196 123 82 188 121 95 196 122 87 189 118 92 193 120 89 195 132 95 224 144 106 211 135 90 163 89 77 94 53 72 67 32 65 80 44 70 91 42 54 100 50 61 137 70 75 101 51 58
228 155 105 255 212 149 228 159 114 226 160 117 228 161 115 232 163 112 233 173 117 233 172 106 233 167 106 229 160 107 224 159 110 223 158 109 235 164 112 236 160 104 225 144 91 183 104 76 158 88 74 153 83 70 172 99 79 179 102 74 180 109 83 178 103 72 175 101 69 176 101 71 180 102 83 178 102 82 187 108 83 188 113 82 196 114 80 197 118 81 197 123 93 197 129 93 202 129 92 206 127 88 203 126 87 206 128 91 209 131 92 205 129 92 199 129 102 206 128 100 209 133 94 209 125 87 203 130 91 207 131 108 208 137 112 212 133 91 211 125 94 212 125 86 210 129 104 206 129 92 204 127 90 205 124 80 202 120 87 198 117 87 201 120 91 203 125 98 204 127 95 200 127 97 200 123 92 205 126 90 201 128 95 206 127 92 203 127 100 205 129 96 205 132 101 201 129 98 198 127 99 202 127 100 205 132 95 209 129 94 205 127 90 201 124 95 206 125 92 205 125 91 207 129 99 207 131 96 203 127 100 206 122 90 194 119 101 195 117 93 178 109 92 175 106 90 191 111 91 201 129 110 217 146 111 224 153 121 224 157 116 226 161 118 225 157 113 222 157 114 222 157 116 225 158 121 223 160 119 223 158 107 223 158 110 228 154 105 224 155 110 223 155 106 221 156 112 224 156 111 220 151 109 220 151 104 207 139 108 212 135 95 221 158 106 242 196 133 254 230 170 255 248 191 255 227 165 214 164 119 177 110 77 168 90 70 187 109 82 195 124 94 194 122 91 191 124 94 207 132 95 216 144 102 211 133 99 156 88 72 86 44 61 61 22 50 71 32 65 93 46 58 105 50 62 103 52 60 135 72 85 96 53 60
228 159 107 255 213 147 227 164 113 230 166 123 228 166 125 238 174 121 240 173 114 236 166 112 231 163 108 227 161 109 226 155 102 231 160 105 231 165 111 236 158 98 222 139 89 183 102 71 160 85 76 153 78 67 171 97 89 177 100 79 178 106 90 177 102 75 180 99 80 172 99 82 176 99 77 178 105 79 186 110 77 195 114 84 192 115 91 194 119 95 191 120 93 199 122 87 205 122 91 203 124 93 202 123 94 200 123 89 202 121 87 206 124 90 205 123 95 204 122 87 212 127 86 207 127 87 203 124 91 205 126 95 211 127 98 206 132 93 210 129 97 211 130 99 206 132 108 210 125 94 213 122 88 208 124 81 206 119 88 204 118 79 197 112 71 203 109 60 200 109 65 207 112 66 195 113 74 200 121 80 198 123 90 203 127 92 199 131 107 203 132 104 204 135 103 210 131 96 204 128 98 207 129 97 204 128 104 203 125 97 205 128 101 201 125 93 204 126 95 205 125 86 201 125 92 201 122 88 202 125 94 205 118 83 192 124 98 190 120 96 183 111 93 186 110 88 193 112 90 202 129 106 220 144 106 216 147 115 218 151 114 224 159 121 226 158 121 220 156 119 220 161 109 222 156 120 226 158 118 224 156 110 224 153 107 222 155 104 223 154 116 225 155 109 223 157 115 227 156 105 224 159 113 217 152 117 216 149 110 205 127 95 211 134 87 229 168 111 250 213 153 255 244 187 255 249 194 247 217 153 197 141 103 163 92 69 164 86 76 191 119 88 194 122 88 208 135 96 222 142 106 207 138 99 158 98 81 89 39 53 70 28 54 69 30 54 89 48 63 98 52 63 100 51 63 99 48 59 129 61 74 95 47 57
229 157 95 255 212 148 227 159 116 226 173 132 232 169 113 233 168 117 233 164 109 235 164 114 233 161 107 231 158 106 227 162 104 232 158 110 233 165 108 241 160 104 219 132 90 177 96 67 150 79 69 147 76 59 169 99 83 179 101 83 180 109 87 174 98 74 170 101 72 175 100 82 175 101 79 181 101 80 182 105 82 191 112 87 189 118 90 196 122 84 200 119 84 197 124 96 198 123 90 205 129 101 203 128 94 202 123 91 203 123 90 204 129 97 201 127 102 210 129 102 207 125 88 204 124 94 205 126 92 206 128 103 210 130 101 211 133 102 215 128 88 209 130 92 219 124 85 211 128 86 216 119 74 213 118 73 208 116 75 204 107 79 196 120 96 204 129 111 192 137 123 189 125 111 180 108 91 183 99 68 197 97 60 200 108 63 205 119 81 200 123 97 207 128 102 203 128 95 200 127 96 208 126 95 211 131 99 209 125 85 209 128 95 202 125 96 212 125 88 207 129 93 211 129 85 204 127 95 207 125 95 199 120 91 193 120 98 190 117 83 182 107 87 181 105 84 185 116 100 203 128 103 209 139 116 214 150 116 216 154 122 222 156 117 220 160 117 224 156 116 221 160 126 224 156 120 221 158 116 225 154 106 223 156 110 227 155 101 226 160 114 229 156 102 222 155 108 223 152 108 220 149 110 219 150 110 213 144 101 215 138 89 209 129 88 221 154 103 240 191 131 255 230 163 255 243 185 255 237 176 228 177 121 185 120 82 163 83 63 174 103 86 191 121 93 213 138 104 208 135 97 164 97 79 92 40 58 63 27 53 69 30 60 95 52 67 99 52 66 101 54 71 99 54 67 97 51 67 123 62 80 93 45 56
227 162 106 255 209 147 227 165 114 233 167 132 236 172 120 233 165 118 227 156 95 230 157 113 227 162 111 231 161 108 231 159 102 229 162 111 237 162 112 238 163 101 218 135 86 184 106 82 151 83 71 154 81 70 170 99 84 180 103 84 180 104 88 179 98 77 175 99 77 171 98 76 175 98 75 185 99 75 191 107 80 199 119 87 196 118 86 198 124 90 197 123 89 196 121 93 206 121 81 201 127 96 201 126 95 199 127 95 204 119 87 209 130 99 206 128 99 206 126 98 207 120 85 205 125 96 205 132 99 205 128 96 210 126 91 211 130 89 211 129 84 210 126 90 209 127 93 203 128 110 205 136 113 195 133 112 203 132 109 201 125 87 204 141 107 206 152 117 204 156 133 206 163 132 201 154 132 200 145 129 203 145 118 199 133 109 198 122 92 181 98 69 200 111 84 202 117 83 210 132 97 204 126 91 202 127 103 204 132 99 205 127 97 207 124 87 211 124 92 201 128 93 205 127 93 204 132 98 206 124 89 200 122 93 192 119 90 190 115 94 184 111 88 179 109 93 185 107 90 200 127 99 212 138 110 217 144 115 216 153 119 217 151 117 221 155 117 221 154 120 223 157 116 225 152 112 222 154 108 226 155 107 223 154 106 226 153 99 226 158 115 224 155 108 225 157 118 221 150 100 219 151 101 215 143 101 219 141 96 221 140 96 207 129 88 210 137 92 229 171 119 249 214 151 255 241 179 255 250 194 253 219 150 203 147 101 158 88 64 164 88 72 201 128 95 195 120 91 158 96 79 94 47 63 71 34 65 72 33 58 89 47 63 98 56 71 101 59 71 102 61 78 99 49 65 99 45 64 125 54 74 94 48 63
229 159 109 255 212 149 231 162 105 234 168 121 233 168 110 232 151 110 226 141 87 219 147 105 229 154 97 231 164 113 229 161 104 227 162 118 235 163 106 241 164 104 222 137 90 181 104 80 150 84 72 154 83 72 167 97 78 179 101 80 177 106 81 179 108 83 176 105 79 177 103 80 186 110 79 184 104 78 191 114 91 197 121 88 202 122 86 203 123 78 203 120 84 204 131 92 208 129 90 206 131 101 206 124 85 204 130 97 208 126 87 211 137 107 216 135 101 206 134 106 211 124 91 203 125 97 204 126 87 211 127 83 212 126 89 216 124 89 214 126 88 209 127 93 213 137 105 196 133 117 200 140 116 189 135 123 196 153 142 199 152 148 206 181 178 209 187 188 207 202 206 198 184 186 197 169 167 195 155 139 206 163 136 209 159 133 210 161 130 200 141 120 191 114 87 186 106 83 193 98 68 204 123 90 199 130 102 203 128 98 205 128 102 210 129 93 206 129 96 210 129 94 206 130 94 206 129 98 208 129 92 200 121 98 198 113 85 191 116 92 180 103 85 178 107 89 181 110 97 199 127 101 215 144 106 216 148 115 212 144 120 216 148 113 220 145 106 221 154 119 222 154 122 223 154 107 226 149 104 222 150 105 226 156 114 228 154 102 230 155 100 223 154 104 224 151 100 219 146 100 217 138 97 213 142 103 215 140 97 216 144 88 214 136 95 204 128 87 218 146 94 236 186 120 255 221 162 255 243 189 255 242 173 233 191 140 206 138 96 185 108 86 188 114 86 158 91 76 92 45 60 65 26 56 71 32 57 96 51 65 96 48 62 107 56 71 97 58 67 104 57 69 95 46 64 95 41 49 126 62 78 94 48 57
230 162 109 255 217 152 234 170 114 239 171 118 231 161 104 230 140 85 218 132 78 224 136 92 226 150 90 235 163 110 229 166 107 234 165 119 230 168 115 244 164 107 217 140 90 185 99 73 156 78 67 159 80 66 169 95 73 175 96 73 178 100 73 175 97 78 182 107 80 174 103 80 184 103 78 184 104 79 191 110 81 193 112 81 207 119 84 206 119 82 208 123 81 203 120 84 209 126 90 206 128 89 206 127 93 204 124 92 209 127 85 214 127 89 212 127 89 210 129 90 207 121 81 207 119 85 205 120 93 212 132 105 208 132 103 211 132 96 207 132 96 204 138 108 204 154 138 196 147 143 199 159 148 187 149 140 198 163 151 200 155 138 205 167 144 209 167 122 218 184 146 221 187 141 221 205 177 218 197 174 219 206 186 216 193 176 208 185 167 204 171 159 202 157 135 196 146 129 187 110 87 185 106 81 192 109 87 201 136 107 205 129 106 207 128 93 210 127 103 203 124 91 207 128 102 201 123 89 204 121 86 201 118 86 196 114 80 189 115 91 186 108 90 174 104 91 187 112 86 206 128 91 221 143 101 216 149 116 216 143 114 216 144 114 218 143 113 215 152 117 217 151 119 219 153 109 219 154 107 223 152 102 220 148 110 226 155 111 221 150 101 221 150 101 217 146 98 223 143 104 218 146 103 214 139 102 216 144 96 217 139 97 213 142 95 207 128 89 204 128 88 227 162 106 244 203 147 255 237 181 255 253 195 255 230 165 238 179 124 188 124 90 144 78 70 90 39 55 64 26 51 66 32 62 93 52 65 103 56 66 103 53 55 97 57 68 97 54 67 96 50 66 97 52 68 96 44 58 125 60 81 94 43 58
231 158 107 255 218 140 241 177 114 238 172 114 233 149 92 213 128 79 207 110 72 211 131 85 231 154 94 236 170 115 234 170 111 237 170 114 236 167 110 244 166 102 226 142 92 185 106 71 152 78 64 143 73 69 161 87 79 171 104 88 176 104 88 176 109 84 178 99 77 177 102 77 183 101 79 184 107 77 189 106 81 202 116 83 207 122 84 207 122 86 204 126 91 205 125 92 210 126 87 212 122 85 210 125 83 208 127 98 208 128 93 210 132 102 206 120 88 209 126 93 213 127 92 218 144 106 210 138 100 207 141 116 199 129 102 202 127 101 192 122 101 187 135 122 194 145 135 187 140 134 197 142 119 202 147 130 207 159 147 201 169 167 204 170 165 208 170 150 209 181 172 208 169 145 202 162 146 209 166 129 209 181 152 220 191 153 220 197 169 236 221 179 220 202 177 211 179 153 202 150 138 186 119 100 184 102 82 187 95 68 203 122 94 204 125 98 202 133 105 206 124 88 206 123 93 201 118 92 198 121 92 193 114 94 193 115 88 186 108 90 175 107 84 176 104 80 183 110 92 205 125 99 216 145 108 222 147 113 215 148 116 219 144 109 218 148 108 217 147 118 221 147 116 217 154 114 224 153 104 221 147 105 222 144 106 217 146 107 220 149 103 214 144 101 222 144 98 218 143 99 219 142 109 214 143 106 216 139 101 215 141 90 221 141 85 216 137 85 210 119 77 211 135 83 232 172 118 252 217 150 255 247 194 255 255 204 255 232 163 206 149 109 119 48 49 60 21 58 68 30 53 93 46 62 94 47 59 110 63 79 104 53 63 103 54 70 91 40 59 95 52 70 105 56 71 94 50 64 130 62 78 92 42 52
233 164 104 255 221 143 243 177 118 242 167 101 218 130 83 198 103 57 189 105 69 219 132 90 232 165 108 239 171 110 235 167 110 238 168 111 238 172 112 241 164 103 224 142 91 182 102 70 150 79 72 141 71 65 159 87 71 168 95 77 170 95 78 173 98 75 180 95 70 179 101 74 175 99 78 177 103 86 183 109 89 194 113 80 201 116 84 207 118 80 197 116 86 203 121 81 202 121 90 202 123 85 204 123 89 204 124 95 211 126 91 205 120 94 220 144 99 213 133 98 213 144 107 196 126 100 195 129 108 195 142 123 189 129 111 184 133 121 189 128 105 186 133 119 192 136 115 191 131 123 201 139 112 202 149 124 198 139 120 195 156 138 193 144 127 204 157 137 203 155 131 209 163 136 217 179 142 220 192 160 209 184 167 215 181 150 211 184 155 224 190 152 230 209 185 229 209 187 220 209 184 205 165 144 195 138 111 178 99 80 181 101 78 190 102 78 202 126 97 199 119 95 202 121 92 198 119 94 198 117 93 196 114 82 195 112 84 186 113 82 178 107 90 170 98 80 182 110 90 205 123 94 217 139 110 225 151 112 218 149 110 220 149 112 216 144 105 219 148 115 219 150 117 215 150 120 221 154 114 219 154 106 220 140 97 217 143 97 216 137 95 222 148 101 221 142 95 219 145 104 218 144 100 213 138 103 215 141 99 214 140 96 217 144 99 218 144 105 212 136 96 203 127 84 222 146 102 243 193 137 255 239 193 255 255 215 255 217 156 169 124 90 64 11 41 47 15 52 87 43 62 94 51 67 107 59 67 107 56 70 99 48 62 87 44 65 87 43 57 96 45 62 95 52 67 96 54 69 130 66 83 100 48 59
236 176 122 255 229 155 246 172 104 237 147 91 190 101 71 171 85 62 173 88 66 215 141 91 234 162 110 238 169 113 234 167 115 238 163 106 236 168 114 247 167 102 229 144 96 187 102 76 146 74 67 135 68 69 152 81 73 159 95 91 168 100 83 170 102 86 171 97 73 171 102 77 173 100 77 183 105 77 182 110 87 197 117 83 193 115 86 198 119 85 192 117 92 201 122 88 199 121 88 204 121 87 203 126 90 208 126 100 208 131 100 204 122 95 215 130 91 203 119 92 212 135 101 194 124 100 192 140 107 189 125 102 185 123 106 182 118 108 189 123 105 176 121 114 188 129 115 183 132 123 193 134 111 201 145 125 196 137 117 204 158 145 202 162 133 206 181 165 204 170 155 209 172 150 208 166 142 217 177 147 216 191 173 214 187 166 218 187 160 221 185 146 221 192 153 223 192 171 234 221 197 220 205 186 211 186 167 188 146 129 176 112 96 179 102 89 179 96 72 195 117 97 196 118 91 197 115 94 196 120 93 197 119 92 187 116 92 188 112 83 171 101 87 170 99 79 179 108 87 203 124 97 222 142 106 227 151 110 226 150 110 218 147 105 220 141 102 216 145 110 213 145 107 222 149 113 226 150 113 221 149 107 222 146 100 215 135 90 221 138 94 218 144 101 219 143 95 216 145 99 222 145 100 216 139 100 218 140 98 217 139 96 220 141 96 218 145 95 218 140 98 212 126 89 212 130 84 236 180 120 255 251 165 255 255 185 212 164 122 106 62 71 70 20 49 75 38 65 94 54 68 105 59 68 109 56 72 101 56 67 95 47 69 92 46 69 95 48 67 91 45 62 96 46 63 99 51 60 121 54 73 85 36 47
240 177 120 255 230 155 246 167 100 213 133 81 160 84 62 143 73 59 173 94 69 227 147 91 237 165 105 236 171 113 234 170 114 233 169 108 239 166 110 237 160 105 229 144 91 175 96 73 149 75 61 134 65 62 159 89 66 171 96 77 167 96 75 172 98 78 176 98 74 171 103 84 176 103 79 168 102 88 178 110 85 187 109 86 190 115 89 198 111 77 194 116 80 201 114 82 197 119 85 201 118 95 201 123 94 206 125 92 205 117 83 209 115 80 216 142 98 203 132 95 191 126 98 176 98 76 181 114 96 185 114 100 184 118 105 188 129 111 189 129 105 190 141 127 192 132 114 196 128 104 198 130 107 197 137 113 195 138 123 196 147 124 193 141 125 202 157 133 207 167 141 211 165 137 213 177 148 209 176 155 217 194 155 219 188 167 224 192 144 218 184 173 227 193 152 219 193 183 223 193 165 228 209 197 229 212 183 220 209 190 202 166 140 171 107 88 156 69 43 156 65 48 178 98 67 188 113 90 190 117 92 192 112 91 185 114 94 191 109 83 175 103 84 172 98 75 179 105 87 206 122 95 226 148 107 223 155 112 228 154 111 222 146 111 223 147 104 214 142 108 214 142 107 215 140 109 218 146 109 226 152 112 216 147 108 224 144 96 219 139 94 224 147 107 224 147 102 223 145 104 218 139 95 213 137 100 216 143 99 214 141 98 217 143 104 219 146 106 221 144 96 216 143 98 218 136 88 255 180 117 255 193 134 229 177 123 111 75 81 68 25 52 50 15 48 94 48 61 102 52 63 106 58 66 96 50 67 94 44 56 88 42 60 93 49 63 92 47 62 86 48 62 106 58 69 88 42 58 118 58 76 74 34 51
243 176 121 255 228 152 236 151 98 191 109 76 135 67 66 135 68 64 180 99 69 225 146 95 239 163 100 238 175 115 237 167 115 232 169 109 239 162 107 240 158 100 226 142 93 176 94 74 142 71 61 131 66 66 158 87 75 166 95 82 171 97 79 172 99 87 173 99 81 169 99 79 173 94 71 175 102 80 179 102 79 184 114 84 188 116 91 194 117 88 193 120 91 196 118 87 202 122 93 206 123 92 202 124 95 203 125 93 208 129 97 211 126 92 203 121 84 190 108 77 185 106 78 191 117 92 190 115 94 185 120 107 192 119 100 190 123 98 199 134 107 185 137 126 197 143 126 196 142 119 196 139 119 199 142 121 195 142 123 196 138 119 200 140 117 203 148 125 217 173 146 213 173 142 213 184 153 211 173 151 218 190 158 221 188 165 222 180 143 218 190 165 221 185 159 227 206 179 221 195 174 219 197 172 212 190 171 224 218 205 228 210 189 209 185 172 199 156 135 162 101 85 169 101 82 167 82 57 192 115 96 187 111 88 175 110 102 182 103 82 178 99 84 171 98 79 181 107 94 203 126 101 231 149 105 233 154 109 230 157 106 227 155 115 219 148 108 213 138 104 209 133 98 207 130 97 214 131 103 221 147 104 224 150 109 225 151 106 225 144 98 223 148 107 225 145 99 223 143 102 219 143 95 220 145 102 216 143 104 221 142 108 218 145 103 219 142 100 224 142 93 224 146 104 243 162 112 238 163 113 211 141 92 114 60 62 70 21 48 52 9 54 91 47 66 99 56 64 111 54 64 100 54 65 97 47 59 91 49 64 102 56 70 96 55 70 95 49 71 98 52 65 98 54 72 70 27 55 143 85 94 114 65 73
244 172 117 255 224 142 217 132 82 163 92 70 122 62 64 143 75 69 184 108 79 228 143 95 241 163 100 240 174 113 239 172 112 236 167 109 239 167 105 241 164 105 229 142 93 177 99 72 143 75 63 135 68 66 161 89 75 175 99 80 173 95 78 172 99 81 168 98 77 170 104 86 173 99 81 168 101 92 175 104 87 189 109 88 186 112 83 193 117 90 195 119 90 202 121 87 205 125 90 204 122 90 204 120 87 199 120 92 213 128 93 210 131 88 206 125 92 184 113 84 188 112 85 190 112 89 187 113 93 182 112 96 194 118 96 199 131 99 200 136 109 194 131 108 198 130 109 194 117 92 195 129 108 192 134 113 198 153 136 198 151 135 198 150 134 189 132 123 211 159 127 207 161 142 219 183 147 214 183 160 219 178 151 219 200 169 218 180 153 228 203 165 220 189 164 226 191 163 205 178 164 218 193 161 215 192 176 223 206 187 239 226 210 228 214 195 234 220 194 191 153 139 173 118 106 154 78 63 168 93 78 181 108 88 179 107 91 176 103 86 175 103 85 164 92 77 181 104 90 206 126 109 230 147 109 229 158 104 232 157 108 226 159 111 225 153 115 221 149 109 203 125 94 189 108 86 191 108 83 201 128 98 230 152 108 228 154 109 227 146 100 226 152 113 222 143 97 226 148 107 221 141 93 220 141 107 216 146 102 220 143 105 218 147 101 220 142 99 222 151 106 237 164 114 254 168 119 206 134 100 124 66 68 64 20 55 54 18 54 90 44 62 97 48 63 107 55 67 104 54 64 94 50 61 94 47 62 94 54 65 92 50 65 83 40 61 96 49 65 106 61 78 93 48 61 73 35 64 199 134 119 190 134 113
240 169 113 255 197 128 185 106 78 151 75 71 131 65 65 156 85 76 190 108 76 226 147 95 241 162 104 239 169 103 238 172 108 236 166 111 236 167 112 240 159 109 220 139 87 179 99 77 141 72 70 139 70 72 155 92 83 168 95 76 173 100 85 170 98 75 172 97 82 171 102 79 179 101 81 181 103 82 178 107 80 181 114 89 188 113 85 189 119 88 190 114 93 196 121 95 205 125 96 206 123 86 199 119 92 205 127 90 213 136 94 203 123 91 188 109 79 177 103 80 193 109 83 194 123 91 194 120 88 191 116 88 190 116 92 188 112 95 190 122 102 183 119 106 198 138 112 191 131 114 205 127 97 192 125 96 201 133 99 198 142 124 208 156 124 194 138 132 201 156 130 207 174 154 224 183 144 225 193 168 221 176 165 229 207 180 213 177 157 218 184 152 207 176 169 220 191 172 217 197 187 224 199 168 217 202 189 227 203 187 220 212 210 248 234 221 255 255 253 255 254 227 202 168 149 155 86 77 150 67 55 171 99 82 180 110 87 173 99 87 169 96 82 160 94 86 178 108 94 200 128 106 228 149 111 231 152 105 230 157 106 227 156 115 230 156 124 225 151 103 203 124 91 162 84 68 154 83 66 180 105 87 222 142 104 232 159 114 230 149 94 225 146 97 222 143 99 226 147 106 219 139 91 222 146 103 221 143 99 225 147 109 223 144 100 217 145 107 229 155 113 255 178 118 232 152 103 152 86 83 73 36 61 57 15 49 87 39 57 93 46 58 105 58 68 105 60 72 99 50 64 92 51 61 100 52 61 99 54 59 92 44 58 89 44 65 101 58 71 104 58 75 85 47 69 115 71 83 255 181 149 237 175 129
236 156 100 255 176 123 168 86 67 144 76 67 144 73 66 160 87 73 187 107 85 222 145 100 238 167 109 241 169 104 239 172 109 237 171 118 232 166 115 237 162 105 224 136 87 179 100 74 146 76 64 143 72 66 154 88 75 175 100 83 170 97 77 173 98 77 173 104 86 174 102 94 176 106 93 176 107 92 179 105 85 191 115 83 189 108 79 191 115 92 199 117 90 202 123 93 206 121 87 201 117 84 204 127 88 203 128 91 206 123 85 187 109 82 181 103 83 175 103 87 191 116 94 188 112 92 194 123 88 192 123 93 189 127 102 183 116 100 186 122 103 192 121 94 197 128 108 194 120 106 193 121 102 196 121 98 206 138 107 210 151 119 210 159 129 199 143 127 202 147 121 208 164 144 222 173 134 221 199 172 216 173 152 212 185 169 206 163 148 213 187 170 221 197 186 220 199 182 225 197 176 224 204 184 233 217 198 233 219 197 230 211 188 225 206 189 233 212 202 255 248 227 235 221 198 181 138 125 139 69 54 140 65 58 174 94 80 172 103 87 164 92 80 161 92 77 180 104 82 201 122 94 226 146 105 226 154 105 229 157 113 230 157 109 229 155 118 234 150 114 211 134 96 150 80 76 119 56 53 146 70 69 203 126 94 237 154 116 228 154 111 227 147 99 223 148 102 220 145 102 219 144 109 219 145 98 224 143 99 220 147 96 221 144 98 226 143 100 255 170 110 244 161 111 184 110 85 95 46 62 64 28 59 84 40 61 96 47 56 104 55 63 100 56 68 99 47 63 88 44 60 96 53 65 103 53 69 95 49 66 83 39 60 86 49 68 96 56 74 107 67 89 133 82 95 181 129 120 255 207 164 231 168 125
215 130 81 255 149 105 147 80 73 148 84 74 154 81 71 162 85 70 187 102 74 225 148 100 235 167 108 238 170 112 235 166 112 237 171 112 239 167 110 238 158 98 220 135 79 176 96 69 142 76 71 139 76 70 156 93 81 168 98 81 176 104 85 176 94 74 177 96 76 173 97 79 177 99 84 182 104 78 184 107 85 181 109 88 191 114 92 192 116 83 197 112 86 192 119 84 204 123 89 205 124 86 204 125 94 202 124 87 186 111 86 185 107 74 175 101 82 187 113 90 189 117 95 198 125 93 193 116 80 186 117 90 188 113 92 183 115 103 192 116 96 197 133 106 203 146 116 196 141 129 198 131 106 205 133 117 208 133 104 210 144 119 200 139 110 199 141 122 211 148 120 221 173 143 225 182 136 217 174 144 216 163 140 211 175 154 223 188 160 211 181 168 221 202 195 230 213 212 236 220 195 235 211 184 227 201 182 227 203 183 226 204 195 228 207 187 229 210 199 249 233 209 251 241 219 224 209 189 164 108 90 135 60 49 135 55 43 154 90 85 168 94 81 159 94 82 178 101 86 193 122 96 228 148 106 231 153 109 233 158 104 226 152 114 233 155 111 229 153 112 215 138 103 146 86 82 98 46 57 109 54 62 175 106 89 226 147 111 233 150 106 232 152 106 221 147 104 226 146 104 222 145 97 224 141 95 220 145 100 222 141 96 225 141 100 241 163 120 253 165 116 203 128 97 120 63 60 67 23 57 71 28 57 96 42 55 106 56 65 107 56 65 101 53 69 95 45 59 90 46 61 99 54 64 89 48 60 90 45 57 89 41 60 94 55 79 105 64 85 130 82 95 181 128 119 210 150 122 255 209 166 200 142 106
184 104 77 234 134 101 146 82 77 160 91 72 146 83 71 158 84 66 184 105 79 221 140 96 238 165 111 240 171 121 236 174 119 238 171 123 233 167 111 239 159 98 221 130 86 177 98 78 144 72 62 135 73 72 156 90 77 170 95 78 170 98 79 173 95 76 174 100 78 172 95 77 170 98 80 174 102 84 179 109 92 187 110 82 199 118 86 200 114 82 202 118 81 194 121 97 201 117 88 203 126 99 201 121 90 191 113 90 184 113 86 177 104 83 192 112 91 191 115 82 190 112 88 184 112 96 184 117 101 180 125 113 183 124 112 186 121 102 196 124 93 203 134 97 208 144 114 197 144 115 196 140 117 199 139 114 212 144 110 210 153 121 208 142 105 202 134 116 216 152 116 212 159 131 212 171 131 203 157 134 210 168 145 213 178 161 221 197 176 228 210 187 243 215 191 229 210 191 226 195 179 222 199 198 228 203 185 225 203 183 225 202 173 223 205 179 223 202 192 223 214 198 247 240 225 249 241 214 211 188 171 145 102 92 121 55 54 127 57 48 147 77 68 152 84 76 176 101 80 203 120 89 226 148 111 230 158 113 231 157 113 232 152 108 229 153 101 236 153 111 226 144 105 162 93 84 92 37 56 79 28 53 139 74 69 209 133 99 231 149 114 233 158 119 229 151 104 217 142 100 222 142 100 216 138 101 224 146 102 221 145 103 232 151 102 255 175 113 231 148 102 149 84 78 70 29 52 55 23 53 92 49 61 102 55 63 105 55 66 103 53 65 91 44 64 99 52 65 98 50 65 98 54 67 93 47 67 91 53 74 88 48 70 97 67 88 129 84 102 182 129 120 209 147 127 208 152 123 255 200 157 202 146 113
160 90 78 217 120 102 152 86 78 164 91 78 151 81 68 159 83 64 186 105 72 224 138 88 234 165 109 236 170 113 238 165 114 239 168 115 234 167 109 239 164 113 220 133 88 176 102 76 143 74 68 134 72 68 161 88 76 169 95 78 178 102 82 168 97 78 171 91 66 168 95 76 173 100 80 176 98 75 181 106 89 182 105 84 190 119 94 192 113 80 193 118 87 197 116 89 202 125 95 209 130 100 204 125 96 196 115 84 187 107 83 189 112 87 187 109 86 195 115 89 189 112 88 193 125 99 185 115 93 188 120 98 188 118 107 185 125 112 191 124 97 203 129 103 210 139 108 204 153 135 206 146 122 204 146 130 210 142 101 200 137 112 196 138 112 204 147 126 211 144 111 214 159 126 210 165 135 204 172 150 221 186 158 231 206 176 238 217 187 232 204 181 230 205 177 223 201 180 223 197 185 218 191 164 220 193 181 226 198 168 225 203 190 224 204 185 227 211 196 232 213 195 230 214 206 255 251 231 235 222 211 220 202 179 152 104 96 146 76 63 132 58 45 145 73 63 178 102 82 198 126 97 233 149 110 229 158 121 232 156 112 225 156 108 229 153 112 232 158 116 226 149 110 166 90 75 93 48 61 58 20 50 101 60 71 173 101 85 223 139 103 230 156 112 234 149 101 228 145 98 225 143 96 221 140 94 225 140 100 226 141 101 255 170 121 246 163 112 170 105 86 88 39 56 45 9 47 82 39 55 97 52 64 111 59 70 105 55 64 95 44 60 93 48 61 107 50 66 100 51 62 94 51 65 82 42 55 84 45 62 85 44 67 118 74 92 169 120 116 208 151 123 213 153 124 201 147 119 255 206 166 215 160 125
154 85 71 208 113 95 167 94 76 162 88 69 152 86 75 155 86 77 183 108 87 220 139 88 237 156 102 240 169 117 235 169 126 237 170 132 236 169 112 239 157 111 224 138 86 180 102 83 146 70 65 139 63 64 161 85 67 166 101 83 172 103 87 173 108 93 174 101 77 172 101 78 172 96 79 175 104 85 180 106 88 188 112 83 192 112 83 194 119 85 198 119 90 189 107 82 204 119 88 191 112 80 191 113 87 181 100 77 188 109 80 188 111 85 182 110 92 191 111 83 184 108 84 185 117 98 175 113 104 191 126 109 192 135 106 189 134 121 189 132 108 199 128 102 213 140 108 203 146 116 204 144 122 197 138 111 209 134 104 207 145 109 207 137 109 193 134 118 194 132 109 203 151 136 207 173 157 219 198 193 225 210 183 232 203 175 223 199 181 224 198 180 223 199 181 224 197 165 219 191 181 224 201 185 224 202 184 235 203 167 227 196 175 228 201 177 221 198 182 225 209 189 222 200 186 235 214 198 244 238 227 240 240 228 228 217 193 159 104 89 137 64 49 112 37 32 174 99 74 207 118 83 228 149 106 231 154 117 232 157 116 230 152 112 232 160 119 236 157 115 226 148 102 176 98 73 108 51 55 53 15 46 80 27 45 138 74 68 201 119 90 234 152 110 236 153 103 228 151 107 222 145 100 216 141 107 223 144 103 245 164 115 255 176 123 209 130 95 133 71 64 63 21 45 73 31 57 93 44 60 108 58 67 107 56 67 98 51 62 95 47 65 95 48 61 107 58 69 100 47 54 95 48 63 81 37 57 85 46 70 106 63 87 162 116 109 200 144 126 212 160 124 201 148 125 207 156 125 255 217 177 217 168 127
157 86 72 212 119 102 167 96 72 159 93 80 149 79 70 158 86 77 185 112 82 223 142 105 234 163 104 232 165 118 235 166 116 229 167 118 233 164 116 234 158 107 225 137 93 174 95 82 148 74 65 134 74 73 159 85 66 164 96 84 174 100 83 175 100 86 176 104 79 175 103 81 170 100 78 180 102 75 179 99 74 188 112 81 187 113 85 197 120 90 187 110 90 201 126 96 213 131 92 209 130 88 193 107 77 177 100 75 187 112 91 192 116 89 186 109 92 189 111 85 190 112 86 198 127 97 186 115 90 194 116 94 198 126 103 204 144 121 198 141 127 200 134 118 204 135 112 214 153 130 206 142 122 199 134 120 202 127 94 184 116 90 190 119 89 194 141 111 204 152 122 214 173 148 221 178 157 231 206 177 225 206 182 225 193 172 218 196 180 216 185 165 220 196 182 227 203 174 224 203 186 226 202 176 222 200 181 229 202 186 227 208 198 232 214 193 232 212 191 233 209 186 222 205 189 223 206 193 229 212 193 255 243 220 255 255 220 208 196 177 143 95 90 96 36 46 157 72 59 204 122 93 229 149 109 227 158 112 227 157 112 230 157 116 232 162 124 229 160 122 225 151 109 174 97 78 118 59 62 65 25 49 69 30 51 98 44 58 164 86 66 210 118 72 233 131 76 223 125 72 219 119 72 216 113 60 227 131 81 255 162 97 235 152 110 152 88 73 73 34 56 55 20 46 94 45 62 101 52 56 111 51 64 103 57 64 92 47 65 94 48 67 93 44 59 99 48 62 98 44 57 88 47 57 69 28 48 88 44 71 139 93 105 204 148 124 207 150 123 205 142 111 202 152 122 216 166 128 255 227 174 218 167 126
162 90 71 213 122 98 165 94 82 158 92 74 147 82 70 155 83 78 184 109 88 220 143 100 236 161 100 234 166 113 236 167 111 236 167 125 238 170 118 240 161 104 225 140 95 177 99 84 144 78 73 138 72 74 157 86 72 162 101 84 170 99 80 183 106 82 176 102 83 176 99 78 171 98 85 180 104 81 180 110 90 189 112 85 188 115 87 201 120 81 176 94 83 209 152 108 203 128 95 210 143 97 165 78 70 172 96 79 183 106 87 195 114 84 186 106 84 186 109 79 191 111 86 199 116 90 188 121 98 190 120 107 196 127 99 211 144 112 205 144 111 201 134 104 208 133 104 212 148 111 208 143 119 189 124 100 179 97 79 181 112 93 196 134 111 208 163 139 220 189 159 223 192 169 235 197 167 228 184 151 222 187 162 220 183 161 211 191 184 227 196 177 216 191 182 222 203 185 223 203 191 230 215 206 229 207 196 227 206 193 227 208 186 225 205 188 224 200 182 225 200 181 226 206 184 230 209 190 224 208 195 225 210 195 255 255 230 237 236 223 182 144 137 116 49 57 136 47 31 193 112 84 232 147 93 234 151 108 233 154 113 229 153 108 231 158 123 235 156 111 223 145 108 176 101 83 121 59 71 82 33 58 75 30 49 86 28 39 95 25 25 151 73 68 198 135 113 235 188 153 227 163 126 221 160 123 232 155 112 233 153 107 170 91 70 99 48 58 62 24 55 83 42 57 111 57 65 102 51 60 110 58 69 100 55 71 94 46 66 95 51 68 92 46 65 102 52 70 99 47 57 76 35 47 78 35 61 121 84 91 196 139 129 216 160 129 205 149 127 197 144 115 207 159 125 213 164 123 255 216 168 212 159 124
164 90 75 211 123 102 158 95 77 155 93 84 149 78 71 159 82 65 176 103 82 219 141 100 237 169 121 234 166 113 230 166 119 231 168 120 233 163 122 235 161 110 221 139 97 174 100 84 143 75 71 137 72 73 155 87 72 165 91 70 169 91 75 169 97 76 171 92 72 169 98 81 169 104 88 177 109 83 177 104 81 186 104 81 192 117 85 194 110 82 169 84 73 227 160 107 210 134 96 227 161 105 161 77 69 180 110 91 191 117 95 193 118 88 198 117 82 187 114 93 187 111 92 196 123 101 202 123 91 209 133 107 197 130 111 220 143 110 196 133 114 203 137 106 198 124 103 216 146 112 190 126 103 177 118 105 175 106 102 182 127 122 211 162 136 228 191 147 237 203 167 230 198 171 220 182 155 228 183 140 214 180 154 222 195 170 216 198 187 223 199 180 221 199 185 229 201 174 226 205 188 229 204 189 223 204 193 223 202 187 221 203 189 225 206 188 229 207 194 224 201 191 224 206 194 222 203 188 225 211 194 230 210 193 236 223 209 255 255 244 214 202 203 155 120 128 131 57 47 174 90 68 228 151 109 233 153 115 228 160 109 230 153 108 231 159 116 233 157 117 223 146 104 177 101 84 123 66 71 86 35 56 81 31 50 39 0 15 69 19 35 134 90 81 222 174 148 236 194 157 217 175 149 227 195 167 255 209 167 203 146 119 133 71 64 54 9 35 69 31 62 95 48 63 103 55 69 102 58 65 102 60 70 98 54 69 101 50 65 91 52 66 103 53 68 96 53 64 84 41 55 74 29 54 109 68 81 177 123 118 221 160 133 213 150 119 198 148 117 210 158 125 217 167 125 214 161 124 255 210 160 215 159 122
156 87 73 209 114 100 158 91 78 158 92 83 146 78 72 152 84 71 180 103 76 216 136 94 238 161 109 237 160 112 239 171 125 234 165 125 237 169 117 239 161 105 227 142 92 177 99 68 142 70 67 131 61 63 153 81 71 165 89 69 168 93 73 177 99 74 171 95 71 169 95 79 167 101 85 177 105 90 178 107 90 183 108 83 192 111 83 179 91 67 186 113 88 233 171 116 220 163 116 206 139 101 152 75 76 181 108 86 193 114 86 198 118 89 194 114 83 190 116 92 188 111 85 199 123 93 200 118 89 217 144 103 194 122 98 203 138 103 196 127 100 215 143 105 207 130 99 184 111 89 185 111 88 177 118 103 201 146 122 215 168 139 230 190 156 230 196 170 222 182 151 218 185 162 219 176 157 223 190 161 218 177 154 225 191 149 223 190 165 226 202 177 220 195 188 221 197 188 216 196 180 221 198 174 219 194 176 222 196 181 225 201 180 221 202 180 225 201 179 221 195 176 228 208 187 227 204 189 225 207 193 220 205 189 225 204 196 249 240 227 250 244 223 173 139 134 145 80 70 146 54 44 226 142 97 233 155 108 230 158 108 229 151 109 229 158 115 239 158 116 227 150 105 176 97 81 118 58 62 63 8 36 52 0 30 65 21 43 120 83 88 176 166 170 220 217 205 242 246 243 238 233 221 244 251 244 255 255 247 168 152 156 103 68 78 13 0 25 87 42 59 102 46 61 106 54 68 104 53 65 101 59 74 98 53 67 96 52 68 97 51 67 99 50 65 91 47 63 77 29 50 90 50 73 166 107 113 210 158 133 216 159 131 195 138 118 207 154 127 212 165 129 214 170 127 211 161 129 255 208 168 210 156 123
151 86 76 205 117 102 161 91 70 162 98 78 152 79 69 158 83 67 177 100 81 212 135 100 233 163 115 237 170 113 237 171 133 232 167 120 236 166 122 239 156 99 223 133 81 168 90 67 142 72 61 129 68 67 154 84 75 168 97 76 170 99 79 171 99 82 170 98 76 172 94 78 177 98 77 177 103 82 182 103 73 183 108 82 190 113 83 167 84 70 206 147 111 234 167 111 237 174 118 191 109 72 158 82 73 181 109 80 197 118 80 191 110 92 193 112 77 184 112 86 194 114 87 191 130 108 201 119 92 201 132 104 192 122 97 194 126 103 199 131 105 205 136 103 177 109 92 168 98 78 181 109 98 203 161 141 231 189 169 227 184 163 228 189 140 213 168 150 219 175 148 215 173 156 215 172 151 219 190 174 216 191 174 228 201 173 223 195 162 226 188 159 227 198 167 224 192 179 220 194 173 219 192 181 221 196 181 222 195 178 223 201 182 226 202 182 231 207 184 223 201 170 219 196 182 221 207 191 225 210 202 228 209 191 223 206 191 228 211 200 255 255 246 206 201 192 175 136 121 150 70 50 206 117 85 234 162 125 229 160 121 233 159 113 234 163 114 238 157 115 224 150 106 172 94 75 78 24 25 38 1 41 76 48 78 135 102 112 201 176 154 225 204 177 255 240 205 230 214 192 233 211 189 238 223 207 255 255 249 206 196 187 144 123 129 44 0 41 80 36 59 101 48 59 110 61 66 96 53 62 102 50 59 91 44 59 94 45 63 97 54 66 104 55 71 81 40 56 85 37 66 136 88 95 203 145 130 221 163 139 203 146 128 203 150 127 214 163 126 219 165 123 215 165 126 216 158 123 255 210 160 210 157 120
154 86 77 213 124 112 165 99 82 173 99 87 159 84 69 157 86 71 182 101 77 214 132 87 238 159 102 236 168 113 236 173 118 237 173 117 234 171 119 238 162 103 223 140 97 175 97 67 134 73 65 127 62 66 150 87 73 168 91 77 174 98 80 178 105 78 181 96 75 176 102 76 178 95 72 177 103 84 176 102 79 186 112 83 189 113 82 163 68 66 209 165 131 238 175 123 248 202 141 189 105 72 161 87 76 186 107 87 186 110 81 182 108 88 182 105 85 203 119 85 207 130 94 195 125 94 195 123 98 192 123 90 193 121 93 203 130 103 205 126 90 201 123 85 182 107 84 180 113 98 211 160 136 228 178 148 236 196 150 218 163 134 218 171 134 212 172 150 220 180 154 216 168 148 217 170 142 217 179 158 216 187 170 218 186 167 221 192 167 223 178 148 220 180 155 214 177 162 221 196 181 218 192 182 225 203 178 225 202 187 228 200 170 225 197 172 225 195 161 226 204 189 230 203 177 221 204 193 219 198 178 223 201 191 219 205 192 226 206 192 238 234 218 226 220 207 184 161 164 173 108 83 195 106 72 229 146 87 235 161 118 231 158 114 237 162 115 235 154 103 211 128 84 124 41 33 71 25 45 79 56 84 148 134 147 220 199 179 238 209 181 248 230 199 232 219 199 232 217 205 238 218 195 225 206 193 255 255 235 242 220 199 160 137 139 71 33 48 64 19 54 100 53 64 98 52 64 98 48 55 100 50 64 93 47 61 93 48 62 95 47 56 86 40 57 82 33 59 120 76 94 188 133 121 224 167 137 210 154 119 201 149 124 211 157 127 215 162 131 216 156 122 210 161 121 211 158 119 255 213 164 216 158 121
163 89 75 226 131 110 174 94 76 172 104 83 161 82 65 161 81 69 182 99 71 213 132 90 236 160 104 237 169 107 237 173 115 235 170 118 237 172 116 241 161 107 219 137 87 173 100 79 142 76 72 139 75 65 157 86 73 172 98 81 172 104 82 181 103 81 181 102 80 185 101 77 181 104 77 181 106 77 187 105 75 192 115 84 191 109 82 170 81 61 214 161 133 238 166 113 236 177 127 182 86 59 154 83 75 178 106 88 184 113 79 190 117 96 189 113 86 193 114 93 205 128 95 195 121 108 190 121 104 190 113 95 210 137 101 200 128 99 190 114 86 181 108 80 181 119 96 212 157 129 215 167 151 235 188 166 211 164 144 211 164 148 215 165 138 216 173 151 229 189 154 218 177 152 221 177 146 216 171 141 219 182 163 216 187 184 215 184 175 214 173 149 224 184 147 226 178 146 223 193 171 222 193 183 223 202 189 226 201 180 223 192 164 227 201 179 232 206 187 217 195 180 223 195 171 217 185 171 225 206 192 221 210 196 225 208 193 222 203 186 226 207 194 244 244 228 218 212 203 215 184 170 196 130 105 223 149 107 234 153 104 233 163 113 240 159 104 217 129 72 187 104 76 140 81 82 124 97 106 163 144 155 219 209 197 245 219 204 237 213 186 227 201 175 230 211 188 234 208 179 222 196 174 224 202 187 255 250 221 255 241 201 184 154 141 106 56 67 60 20 52 100 56 61 97 50 60 98 48 58 98 53 67 95 51 69 108 52 67 87 43 53 74 29 54 96 48 69 165 113 118 218 155 128 222 163 133 204 148 123 215 162 131 215 163 130 217 160 126 211 156 113 213 157 122 213 154 110 255 207 166 210 156 121
168 100 82 232 133 114 176 101 75 177 102 80 165 91 73 168 90 70 190 103 74 222 133 85 233 159 103 233 165 114 232 169 117 234 168 114 239 172 111 241 165 109 224 147 103 180 103 74 148 77 67 139 65 62 161 85 70 173 95 75 174 100 83 184 107 83 185 104 75 177 101 75 181 98 74 179 103 76 185 105 84 187 115 84 179 100 80 180 93 69 216 163 115 246 177 106 224 168 112 179 92 63 167 92 79 183 105 85 189 105 83 188 117 94 191 117 93 200 123 99 204 126 101 194 125 97 197 121 101 206 129 97 202 124 91 193 121 96 179 110 86 202 128 101 219 154 122 226 164 141 217 161 132 211 153 120 213 156 117 223 162 132 218 179 151 221 173 144 223 187 158 220 177 148 219 180 150 222 179 146 220 169 135 210 170 152 212 175 166 215 172 155 222 183 152 221 178 151 225 192 167 223 194 175 226 197 169 224 201 190 223 202 175 229 212 193 224 196 172 214 189 177 213 181 160 216 194 174 225 200 179 220 199 185 225 205 188 219 203 189 218 199 188 227 212 196 223 214 218 219 219 207 220 167 140 226 152 90 235 137 63 233 155 93 227 133 84 213 135 99 194 137 112 177 142 130 203 181 168 225 208 187 244 219 195 231 213 192 229 204 187 235 216 198 229 206 178 216 194 176 224 198 182 219 209 200 255 255 240 225 199 177 153 120 112 67 26 42 72 31 67 105 55 69 100 49 61 92 43 54 90 46 69 101 51 67 102 55 64 73 24 38 68 29 45 126 80 91 199 144 130 224 167 148 208 154 125 210 158 129 214 161 126 216 158 128 211 155 125 209 154 124 210 157 117 211 154 120 255 208 163 213 154 121
172 95 74 235 130 97 174 91 70 176 99 80 160 90 69 173 87 67 196 106 72 219 138 87 237 162 111 231 164 112 236 166 117 236 175 120 240 177 114 242 163 106 222 139 87 184 104 77 147 80 64 142 69 64 160 88 68 167 97 80 177 106 80 174 101 75 184 107 81 177 97 72 179 104 79 183 96 70 188 109 77 193 120 84 170 84 69 203 132 101 224 177 129 252 195 131 202 136 98 172 87 66 164 91 75 176 96 80 190 106 72 194 118 90 183 114 93 184 110 94 191 114 89 196 119 94 203 120 96 193 117 91 199 122 99 185 119 103 190 129 117 210 151 119 225 171 125 208 150 125 199 130 114 200 143 121 218 160 126 223 179 146 220 174 153 219 177 148 219 169 140 215 175 164 226 193 169 218 177 148 221 177 135 211 160 135 206 174 158 217 180 167 219 189 158 220 184 167 219 182 155 218 183 167 222 190 173 220 190 168 220 191 178 222 194 171 220 193 178 213 179 146 212 175 153 211 180 155 220 203 184 221 197 182 219 200 182 220 199 184 222 200 180 218 193 179 224 203 183 224 222 217 223 199 182 220 172 136 230 122 51 228 140 87 228 160 109 217 167 142 208 168 151 228 208 189 238 216 187 243 222 190 219 198 177 227 206 190 233 213 191 225 198 183 221 200 181 225 203 180 230 205 188 237 214 204 255 255 240 201 174 157 139 107 106 46 0 30 87 46 65 100 55 68 99 47 56 90 42 52 92 44 60 97 49 64 101 55 68 74 26 50 109 57 71 167 111 108 224 163 134 223 158 134 206 153 124 211 158 132 221 167 132 214 161 135 212 161 124 210 155 123 213 154 122 209 154 124 255 202 167 210 153 121
175 104 81 232 137 105 178 104 76 177 105 74 170 94 70 175 91 59 194 110 81 222 139 93 234 158 114 234 166 106 236 172 113 236 173 111 241 174 120 242 172 116 228 149 100 184 106 75 145 72 60 137 68 63 155 86 77 170 104 91 172 103 77 180 102 76 179 100 72 173 98 70 177 98 77 175 92 68 180 106 78 187 114 80 150 67 60 206 147 115 220 163 125 255 204 139 199 121 82 180 93 75 172 101 76 178 97 80 189 105 78 182 109 86 180 107 86 180 107 84 190 113 95 204 126 94 198 119 89 196 119 85 195 121 98 199 143 127 214 152 119 229 173 132 216 153 112 199 138 114 199 129 109 209 146 114 220 169 138 217 163 140 215 172 152 215 171 146 217 168 148 208 169 161 212 172 155 214 174 155 220 164 129 217 168 137 219 171 145 220 184 163 220 189 154 222 181 150 217 180 149 219 183 172 217 188 168 221 180 151 221 185 163 221 189 172 210 176 160 213 183 157 207 181 160 221 199 184 218 194 182 221 199 172 220 193 173 222 195 175 220 194 182 217 192 170 211 193 182 215 204 189 221 199 182 224 172 147 226 160 117 223 160 113 224 169 130 221 192 170 230 205 181 234 217 195 227 206 175 228 208 192 228 212 190 231 204 180 222 202 177 224 204 183 225 204 183 224 203 186 229 209 186 232 216 217 255 255 241 172 156 153 126 96 97 19 0 28 95 53 76 98 58 73 90 41 57 90 41 54 94 40 57 96 50 70 88 38 57 95 48 73 148 97 97 202 146 134 225 164 134 210 152 131 209 155 119 217 165 130 213 159 119 210 157 123 213 156 120 211 155 133 209 156 127 207 150 126 255 201 161 206 150 117
176 100 76 229 127 98 175 99 79 171 98 76 172 97 77 177 92 68 199 113 76 221 136 93 232 162 108 235 166 112 242 177 115 241 178 119 241 180 121 243 171 111 228 149 103 186 103 75 149 77 61 135 72 64 160 86 74 167 95 78 173 92 72 177 96 72 173 100 79 174 96 76 173 97 71 171 98 76 183 102 75 189 108 77 152 57 48 205 153 116 217 168 138 255 223 154 206 123 88 198 111 71 185 105 84 171 100 82 176 96 72 185 108 85 183 103 79 189 112 88 195 116 91 199 127 101 190 113 96 184 115 94 206 138 113 212 150 128 226 158 123 210 150 115 209 139 104 193 124 108 208 140 110 212 157 135 220 160 144 213 161 132 216 153 141 215 174 146 215 167 152 212 165 141 211 169 158 210 168 149 225 179 151 217 164 127 214 177 155 214 174 154 216 180 157 224 180 140 220 173 146 215 182 166 215 182 169 219 176 145 220 170 132 212 171 147 218 182 164 216 189 165 218 193 169 214 185 180 217 195 188 215 185 171 217 185 174 214 181 170 217 192 184 211 186 173 202 178 166 198 169 164 207 193 201 211 182 161 229 187 151 219 172 138 233 213 178 222 208 186 234 200 167 220 194 173 227 198 175 227 210 185 223 202 178 220 197 176 225 201 184 227 205 189 222 205 185 229 206 192 225 206 185 241 223 205 255 255 251 195 174 169 137 112 113 32 0 23 98 51 64 98 47 62 96 51 70 97 50 63 98 55 61 91 44 60 93 47 71 138 89 103 201 139 127 227 163 137 217 152 127 207 153 129 214 160 126 218 161 130 213 160 126 210 158 123 213 155 123 211 160 122 209 152 130 207 154 127 255 198 163 211 149 117
173 97 77 229 132 105 175 103 82 175 101 80 174 97 74 174 92 65 191 107 82 218 137 87 237 159 103 238 168 107 238 172 115 244 175 120 243 178 120 245 169 114 230 154 99 183 102 71 146 75 59 139 69 64 160 89 70 174 100 77 176 97 73 178 103 78 177 101 76 177 98 75 170 93 71 176 93 75 175 101 77 183 108 73 150 62 53 204 147 109 222 161 129 255 225 142 221 140 96 214 140 87 195 124 86 182 109 81 187 106 77 188 112 91 192 113 85 190 119 92 191 116 92 199 132 111 189 115 110 203 140 118 208 139 106 226 157 117 206 132 95 207 143 115 191 122 96 218 150 118 210 135 100 215 146 118 206 151 129 212 164 144 218 176 155 212 161 133 215 172 144 213 159 119 212 167 140 213 171 139 221 177 148 225 179 141 222 169 141 219 182 149 218 175 149 222 175 126 216 170 139 224 182 153 223 179 162 221 184 157 220 181 144 217 181 155 220 183 165 213 185 172 216 193 185 215 189 178 219 190 177 219 184 155 217 185 149 219 177 147 211 189 169 203 172 164 202 179 175 206 176 162 214 196 184 213 177 163 224 214 201 220 198 178 232 211 183 221 196 177 226 204 181 228 207 186 228 205 176 224 196 179 219 197 184 227 200 185 231 213 201 226 207 189 222 190 167 225 192 169 225 202 178 255 245 230 255 241 204 169 139 136 106 64 67 49 0 32 100 59 76 93 49 65 90 50 68 95 48 59 96 46 64 82 31 58 101 55 73 168 111 112 222 158 133 225 164 139 209 153 126 207 154 127 215 160 118 216 160 123 211 160 127 215 157 129 212 160 120 210 155 121 213 160 118 208 157 122 255 208 160 212 156 125
173 95 74 225 126 96 166 93 80 172 95 75 169 95 75 175 94 65 190 108 81 215 136 92 237 161 109 237 174 122 240 180 124 240 179 121 245 178 116 244 170 106 234 149 97 188 103 69 151 81 73 136 73 64 164 91 73 177 95 73 176 101 75 175 97 75 169 97 82 175 99 73 172 97 76 174 103 73 181 100 77 184 104 80 151 64 61 205 144 106 219 167 127 255 227 143 226 150 105 236 152 95 201 126 88 201 119 80 174 95 69 177 101 82 187 108 83 190 115 89 200 113 85 190 122 106 195 127 111 206 138 114 212 139 107 207 139 103 197 136 108 198 129 101 214 145 114 217 145 116 214 147 117 206 142 121 198 138 120 209 159 143 206 161 145 215 170 142 216 161 139 222 169 127 220 180 165 219 173 139 220 175 147 219 171 136 217 166 143 214 175 153 216 159 142 217 176 153 220 157 132 215 175 147 213 167 144 215 183 163 222 180 149 220 183 144 223 187 157 217 190 163 216 187 170 217 176 157 217 179 167 220 177 156 215 178 160 208 169 153 204 171 166 207 172 156 204 175 156 209 171 142 213 184 177 217 192 162 228 205 177 226 193 161 228 205 184 225 202 185 226 204 183 220 196 179 220 195 172 221 200 178 219 197 182 226 202 182 230 211 187 222 187 162 216 182 151 210 164 140 221 190 164 255 240 204 224 201 179 156 127 124 70 21 50 75 27 44 102 51 68 92 46 59 98 48 70 93 41 53 91 48 61 83 41 63 139 94 106 192 132 116 231 166 129 218 154 121 208 152 136 214 163 134 218 162 132 215 159 129 217 161 131 214 157 139 212 159 128 210 161 126 211 155 121 211 159 119 255 209 158 215 152 114
165 96 75 227 131 100 169 92 78 169 102 79 166 93 75 168 90 65 192 108 77 214 134 87 236 164 108 238 172 118 237 174 121 234 176 127 238 174 117 241 172 107 233 146 95 179 100 71 148 72 65 137 67 63 159 95 77 173 104 83 172 104 87 178 99 73 172 100 77 170 94 75 171 96 74 177 100 80 185 106 73 185 106 73 152 64 56 201 136 96 215 160 117 255 213 135 227 149 106 227 156 102 212 138 95 206 126 83 176 97 80 173 97 84 170 98 82 183 106 82 192 117 92 198 131 110 207 131 104 215 141 107 206 134 102 209 141 104 192 129 103 209 140 113 206 144 123 224 161 122 207 147 123 212 153 116 202 146 128 214 164 135 208 161 148 213 158 132 219 157 128 223 167 136 223 174 155 219 176 139 223 162 127 223 164 136 219 166 133 224 176 151 221 169 126 214 164 132 211 151 113 208 169 141 217 165 135 215 179 151 219 174 146 223 182 153 219 185 152 219 181 153 213 179 158 218 174 151 216 181 161 213 179 152 203 168 151 214 171 146 207 173 157 212 178 146 210 180 156 226 191 159 224 201 187 225 199 177 219 197 194 224 201 179 223 194 172 219 192 172 217 196 177 222 198 181 226 199 183 224 200 181 226 203 186 233 213 201 229 205 186 220 189 162 201 149 122 200 144 114 209 154 129 255 255 214 185 153 135 131 97 92 34 0 4 90 42 58 95 56 72 95 46 60 87 44 51 81 35 48 83 37 63 119 68 88 179 122 120 218 154 126 226 159 127 205 153 126 213 161 129 212 163 123 214 155 119 213 163 128 214 156 131 211 159 133 214 155 117 211 156 121 213 162 120 212 158 124 255 208 163 215 158 121
169 98 77 219 122 97 163 92 71 165 89 71 166 91 76 170 89 69 193 111 76 221 136 88 239 167 108 237 171 120 239 177 118 236 172 118 239 176 112 249 171 109 222 145 101 184 106 79 142 73 76 143 76 76 160 91 79 176 100 81 175 102 79 173 91 76 171 98 75 175 96 71 174 102 76 183 101 74 183 103 77 180 98 71 151 71 61 197 135 91 218 161 112 255 205 138 225 152 120 219 139 107 212 131 102 203 127 95 176 99 85 164 86 72 172 90 69 192 115 83 217 139 103 214 141 112 216 137 99 209 129 91 198 139 108 200 132 101 204 144 117 214 138 110 218 152 124 214 150 117 207 147 130 215 163 128 207 142 129 213 146 113 202 138 124 219 170 137 221 159 123 227 170 131 227 156 129 224 175 141 234 171 143 229 184 151 225 163 137 209 158 141 212 151 122 209 160 143 217 165 129 206 164 143 208 171 145 213 176 153 220 174 152 219 185 168 216 172 150 220 175 149 217 163 139 212 164 146 203 155 147 207 168 153 207 165 152 219 174 145 210 165 140 230 197 155 223 192 165 238 201 162 223 199 179 224 204 177 227 204 184 221 191 162 221 187 165 219 187 161 227 201 181 224 198 182 223 204 181 220 203 184 231 210 196 228 207 185 218 189 159 207 156 132 204 157 132 196 131 115 224 179 154 227 186 157 159 137 142 92 62 77 59 10 43 101 60 65 94 48 63 93 49 58 88 37 51 80 36 56 101 55 77 157 105 110 212 154 134 223 161 131 212 153 128 210 156 126 209 160 134 213 162 135 212 160 131 212 155 137 213 160 128 208 160 136 211 157 124 209 153 126 206 159 125 207 155 122 255 205 156 213 153 114
168 99 72 224 122 98 169 96 77 159 88 71 161 94 74 166 96 70 199 110 79 221 138 85 236 164 108 238 171 115 233 171 121 236 174 120 238 174 115 247 175 117 229 148 96 181 105 85 148 70 66 143 68 63 157 85 72 169 100 79 172 100 84 174 96 73 175 96 73 171 92 74 174 98 76 174 98 77 176 105 73 165 85 69 163 84 61 205 145 96 237 184 120 251 198 132 221 155 114 217 128 89 217 136 96 206 122 94 187 110 78 177 96 77 185 104 75 208 140 110 218 146 107 207 140 103 201 124 94 199 128 96 202 131 103 214 141 105 214 144 112 214 149 119 198 139 121 196 142 119 204 146 127 214 156 119 212 150 131 230 161 117 233 169 144 230 166 133 234 166 148 223 169 155 219 174 155 198 165 154 178 128 122 192 137 130 213 151 128 229 172 135 219 165 119 214 159 112 220 170 122 220 171 134 219 167 136 225 169 140 231 178 156 231 186 174 226 185 169 220 176 155 207 159 137 203 156 138 205 166 145 212 178 153 209 167 147 223 186 152 220 191 159 233 202 165 215 189 167 225 196 168 225 196 171 227 196 172 216 194 176 217 189 171 220 197 178 222 201 179 227 202 187 224 203 181 223 201 180 228 206 189 231 222 203 229 210 196 222 186 174 220 176 141 197 137 107 200 134 106 244 192 166 206 176 165 150 128 130 57 15 47 81 38 52 93 53 66 93 56 70 95 52 65 85 41 57 89 42 67 123 74 91 191 132 119 227 158 127 222 160 131 206 148 129 211 161 132 218 163 126 213 159 122 210 154 122 211 150 117 209 158 122 215 156 130 211 158 119 210 155 121 209 155 118 204 157 126 255 206 163 210 153 122
166 91 70 226 124 93 167 101 78 171 93 72 163 93 75 173 94 76 201 116 79 220 138 92 240 168 112 236 174 116 238 175 116 240 171 113 243 178 118 246 171 113 225 151 98 186 103 76 148 71 68 140 72 65 163 89 78 167 97 77 175 97 75 172 91 72 176 90 70 178 98 68 175 97 78 180 101 71 175 100 78 152 73 66 174 96 63 206 146 99 253 202 118 246 189 129 228 157 102 217 134 86 228 151 96 220 139 89 207 120 90 188 110 77 195 114 92 218 141 106 221 144 115 203 130 111 191 133 114 198 130 104 208 138 113 228 149 104 212 143 117 205 138 101 190 129 117 202 136 108 207 142 114 214 143 105 223 160 129 201 138 116 200 148 131 183 127 114 198 133 126 188 137 122 183 125 118 189 141 138 185 130 129 183 137 129 186 122 99 202 140 108 239 173 132 231 184 150 230 184 154 223 166 141 245 191 161 246 200 167 203 150 143 204 156 152 196 144 145 222 167 150 202 153 146 208 150 133 212 170 151 217 175 154 225 190 166 235 202 163 231 194 160 227 200 167 225 198 173 220 192 167 220 188 165 217 192 166 222 197 174 224 198 174 226 203 178 222 201 178 228 206 191 230 201 180 228 207 188 231 220 201 240 231 214 237 217 188 203 166 144 178 120 94 166 100 93 193 132 115 255 237 198 175 146 129 128 97 97 27 0 19 97 55 67 91 50 69 96 56 69 94 54 70 83 33 55 91 44 71 149 96 95 212 153 131 228 165 129 206 150 130 209 152 122 213 161 128 215 162 123 208 156 133 208 151 126 208 153 124 212 160 121 215 158 134 212 159 130 211 155 123 210 157 121 206 157 121 255 205 164 207 158 124
169 100 80 226 129 107 174 99 80 168 97 77 168 98 76 181 99 79 199 115 77 225 142 99 236 160 106 235 173 118 238 178 121 235 174 123 237 180 126 244 173 117 235 152 98 184 107 74 145 72 63 136 63 53 151 87 71 167 99 80 170 102 83 178 99 71 179 97 73 179 97 76 176 101 74 181 102 80 178 98 68 152 73 66 179 95 55 207 149 107 255 200 132 255 200 133 241 162 92 235 153 69 236 162 88 244 159 84 213 130 85 208 124 87 196 115 95 212 142 106 200 131 113 187 128 112 188 125 111 204 132 106 215 142 105 212 148 116 199 138 107 190 130 111 193 125 112 197 134 116 208 143 113 225 152 104 219 156 133 207 142 118 197 131 129 192 122 111 176 122 128 160 109 121 121 84 105 155 114 123 166 116 103 192 136 137 183 134 130 203 159 167 214 155 141 195 148 131 177 124 107 205 155 133 207 143 127 197 140 132 163 109 110 143 90 111 157 118 130 189 141 133 212 168 150 215 163 131 213 180 154 227 194 161 225 198 168 223 199 185 226 202 177 222 197 178 213 185 164 215 186 169 217 191 172 223 198 179 223 201 180 223 201 180 226 200 178 223 200 182 225 207 187 230 213 198 244 231 213 255 247 224 234 211 184 208 167 146 161 103 88 163 98 72 147 80 69 232 186 161 240 217 185 178 156 146 90 52 62 57 9 39 93 43 60 94 47 56 99 51 62 93 45 62 82 41 65 119 69 86 187 129 110 226 164 134 221 159 128 201 150 135 217 160 125 214 162 127 219 161 125 214 155 122 208 157 117 210 153 121 209 157 119 213 155 120 210 155 124 209 158 127 207 153 127 208 159 128 255 205 166 208 158 122
171 96 81 228 129 105 170 101 81 162 99 79 174 92 76 188 99 75 208 116 78 227 138 86 238 166 107 240 173 109 237 178 120 235 173 115 242 178 117 248 176 111 232 155 97 185 103 78 149 71 60 134 65 65 156 83 72 169 96 76 172 96 78 173 96 69 174 96 73 179 105 82 179 99 78 183 97 73 186 100 72 158 79 70 166 78 51 203 135 93 244 183 107 255 212 133 247 173 87 238 166 85 245 163 87 234 153 89 210 130 92 185 112 91 186 113 98 196 117 96 194 125 116 183 125 120 199 140 124 209 141 112 216 141 111 209 137 110 197 127 100 193 128 104 199 129 108 205 137 111 217 154 124 206 143 114 202 144 137 166 111 110 169 120 128 151 94 97 159 95 97 154 94 91 127 69 92 166 115 128 209 157 156 204 160 160 163 122 131 121 81 106 163 126 143 142 110 138 152 112 129 137 96 108 154 105 107 136 93 107 68 28 67 69 43 89 110 66 78 190 138 129 228 176 148 220 180 157 223 196 173 222 193 174 227 197 175 231 201 171 223 194 170 221 196 179 216 195 178 222 198 176 221 201 180 225 202 180 223 200 183 228 199 181 224 205 188 236 218 199 247 239 218 251 228 195 234 206 172 213 179 147 182 135 120 172 117 87 127 53 36 135 65 59 188 134 126 254 219 190 222 192 164 124 91 80 66 18 41 80 37 55 93 44 53 96 44 59 94 45 51 79 33 53 86 45 62 135 89 105 207 147 126 224 161 139 211 156 126 210 156 135 212 163 125 215 159 127 215 159 125 209 159 131 209 154 126 211 154 122 206 152 125 212 157 123 210 158 128 208 155 120 206 151 126 206 156 127 255 208 165 209 153 122
172 98 80 228 137 111 171 98 81 168 96 81 175 99 72 187 103 74 215 120 69 227 140 84 238 164 107 235 168 118 239 174 117 235 174 114 241 178 119 247 175 122 233 153 98 181 112 84 140 71 65 132 66 63 151 87 68 164 95 76 174 102 78 175 99 77 177 105 80 176 103 79 183 101 78 180 100 77 180 99 67 169 89 66 150 63 53 196 122 92 233 164 114 255 238 145 254 200 108 240 160 86 231 156 91 219 142 104 214 148 106 191 120 93 182 109 88 184 117 96 185 121 102 198 132 110 206 138 104 204 135 106 202 136 104 192 131 112 201 135 111 199 129 111 208 134 104 210 138 115 208 142 118 203 132 112 182 123 115 196 130 119 202 139 130 201 138 131 177 116 120 152 94 113 104 69 91 123 81 106 151 118 124 183 142 164 161 132 167 119 87 142 115 88 136 86 48 79 117 82 121 111 61 81 85 44 73 21 0 20 53 30 65 72 45 85 165 127 131 182 139 129 239 199 165 229 200 172 223 193 163 225 199 172 223 195 163 223 198 166 223 192 168 218 199 180 219 188 176 216 191 168 221 194 173 223 200 179 225 203 182 242 217 197 251 236 208 240 217 197 219 192 171 195 147 127 183 140 116 172 108 85 137 74 60 131 59 58 140 67 62 215 156 130 236 194 162 236 202 167 117 88 91 84 37 61 58 13 46 103 48 63 89 44 56 103 49 57 84 36 46 68 26 54 107 65 81 170 119 120 227 163 136 216 156 129 212 154 122 209 163 137 217 161 128 210 156 135 213 163 129 212 161 124 210 158 120 212 150 121 209 158 134 211 157 125 203 154 135 207 152 119 204 154 129 204 153 122 255 204 166 211 156 122
179 100 76 232 132 102 170 96 74 166 93 71 181 101 73 193 102 72 217 126 76 228 141 89 235 167 109 233 174 111 235 174 114 237 174 110 242 178 114 246 177 116 231 148 97 185 110 82 145 78 71 135 72 73 161 90 81 169 96 81 168 98 71 171 96 76 175 102 80 172 98 76 173 95 77 175 91 67 178 99 75 173 96 64 133 49 54 193 131 105 216 165 120 255 255 161 255 197 93 236 158 84 225 132 79 193 119 103 204 138 113 174 108 93 179 107 85 165 96 87 194 120 99 207 135 116 208 143 117 199 131 110 196 126 96 201 131 109 207 132 109 200 129 104 207 140 108 210 136 112 194 135 122 185 123 112 200 138 134 188 133 127 168 116 131 142 99 124 149 98 114 143 90 110 121 70 93 113 72 113 129 95 130 128 91 124 124 91 128 97 42 67 133 107 145 101 56 82 148 129 176 72 32 63 68 36 87 45 17 46 80 46 81 158 128 134 191 148 136 226 183 157 228 191 163 223 195 170 229 206 182 226 205 175 222 189 167 224 195 165 221 194 169 222 196 175 213 196 174 218 197 176 221 195 173 228 208 190 249 229 204 233 212 184 236 214 185 191 151 131 182 142 130 152 75 56 126 51 39 120 43 38 140 67 61 176 113 91 227 172 131 237 194 168 221 191 158 131 83 79 86 35 48 69 18 36 91 47 63 100 49 67 94 47 58 107 64 76 79 48 65 82 45 74 135 84 94 193 135 121 225 169 135 205 149 123 212 165 130 217 162 131 214 167 133 212 158 137 210 160 131 210 159 133 207 153 128 210 159 123 207 154 131 210 157 132 206 154 131 208 152 119 205 154 118 207 154 124 255 208 164 209 152 120
174 106 79 236 136 103 174 101 75 175 102 78 174 98 81 190 109 73 209 125 85 221 141 98 232 167 115 234 168 114 237 175 115 233 174 117 237 179 123 252 171 115 233 150 105 187 104 71 141 77 67 135 72 68 154 86 71 168 94 70 174 97 79 177 94 76 177 102 77 171 90 74 173 98 72 179 97 68 177 102 70 185 97 65 129 53 57 187 125 98 212 166 121 255 255 151 255 207 109 236 166 85 222 148 97 206 133 106 208 142 117 187 114 87 175 103 84 186 116 95 210 143 109 213 141 120 197 139 119 181 115 100 202 128 106 194 126 110 203 138 120 209 136 110 233 150 104 218 137 108 203 132 117 201 130 121 185 122 115 177 124 131 139 88 107 140 99 131 110 59 84 90 48 72 91 47 73 121 81 98 130 90 110 106 58 79 109 64 96 128 80 112 145 108 132 88 42 64 112 84 128 66 37 87 111 91 127 85 39 54 184 148 128 210 162 139 239 201 182 223 188 156 221 195 168 226 189 157 221 191 168 226 193 169 221 188 165 220 191 167 221 186 165 217 193 165 219 187 170 217 195 176 237 212 198 243 225 190 230 201 170 194 150 124 185 157 140 162 112 106 155 99 85 134 53 46 162 88 68 181 114 93 195 125 93 245 191 148 251 204 163 231 204 173 117 75 79 77 35 57 59 13 44 93 52 73 99 49 63 90 42 57 98 44 57 101 55 62 74 30 60 109 68 89 159 106 106 226 156 125 219 159 126 207 153 130 218 169 134 213 166 132 214 161 133 212 160 138 213 163 133 206 161 131 211 161 129 207 159 131 207 158 131 203 155 128 209 158 129 209 155 127 206 152 121 205 157 126 255 200 173 202 151 129
177 107 82 242 141 115 175 102 81 166 94 84 172 98 74 189 97 70 215 121 88 222 139 93 236 169 110 238 168 111 236 175 123 234 175 118 239 178 120 245 176 110 236 152 98 187 109 79 149 78 68 133 70 71 156 86 75 170 91 78 168 92 77 173 97 77 175 97 73 169 98 73 170 95 80 175 94 71 177 98 79 177 101 73 147 73 71 166 98 87 207 146 99 255 220 142 255 228 127 239 186 118 223 163 126 211 143 118 196 132 119 187 108 84 179 107 89 210 138 106 207 138 114 198 129 111 182 116 112 197 125 103 196 128 104 199 126 98 188 129 111 176 118 109 214 138 111 204 129 108 207 137 122 153 101 103 148 92 101 130 98 117 90 50 77 96 61 92 76 24 46 98 55 87 112 67 98 138 91 123 129 84 109 102 59 74 114 74 102 126 83 102 147 110 152 67 32 60 94 73 129 73 36 57 144 107 120 186 132 101 217 166 143 244 205 159 221 181 155 228 193 157 215 178 154 211 182 154 211 179 161 216 184 165 213 185 156 218 186 164 219 188 163 217 190 178 227 206 183 241 228 196 232 211 184 201 172 145 165 132 125 135 91 86 144 109 123 159 109 114 190 143 125 208 135 100 209 132 90 217 157 123 255 209 147 255 217 160 233 189 143 108 68 77 69 25 52 67 17 42 99 57 68 109 61 69 91 50 59 95 39 55 98 53 61 89 58 77 88 51 82 136 92 102 195 128 111 232 162 127 212 158 126 210 156 132 219 171 136 212 165 135 214 163 138 213 162 138 207 161 127 208 159 135 204 158 135 210 157 136 203 156 132 202 155 132 206 156 125 206 158 126 209 156 119 201 151 123 255 198 159 204 147 123
175 104 88 238 142 117 176 104 86 176 100 82 175 96 74 186 101 67 205 119 74 226 140 91 241 165 108 235 174 116 235 175 119 233 169 116 238 179 126 245 174 115 239 156 104 188 108 79 150 75 65 133 65 64 152 78 61 165 98 74 176 103 78 174 93 76 170 97 72 168 94 76 175 104 80 174 102 77 179 99 78 185 105 75 172 91 68 153 66 40 204 142 99 240 201 133 255 255 173 241 204 144 233 182 137 206 142 114 194 119 98 181 109 87 206 137 118 208 145 119 196 132 117 177 105 90 180 117 105 198 121 98 202 127 106 215 133 95 215 149 117 180 111 95 190 121 106 160 90 92 174 112 112 135 94 123 116 70 99 106 73 114 103 68 95 103 69 101 87 45 71 81 33 61 109 66 92 127 79 96 123 78 91 110 61 81 133 95 116 124 88 121 98 63 92 50 20 71 87 63 90 123 76 95 216 158 122 210 145 108 253 210 166 227 191 160 230 202 178 213 179 161 214 180 163 212 183 170 214 181 158 208 169 152 208 172 151 220 184 164 221 192 168 224 201 175 216 181 148 206 170 144 172 128 112 148 103 99 126 83 85 134 85 89 139 105 119 174 133 146 215 165 138 247 183 133 255 186 113 255 224 149 255 210 153 224 184 144 112 64 66 72 29 48 56 2 29 99 58 71 101 56 73 108 64 76 96 49 62 100 45 52 93 49 52 74 25 48 91 54 77 151 101 102 211 147 125 227 165 126 214 152 128 214 167 126 215 169 133 211 167 133 214 165 129 211 165 137 211 158 124 209 163 132 214 161 130 206 160 130 208 159 130 200 153 129 207 155 132 202 156 134 206 160 138 204 156 132 255 202 174 204 153 127
179 108 86 241 145 116 178 101 86 174 100 79 170 90 65 182 95 67 204 108 69 223 137 85 237 163 103 240 174 120 237 174 123 234 175 118 241 178 116 244 174 112 236 154 99 191 108 74 153 78 67 134 64 73 154 84 74 168 93 79 170 94 75 174 103 79 174 100 75 175 99 80 177 97 79 173 96 74 178 98 75 175 98 76 184 106 78 147 63 55 167 97 80 207 161 147 255 234 178 254 219 174 240 192 137 201 144 118 202 136 104 190 114 93 211 139 111 198 130 116 181 114 98 195 115 88 197 120 96 199 121 95 199 122 98 206 130 106 220 154 126 167 109 105 170 107 108 127 70 83 140 89 99 92 56 93 102 65 90 87 43 71 122 80 100 99 59 74 110 71 97 82 42 59 98 50 75 89 38 49 81 30 50 100 57 76 123 79 109 114 87 112 108 75 115 83 65 95 115 71 99 163 109 81 214 154 122 244 200 146 224 194 172 227 203 170 215 183 160 203 180 163 214 183 156 209 177 166 210 175 142 205 174 152 210 177 153 212 187 163 214 187 167 227 203 180 234 195 162 205 157 127 147 88 79 87 40 55 114 68 90 143 107 127 161 131 145 180 135 134 202 145 123 255 192 140 255 217 148 255 213 158 217 180 135 107 68 74 75 28 47 51 3 25 96 45 63 108 55 64 105 56 60 102 57 65 86 42 53 96 46 56 88 42 60 78 39 61 120 82 96 167 115 102 222 158 131 209 153 121 216 163 129 220 174 127 217 165 130 215 167 131 211 165 134 215 163 133 212 163 132 212 161 128 210 160 134 210 158 131 208 163 144 207 156 129 209 159 133 208 155 128 201 154 132 199 150 121 255 203 163 205 146 122
176 106 87 236 142 111 181 105 82 181 105 79 168 95 76 178 93 69 188 109 80 220 139 89 237 167 113 240 175 118 240 174 123 241 174 112 243 178 118 241 172 111 241 158 103 190 108 79 155 75 64 126 58 54 154 76 67 164 95 74 173 100 80 174 101 82 173 94 73 179 100 75 176 99 74 174 96 79 175 101 78 184 103 76 193 102 73 175 90 59 160 85 73 198 154 132 231 193 140 255 223 159 244 181 120 207 140 101 207 124 83 188 109 85 210 137 118 185 121 105 188 119 111 186 120 98 194 121 110 177 116 109 185 124 120 177 125 132 197 135 131 165 99 104 160 101 102 124 71 96 119 84 108 115 78 112 96 59 84 97 51 87 115 81 107 117 74 106 108 68 94 78 22 46 88 42 59 97 49 68 118 75 101 140 96 128 119 78 105 118 92 131 108 79 114 136 113 146 154 101 121 193 144 141 231 190 158 234 202 171 232 209 185 214 190 178 206 183 164 209 177 157 208 175 159 207 170 144 213 173 148 204 169 150 205 180 163 211 183 166 215 186 167 235 207 183 235 192 148 194 128 104 145 66 63 120 66 79 144 110 115 167 126 119 145 104 114 160 111 119 204 147 130 235 178 138 240 187 127 187 142 115 120 81 77 71 25 47 60 11 38 95 40 53 106 59 64 112 64 73 106 56 67 104 52 69 93 41 60 94 45 55 84 40 60 90 49 69 142 94 96 177 121 111 206 153 134 201 150 129 222 171 133 217 168 124 217 167 132 214 164 129 218 161 131 213 164 130 216 162 133 209 161 126 209 160 127 207 159 127 211 156 126 208 155 125 206 157 127 205 160 129 205 159 132 205 155 131 255 201 171 201 152 129
184 111 86 250 147 118 178 105 83 179 101 79 163 90 75 167 87 69 185 98 75 216 133 83 238 162 112 237 172 111 235 174 120 241 173 114 241 175 117 245 175 112 240 160 104 186 106 80 153 76 67 126 59 60 146 77 67 168 94 74 168 99 78 177 101 79 170 96 78 176 96 75 172 95 74 168 96 78 173 97 74 180 105 78 193 114 93 196 117 87 146 62 57 171 102 79 197 142 97 255 221 151 255 218 141 232 165 124 220 150 104 186 102 80 185 109 96 187 114 97 198 130 109 198 134 118 198 127 111 186 119 115 205 134 122 190 142 154 180 122 127 146 95 115 133 74 89 138 92 116 138 93 117 110 67 88 74 31 48 73 34 66 118 78 102 133 88 110 113 68 84 85 35 52 86 43 61 101 54 69 104 59 82 93 57 78 90 50 82 100 74 113 133 105 157 133 106 146 147 107 140 180 140 126 223 183 166 236 206 172 214 183 163 208 184 161 206 175 155 207 183 159 211 176 151 213 177 144 206 165 147 207 173 155 214 185 168 222 190 172 220 183 168 231 197 182 255 218 189 243 185 153 209 144 116 153 83 74 142 93 103 132 93 108 156 114 133 163 123 137 210 169 153 224 167 137 209 148 110 104 55 63 68 31 53 54 11 43 99 53 65 105 52 66 109 57 66 114 62 66 104 56 66 90 47 56 93 43 55 87 40 54 86 39 67 115 75 89 163 109 106 186 131 114 195 139 125 202 154 127 221 176 140 219 168 128 213 163 134 213 161 125 209 163 134 211 165 131 216 162 134 213 160 127 212 160 130 211 158 131 207 161 131 211 158 128 208 155 124 207 154 124 207 152 117 201 154 123 255 200 161 201 151 123
179 107 88 245 144 113 183 102 79 178 105 81 161 89 70 164 87 71 182 101 70 208 128 89 237 162 114 240 174 118 237 178 129 237 175 120 242 184 129 250 177 114 239 163 105 188 110 82 148 73 68 128 62 66 148 80 68 169 99 77 168 99 82 171 101 84 167 95 74 172 96 73 178 94 78 175 100 76 177 99 78 188 103 78 197 119 88 200 118 87 168 89 77 175 88 54 208 150 94 255 221 152 255 218 161 228 159 119 202 116 87 183 110 93 180 113 99 179 106 87 193 130 113 189 124 107 207 141 122 190 124 111 191 127 120 161 98 110 139 86 97 104 61 86 92 48 77 119 82 109 120 76 97 135 91 117 84 42 59 94 55 81 98 60 89 146 97 134 110 64 90 96 50 63 74 24 37 104 57 75 89 52 76 107 74 106 106 60 91 130 94 134 141 98 136 162 131 168 199 158 154 214 181 164 228 191 165 218 188 162 209 177 149 203 169 146 206 172 157 208 171 152 202 175 157 203 165 141 206 174 155 221 183 157 221 187 171 235 195 176 239 191 173 238 201 178 241 209 180 255 203 159 223 150 107 176 95 75 117 65 70 110 68 81 138 98 108 164 119 121 228 184 168 190 124 105 136 70 63 53 0 18 62 19 48 96 47 66 113 57 71 109 61 70 110 64 72 105 54 61 99 48 65 94 41 60 103 49 61 86 35 49 98 49 75 136 89 97 175 125 117 192 139 125 185 141 123 213 164 138 223 175 134 215 164 124 217 164 124 209 161 129 214 164 130 208 159 135 213 161 130 213 165 129 211 157 126 208 157 122 212 158 128 207 160 127 211 163 134 209 155 129 208 161 126 208 157 122 255 205 163 204 151 117
180 105 84 244 144 116 173 99 79 180 101 80 162 85 70 161 90 70 177 97 70 215 133 86 240 159 112 235 170 113 239 178 129 234 175 117 239 178 133 246 173 121 240 158 102 186 108 79 154 75 64 126 64 68 148 77 71 162 94 76 177 93 75 178 98 75 168 96 82 170 96 73 169 95 80 176 95 73 177 101 74 188 104 81 196 118 91 199 120 95 179 104 84 164 66 45 205 139 98 255 212 143 255 228 161 214 148 107 182 95 73 172 104 94 183 114 102 180 112 99 198 122 102 218 136 106 242 154 115 216 142 120 189 111 87 147 94 95 134 77 72 104 59 84 68 25 46 86 43 71 106 59 89 131 93 121 104 62 90 101 59 83 101 54 91 154 118 152 132 100 134 143 104 133 92 51 64 75 32 54 57 24 44 70 26 41 131 85 92 154 103 114 156 117 151 174 140 149 195 160 147 231 195 151 222 186 157 215 179 153 201 159 136 205 164 147 204 176 158 210 179 162 207 169 147 219 168 142 219 178 155 230 192 159 235 198 164 245 199 166 234 198 169 240 197 176 243 211 184 254 209 174 245 167 117 185 98 70 117 46 50 98 50 75 118 75 88 156 107 112 204 161 145 184 129 120 140 82 85 65 18 37 76 32 54 93 48 60 106 57 69 106 62 72 111 57 69 106 54 63 93 41 56 92 44 57 91 46 51 77 28 56 104 61 73 151 102 107 191 138 127 198 145 125 190 143 122 207 162 128 214 166 128 220 166 132 216 173 130 215 167 129 211 164 129 212 166 128 209 166 130 215 160 129 210 166 130 214 159 127 209 161 127 213 157 128 209 160 135 208 159 124 206 159 127 205 151 118 255 201 160 202 147 114
170 102 81 232 134 111 174 106 84 175 105 82 162 88 71 160 89 73 183 99 71 206 128 95 238 160 113 238 171 122 240 178 131 235 176 129 242 179 128 242 175 117 241 159 101 192 111 86 151 81 71 128 63 65 151 86 70 160 91 74 174 100 83 177 107 80 176 102 84 179 103 77 174 104 79 183 101 80 177 99 79 183 104 78 190 112 80 202 120 86 190 109 79 162 66 42 210 153 123 253 213 168 249 215 164 198 131 98 164 71 57 182 112 99 184 113 91 185 116 100 193 109 86 175 105 87 184 110 89 189 119 108 139 81 79 120 71 85 77 38 56 104 65 86 83 40 61 87 42 67 96 56 77 121 76 98 103 65 83 111 64 86 72 30 60 148 122 152 114 83 110 144 115 138 61 12 33 62 35 61 74 30 46 144 96 103 185 117 113 212 156 141 188 142 141 202 168 162 197 171 163 234 200 165 220 197 168 214 174 152 206 166 141 196 158 140 206 172 150 212 162 132 219 161 135 224 168 134 236 192 158 247 204 172 242 208 173 235 195 173 242 201 170 240 199 175 243 211 183 254 220 182 244 177 134 209 123 86 110 35 36 83 35 49 72 27 55 149 104 111 216 168 154 179 132 133 128 84 89 57 8 40 92 47 57 105 44 52 108 53 64 105 61 72 109 59 69 97 54 68 97 47 62 97 46 60 86 37 57 84 39 56 130 86 93 167 116 106 205 148 114 191 140 121 205 153 120 203 160 133 207 153 122 208 161 130 215 163 131 208 167 132 209 162 127 212 162 130 215 164 123 212 169 130 213 164 133 208 157 127 212 165 132 208 162 122 211 160 127 207 159 123 210 159 129 208 158 123 255 201 163 207 148 118
173 108 83 232 141 113 166 104 82 176 103 84 159 98 80 159 88 69 180 100 77 213 129 87 236 166 115 235 170 117 236 179 125 238 170 118 236 181 121 245 170 112 238 155 102 188 110 88 151 83 71 136 63 60 150 80 65 168 87 70 171 101 83 180 105 84 181 106 87 176 102 81 175 99 80 172 96 73 182 108 87 191 108 80 200 119 86 198 117 83 196 111 78 162 72 67 207 138 94 233 184 134 242 191 130 200 129 95 166 74 53 179 109 93 185 112 96 215 143 124 209 132 108 203 125 103 155 84 78 154 94 93 92 45 64 117 78 100 76 36 61 110 66 85 83 40 61 97 53 76 98 52 80 98 57 77 101 54 80 135 93 112 109 65 109 152 119 152 115 78 105 117 85 112 67 26 67 81 46 70 142 91 92 197 134 118 231 175 153 241 182 135 194 163 166 189 149 136 177 156 173 226 194 162 220 195 172 206 176 156 201 155 139 200 158 139 212 157 127 225 165 131 234 172 132 237 181 148 244 199 162 238 197 180 240 205 176 236 197 177 241 206 179 246 206 180 247 219 198 250 225 200 255 196 158 226 143 100 140 59 53 85 35 44 59 16 47 139 100 117 222 181 166 182 154 152 129 96 100 56 14 49 97 59 70 108 54 59 97 57 65 111 58 72 103 53 65 109 56 64 91 43 56 104 54 59 72 25 44 99 52 71 140 100 104 193 138 119 211 161 124 200 147 123 211 160 127 197 148 125 197 144 121 198 151 125 204 156 133 207 157 125 206 157 128 210 155 124 211 163 125 212 163 134 214 167 133 215 162 138 211 162 126 207 159 132 208 158 128 209 157 121 209 156 119 207 152 122 255 202 165 200 148 121
177 103 79 235 137 110 178 108 85 169 100 86 167 94 74 154 86 73 180 96 71 198 126 90 235 161 109 237 171 119 238 178 120 231 175 117 243 178 114 245 175 109 235 155 102 186 109 83 146 79 76 133 74 71 151 89 82 169 97 77 169 101 82 173 108 85 178 107 87 184 104 81 181 102 81 173 92 74 185 109 94 195 119 84 199 130 98 199 120 88 202 123 91 185 100 71 193 117 93 227 186 155 234 186 147 211 154 127 183 89 66 187 107 89 205 130 100 221 138 98 203 113 86 145 76 68 102 57 84 94 52 71 81 39 65 119 72 91 104 61 89 132 90 109 93 46 68 115 73 90 94 49 66 96 56 69 83 33 60 104 60 87 108 60 89 111 72 84 114 70 100 53 15 50 79 39 63 105 54 58 204 129 101 232 163 134 232 177 138 245 198 155 192 160 155 183 145 146 177 162 174 223 189 163 218 195 174 202 163 140 208 158 135 214 154 121 224 152 120 229 157 119 239 175 136 236 188 149 236 196 165 237 200 178 238 201 176 240 204 177 240 204 185 239 210 184 244 218 197 252 229 196 255 214 177 240 167 123 167 83 63 88 24 39 47 3 38 104 66 88 209 163 159 187 150 145 142 104 114 74 28 46 102 50 68 106 55 65 105 59 69 114 64 69 107 59 66 94 50 66 91 49 62 90 45 58 74 35 47 120 74 85 163 109 110 209 153 130 205 152 113 208 157 126 219 169 130 202 156 133 197 148 126 199 145 117 197 144 121 202 149 126 198 150 128 195 151 125 200 150 115 205 151 126 209 157 127 207 158 130 208 162 133 213 163 135 210 160 128 208 156 121 212 159 125 212 159 126 255 200 170 208 147 120
175 106 82 234 136 109 176 101 79 169 101 81 164 94 77 160 83 64 177 103 73 211 126 87 234 162 112 237 171 117 238 177 131 237 178 121 241 181 121 245 178 116 235 152 103 186 115 94 151 79 72 135 71 76 158 85 77 168 98 80 177 100 84 177 103 81 178 108 90 176 101 82 177 104 82 174 92 69 194 117 96 194 114 90 200 129 100 192 107 76 195 113 81 188 103 74 196 99 61 211 150 109 218 151 100 210 141 98 203 101 58 204 127 105 203 148 140 187 123 116 185 115 104 148 74 78 123 75 94 81 43 74 91 49 85 89 53 83 98 53 82 116 70 91 101 53 75 116 71 90 85 39 57 103 60 80 85 40 60 111 68 95 138 87 123 103 56 91 111 74 122 79 42 64 152 103 117 189 113 74 223 147 116 238 167 123 225 180 149 237 199 161 183 155 162 199 157 141 182 159 158 227 194 158 207 177 168 207 155 133 219 153 122 225 156 117 235 158 119 231 169 143 231 180 145 232 185 160 241 198 169 236 201 181 238 203 179 239 204 178 240 206 174 240 205 179 243 212 187 252 224 191 255 216 186 241 174 132 188 105 81 108 42 44 56 20 43 78 37 68 190 147 131 185 132 129 158 122 115 69 23 52 94 55 73 101 55 64 108 62 72 110 67 72 105 53 66 98 47 56 97 48 55 82 36 52 87 41 67 135 92 97 178 129 123 216 159 135 198 153 126 212 166 128 213 171 131 204 160 128 206 157 127 203 156 124 199 152 124 201 151 124 202 146 116 195 148 127 190 142 119 193 148 129 205 150 115 203 157 131 197 154 136 198 153 136 205 153 127 206 158 122 207 156 124 207 157 122 255 206 161 212 151 117
182 103 78 235 135 107 176 102 79 173 94 77 166 86 65 156 80 69 181 104 77 208 126 94 233 162 115 238 171 126 233 177 131 236 176 124 241 179 119 244 175 116 240 158 102 184 108 83 148 74 64 133 73 76 155 84 80 172 102 88 173 99 79 176 99 86 177 104 89 183 109 85 187 106 89 178 102 78 182 110 86 179 112 89 196 126 98 195 118 83 203 123 85 202 105 66 185 94 74 236 161 117 227 159 116 240 162 112 199 119 105 202 134 127 217 151 134 163 91 89 151 88 87 61 19 57 110 79 101 76 43 81 104 66 85 88 49 89 112 68 96 141 98 120 110 58 76 100 50 68 103 67 87 106 71 93 109 66 92 80 32 56 99 56 78 44 6 39 104 72 107 90 44 71 210 153 131 193 121 84 242 171 125 218 161 126 224 184 151 228 200 173 194 175 170 209 186 168 205 170 167 236 202 163 228 179 152 225 161 126 229 163 134 236 166 131 230 174 140 234 177 147 232 169 145 236 180 145 239 189 158 236 198 165 239 199 176 240 201 169 241 202 173 240 207 181 244 211 189 249 220 194 255 230 196 255 195 151 225 138 100 139 61 55 75 24 47 40 0 36 158 115 114 189 127 114 172 122 118 93 36 48 92 43 59 112 68 78 110 65 73 102 58 66 101 56 70 96 48 60 96 51 60 70 29 52 109 65 77 154 104 98 203 146 126 208 152 118 203 156 121 218 174 131 218 166 130 208 160 134 207 163 129 208 162 133 210 169 130 207 163 137 205 157 127 197 153 128 188 142 118 189 144 125 189 136 111 191 141 117 192 141 114 198 147 120 197 145 118 199 148 123 199 150 129 206 153 122 255 208 165 211 154 119
172 99 78 227 132 108 172 98 81 170 100 81 174 96 70 158 85 65 186 99 72 208 128 91 239 162 117 237 170 124 232 176 140 241 180 130 239 183 126 243 179 123 238 155 105 187 113 89 158 80 65 138 68 73 154 86 77 170 101 82 178 104 87 175 107 88 181 104 82 169 95 84 177 105 84 176 96 86 191 108 81 193 112 82 197 114 82 193 110 81 198 114 88 223 138 82 184 114 85 169 102 59 143 75 57 182 110 89 202 136 120 218 147 143 189 129 119 129 72 76 100 59 80 53 17 49 111 74 102 89 50 81 121 78 104 75 28 52 99 51 70 107 56 79 112 66 80 89 39 61 99 56 84 96 53 69 98 50 71 102 62 82 109 64 99 89 59 98 94 46 67 155 115 106 217 151 126 233 192 151 220 160 117 220 164 130 211 163 139 223 201 181 215 200 194 192 170 155 164 126 116 170 115 96 204 134 116 231 162 136 250 178 152 251 197 165 248 190 154 236 186 151 236 179 142 235 180 155 240 189 161 238 198 172 235 200 176 238 197 165 237 199 166 243 202 168 241 212 188 253 225 198 255 248 210 255 208 156 226 147 104 140 60 51 65 20 44 57 17 55 175 136 134 200 141 133 179 129 114 89 31 54 88 45 69 109 74 83 114 70 82 107 65 74 96 53 68 94 44 56 92 47 62 80 34 57 126 85 99 168 117 107 210 156 124 199 148 115 204 159 130 218 166 131 210 159 123 205 157 130 208 162 123 213 164 133 211 167 132 214 164 137 211 163 126 208 158 129 202 155 119 196 153 132 194 144 120 189 149 135 180 141 122 188 137 124 191 141 116 191 141 127 190 147 126 198 144 123 255 198 154 203 148 116
178 104 82 232 136 106 175 96 76 172 97 71 170 94 66 159 87 68 178 98 75 201 126 99 234 164 117 236 176 135 236 175 121 237 180 126 243 176 116 247 178 118 236 153 98 188 111 87 147 80 69 128 64 67 156 82 74 170 97 78 177 99 76 176 97 80 177 97 78 173 103 80 186 101 80 181 105 79 189 110 82 194 115 81 197 114 83 198 108 78 214 134 98 243 152 91 172 107 83 130 61 48 109 62 77 193 127 110 203 145 137 210 133 104 158 80 62 152 96 91 85 51 84 87 62 100 125 83 119 105 69 95 115 70 88 74 26 42 119 78 100 110 70 85 99 51 68 62 15 39 122 84 109 103 66 97 141 103 141 103 57 100 73 40 77 74 39 57 115 60 59 185 127 116 215 164 135 221 184 157 226 183 144 209 163 137 215 178 164 219 199 183 233 213 187 199 155 133 205 142 114 193 127 101 196 118 90 177 111 95 171 109 96 205 140 126 232 179 150 249 199 162 237 186 158 233 174 141 238 181 143 234 191 155 238 192 164 234 191 165 241 196 164 247 209 174 255 233 193 255 225 185 245 210 171 215 150 121 182 102 85 118 41 45 66 16 41 48 8 44 158 128 135 215 158 145 191 147 133 118 60 65 85 45 65 122 77 83 108 66 76 101 58 69 90 46 64 97 48 61 77 34 58 95 47 70 137 96 99 185 127 113 210 152 131 198 148 114 218 169 133 219 166 126 209 158 124 211 157 120 208 156 113 207 159 129 212 161 132 212 167 135 208 160 134 208 160 134 198 153 124 198 155 129 191 151 127 194 149 129 191 147 126 196 153 134 193 143 123 191 140 125 182 136 129 190 142 123 253 186 166 197 141 115
177 102 84 229 137 112 176 103 84 179 106 81 175 96 73 161 81 66 176 94 64 203 121 89 239 157 109 239 172 126 237 176 122 241 179 120 241 181 125 245 180 121 240 160 105 185 113 88 152 78 76 134 70 78 155 87 76 170 100 90 177 107 88 176 107 89 172 98 80 169 93 79 170 101 82 180 98 81 182 105 80 200 105 76 195 112 78 198 113 92 219 143 106 241 179 126 170 128 99 42 22 53 51 25 82 129 84 109 240 162 126 192 103 64 127 60 62 114 74 91 75 46 91 88 52 72 133 97 132 114 77 96 139 100 130 70 23 37 110 67 88 87 49 64 86 43 62 81 31 43 83 33 58 103 71 87 116 80 104 86 62 90 88 47 76 130 87 95 178 118 94 232 170 142 225 176 142 241 213 176 211 164 136 221 191 162 215 180 159 233 194 166 229 174 145 219 146 110 217 135 101 213 127 104 221 143 110 200 123 102 172 87 73 161 97 88 194 125 105 220 162 136 235 181 144 236 181 146 236 180 147 236 187 156 238 192 158 236 189 155 248 195 156 236 189 148 235 187 152 221 163 138 220 163 134 220 139 104 191 106 74 148 72 55 77 31 43 60 16 51 149 112 123 220 163 154 195 146 128 118 63 64 78 31 52 120 72 81 106 63 78 100 60 77 92 51 62 101 48 63 73 29 50 117 68 83 150 101 103 197 141 123 198 146 120 200 149 122 216 169 130 212 162 127 211 157 124 206 156 128 204 157 129 206 156 123 204 154 126 211 157 125 204 160 122 205 156 126 202 153 119 210 157 124 202 153 121 196 154 137 199 156 139 201 155 139 198 149 130 191 152 132 183 138 124 171 134 132 237 174 153 183 130 113
178 102 83 236 144 117 182 103 76 182 103 75 170 92 63 159 78 64 177 96 69 206 125 95 238 159 110 237 172 123 241 174 117 239 178 121 241 179 119 244 178 119 243 162 114 187 117 89 153 78 74 132 66 65 156 83 75 173 102 91 177 107 87 179 105 90 180 103 78 183 101 81 183 105 73 185 99 71 180 99 67 174 99 85 183 106 93 198 130 110 227 151 110 238 169 122 234 159 114 170 106 89 161 110 113 150 84 77 171 113 92 127 59 47 109 72 89 111 72 108 121 90 126 99 58 93 136 103 135 91 54 78 135 100 130 75 27 53 101 64 90 111 78 99 98 57 78 96 53 61 74 28 43 112 72 89 127 97 130 91 53 93 103 52 73 143 83 66 214 152 111 235 180 127 233 195 163 220 188 153 231 208 186 217 187 165 218 181 157 202 139 108 197 113 75 207 122 90 195 119 88 196 126 102 160 89 73 158 87 80 144 74 66 168 90 79 187 106 84 212 134 105 232 161 130 234 169 135 234 177 137 236 183 154 236 193 160 244 199 177 255 207 165 255 194 152 221 155 110 168 101 78 133 66 65 137 65 57 156 76 66 143 70 59 103 47 52 52 12 47 130 100 113 203 151 132 194 140 123 128 75 64 84 36 59 124 69 70 105 57 70 97 52 59 93 43 58 92 43 52 78 24 46 125 80 98 159 113 108 205 156 136 198 144 119 210 161 123 222 172 130 212 161 128 212 157 128 206 156 121 210 155 121 205 155 124 206 153 121 207 157 123 204 159 122 209 155 124 204 150 122 204 152 119 199 156 123 204 159 130 205 159 136 203 160 134 203 154 132 199 151 126 186 146 125 184 146 132 236 176 171 176 134 123
173 102 81 228 134 116 177 102 85 172 102 87 165 85 68 148 79 66 173 86 66 200 124 89 240 157 111 236 174 124 239 181 122 238 179 114 241 182 123 245 177 118 241 162 111 189 112 80 163 81 73 131 64 65 153 82 72 158 97 84 174 102 87 180 105 90 175 101 75 175 94 78 174 97 76 167 84 70 168 97 89 180 115 101 208 142 107 224 159 120 242 158 111 245 187 146 207 146 116 166 122 106 120 65 69 117 66 85 113 69 86 124 82 118 145 116 149 123 81 130 155 134 160 78 33 61 136 123 152 67 25 52 157 132 159 84 37 64 98 59 85 84 44 66 114 83 108 120 80 107 91 35 51 84 37 43 52 14 38 81 49 55 133 91 90 211 161 119 246 185 145 226 180 138 234 204 177 237 213 191 225 200 176 207 167 144 162 99 78 150 68 54 139 60 46 142 75 70 129 72 71 153 91 85 129 71 69 140 78 79 139 69 60 177 101 82 196 101 67 203 118 89 223 138 110 232 161 125 237 171 145 237 187 153 251 218 184 255 210 174 236 184 144 183 114 91 132 63 60 102 32 43 109 42 50 133 70 68 164 91 71 158 83 66 108 47 49 64 18 45 127 89 105 195 144 131 193 139 123 117 64 65 88 37 54 102 60 63 103 57 72 101 53 62 99 57 70 81 34 55 87 40 58 134 86 93 176 125 114 215 157 131 196 146 115 218 166 129 214 165 127 211 153 128 209 155 123 207 150 118 207 159 122 208 156 127 210 161 130 206 160 127 210 158 116 207 153 120 202 154 115 203 149 120 204 153 117 200 156 122 204 158 127 206 153 133 202 154 122 196 151 130 193 144 124 181 140 130 244 183 162 179 133 126
169 97 79 223 130 100 168 91 72 173 97 74 162 86 70 139 72 61 171 90 71 202 121 84 240 167 106 241 175 112 243 182 117 242 180 123 241 185 135 239 176 122 243 164 112 190 110 73 150 78 67 131 60 55 155 85 79 166 90 76 176 98 76 178 99 69 176 98 76 174 98 68 170 91 66 186 90 59 218 143 103 222 161 121 224 171 128 215 141 105 220 142 101 255 182 134 224 151 108 220 144 98 121 60 65 91 48 64 82 57 101 96 81 115 127 100 137 120 82 116 168 134 170 108 75 103 119 88 117 58 13 37 133 95 115 89 51 70 93 56 72 79 34 61 108 70 96 112 74 97 103 60 76 66 16 36 88 43 76 116 68 75 187 125 109 233 167 103 225 171 131 238 205 164 240 221 201 225 208 186 205 174 149 135 76 67 112 45 43 92 25 28 110 49 58 84 30 45 45 0 24 80 38 55 99 66 81 119 78 98 105 53 68 173 98 85 216 131 94 233 139 104 217 132 89 229 141 112 232 165 129 248 202 168 255 231 183 225 185 150 165 109 89 110 54 65 89 30 39 117 63 70 97 43 54 90 54 69 86 36 53 108 52 64 90 31 48 73 21 42 127 89 96 190 139 126 203 154 146 136 77 80 97 57 74 95 44 53 100 52 60 94 43 52 101 52 62 69 26 53 104 56 74 147 98 99 206 150 126 208 157 130 206 153 118 217 164 124 213 155 123 204 152 125 208 151 120 207 150 112 212 157 115 211 154 121 208 153 122 207 155 125 204 153 118 208 152 119 208 150 121 204 153 119 199 153 126 206 154 126 201 152 135 196 150 129 189 146 123 188 143 117 191 139 124 189 144 125 240 177 165 174 131 125
166 95 72 222 123 97 167 93 79 163 92 76 151 82 75 135 65 63 161 88 69 198 116 82 243 169 115 235 174 118 237 180 121 242 184 119 239 182 126 246 177 119 236 160 99 189 106 75 153 77 64 128 62 66 154 84 65 170 91 68 177 94 71 177 96 74 181 104 76 187 111 82 178 98 72 156 68 50 147 90 78 185 119 89 223 162 118 255 183 99 225 138 89 218 144 108 103 44 66 102 63 83 44 8 50 95 66 101 100 64 107 116 79 122 104 67 101 117 80 122 168 141 175 119 92 123 115 83 109 60 18 36 116 72 92 110 68 91 92 59 73 75 28 48 95 53 72 102 54 77 114 69 92 45 3 39 55 17 49 112 70 70 198 147 123 230 185 148 223 185 161 236 212 194 230 210 191 215 191 169 167 102 78 130 60 51 81 9 24 109 54 59 95 48 63 101 50 49 52 2 44 141 103 121 183 167 185 179 151 156 126 76 73 141 58 54 200 113 81 216 131 99 211 123 93 225 141 100 233 165 126 255 218 182 250 218 177 200 153 126 113 53 55 58 10 36 70 28 55 150 99 104 152 95 96 136 83 86 82 30 42 101 48 56 84 31 44 82 39 60 128 80 88 207 158 139 205 152 143 156 110 109 108 62 74 91 48 55 101 45 58 93 49 60 94 49 70 72 34 60 126 79 91 160 110 98 219 157 130 206 148 117 208 152 127 217 166 125 204 155 117 209 151 121 203 148 117 209 153 122 207 154 125 212 158 123 209 158 129 208 154 123 207 152 123 203 156 128 204 154 124 202 152 119 202 150 116 199 149 123 199 150 126 196 150 129 191 141 120 182 137 118 176 128 115 163 121 120 229 172 165 172 136 123
168 97 78 229 130 97 165 94 73 169 97 77 148 90 75 133 65 60 163 84 62 197 112 82 243 160 104 241 175 115 243 179 121 241 180 125 244 185 135 242 173 121 239 157 105 186 107 70 157 79 67 139 66 66 169 92 75 178 103 75 183 106 81 181 102 79 186 100 71 163 84 63 137 62 64 126 60 55 160 111 111 208 153 118 255 231 190 255 198 136 181 127 97 114 52 39 74 23 51 120 87 110 112 69 106 98 67 104 111 69 103 88 49 76 107 69 100 83 40 62 148 116 150 114 74 104 108 77 93 65 18 28 83 33 44 98 54 72 100 49 65 102 56 70 97 41 50 89 36 44 67 28 61 80 50 78 129 90 109 182 123 110 210 142 110 217 166 142 227 205 180 221 206 190 216 187 154 179 115 96 185 101 74 158 82 75 136 69 64 143 81 81 148 85 86 158 104 106 116 81 97 188 165 173 255 253 231 255 237 199 209 141 110 173 75 61 190 106 80 209 116 87 213 119 86 223 135 94 240 176 142 255 241 200 224 180 146 171 112 97 101 34 49 104 67 109 129 109 146 220 183 192 210 160 147 175 112 103 88 26 35 94 45 64 80 31 51 98 56 71 119 67 83 207 157 138 189 131 125 171 130 123 106 61 79 100 49 60 85 43 52 97 44 54 80 38 55 84 37 59 131 83 86 181 129 115 221 167 136 207 147 124 209 159 126 212 155 123 208 153 119 209 152 118 210 155 118 210 153 125 205 152 124 211 151 116 207 151 113 206 153 113 203 152 122 212 151 125 208 151 120 205 150 126 197 151 126 195 147 118 190 145 127 187 138 120 173 129 121 173 125 107 168 123 117 175 129 116 251 196 168 191 153 127
173 102 78 239 138 102 174 100 75 169 96 76 151 86 77 131 64 63 168 84 66 195 116 84 246 167 108 235 179 127 239 181 126 236 187 125 243 188 124 245 182 122 242 164 102 198 112 87 163 89 72 144 74 68 166 94 71 183 104 75 184 107 80 208 139 105 155 86 72 145 80 71 118 50 54 154 91 96 160 108 136 194 138 125 231 193 168 207 159 107 146 113 130 79 35 52 64 26 59 81 39 68 78 30 60 107 71 101 93 54 87 104 74 107 113 79 102 106 56 90 159 120 150 125 87 116 113 83 105 67 24 45 74 25 43 99 45 65 100 53 72 108 65 77 103 55 68 89 41 56 72 31 58 79 35 51 125 80 91 200 143 120 211 170 152 237 214 195 212 196 189 213 187 166 184 118 88 196 106 84 205 115 94 216 141 115 186 110 97 201 123 99 174 100 86 177 113 99 163 105 117 197 151 156 225 194 189 238 195 175 233 175 138 215 130 87 205 111 82 200 114 81 209 121 102 222 131 98 237 184 156 255 236 202 224 187 167 206 148 125 171 93 86 185 132 129 178 132 140 198 143 136 169 103 100 144 75 65 104 40 39 103 53 64 79 34 54 101 62 86 110 57 69 202 157 147 164 116 113 185 151 143 99 43 61 109 64 72 84 34 53 100 55 69 79 33 58 108 62 76 147 100 95 196 136 118 211 156 120 201 149 122 215 166 136 210 157 127 207 156 123 208 155 117 208 150 118 208 156 126 205 155 125 205 154 123 208 155 121 205 157 122 203 151 120 207 149 122 202 146 116 196 148 121 193 144 120 186 143 117 185 137 118 174 130 120 178 130 121 178 133 120 191 148 118 198 155 125 255 234 183 225 181 141
178 105 85 234 141 112 168 102 83 165 96 78 158 88 71 133 67 59 164 80 61 190 110 78 243 165 110 243 175 126 238 181 120 243 184 130 241 189 126 242 179 131 242 167 109 193 115 83 169 85 66 148 77 69 177 97 71 184 107 80 189 101 78 218 138 92 167 103 77 153 98 90 139 101 112 179 130 131 200 163 163 194 141 134 192 163 148 117 82 84 77 50 89 64 42 90 124 103 140 153 133 161 114 80 119 101 69 96 94 56 82 115 80 108 139 103 138 118 80 117 160 139 176 125 89 115 115 82 99 66 15 33 84 36 49 89 37 55 99 47 63 98 50 62 106 52 68 49 10 36 85 45 65 128 78 79 225 171 145 231 158 119 241 208 174 224 193 169 212 184 167 175 111 89 194 100 71 206 111 87 233 146 121 231 157 123 221 141 111 212 130 97 211 128 97 212 135 122 221 162 138 216 150 135 228 172 142 222 159 136 219 160 132 217 134 103 208 126 101 212 121 90 211 123 100 219 130 101 237 182 160 254 228 203 229 203 177 221 163 136 198 113 100 207 146 142 200 147 142 205 140 129 169 102 81 156 81 66 137 66 56 114 57 64 78 32 53 87 51 75 99 39 59 194 157 149 166 116 124 187 150 140 94 37 50 101 46 57 91 43 58 90 44 57 87 39 51 124 71 81 159 105 96 207 149 121 206 148 117 210 161 124 209 158 128 204 151 120 203 151 124 204 148 121 204 151 118 209 149 117 205 149 118 207 155 118 204 149 114 207 151 115 205 153 119 205 146 110 199 141 117 196 141 115 188 141 123 176 128 111 171 124 116 173 125 112 192 147 124 205 161 126 219 172 134 233 190 127 255 255 176 236 196 133
176 105 81 234 141 110 166 93 76 159 89 74 151 81 69 126 57 56 161 80 64 194 112 71 241 164 109 238 173 115 240 183 133 235 183 135 245 192 144 243 187 132 247 167 102 199 116 80 170 89 65 146 77 69 172 97 71 190 111 77 190 104 74 217 132 86 184 123 91 193 132 108 193 139 111 181 109 85 175 121 113 124 71 86 101 58 86 56 12 35 63 29 81 144 114 154 150 123 156 146 120 146 83 41 66 94 62 86 87 54 85 99 68 88 120 89 127 132 100 145 163 136 178 156 123 164 116 84 110 90 53 80 73 26 40 84 39 54 92 47 58 99 48 64 78 41 58 68 33 68 112 66 66 153 88 74 223 158 117 224 180 157 245 227 190 211 186 155 177 119 83 179 89 68 199 103 81 224 148 123 223 148 131 225 154 126 228 157 129 229 156 120 227 148 120 214 127 107 208 125 108 192 117 99 203 133 133 206 157 153 224 174 165 219 151 127 216 135 105 211 124 97 213 123 103 217 123 98 231 172 157 247 218 199 245 233 210 235 189 161 224 157 120 223 139 107 210 122 86 180 87 60 154 73 57 159 85 57 158 92 74 124 68 58 89 41 65 96 56 71 92 37 55 193 154 148 166 126 134 206 174 168 104 45 61 99 50 58 91 47 54 78 37 54 94 46 60 131 87 90 178 124 113 206 156 133 198 147 119 212 160 122 210 161 123 208 150 115 201 149 119 205 152 124 200 148 121 206 155 124 201 150 118 205 150 128 198 151 127 202 154 129 200 149 122 209 148 115 192 145 121 191 137 118 175 126 113 173 119 110 182 132 115 200 160 135 225 178 136 232 194 142 240 201 135 238 198 137 255 254 175 236 192 130
177 95 77 224 127 103 160 86 74 152 85 71 145 76 67 119 57 53 151 75 56 186 109 80 246 164 109 240 171 119 239 179 117 240 186 124 247 187 131 245 181 124 249 167 103 198 116 81 168 87 62 140 67 59 173 88 58 186 101 65 190 96 62 199 104 57 202 122 98 224 160 143 225 198 201 189 154 171 135 111 137 94 60 98 75 41 69 89 41 68 85 33 57 131 95 131 160 141 180 163 149 193 122 95 131 83 37 68 102 63 87 127 88 121 133 101 142 135 102 160 163 155 209 151 140 190 122 101 126 75 28 51 84 32 47 88 39 54 95 48 62 89 48 61 48 9 49 74 34 44 124 65 63 222 155 110 232 169 134 251 223 191 226 199 171 185 143 117 164 73 46 181 88 65 220 131 105 222 150 129 226 150 130 229 161 137 230 160 128 228 163 137 232 163 135 227 167 137 231 163 136 232 165 137 235 176 148 226 164 139 222 163 141 214 137 120 217 140 110 213 125 95 215 118 90 213 119 92 231 159 137 245 214 196 237 227 204 229 191 174 218 157 128 222 141 119 222 144 115 217 132 108 218 135 102 209 120 85 175 96 76 118 52 49 86 33 48 104 53 61 85 28 41 186 144 127 174 126 128 212 170 150 116 62 78 90 39 48 101 51 58 61 16 42 111 62 63 138 86 83 191 134 119 207 156 125 199 152 129 215 162 130 206 151 117 205 148 116 205 152 125 202 154 128 201 146 120 202 149 119 205 146 115 203 147 119 198 149 118 199 146 119 194 142 116 198 147 119 188 142 125 178 129 116 166 123 114 182 133 114 207 161 125 235 191 138 243 204 136 243 203 136 238 192 128 232 192 129 255 250 167 237 187 122
164 92 73 216 120 95 149 82 75 151 85 71 136 69 61 118 49 52 144 71 59 191 105 77 244 161 106 236 172 121 240 181 131 239 182 129 247 191 131 245 183 126 251 168 113 195 118 82 163 85 72 138 68 57 165 84 62 181 111 100 201 129 104 192 123 116 216 133 106 192 123 116 172 114 112 121 81 102 114 87 120 100 61 86 96 63 91 87 39 73 111 70 101 143 104 140 145 112 144 127 91 124 81 41 61 66 24 51 91 59 85 103 63 93 132 108 136 131 96 141 132 115 155 145 128 170 143 115 126 133 97 111 99 46 48 74 32 52 91 48 65 78 39 66 69 43 73 129 80 87 168 108 98 228 165 121 247 217 178 240 229 209 182 156 140 148 85 63 171 73 41 217 124 96 213 131 108 220 145 122 224 149 122 232 164 136 228 170 144 235 178 153 233 175 154 229 171 153 232 175 152 231 182 151 233 186 159 231 186 167 221 163 141 223 152 129 217 136 109 222 137 106 216 120 94 214 114 82 230 155 132 241 209 196 241 228 208 233 197 177 224 164 137 223 153 128 226 146 123 218 133 108 218 134 113 220 130 93 173 103 83 126 64 63 89 41 59 110 55 64 77 17 40 172 120 110 171 128 128 216 175 155 115 69 85 91 42 55 89 45 56 55 13 43 118 68 70 146 94 101 210 158 126 205 151 127 210 157 126 212 163 127 205 152 120 205 150 118 202 148 118 207 151 122 200 150 122 201 148 117 197 146 119 197 148 118 197 144 119 194 149 120 193 146 122 193 140 119 181 137 120 175 122 113 180 133 120 209 164 123 236 199 141 247 215 145 245 201 135 241 196 132 233 189 126 232 190 129 255 252 177 235 192 135
161 89 71 207 110 94 149 82 78 151 80 73 138 69 63 107 49 53 143 67 56 188 110 86 243 168 114 239 177 125 242 182 120 241 181 117 244 183 125 244 182 124 242 165 107 199 115 83 161 83 71 140 65 52 164 85 69 178 107 95 193 119 106 206 139 124 178 106 99 160 110 128 130 98 138 147 128 165 108 79 118 112 75 97 83 40 64 129 89 126 133 99 129 149 116 155 136 111 140 104 69 102 91 52 79 62 17 43 97 57 83 112 74 103 127 90 114 124 77 106 92 75 117 119 86 107 142 102 111 128 68 70 103 57 71 69 27 56 90 46 66 46 14 52 85 50 68 128 59 62 206 145 114 246 181 145 231 211 184 174 158 143 115 73 83 135 64 57 185 92 66 218 129 90 216 130 101 220 138 104 227 148 118 228 161 128 230 166 131 232 183 150 232 180 157 239 186 159 229 179 155 237 176 146 234 173 144 232 171 138 225 158 135 220 151 120 223 146 127 222 144 107 214 126 97 217 116 82 222 151 122 246 210 193 240 227 207 230 202 183 221 159 129 219 153 128 222 145 113 225 136 111 225 136 102 226 137 94 171 91 72 129 67 64 87 38 55 110 57 65 64 7 30 162 108 102 192 150 135 214 166 141 125 77 82 75 25 45 94 45 57 72 23 41 135 81 76 164 109 94 224 164 131 207 150 113 217 165 123 207 159 126 199 151 126 200 149 128 203 151 121 200 149 130 203 147 113 191 146 125 203 145 124 194 147 125 201 145 121 193 144 118 189 144 122 183 133 116 173 127 116 178 130 113 211 161 124 234 193 134 249 204 141 240 201 137 235 198 123 237 190 126 236 187 125 234 189 138 255 255 193 234 198 155
147 78 73 195 105 97 145 80 76 149 80 69 136 74 63 104 46 51 140 70 62 185 104 80 242 161 110 237 175 126 235 181 129 241 179 124 243 190 133 241 180 125 245 169 111 199 116 80 165 84 65 133 60 51 154 85 66 179 112 97 202 126 99 198 118 104 201 127 110 149 103 119 129 88 111 85 40 56 106 58 82 106 58 80 100 59 93 98 69 100 118 76 113 128 105 132 102 59 81 87 49 72 78 32 49 87 47 64 81 33 52 84 42 58 102 60 90 122 76 79 73 25 49 122 61 53 160 102 84 208 154 121 130 86 88 65 37 74 49 16 54 66 29 56 131 86 78 178 120 110 240 185 153 255 221 189 216 204 176 122 89 91 67 22 46 128 45 39 208 119 89 225 131 91 215 127 100 223 135 104 225 148 113 228 151 111 229 157 130 234 168 133 238 183 153 236 180 149 230 179 148 233 180 144 231 176 142 234 178 145 226 158 125 223 157 129 221 142 113 223 140 106 217 127 95 214 121 82 223 150 127 238 208 193 241 225 204 235 197 180 220 160 126 219 153 126 221 145 122 220 136 117 227 134 107 220 130 88 169 91 77 126 69 70 95 48 67 111 57 61 61 4 33 151 97 104 202 165 146 213 176 151 114 67 71 60 12 30 80 35 54 95 49 63 146 93 86 190 127 104 222 170 125 206 153 123 218 164 122 201 158 126 202 156 122 197 154 131 201 145 115 200 146 119 197 150 120 195 150 128 193 143 121 192 146 122 191 144 124 191 145 122 190 142 124 174 123 113 177 124 114 202 152 121 235 189 133 249 206 132 242 201 132 238 197 126 239 194 122 236 193 129 234 194 134 231 199 149 255 255 214 233 204 164
137 76 67 187 101 93 136 70 67 140 77 70 120 63 66 97 40 54 137 66 60 187 105 79 245 161 105 239 175 122 233 175 116 234 181 123 242 180 126 243 177 125 245 161 104 201 119 78 160 80 58 139 79 90 154 98 86 173 100 77 192 103 78 207 124 103 158 115 128 124 93 116 119 86 129 162 122 153 145 100 128 120 96 128 90 47 80 118 97 141 139 107 148 134 105 145 107 59 81 73 21 46 96 46 67 91 43 64 89 47 64 87 40 67 80 42 63 97 48 53 74 18 34 119 69 70 136 70 78 196 134 112 152 92 80 122 72 76 34 2 41 83 38 52 120 54 51 216 147 115 255 211 176 255 232 195 147 126 123 58 16 31 63 0 26 159 85 69 207 122 93 221 124 88 213 126 91 222 132 98 226 142 113 230 148 119 224 155 121 235 164 122 237 175 147 241 180 145 234 180 158 232 175 139 231 169 138 234 167 125 226 150 118 225 143 106 221 140 108 219 135 101 212 126 88 215 117 79 223 139 111 237 202 185 242 223 212 232 210 186 218 162 138 220 156 121 222 148 116 221 139 110 235 138 101 209 124 90 155 82 64 102 51 57 89 41 60 107 52 62 60 3 29 142 89 90 207 164 149 216 171 146 113 75 79 59 13 35 60 20 47 118 70 72 155 95 84 211 153 120 219 165 128 204 155 123 215 162 122 205 155 128 204 150 129 201 153 129 201 151 120 202 147 120 196 147 120 193 142 123 193 142 125 196 145 126 197 143 126 194 147 126 171 128 117 172 122 109 183 139 115 224 174 131 247 202 129 243 201 127 242 190 114 236 190 131 238 194 127 233 195 142 236 204 147 238 203 158 255 255 224 236 202 168
130 73 75 181 101 100 132 73 69 138 74 72 118 62 68 93 45 58 134 68 67 184 104 75 243 159 102 240 173 118 240 174 118 236 180 125 238 174 118 244 176 125 245 165 103 197 115 83 156 75 52 147 83 88 163 97 86 200 122 101 194 121 101 198 124 116 155 108 135 145 101 123 147 113 141 161 124 142 130 86 116 110 76 100 92 53 85 102 80 119 132 104 148 154 140 180 139 106 136 111 79 97 91 47 57 91 46 62 80 43 56 75 34 49 103 53 61 104 49 47 108 41 57 147 105 114 196 147 141 253 199 151 191 124 95 111 65 69 48 11 45 106 63 60 170 103 101 255 221 178 234 207 198 199 179 160 101 66 73 57 13 34 90 37 48 164 79 63 200 113 86 224 134 93 219 127 96 222 133 101 222 140 109 226 146 118 227 156 131 234 153 114 232 164 137 235 173 131 231 179 145 234 177 141 233 169 135 231 169 131 227 155 118 222 139 106 214 134 103 212 126 92 210 122 84 211 110 76 219 135 95 236 188 170 240 225 200 239 209 191 226 175 145 214 145 111 220 144 123 221 140 119 234 141 114 203 114 90 135 68 64 84 35 53 89 47 63 111 54 55 65 6 34 129 85 95 197 144 136 221 173 147 120 65 71 61 19 41 60 17 40 134 80 83 165 106 94 226 164 124 211 158 117 211 161 129 213 162 120 208 150 118 206 158 123 204 150 123 200 148 122 203 146 117 191 148 121 197 143 122 190 142 113 195 142 111 190 143 119 188 142 118 173 123 111 179 134 114 209 158 121 239 195 130 245 208 128 242 196 120 235 191 122 237 194 129 235 197 140 242 207 150 238 210 160 235 208 162 255 255 214 235 205 159
135 77 77 177 100 99 128 69 77 126 74 76 115 60 70 85 34 51 132 61 58 183 104 75 242 160 110 236 173 123 234 174 123 236 179 124 238 181 123 242 175 120 250 165 101 198 117 75 154 72 51 143 85 82 159 88 85 185 122 105 185 132 153 195 154 172 134 106 138 120 69 94 119 75 106 152 115 150 109 74 106 110 84 119 113 79 121 144 120 171 153 137 189 164 156 191 130 112 133 98 57 77 82 34 51 87 47 66 77 33 57 84 41 67 121 66 70 132 72 77 136 74 69 148 108 119 171 116 112 168 115 106 155 77 57 75 20 36 94 45 47 113 49 54 219 162 130 253 211 167 221 202 172 126 101 99 51 14 49 49 2 32 115 52 56 160 78 57 200 108 84 212 126 87 218 132 97 224 126 91 223 135 107 228 148 120 230 159 130 228 157 126 229 157 131 232 158 127 231 169 135 232 167 131 231 169 134 233 163 126 221 147 120 217 130 94 213 133 106 211 128 95 207 121 92 211 110 72 213 120 91 234 176 148 243 227 210 239 215 194 227 178 153 216 140 108 217 150 123 225 144 120 235 146 108 177 103 82 114 59 56 64 26 55 101 55 68 125 69 68 68 14 37 126 73 77 171 118 109 233 173 146 135 81 82 71 32 58 58 13 44 137 83 82 171 112 96 227 168 125 203 152 118 215 165 132 208 158 121 210 154 116 206 151 123 203 160 133 199 155 133 201 147 122 197 144 117 189 145 119 192 151 124 191 142 120 197 144 120 178 129 114 174 127 113 194 146 113 226 184 118 247 205 131 243 199 129 239 191 123 235 194 124 235 197 143 240 206 156 239 212 162 238 207 160 236 208 163 255 255 214 235 202 163
149 84 75 189 105 104 138 70 71 130 74 68 118 59 66 82 26 47 119 58 62 174 101 79 245 165 107 242 176 126 239 177 124 239 183 133 240 177 126 246 179 120 248 163 104 198 116 71 147 65 46 140 75 66 162 91 88 196 135 128 194 132 132 163 111 118 140 78 101 121 74 105 135 98 129 130 89 117 91 46 74 118 81 108 112 79 111 131 105 143 139 119 166 149 141 176 123 104 120 82 34 58 85 40 51 85 43 68 70 33 50 87 38 61 162 112 105 186 123 107 217 158 128 180 122 107 200 153 124 129 81 80 80 36 46 45 6 47 112 67 66 151 86 78 235 183 151 218 181 151 155 134 126 76 27 38 27 0 31 101 46 58 113 58 56 167 80 56 188 104 78 214 126 89 210 128 96 221 129 93 225 140 104 224 144 115 228 153 127 228 153 121 230 157 132 227 156 121 231 162 132 231 163 130 231 163 130 230 160 133 211 136 106 213 130 94 206 121 95 221 135 108 216 129 96 210 117 84 217 123 85 230 166 150 254 236 212 241 209 185 231 186 147 210 126 91 222 141 120 229 146 114 224 133 96 163 90 72 98 48 60 78 31 59 133 79 74 144 78 69 74 23 40 110 72 83 159 111 108 251 198 165 159 106 94 87 40 65 77 30 51 147 94 85 209 138 103 220 161 106 210 148 114 215 167 119 208 151 112 203 153 108 204 151 113 203 154 132 203 152 125 204 153 130 198 151 122 198 146 125 195 148 125 193 144 114 188 137 113 167 116 107 185 134 116 210 162 128 245 201 134 247 206 131 242 192 128 236 191 122 239 200 141 239 207 151 238 207 161 241 207 151 234 206 155 233 205 162 255 255 218 236 205 163
147 79 75 189 109 103 138 81 74 132 75 75 115 62 61 80 22 39 121 54 55 172 98 73 245 162 119 236 174 129 233 176 130 238 182 131 244 181 129 243 181 129 247 164 102 199 119 82 167 87 72 138 78 92 163 94 80 160 100 105 199 132 125 156 103 115 147 98 114 103 65 105 129 95 133 113 71 109 111 71 112 130 99 135 122 92 133 122 86 126 130 108 142 116 72 99 123 96 118 62 14 40 105 69 96 98 49 68 87 40 62 108 75 99 114 78 95 146 104 110 185 134 106 140 76 62 120 71 53 38 0 13 43 17 44 93 56 82 157 122 113 216 148 110 250 202 156 192 140 106 132 98 94 51 3 24 59 16 48 105 57 62 123 64 60 176 91 69 187 99 73 211 122 83 217 131 97 222 130 92 226 137 107 226 141 106 226 147 115 226 149 117 228 152 117 226 153 126 229 153 120 229 166 131 230 158 125 231 158 120 208 120 87 206 116 85 211 123 83 230 145 109 222 137 104 221 125 93 222 126 96 230 162 140 249 231 205 240 210 184 234 182 156 213 130 100 222 150 120 234 154 110 202 120 84 130 72 68 74 31 55 74 39 59 125 71 74 126 69 66 69 21 40 97 48 56 149 103 99 240 192 162 164 121 110 68 35 65 80 35 53 152 98 91 231 163 124 214 153 120 208 156 125 209 164 127 203 152 115 204 154 114 202 143 116 205 159 127 203 153 127 204 158 126 197 148 126 196 151 129 193 148 129 193 144 118 187 137 118 176 122 106 193 144 115 223 182 120 251 207 120 246 199 125 237 192 123 240 193 138 236 200 143 238 209 155 240 207 154 236 205 150 236 204 153 234 209 165 255 255 227 236 208 169
148 83 76 197 111 108 142 76 68 140 71 64 124 62 56 93 37 49 128 64 63 177 102 77 244 165 108 241 178 127 239 177 122 238 178 131 243 180 131 248 177 126 245 165 108 197 118 89 162 84 74 138 79 92 168 95 90 180 112 98 202 116 93 169 100 101 151 96 112 142 100 124 153 115 131 116 73 99 109 71 105 110 77 106 93 60 87 98 61 92 109 83 127 145 111 161 162 151 183 108 66 99 116 95 109 90 36 50 79 42 53 81 36 60 76 49 63 137 93 104 170 125 113 144 89 88 101 59 64 15 0 10 48 18 53 153 117 106 231 194 165 255 222 174 203 162 147 141 97 91 76 26 46 55 5 29 70 23 42 113 63 71 132 69 66 188 110 82 190 100 69 216 121 81 214 126 89 217 132 90 222 141 105 229 140 102 222 149 115 229 144 109 230 155 125 228 155 121 231 157 129 231 161 128 226 157 129 226 160 124 205 118 89 217 123 86 202 104 72 210 130 99 193 121 89 188 106 81 200 93 55 216 129 91 244 194 159 236 191 164 225 173 144 213 130 101 231 147 113 231 147 107 176 100 83 108 56 63 63 27 59 100 49 63 130 69 69 126 63 64 90 32 44 88 31 49 156 110 104 230 193 162 175 143 134 83 40 61 95 40 57 172 106 86 243 181 134 214 154 110 208 157 135 202 151 120 204 148 122 202 147 113 201 149 122 203 153 117 201 148 120 202 152 118 200 147 129 197 149 117 200 146 123 195 148 119 177 129 121 186 128 113 205 154 115 243 191 122 249 207 129 246 198 121 240 193 130 242 204 141 240 207 155 238 208 160 235 209 157 238 207 159 235 207 165 233 206 170 255 255 223 236 207 167
146 82 74 196 109 95 144 80 70 138 71 60 123 64 63 114 46 53 151 85 77 195 119 90 239 163 122 235 170 126 235 175 130 235 175 126 238 184 130 247 183 127 248 168 110 200 123 94 170 96 86 138 75 74 161 84 56 181 104 81 190 118 103 159 97 101 138 87 111 136 94 109 130 85 108 110 69 88 113 80 119 128 100 131 109 71 112 108 78 116 109 84 129 164 142 171 185 178 216 129 118 141 103 81 106 91 37 41 145 97 97 132 92 102 53 16 36 65 32 64 71 30 49 95 53 82 75 25 48 74 35 68 127 96 97 166 120 112 255 231 186 242 207 169 192 172 158 97 64 75 75 30 55 78 36 55 73 22 34 115 67 72 136 74 68 192 115 91 194 101 66 221 123 83 216 127 94 223 129 95 224 133 111 224 140 110 225 147 118 226 151 118 228 150 115 225 152 120 227 151 121 231 159 131 230 161 128 231 160 121 217 137 98 220 138 102 213 120 86 210 123 89 197 102 71 193 97 75 200 107 84 215 145 113 234 185 156 232 182 155 225 162 136 217 144 127 235 152 119 205 128 94 145 80 67 68 35 62 54 24 55 99 50 69 112 57 65 114 52 63 88 36 44 70 6 25 150 104 92 209 162 141 176 144 132 99 46 63 101 56 67 193 131 101 238 178 139 209 155 117 208 164 132 205 152 118 200 149 121 205 149 119 198 151 124 202 146 114 201 149 121 196 147 116 194 148 120 192 143 122 195 141 118 189 143 117 176 121 116 191 139 114 218 166 121 248 203 121 247 202 125 239 190 129 239 201 140 240 203 152 239 205 159 238 205 159 235 206 163 236 209 164 239 208 162 236 209 162 255 255 217 234 206 167
147 83 78 201 111 102 150 79 66 141 73 66 130 69 60 125 60 58 164 96 83 205 130 102 242 165 120 234 175 124 236 172 122 235 172 127 244 183 131 245 184 130 253 175 120 201 122 85 158 82 69 124 63 54 152 78 56 177 99 71 210 129 103 158 93 99 142 93 114 112 65 88 136 96 129 123 85 111 108 86 124 111 79 105 102 65 98 123 90 122 129 106 151 162 146 180 167 158 186 133 112 138 99 69 85 82 39 56 150 88 76 115 66 75 95 39 51 67 36 56 93 49 68 119 71 93 133 82 94 131 89 103 162 101 94 191 139 125 240 201 165 191 169 165 100 71 95 62 26 51 74 26 41 96 49 64 77 27 45 111 61 77 144 81 74 198 114 89 199 105 74 211 124 86 217 125 91 218 130 90 221 137 104 227 137 102 227 148 114 223 147 108 225 149 115 228 148 115 229 157 125 232 161 133 228 164 126 232 160 128 223 153 118 226 147 117 215 128 95 209 117 86 199 118 92 198 112 86 205 139 118 215 157 134 230 184 150 229 167 136 216 149 120 219 144 119 237 152 111 181 105 81 122 70 72 53 21 61 72 39 69 120 69 72 133 76 71 140 79 70 110 51 55 64 8 38 146 95 89 193 148 134 191 151 137 139 89 84 135 77 75 213 145 105 223 164 122 211 153 114 209 163 122 206 150 124 201 154 129 205 148 119 201 152 128 200 151 120 200 154 123 200 146 115 198 145 117 191 147 117 191 145 118 184 134 123 173 123 113 192 143 118 226 172 121 251 203 126 242 198 125 238 198 130 243 204 152 244 210 156 238 210 162 237 207 155 238 209 165 239 211 170 236 209 167 233 209 162 255 255 223 238 208 167
143 83 66 192 107 92 150 80 65 137 70 65 126 58 59 125 62 66 167 104 96 206 140 119 238 174 135 234 166 121 235 168 116 234 174 115 242 183 130 246 183 126 247 173 114 202 121 87 159 91 72 133 67 65 150 75 51 189 107 88 219 144 124 151 106 124 122 82 108 85 58 99 122 86 118 127 98 113 90 47 75 108 71 92 93 47 91 131 98 128 131 102 139 134 112 145 144 120 159 147 113 149 108 70 105 114 75 98 171 117 111 147 101 110 93 46 55 43 17 47 98 55 68 159 116 119 201 162 145 217 177 158 207 149 127 173 114 99 164 122 113 99 70 86 72 33 66 66 22 43 105 61 72 101 58 68 75 29 49 109 66 73 140 82 73 199 122 95 199 106 76 217 125 96 216 129 92 220 130 97 217 133 101 223 142 113 222 143 113 224 141 112 227 145 113 224 149 118 227 154 132 229 157 127 232 164 126 226 159 118 227 157 118 219 152 129 224 148 116 227 139 107 237 165 127 235 160 130 237 202 183 234 204 186 238 210 185 230 173 142 222 146 111 236 150 121 213 131 97 142 81 79 83 45 65 54 26 65 84 48 76 121 70 76 136 85 76 150 87 72 109 55 54 52 0 33 124 80 87 175 130 118 205 161 138 165 111 107 169 105 81 224 161 108 217 154 105 203 153 120 208 157 123 204 157 117 203 151 121 208 149 118 198 150 115 201 140 116 195 143 117 200 146 117 194 148 114 193 141 116 188 146 118 180 135 112 176 125 107 204 153 119 229 179 118 251 205 123 244 198 125 242 202 148 240 211 152 243 208 157 237 207 154 235 206 154 242 208 156 242 208 156 240 212 166 237 210 163 255 255 228 236 210 177
137 77 72 186 100 93 147 75 69 136 71 66 125 65 63 125 69 66 164 103 88 206 136 112 240 165 130 234 172 119 240 172 119 237 172 120 247 183 129 245 183 128 248 173 117 201 122 94 164 87 79 128 59 52 155 88 73 184 104 93 228 166 155 157 105 121 138 101 121 108 76 116 151 118 151 133 104 136 89 53 84 81 35 64 85 47 69 104 62 89 138 109 130 109 70 110 140 106 143 143 114 150 149 114 137 138 86 102 113 42 48 120 59 68 85 29 45 84 36 60 144 82 87 209 174 172 247 211 189 184 141 124 201 131 82 164 106 82 141 102 91 73 41 69 63 8 33 105 54 61 118 65 60 110 58 67 84 36 59 110 67 83 127 72 74 196 119 92 190 105 79 220 133 97 215 127 94 218 132 94 221 131 96 227 140 107 226 144 111 229 141 106 227 136 104 227 141 111 226 153 125 231 157 127 227 157 126 228 153 123 225 155 123 215 144 117 219 146 120 218 152 126 237 203 179 235 190 163 240 223 208 235 194 174 236 215 183 225 168 134 224 141 113 241 160 119 186 117 94 133 78 81 65 32 58 73 39 74 85 47 72 133 80 84 145 90 83 158 97 72 115 60 61 59 10 41 125 76 83 156 108 100 210 154 128 179 121 96 191 123 93 222 159 109 209 153 111 202 157 132 208 158 124 197 151 126 203 158 128 201 148 129 198 151 129 195 142 117 192 148 126 194 142 119 197 149 119 198 148 116 194 147 122 177 129 112 184 129 112 208 159 120 242 189 119 254 206 126 240 202 131 239 207 155 245 207 163 241 210 159 241 205 153 241 205 147 236 207 160 239 213 166 235 209 177 236 213 173 255 255 235 240 213 176
136 69 67 181 92 85 140 69 65 128 65 58 121 59 58 123 61 67 168 102 96 200 133 113 234 167 130 232 169 118 235 174 127 238 175 121 241 181 132 246 182 124 247 173 107 201 124 85 162 83 61 138 62 61 151 83 80 194 117 95 195 132 131 157 106 111 138 101 137 129 108 129 136 95 115 108 68 75 90 47 71 100 65 89 112 71 98 99 57 79 117 78 108 117 84 128 125 87 134 141 111 146 146 116 140 143 107 119 90 48 74 99 38 48 103 57 67 162 122 125 199 169 167 229 200 180 207 165 131 192 144 131 185 136 110 128 88 88 111 63 56 72 22 47 130 66 72 99 44 57 131 76 77 113 64 71 90 43 55 108 59 69 128 69 70 188 112 85 189 98 69 219 123 84 220 131 89 221 129 95 225 131 99 226 141 114 227 145 111 225 136 106 224 134 106 231 143 110 232 153 124 236 159 126 229 156 125 224 157 133 222 155 125 220 155 130 226 162 129 233 169 130 236 190 161 240 196 158 251 217 192 255 215 177 247 201 175 227 162 134 231 147 121 214 136 113 146 85 87 88 51 66 57 24 57 83 51 71 89 44 70 123 69 76 137 81 73 153 89 70 119 61 59 67 14 36 117 72 83 145 96 93 204 158 131 185 123 94 197 136 100 222 157 106 209 155 117 204 154 122 204 160 120 201 148 121 201 154 123 200 150 122 202 150 121 200 148 115 190 141 125 193 145 118 194 145 118 193 144 117 189 145 113 178 126 106 182 131 106 215 160 111 242 191 116 248 209 133 244 205 143 243 213 167 243 212 161 241 211 159 241 208 154 234 209 154 239 205 158 235 212 169 237 208 173 236 211 171 255 255 231 239 212 176
123 61 61 165 82 81 132 68 65 126 63 66 128 64 64 118 58 57 164 92 83 192 130 106 232 165 124 233 172 130 235 175 134 238 176 136 242 183 131 245 185 129 252 173 103 201 120 82 151 69 53 131 65 80 155 94 104 189 122 114 191 128 125 137 72 77 130 85 112 101 58 89 114 77 108 110 66 96 91 64 98 106 73 102 110 73 102 116 74 103 128 89 116 102 71 101 114 79 109 121 93 138 162 141 172 130 97 116 119 90 104 107 53 79 170 134 153 202 162 164 217 180 168 191 156 136 175 114 92 155 102 98 148 97 88 92 62 86 119 76 69 94 44 65 137 78 71 88 41 57 132 81 70 117 61 66 96 45 57 99 45 60 116 59 68 172 93 72 182 94 69 220 124 89 224 137 97 224 129 94 222 127 93 225 133 93 225 142 101 222 140 100 232 146 106 214 128 95 201 120 90 192 110 77 209 127 92 217 137 98 219 141 98 212 135 100 216 136 91 208 131 93 222 146 102 230 157 116 211 153 119 205 146 119 184 122 102 213 139 106 238 154 121 196 127 116 135 83 88 65 28 62 77 36 51 83 45 64 86 42 66 111 62 66 130 71 66 137 75 66 126 69 65 72 14 39 119 71 77 138 82 92 195 140 117 189 123 87 207 135 94 215 158 115 204 152 123 205 161 129 205 155 121 203 152 122 199 153 124 200 146 128 197 153 124 192 146 124 193 147 116 194 143 118 194 146 116 200 146 120 191 142 117 173 124 111 186 128 105 213 157 104 246 194 123 251 212 146 242 211 157 243 211 169 244 208 157 241 210 157 240 206 155 240 206 157 238 209 160 235 209 173 236 211 179 235 213 180 255 255 232 239 210 172
110 55 63 156 81 86 121 63 57 123 59 62 125 64 67 128 65 67 170 104 88 199 130 114 234 172 123 235 172 129 239 176 124 237 177 133 242 185 134 246 188 132 254 173 108 193 106 63 174 95 78 144 86 91 163 102 99 185 116 100 175 103 99 161 108 116 105 67 103 102 65 86 99 58 83 98 58 68 99 63 101 99 68 93 132 101 145 133 103 133 140 105 145 125 87 121 107 62 101 141 107 141 135 118 149 100 94 131 126 99 114 137 75 78 244 197 185 249 226 213 237 240 221 183 121 104 177 105 66 168 110 94 136 107 105 57 31 78 100 49 59 109 61 71 134 74 70 78 32 49 124 67 65 109 58 55 105 52 63 98 40 49 116 59 73 159 80 64 186 103 79 215 117 74 223 132 92 217 127 85 221 131 89 222 132 89 225 133 96 225 137 104 233 150 117 215 134 103 205 125 92 196 108 73 210 113 78 211 120 87 213 120 88 215 130 89 213 117 78 205 109 70 214 98 59 230 141 107 215 124 96 212 140 118 191 99 77 236 153 117 223 144 108 151 99 103 86 51 70 54 24 60 85 46 64 96 54 71 98 50 62 120 64 69 138 77 69 128 67 69 134 81 76 75 27 48 112 67 71 120 75 98 192 137 115 213 138 100 215 141 87 215 154 109 205 152 119 205 156 114 207 154 120 198 149 124 196 144 121 199 151 122 189 142 124 197 147 124 194 145 124 196 148 118 197 145 118 196 145 122 189 145 119 171 119 114 184 136 110 213 161 121 251 205 126 247 214 155 243 213 161 239 212 161 240 212 149 243 207 153 240 208 152 239 207 157 236 210 169 238 211 168 239 213 175 239 217 173 255 255 228 238 215 172
103 51 63 141 74 81 122 62 63 124 62 60 126 64 67 126 66 65 170 108 88 204 130 102 234 174 131 237 173 133 237 177 121 237 179 122 243 182 117 244 188 121 239 159 104 204 134 111 179 112 103 150 93 100 165 99 96 192 118 109 197 135 130 149 98 113 99 53 77 81 40 69 79 41 62 111 65 90 104 73 106 98 59 93 125 97 136 116 85 112 153 126 157 107 75 109 141 104 137 124 91 131 118 90 128 91 65 119 179 138 129 190 109 100 255 206 176 204 167 169 198 168 156 192 132 106 193 128 99 147 112 105 91 46 56 45 9 37 98 49 57 96 45 57 104 48 52 98 44 53 106 56 57 122 64 61 104 50 62 103 46 52 103 57 67 138 74 63 166 95 79 199 107 80 217 131 94 221 125 89 219 125 78 218 130 87 224 136 95 224 141 105 234 155 120 221 139 102 200 117 87 186 94 63 200 107 64 216 111 68 219 113 72 220 118 89 221 124 87 211 127 99 218 135 103 233 167 139 210 128 109 191 112 100 183 87 71 232 149 100 197 119 91 135 85 83 76 40 65 77 35 62 89 47 59 91 47 62 99 54 61 108 57 63 135 78 72 118 53 59 147 91 83 81 27 48 117 64 60 117 75 106 196 132 114 231 158 113 217 136 81 213 149 111 201 156 121 208 156 122 201 148 115 204 154 127 200 149 115 197 147 129 197 147 115 192 151 127 193 143 122 190 147 122 190 144 118 196 152 119 188 141 121 169 117 105 187 130 104 217 164 111 253 214 144 249 217 159 241 212 164 239 209 165 242 209 157 237 208 161 241 213 163 237 212 164 239 210 170 241 215 175 236 214 179 236 214 177 255 255 227 242 217 171
105 55 69 148 76 84 124 61 56 114 47 55 116 70 72 130 66 67 173 112 96 207 138 108 237 167 129 241 177 119 236 178 121 237 180 114 243 185 129 247 185 138 238 170 136 199 132 119 182 111 109 146 75 76 167 97 91 193 112 97 176 119 108 147 90 100 94 59 90 104 62 78 79 40 60 85 47 63 101 57 91 103 58 92 141 121 154 111 80 118 139 111 145 105 64 104 142 110 140 135 104 132 109 80 124 114 86 145 177 125 131 224 125 83 255 188 142 202 140 113 236 210 179 207 138 111 196 161 132 111 83 92 96 59 66 81 41 61 92 48 60 91 48 60 99 48 59 101 49 54 98 50 57 127 70 69 103 55 73 125 66 67 113 62 70 138 71 68 155 91 70 181 99 74 213 118 78 210 125 82 216 125 83 215 133 97 216 130 103 225 135 102 225 141 113 232 150 118 231 153 116 232 142 105 219 127 89 215 116 89 222 117 84 233 133 107 239 145 118 243 158 141 245 166 150 248 170 162 240 161 155 234 160 144 254 175 144 234 155 118 152 95 91 74 38 60 63 32 64 83 42 65 93 45 59 88 40 60 113 55 56 111 59 63 144 81 71 115 56 62 162 102 91 98 51 67 105 62 73 117 78 95 190 139 120 241 170 120 216 146 97 210 152 112 200 156 128 205 159 118 203 152 116 202 156 121 202 148 123 200 154 131 193 147 125 193 147 128 190 148 129 188 147 133 196 146 124 195 148 123 189 140 116 161 114 105 192 137 103 220 172 122 255 223 153 248 221 169 244 211 159 243 211 158 239 209 155 242 213 165 238 211 172 241 212 174 242 215 177 238 212 171 241 210 162 241 207 159 255 255 207 241 206 159
101 53 64 144 73 81 118 61 56 112 48 52 123 63 63 114 57 57 172 105 87 197 122 93 235 171 133 237 179 129 237 182 131 237 182 117 244 189 121 241 185 125 238 163 125 212 142 121 146 75 67 147 93 97 153 89 96 224 150 129 163 92 91 140 89 93 94 52 77 101 55 68 89 48 71 87 44 73 98 60 90 118 95 122 139 119 148 135 115 146 136 102 138 109 84 118 119 88 120 92 65 101 122 90 124 144 123 152 195 152 165 205 141 133 220 171 143 199 126 100 221 174 131 186 130 110 128 94 105 76 56 89 73 32 57 99 53 71 93 46 57 98 46 61 105 56 61 105 55 60 105 52 65 122 73 68 98 54 66 122 73 75 119 67 72 130 82 77 139 76 67 157 83 68 199 114 77 206 113 77 201 115 77 211 123 88 212 129 99 216 132 102 219 136 106 228 145 110 227 143 115 227 145 109 219 137 95 218 124 85 220 126 86 217 124 90 220 136 110 223 142 117 225 148 122 235 164 131 224 152 134 236 169 144 222 143 118 166 108 86 102 46 59 60 22 55 83 41 65 98 47 61 109 53 62 93 42 50 117 64 60 113 51 55 159 92 74 123 54 59 157 97 80 107 54 57 103 51 65 129 87 105 189 141 137 247 188 138 216 151 103 203 150 103 200 159 124 203 157 121 205 151 119 202 154 124 206 157 111 201 153 127 202 154 118 197 150 124 190 147 121 192 143 124 190 144 119 193 149 124 187 142 121 165 109 98 188 135 96 224 172 119 255 231 162 251 221 168 242 210 160 241 211 157 242 214 168 244 216 179 241 217 180 239 217 176 241 211 160 239 207 159 235 206 152 235 203 153 255 255 203 240 206 153
99 54 65 140 67 81 106 51 56 95 35 46 122 65 57 133 64 62 181 114 89 195 119 99 232 159 117 235 170 119 238 180 123 237 184 129 243 184 129 245 186 136 250 176 128 199 120 85 135 51 36 142 92 113 163 100 115 216 164 155 115 44 53 136 99 118 85 48 77 107 76 88 93 55 76 94 58 90 85 38 73 123 105 143 142 122 156 167 150 187 127 95 126 103 71 109 116 82 106 109 96 143 152 120 154 164 146 176 166 123 143 170 142 173 210 166 149 255 185 126 246 184 117 149 95 89 71 51 73 66 21 52 101 55 64 97 52 57 101 55 63 89 48 66 106 59 70 101 53 68 108 60 70 121 65 69 101 53 63 123 72 77 128 75 79 126 75 80 133 71 65 145 76 63 193 107 69 196 115 72 198 113 86 207 121 88 211 127 101 217 127 92 219 130 95 220 141 104 222 144 115 223 142 114 218 131 105 211 126 90 211 127 84 215 120 80 215 129 95 215 123 103 221 128 109 223 127 108 222 137 109 248 171 130 220 148 112 151 96 86 73 33 58 52 20 60 85 41 65 103 59 70 102 54 61 95 46 57 116 57 54 123 64 62 158 94 79 124 71 71 156 96 82 119 61 61 88 38 51 124 79 90 178 138 127 249 191 148 213 152 114 204 146 104 198 157 124 202 158 122 204 152 121 201 151 114 202 151 122 203 153 129 196 152 127 191 148 129 192 147 116 189 145 120 188 144 120 189 140 121 180 136 112 156 101 96 186 137 101 221 176 131 255 236 170 249 223 176 241 215 164 239 211 168 246 215 175 240 219 170 245 217 169 237 207 163 241 210 159 237 205 150 240 208 153 238 209 154 255 255 206 244 205 154
98 47 63 129 65 83 98 46 59 102 49 57 136 75 65 150 83 72 189 113 90 193 114 93 232 156 105 230 173 128 239 179 131 238 182 132 244 183 124 244 183 125 247 171 106 205 126 87 143 57 45 145 106 123 166 105 111 194 148 146 131 65 70 152 118 142 115 77 102 97 60 86 95 59 90 99 62 95 97 59 91 129 117 156 137 116 160 182 183 215 147 120 150 152 138 168 128 96 123 93 67 110 142 92 112 152 126 144 151 103 112 139 106 148 214 176 131 250 191 139 173 125 81 89 41 76 49 10 54 91 53 68 103 47 58 92 48 61 102 53 60 95 48 65 108 56 63 97 48 64 107 57 69 113 60 59 110 54 65 107 52 61 113 68 71 105 61 70 123 69 68 123 59 57 170 89 62 181 94 67 196 113 78 204 119 84 212 126 94 216 132 93 216 132 103 218 135 106 218 139 110 220 139 112 219 140 107 220 133 99 219 139 97 211 134 98 214 146 114 212 133 109 209 140 102 217 146 109 239 164 133 213 149 117 172 103 79 99 50 59 78 29 50 69 35 66 95 48 66 109 64 71 120 65 68 108 57 64 124 76 75 137 73 73 164 104 85 124 67 66 148 90 75 117 54 55 85 21 37 121 84 94 173 132 118 253 202 158 212 156 111 197 146 109 203 162 127 201 152 121 200 155 126 196 147 121 203 155 122 200 154 127 198 152 126 198 154 127 192 146 125 193 146 127 185 142 127 185 142 119 174 133 121 149 97 88 186 131 102 214 176 136 255 239 172 248 223 172 245 216 165 243 215 169 243 214 174 245 215 171 242 213 168 241 210 167 238 211 157 241 205 153 236 208 154 240 208 159 255 255 216 242 211 164
93 50 68 129 64 83 80 38 60 98 49 64 139 84 78 171 98 81 194 117 97 194 121 95 234 152 107 235 165 116 240 178 119 234 180 130 241 181 124 246 187 138 246 172 115 207 131 97 155 68 51 140 83 92 169 103 101 162 112 115 115 63 74 112 79 108 116 75 97 87 52 82 96 60 83 94 65 95 103 56 86 128 111 147 129 108 143 139 118 143 109 81 103 136 120 162 176 156 194 120 97 154 138 106 136 171 131 159 155 109 123 148 104 129 166 122 107 201 136 110 133 89 74 78 31 61 69 38 68 96 54 64 101 50 63 98 50 61 100 54 68 87 47 64 105 53 68 91 46 59 100 53 67 106 50 58 114 60 58 117 57 59 112 60 65 98 49 62 119 65 62 118 52 52 142 71 57 150 75 57 181 97 66 203 113 83 217 127 87 223 130 91 221 135 99 222 141 109 218 144 119 221 146 116 224 149 122 223 153 119 230 160 127 230 165 132 236 173 144 234 175 146 239 180 154 233 167 134 254 184 144 177 112 94 167 101 86 84 38 54 102 57 65 64 39 71 95 54 69 94 52 63 110 60 56 82 35 52 125 71 65 126 71 75 160 97 83 127 73 73 140 84 68 139 76 66 77 22 43 132 89 95 167 121 107 250 200 152 212 151 112 198 156 119 202 160 129 202 155 120 195 150 124 199 151 120 199 146 123 202 153 128 197 149 123 194 149 125 190 148 125 193 148 123 182 139 129 185 141 117 171 133 113 143 96 87 179 136 109 215 176 145 255 244 177 248 220 176 244 218 163 242 210 170 243 217 172 244 211 165 240 215 155 243 210 163 240 211 167 243 213 169 239 212 160 246 219 165 255 255 219 250 223 170
98 51 60 126 66 86 83 42 66 102 54 70 130 79 73 172 102 82 194 118 88 207 127 91 230 154 106 236 171 123 235 179 122 238 183 126 238 179 126 242 178 134 247 170 114 209 129 91 157 77 59 132 62 62 135 67 62 130 70 66 88 44 62 116 82 102 112 73 95 104 62 85 100 59 90 93 58 88 88 37 65 113 87 127 120 85 122 147 117 147 117 83 120 143 125 167 167 160 199 113 91 136 135 102 138 174 126 140 160 110 120 166 102 98 120 71 61 131 82 78 86 51 69 71 34 67 86 48 71 95 50 67 106 57 67 92 49 66 114 60 69 90 47 60 113 56 59 86 39 55 90 45 56 95 46 58 107 54 57 102 51 61 96 48 56 102 54 63 111 62 63 122 64 57 114 55 57 118 51 50 128 55 53 168 87 67 204 118 84 226 138 95 234 144 105 223 141 107 228 147 116 226 148 116 232 158 116 232 163 125 227 162 134 230 175 148 236 179 153 236 178 151 233 176 142 235 165 138 251 185 136 150 88 90 120 69 68 47 15 48 104 62 83 78 45 77 107 64 80 104 57 66 120 64 70 81 32 52 131 81 82 129 75 75 163 100 84 127 58 58 143 77 64 151 95 83 86 28 49 144 103 111 168 118 111 255 209 165 211 165 125 200 159 133 203 165 132 200 156 127 200 155 135 197 153 123 193 151 132 194 150 122 192 153 123 201 153 119 191 146 123 192 147 130 181 145 133 186 141 126 164 125 114 143 100 97 182 140 117 220 186 155 255 241 175 247 222 170 244 210 153 241 209 163 242 214 163 242 214 166 244 217 168 246 214 166 244 215 165 246 216 159 255 226 164 255 239 175 255 255 193 254 197 136
94 47 66 122 65 86 81 39 62 84 41 65 124 71 72 159 91 77 195 117 86 204 129 100 233 159 114 231 171 125 239 176 122 234 181 129 241 182 130 243 187 129 250 175 111 205 117 79 132 50 33 130 69 75 142 94 105 139 104 117 81 45 77 95 55 71 113 70 86 104 62 80 99 59 78 88 51 75 72 28 57 113 97 128 135 115 150 141 118 146 97 55 89 112 88 124 156 140 184 155 140 188 142 126 168 184 162 185 161 129 153 190 151 157 119 73 104 118 74 86 70 20 49 75 34 56 86 42 68 91 51 71 120 70 72 102 53 65 128 74 72 82 41 58 125 73 69 85 42 58 103 54 62 93 46 62 108 50 62 111 57 60 111 56 57 115 64 66 111 64 68 126 74 71 108 55 61 105 54 57 94 38 44 111 53 53 137 64 51 153 78 54 167 89 64 175 102 86 193 120 98 203 135 116 215 140 114 219 151 124 227 158 126 234 169 137 229 164 135 232 168 137 227 150 124 223 151 121 227 140 97 136 68 62 105 48 52 50 20 58 94 57 83 77 51 80 106 66 77 105 56 66 120 67 62 70 24 47 124 70 73 130 80 85 159 103 91 130 69 68 133 77 67 166 108 79 90 38 53 155 115 116 168 115 113 252 199 159 202 146 112 189 140 115 195 155 125 200 153 129 194 155 134 196 155 132 196 149 126 199 154 127 195 148 121 192 149 119 188 144 117 177 139 126 179 137 123 177 140 125 154 118 107 155 107 103 192 151 121 238 205 164 255 238 180 246 219 169 243 209 150 245 213 156 244 212 164 245 214 162 244 216 161 246 218 158 255 226 159 255 227 143 251 204 132 226 167 120 225 164 131 166 119 92
98 47 65 123 60 81 80 43 63 74 31 52 112 64 66 145 76 62 195 113 81 203 126 90 233 159 115 235 169 124 235 177 118 232 177 122 237 176 125 246 181 125 249 167 105 183 94 64 170 105 92 142 87 105 189 168 182 114 79 107 115 88 112 87 49 74 123 82 102 116 72 87 105 58 79 88 50 67 44 0 33 100 79 120 144 127 165 167 151 173 114 73 107 98 51 77 128 91 125 136 115 140 124 96 142 154 139 179 149 119 164 168 136 151 165 123 139 136 103 112 101 76 103 64 20 49 58 22 51 101 51 63 132 79 74 114 61 67 134 78 68 86 40 54 121 69 70 83 37 60 95 50 58 92 44 60 91 45 59 99 50 63 103 51 58 113 66 68 97 51 63 116 68 70 119 65 63 121 58 58 108 49 62 123 61 61 155 89 76 175 98 85 194 115 84 188 117 99 207 125 105 207 135 105 222 146 110 218 149 120 226 156 125 228 171 136 226 166 136 228 172 139 226 161 132 231 170 135 219 151 125 142 91 87 71 27 49 30 0 39 65 31 65 77 40 69 113 69 78 109 60 69 118 69 75 88 39 58 130 80 77 149 84 79 161 103 90 132 72 67 141 82 73 158 89 73 93 39 46 150 107 112 165 123 113 242 197 155 187 123 89 171 120 103 182 127 105 187 143 117 190 148 129 190 148 130 187 150 134 196 153 128 199 155 125 196 152 124 184 144 123 180 145 123 180 136 115 173 134 121 147 104 103 167 123 104 203 164 132 252 225 165 255 234 173 245 214 155 243 209 152 243 211 152 247 214 161 251 216 154 247 215 157 255 214 153 241 197 138 217 163 111 168 114 86 132 83 77 148 76 81 111 54 53
95 45 64 118 59 80 75 34 61 68 24 59 102 60 67 122 59 59 177 103 76 194 117 93 237 161 119 233 170 130 238 171 123 234 172 124 240 183 122 244 178 113 234 154 104 209 136 94 188 137 118 140 104 113 175 147 161 100 70 109 143 112 132 82 38 63 130 85 95 102 60 70 113 66 80 91 56 68 63 16 40 99 78 111 149 125 165 182 178 200 124 91 114 87 45 67 89 43 80 146 131 162 144 128 177 159 158 196 147 125 166 170 150 182 156 124 155 151 119 127 124 91 112 96 63 90 64 35 72 100 50 64 141 80 76 119 61 66 130 78 73 89 47 65 122 68 70 81 40 62 100 51 67 94 51 62 98 46 63 100 54 65 114 60 66 120 68 70 111 60 68 102 53 68 120 66 66 132 73 69 166 91 69 158 96 82 171 100 82 165 97 80 172 102 77 176 110 90 185 122 98 191 122 107 214 139 116 214 147 118 221 155 125 222 152 119 221 156 121 220 150 120 215 153 123 221 170 132 224 167 137 184 143 123 160 118 113 105 75 95 75 48 84 51 18 59 73 36 59 95 50 65 106 58 74 88 52 68 127 79 86 138 88 80 160 102 95 129 75 80 146 95 89 151 94 82 105 48 58 151 108 104 166 112 100 228 170 129 169 109 84 158 106 95 165 108 92 172 116 100 177 125 102 174 127 112 174 127 111 188 139 119 192 145 117 188 145 125 185 143 126 182 143 124 180 143 130 172 139 126 142 100 108 177 139 117 213 176 138 255 234 167 254 221 162 246 208 151 244 210 156 244 212 158 250 208 149 248 211 143 255 218 146 253 207 143 212 163 118 159 90 73 82 29 40 70 14 29 95 33 68 90 39 56
115 65 69 141 73 86 79 34 57 70 27 49 101 52 58 105 51 46 156 87 71 180 107 78 230 158 116 236 172 122 235 175 122 230 171 120 236 173 118 239 176 139 239 168 119 206 138 108 196 144 128 147 110 123 160 129 141 92 56 80 95 62 86 83 47 71 111 65 85 106 61 79 101 64 70 106 66 83 91 43 66 89 50 79 134 108 136 155 135 163 148 118 142 104 61 95 128 103 128 135 114 145 135 111 151 120 91 136 133 107 145 123 88 115 139 113 143 167 132 148 182 169 182 126 91 102 64 38 71 86 36 49 126 67 70 109 64 78 121 74 73 89 52 66 117 63 70 76 33 58 92 50 62 97 45 62 96 49 55 92 42 59 101 49 59 109 56 64 105 54 62 89 40 58 109 57 63 144 74 65 201 116 84 222 128 98 238 154 115 235 146 114 235 154 118 221 147 121 220 152 122 219 146 111 228 150 110 220 150 115 219 155 122 214 148 114 212 148 118 217 154 123 226 167 137 230 194 154 236 212 182 230 206 178 211 186 161 184 149 140 161 134 127 123 87 110 82 49 67 56 15 52 56 22 49 84 41 62 126 74 73 137 78 71 143 83 75 130 75 79 154 91 84 144 82 75 106 49 59 154 99 87 167 110 91 227 167 117 170 113 91 178 116 99 169 114 93 174 113 88 170 111 97 166 107 92 158 105 94 162 111 95 168 118 103 181 133 117 172 130 114 171 131 118 169 130 110 160 125 112 133 90 98 183 141 120 221 181 139 255 234 154 248 214 150 243 201 139 241 211 156 242 214 155 248 214 160 255 226 160 250 205 143 208 158 113 125 63 67 57 13 46 50 3 45 86 46 63 175 99 94 143 84 73
144 100 98 182 117 116 106 51 57 97 43 54 101 45 57 93 40 53 131 66 60 163 91 73 229 150 108 238 171 128 236 178 130 236 172 132 240 180 127 242 178 136 247 174 127 216 153 116 158 94 79 133 84 78 95 37 49 86 44 61 63 24 44 81 39 56 115 71 82 95 50 72 94 57 74 100 60 76 126 78 94 98 54 74 91 48 83 134 112 147 157 138 179 138 114 145 145 128 167 142 130 159 159 147 186 117 89 117 142 108 155 139 106 141 123 93 135 158 122 146 159 117 137 166 147 156 92 67 81 114 71 76 104 46 52 99 48 64 120 73 76 106 52 66 125 68 65 70 28 55 93 43 55 96 47 61 96 49 64 92 40 63 98 57 66 120 66 71 115 68 75 98 46 60 97 46 64 132 69 69 185 111 85 209 126 89 208 130 98 205 125 95 203 118 89 203 123 96 209 129 104 209 131 100 219 135 109 217 137 107 214 142 106 210 135 104 212 135 108 214 142 118 215 161 124 227 180 147 239 197 152 253 214 167 255 241 187 255 232 190 239 212 184 194 166 155 169 141 136 103 76 89 62 26 53 38 2 33 101 52 61 130 71 71 140 87 82 124 71 77 141 82 76 142 83 82 109 59 74 164 104 92 173 112 93 221 157 114 177 127 118 188 139 117 182 128 109 181 120 98 174 118 102 166 107 86 156 101 82 157 100 84 157 97 81 158 101 94 153 103 95 151 106 104 155 109 99 154 114 100 124 73 82 170 128 106 213 169 127 255 232 155 247 209 144 243 200 142 241 211 151 249 213 155 255 230 161 255 214 145 212 157 117 144 91 75 98 42 61 88 38 53 104 55 72 138 77 73 205 125 105 158 91 79
171 131 127 220 159 153 139 94 91 131 75 72 125 68 66 96 47 48 108 43 50 148 76 62 213 140 99 241 170 123 238 175 127 229 168 121 240 174 129 240 179 143 250 177 123 186 106 88 167 92 76 132 79 104 127 89 100 80 51 76 41 7 34 94 54 81 142 107 135 119 82 116 113 81 115 94 56 84 161 120 139 104 52 70 82 43 67 86 50 79 122 89 126 167 133 167 154 145 174 140 118 143 110 83 111 111 67 110 140 121 158 134 104 151 149 130 173 172 132 167 159 121 134 143 106 102 94 62 79 130 84 89 110 50 61 86 42 60 112 66 73 96 54 66 126 74 68 71 32 53 101 52 63 97 58 71 105 60 73 93 50 63 89 43 61 106 61 62 107 59 71 94 47 62 95 50 65 128 73 70 181 104 81 201 120 91 206 123 92 208 122 95 205 128 94 206 130 102 207 134 108 221 141 108 223 143 111 217 140 108 214 135 110 214 135 108 219 145 113 218 152 126 226 170 128 232 188 147 231 194 158 230 198 158 231 194 154 249 212 161 255 240 183 255 237 197 245 217 182 188 158 141 113 89 102 73 32 53 73 27 43 112 52 52 130 75 73 133 76 73 136 78 71 122 66 60 111 58 68 164 105 85 193 132 109 225 164 118 191 139 119 199 146 107 192 142 109 193 134 111 188 134 124 180 126 110 175 116 102 160 104 91 157 99 83 152 100 92 140 88 79 143 93 92 154 94 78 162 107 82 120 58 62 157 107 89 202 152 115 255 230 146 251 213 146 245 209 149 249 218 164 255 222 158 242 201 144 199 146 110 128 72 68 93 42 49 99 42 53 111 60 64 142 74 68 142 83 71 209 122 102 146 85 75
175 148 145 235 193 192 174 138 134 162 118 108 149 86 80 103 43 57 93 30 42 133 68 62 213 136 105 245 173 125 236 180 131 234 171 122 238 180 126 247 181 117 234 157 105 220 154 118 192 117 99 145 94 88 97 36 46 68 24 53 55 20 41 79 40 62 115 83 109 115 80 108 114 79 111 104 65 90 140 94 114 121 88 117 105 61 84 109 71 98 127 97 127 141 113 148 134 105 141 110 67 97 108 80 110 119 88 118 150 120 162 152 129 170 164 145 182 125 94 124 138 96 113 99 60 81 153 122 122 132 91 93 136 90 84 67 19 47 109 58 67 98 48 60 139 74 68 76 34 62 98 48 65 95 53 69 99 52 70 96 56 75 82 44 62 106 54 67 129 71 68 111 59 58 113 62 63 117 65 68 176 102 81 198 124 87 208 122 88 209 127 95 202 123 97 210 124 94 216 134 103 220 142 108 215 141 114 216 135 107 217 136 101 214 141 112 217 151 117 223 158 131 226 173 133 229 182 150 232 190 153 233 195 156 228 191 160 230 198 157 235 198 166 252 214 173 255 251 195 255 238 191 225 204 177 135 106 116 96 61 85 89 45 62 106 57 67 130 73 72 123 74 67 105 43 53 117 67 78 165 106 100 218 157 126 214 156 126 191 147 131 194 149 120 193 142 120 192 144 118 183 138 126 183 138 119 177 132 115 177 123 105 165 112 103 163 110 102 140 88 89 148 94 87 175 111 83 177 113 84 144 71 59 168 108 89 209 162 121 255 235 165 247 216 165 251 212 154 255 226 163 255 212 140 200 151 112 134 70 58 84 33 51 115 54 56 134 76 72 148 87 76 153 88 74 153 90 77 204 118 101 145 86 72
169 138 137 230 197 196 182 162 164 177 153 145 168 116 97 111 55 63 100 34 39 129 64 67 212 138 99 243 176 127 238 174 119 236 173 121 238 172 111 240 176 119 233 152 107 230 155 118 235 180 161 159 126 133 114 88 113 54 19 45 75 32 54 121 78 97 112 75 107 138 102 119 103 73 99 114 74 93 111 71 98 98 53 80 118 82 105 90 49 74 117 86 106 97 64 94 120 91 114 86 53 80 104 66 95 116 87 120 137 114 142 147 119 151 172 156 187 140 117 139 146 107 118 111 71 90 160 126 132 126 83 101 110 61 67 57 12 46 104 67 78 103 63 79 131 78 82 82 49 75 94 57 75 98 66 76 109 70 80 103 67 77 91 52 71 92 50 72 140 81 79 112 60 75 122 70 72 109 72 82 183 114 96 210 131 103 207 124 88 200 125 94 203 131 106 212 137 105 219 143 105 222 144 112 219 146 107 219 139 107 217 137 103 218 144 115 222 153 127 223 166 132 224 167 131 231 176 132 229 177 144 230 188 147 231 187 149 233 191 146 238 195 154 238 204 161 241 203 167 255 236 191 255 244 208 250 226 206 141 116 132 104 58 77 83 30 48 133 74 63 139 80 68 86 32 45 135 81 85 155 105 97 245 186 143 210 157 119 198 154 124 190 145 117 189 145 115 191 141 116 190 144 127 189 143 124 191 137 119 184 135 117 179 127 112 170 130 113 158 114 107 159 115 103 191 126 89 187 119 83 176 101 73 186 135 103 233 189 139 255 234 164 253 220 164 248 216 157 255 236 166 233 176 119 146 92 77 85 25 41 96 40 58 147 85 72 159 90 72 162 101 89 168 102 87 160 102 93 204 115 94 148 85 79
153 120 122 216 172 180 182 165 168 185 165 160 186 142 124 117 69 80 103 42 46 127 63 62 217 141 100 249 180 128 243 183 130 237 181 131 237 178 116 239 178 117 242 160 106 229 166 132 196 141 121 128 94 105 83 40 69 75 29 51 79 37 51 96 48 57 70 24 40 103 60 69 78 30 50 111 76 90 93 49 73 111 78 113 120 83 99 78 41 67 121 95 110 81 49 81 120 94 114 77 32 53 92 56 88 116 85 119 142 116 148 154 128 155 171 157 183 137 123 161 163 149 167 131 100 107 147 111 98 133 92 102 108 68 82 83 51 81 84 40 52 102 57 69 130 72 78 77 40 70 82 45 70 97 55 70 108 55 67 99 53 68 95 46 66 93 53 67 182 112 89 142 83 77 137 77 69 104 54 69 162 93 79 209 131 96 203 121 91 210 131 100 207 134 105 219 135 105 219 141 112 214 134 98 218 136 104 216 138 98 218 136 103 223 149 111 221 154 114 226 162 124 224 161 126 227 171 136 227 170 134 229 180 138 229 183 144 230 190 144 236 191 152 237 199 153 239 203 158 241 206 163 255 230 178 255 250 217 237 215 195 151 116 126 91 39 49 88 22 28 124 62 54 71 15 41 144 98 99 158 107 102 250 194 148 200 143 106 199 149 115 194 145 116 192 141 111 192 142 118 189 142 122 186 143 124 183 138 118 185 136 117 182 130 117 170 130 115 165 123 123 171 123 108 193 136 96 188 112 73 205 132 81 215 157 117 255 219 152 255 230 176 247 217 167 254 222 163 255 220 143 197 142 92 132 77 67 103 43 59 139 78 74 168 99 79 162 97 79 173 111 96 176 115 93 168 106 90 204 118 101 154 93 81
130 85 94 186 144 152 188 167 167 196 178 164 200 167 152 135 94 86 108 51 53 128 59 54 211 135 95 252 182 132 245 183 134 240 180 134 235 178 121 236 174 113 248 166 98 207 120 93 220 165 157 113 89 121 104 81 101 49 5 28 113 69 79 119 75 87 111 70 91 97 54 65 70 33 53 116 73 92 106 67 89 107 68 78 62 20 39 79 34 63 90 58 78 97 58 89 93 64 81 103 64 83 113 79 108 103 70 101 127 95 137 139 109 133 149 123 158 175 155 185 168 139 167 162 141 144 99 57 89 169 147 160 113 84 113 123 97 109 61 10 36 110 60 76 117 63 71 91 44 64 75 38 66 106 67 77 114 76 87 105 63 72 89 51 69 111 56 65 195 121 98 182 107 91 126 67 65 101 53 69 138 77 74 216 134 109 206 125 90 211 130 104 216 135 105 220 139 108 220 139 108 217 140 103 221 140 104 219 138 107 220 148 116 224 148 116 223 160 120 224 161 127 224 160 127 229 167 128 230 167 124 226 179 135 227 175 138 234 186 140 234 193 149 236 194 151 238 197 156 239 204 163 243 207 173 255 233 196 255 241 204 235 207 175 130 91 91 107 62 70 103 55 59 74 40 66 141 94 95 150 110 110 244 198 143 191 136 108 190 147 114 194 145 120 189 145 112 196 146 117 190 139 107 193 144 124 195 140 123 193 140 120 188 139 114 180 133 117 172 125 106 168 123 104 186 128 93 186 106 63 212 140 77 226 173 120 255 225 164 249 223 168 250 222 160 255 229 158 233 185 126 168 109 84 130 61 62 126 68 68 160 97 85 162 95 83 173 107 87 182 121 101 178 110 91 157 94 86 215 123 104 166 98 87
83 41 61 154 100 118 179 155 160 204 188 175 213 191 170 138 101 104 103 50 64 118 50 46 212 133 99 252 187 127 238 179 135 239 182 131 237 183 134 244 181 123 246 157 89 234 168 117 177 114 94 107 78 95 53 11 41 59 22 46 96 53 70 91 52 71 94 58 73 76 36 52 66 20 44 118 80 109 119 88 117 140 100 127 70 28 44 78 31 50 84 45 75 125 86 114 119 81 119 128 86 117 112 79 121 129 96 130 132 104 142 135 104 130 141 113 155 171 159 187 177 163 189 119 83 91 79 22 50 185 165 172 177 155 172 149 133 143 38 0 7 107 53 54 129 66 64 97 48 54 71 28 57 106 61 73 110 65 71 107 56 62 74 28 48 109 55 57 189 112 79 211 125 80 140 73 63 105 54 62 122 58 56 207 126 94 215 127 84 224 138 105 220 134 102 218 133 100 215 140 106 220 137 101 218 143 105 217 140 105 219 144 110 222 150 109 228 152 111 224 158 121 226 158 122 226 166 129 227 172 130 230 178 131 224 175 133 232 187 147 234 186 145 236 194 149 236 194 145 243 205 162 239 206 168 246 210 180 255 251 215 255 255 220 161 129 121 106 65 72 60 4 20 72 21 55 132 86 78 160 105 94 240 191 142 193 133 98 200 148 117 196 144 108 194 144 120 189 140 110 193 140 122 186 144 123 183 144 128 187 144 124 179 135 119 173 132 119 163 121 111 171 118 105 192 131 93 202 130 80 226 167 97 235 190 132 255 230 165 251 223 168 254 222 163 255 225 146 214 157 106 163 101 72 128 66 71 147 84 81 162 97 81 169 102 84 182 116 92 171 103 85 161 91 76 160 95 77 220 138 125 166 110 97
68 18 40 134 88 108 167 140 144 212 198 182 217 194 172 133 99 104 97 51 64 115 47 45 206 133 100 255 186 128 244 184 130 238 178 125 241 184 123 239 180 120 249 158 95 237 166 113 186 127 119 123 100 120 71 32 64 73 29 51 106 68 88 104 68 88 106 73 95 71 33 58 80 36 60 132 90 114 112 76 101 129 94 104 64 16 32 99 49 68 85 47 77 112 71 107 120 79 108 117 82 115 134 100 126 113 87 119 119 86 126 109 76 106 133 112 154 163 136 159 173 149 175 98 60 84 84 36 66 186 172 172 179 160 165 139 134 147 43 0 20 137 82 79 146 82 73 110 64 73 66 32 60 103 60 76 101 60 72 105 53 68 69 28 52 123 58 59 180 101 76 223 128 83 128 66 57 113 63 68 123 64 75 217 138 100 228 132 93 222 134 93 216 127 96 223 134 96 222 140 97 221 144 101 221 140 105 221 145 112 218 145 112 224 148 114 224 155 115 222 155 122 224 157 117 224 159 122 226 166 123 226 172 141 228 174 140 231 179 149 229 186 143 231 191 151 236 194 154 240 202 166 243 209 180 242 207 177 246 219 191 255 255 229 225 209 188 173 148 141 76 32 52 46 6 35 129 73 74 157 109 96 238 187 139 191 144 114 204 151 124 194 148 115 192 149 119 190 139 113 190 142 117 181 137 119 181 140 120 185 134 116 181 139 119 175 127 107 161 109 95 177 116 92 202 135 96 228 166 104 244 191 127 243 208 148 255 226 169 250 224 168 255 232 158 247 199 126 187 133 87 157 80 61 139 65 71 166 95 85 167 102 90 183 116 91 178 109 83 159 92 77 155 88 80 157 92 82 223 150 130 164 105 94
57 7 36 127 76 93 156 123 132 213 199 190 216 199 180 126 101 104 85 39 56 102 35 40 207 129 88 255 189 126 238 182 124 233 182 130 241 185 123 245 186 130 247 164 95 250 182 133 152 97 86 102 72 93 49 11 42 95 53 73 95 54 71 92 50 66 82 41 56 56 15 41 91 58 77 136 100 135 130 104 127 124 90 113 81 40 56 87 46 59 92 47 75 95 61 89 110 76 105 97 64 95 113 78 108 143 114 148 129 101 133 107 72 105 127 97 129 163 144 164 162 149 170 107 73 103 103 49 80 165 132 151 149 116 123 102 74 101 69 20 33 135 76 70 153 91 73 117 69 69 81 40 65 99 56 73 90 46 65 97 50 63 84 39 58 133 69 65 178 103 81 225 132 84 129 69 64 126 66 66 132 69 67 224 134 93 226 131 92 220 135 94 222 135 94 224 137 88 219 136 104 220 134 98 220 146 111 219 141 104 219 145 107 221 143 109 223 145 101 220 152 109 221 153 116 228 163 123 222 163 128 230 169 129 225 175 137 230 181 141 229 181 141 231 185 143 236 198 158 239 203 168 240 209 184 241 210 179 242 214 192 255 243 216 255 250 208 168 129 116 84 39 47 12 0 0 144 83 72 180 117 88 238 180 137 195 142 110 199 146 120 195 145 105 197 144 119 194 145 109 190 142 124 184 137 117 182 138 116 177 130 113 173 128 108 163 115 108 167 112 92 197 138 107 231 180 130 255 212 147 254 214 152 250 216 161 248 222 170 250 226 165 255 222 145 224 170 102 182 111 73 148 77 65 155 86 75 170 97 83 188 114 87 188 120 92 171 103 83 150 86 74 160 98 80 168 101 91 217 140 129 152 100 99
59 7 31 123 67 90 151 118 126 213 195 181 225 200 181 130 106 106 89 39 54 109 35 31 208 130 87 255 186 127 244 183 129 241 182 126 237 185 126 242 186 124 255 168 96 240 163 114 139 83 85 96 67 91 57 18 49 101 59 71 95 53 68 94 47 65 79 38 50 88 51 83 110 78 100 145 102 130 102 61 81 85 47 69 83 45 68 114 75 87 94 50 71 81 43 63 70 30 51 89 47 62 82 39 63 129 98 123 113 77 110 115 84 117 112 78 118 155 139 160 189 168 196 135 100 134 142 103 128 137 99 103 120 90 98 69 38 54 73 21 47 128 73 74 135 76 68 112 62 69 95 50 66 108 60 71 87 42 69 80 34 62 100 53 59 164 92 70 214 133 97 229 136 93 142 75 65 127 67 61 133 74 68 222 135 101 230 135 89 221 135 104 223 135 99 222 140 96 219 135 96 221 139 96 219 133 99 225 144 108 219 139 107 218 148 118 220 150 109 222 156 117 223 153 112 223 156 118 226 165 127 227 170 142 223 175 142 228 179 143 227 185 146 231 188 150 230 193 166 238 206 172 245 212 180 240 207 177 235 215 193 247 216 194 255 255 250 214 179 153 126 91 94 34 0 0 133 71 65 201 138 106 235 174 133 196 152 126 193 148 111 195 143 115 194 142 109 194 146 117 190 144 114 184 135 111 179 133 109 178 127 110 174 126 107 159 108 94 178 120 86 217 165 113 253 216 154 255 226 165 250 214 158 252 215 158 252 223 165 255 228 167 251 203 128 201 137 92 166 85 58 138 69 67 160 91 78 175 107 85 194 118 91 178 112 85 164 93 74 156 87 77 163 105 90 166 107 98 203 134 127 146 94 92
56 5 32 122 62 90 143 111 123 209 197 189 218 206 185 147 112 109 89 43 55 110 35 33 202 123 85 255 185 119 240 186 125 233 179 123 240 184 122 239 179 118 248 167 102 225 163 132 148 96 99 92 64 95 56 23 53 84 48 61 89 42 58 86 38 53 87 35 55 81 48 87 127 97 123 139 108 140 124 87 106 77 42 62 88 50 69 100 60 76 99 54 76 85 49 67 72 31 53 102 59 80 77 35 62 131 92 115 109 77 107 128 93 129 129 101 126 156 129 160 171 155 178 165 138 176 200 188 227 170 138 175 154 134 146 77 27 44 92 44 44 73 17 15 96 38 44 102 43 49 112 67 72 101 52 63 87 50 67 86 42 60 132 70 65 178 103 75 232 144 99 211 126 87 146 79 73 123 66 62 156 94 76 219 132 97 231 139 99 218 136 108 227 138 98 220 136 106 219 139 103 215 139 108 221 133 101 219 140 101 219 135 101 219 149 114 221 142 104 223 155 122 223 151 114 226 163 129 222 160 128 224 167 132 225 171 142 230 180 136 230 182 143 229 191 148 230 198 169 239 200 177 238 207 181 238 208 185 240 210 191 244 218 193 255 255 220 247 215 183 127 101 104 93 39 54 132 57 52 234 161 113 212 157 122 197 155 125 188 139 117 192 143 112 189 141 113 199 145 109 190 141 110 190 137 110 181 135 112 177 130 118 165 122 107 150 101 103 192 136 100 226 185 144 255 231 166 253 224 164 247 211 155 244 215 163 255 226 170 254 225 152 235 174 114 197 120 74 165 82 61 155 80 67 167 94 75 183 113 79 191 116 87 175 106 87 152 93 80 162 98 83 163 103 91 166 104 90 184 120 113 140 83 84
53 5 31 112 57 81 140 109 121 209 187 185 225 208 189 154 115 113 93 47 61 114 35 31 203 120 89 255 183 125 242 183 136 233 177 128 229 183 128 237 179 123 243 166 105 232 159 119 168 112 103 115 78 104 72 32 59 79 38 55 81 40 52 89 43 62 92 49 69 95 66 97 119 85 107 132 93 115 109 59 73 86 44 64 88 45 62 102 61 73 93 53 73 87 52 60 72 26 50 120 84 103 97 53 85 120 89 118 92 57 87 124 103 136 154 130 167 170 148 178 149 119 146 130 84 108 133 96 113 131 96 103 120 96 100 121 74 69 134 97 107 145 109 130 111 73 100 100 55 73 98 45 56 104 56 68 101 53 62 91 39 55 158 86 69 196 116 90 248 156 99 197 115 88 152 89 74 128 67 67 173 105 79 214 129 96 227 139 102 217 134 103 225 135 93 224 139 104 222 142 97 220 139 100 220 137 92 219 133 95 225 136 95 217 143 108 222 150 113 217 155 118 226 151 120 221 157 122 225 157 126 226 165 133 227 168 137 227 176 137 228 184 143 228 186 154 230 193 163 233 197 168 238 203 171 242 209 181 238 207 182 238 209 188 253 232 209 255 255 218 141 119 120 154 103 90 105 47 47 239 178 123 206 150 111 197 152 122 194 143 115 186 140 116 187 141 111 189 139 111 190 138 110 187 137 115 177 134 110 173 128 112 168 126 104 160 96 88 203 144 102 232 189 143 255 231 157 250 218 157 245 208 151 251 222 174 255 234 173 248 200 134 220 158 102 188 108 76 173 88 65 165 91 71 174 100 81 186 111 79 178 107 81 165 92 71 152 93 79 162 96 82 163 108 96 153 96 89 185 120 120 132 83 80
52 8 32 113 58 86 136 107 122 208 188 182 223 209 196 161 128 122 98 58 69 121 43 40 192 119 87 255 185 115 242 184 127 233 179 117 232 179 115 234 175 116 242 165 103 216 144 127 162 104 101 101 62 100 76 42 57 78 38 64 94 49 65 75 31 52 99 58 75 63 30 59 117 82 100 106 70 93 129 93 112 96 58 74 91 57 74 89 50 64 80 38 59 82 42 64 74 29 54 125 86 109 86 46 70 93 54 78 80 39 68 132 99 137 172 156 179 157 127 165 152 120 138 121 88 111 108 87 104 102 69 98 110 71 91 129 83 84 131 97 99 131 98 114 140 103 106 124 77 82 126 78 65 85 41 61 105 53 66 123 63 63 183 103 74 205 121 82 248 158 101 173 96 77 152 89 79 124 64 69 196 123 95 223 135 94 226 137 97 221 129 93 224 137 94 222 141 109 220 141 103 218 134 101 220 132 94 219 136 99 217 140 105 222 139 98 219 141 102 225 147 111 220 153 127 224 159 130 221 159 128 223 160 137 225 172 135 226 174 142 228 183 136 227 184 147 229 196 164 233 198 166 237 203 180 240 208 181 236 206 184 237 211 190 244 217 192 255 255 239 139 120 129 159 116 99 91 20 31 237 171 117 197 146 116 193 148 120 192 143 119 190 141 118 185 136 114 183 135 107 188 143 113 183 140 116 184 136 118 172 130 115 166 122 107 163 109 100 206 154 117 241 197 152 255 237 157 251 215 147 252 213 154 252 223 166 254 229 161 235 178 109 209 136 88 189 104 68 175 99 78 174 98 71 178 100 79 180 106 77 169 102 76 154 87 74 160 101 90 163 104 94 157 103 91 143 88 76 185 117 114 134 88 90
57 13 42 108 45 70 134 97 111 196 172 167 224 212 195 158 129 123 100 58 67 114 37 35 190 114 84 255 181 119 242 185 127 237 177 132 234 183 135 236 184 127 242 166 107 235 157 116 175 110 96 126 79 97 81 40 62 81 40 60 75 39 67 101 57 80 103 67 81 93 52 70 92 53 71 102 61 81 110 64 78 93 50 66 78 43 61 99 63 88 87 50 70 102 60 83 89 48 70 119 83 109 111 77 113 91 59 81 96 66 99 111 91 129 159 146 187 146 124 168 143 116 143 114 67 95 68 25 33 50 0 3 51 0 2 105 59 66 143 101 112 167 125 144 154 117 117 117 70 79 99 50 57 84 39 61 103 53 63 140 74 69 191 109 75 214 125 95 246 159 101 165 96 89 143 85 79 122 68 75 210 129 91 227 141 100 219 137 93 218 137 102 223 140 94 226 141 100 223 138 98 222 139 100 218 137 100 224 135 95 221 135 93 224 138 90 224 142 100 218 143 106 222 150 113 225 150 113 223 156 117 226 164 124 223 164 128 226 170 133 221 173 133 227 179 146 228 189 155 232 194 162 236 203 170 238 206 177 239 210 178 239 209 184 239 210 192 255 255 218 175 151 151 189 132 104 125 65 65 222 156 104 200 159 127 201 160 127 192 151 121 190 144 118 188 144 116 187 135 113 193 144 112 183 135 112 182 137 114 165 127 114 170 129 108 170 112 88 203 137 94 239 178 115 249 208 132 251 213 141 245 212 154 255 232 170 253 211 143 221 160 103 204 121 82 186 103 75 177 104 77 167 95 80 170 106 84 163 96 81 156 92 74 152 84 72 166 104 92 159 98 93 157 96 88 143 86 82 196 128 122 142 95 97
55 17 45 101 38 69 116 88 100 184 160 154 220 209 188 175 149 135 107 70 78 127 58 52 188 109 83 255 183 125 244 185 131 235 183 130 235 181 130 244 182 118 237 163 106 228 152 113 171 103 99 126 83 98 78 38 61 90 53 80 91 51 76 106 66 89 98 60 81 90 52 71 86 44 69 87 42 65 97 58 77 87 50 69 92 51 73 102 68 94 96 53 75 100 64 84 95 53 76 95 52 74 95 60 83 84 42 62 95 64 95 111 79 113 158 149 184 140 118 162 149 132 162 132 93 131 152 132 158 104 69 96 97 57 70 72 23 40 99 52 60 79 28 37 123 73 62 108 65 66 108 67 70 83 33 53 118 60 61 163 92 75 204 120 85 219 133 99 232 144 93 150 85 78 138 77 68 135 79 83 217 136 104 234 142 93 223 136 89 226 143 101 220 141 106 225 147 112 221 140 93 220 135 104 218 133 96 218 139 100 221 141 100 223 138 101 223 143 112 218 147 111 223 149 114 220 152 111 219 152 121 223 161 128 221 164 131 223 169 129 225 172 136 223 184 137 226 186 154 230 197 162 236 204 179 237 206 181 235 207 186 240 211 187 240 213 186 255 236 208 216 195 187 219 164 129 179 118 93 205 138 98 190 148 130 188 152 128 199 150 119 200 153 121 202 151 119 191 149 119 192 150 122 181 141 118 183 140 123 174 132 110 180 134 110 189 129 109 199 138 107 217 154 103 226 166 99 242 193 129 249 218 151 255 236 174 246 199 131 221 156 99 195 107 72 181 101 77 169 92 71 171 100 78 159 94 79 151 82 68 146 81 67 155 93 79 168 107 91 154 94 85 145 84 79 144 95 87 194 124 124 145 99 94
63 18 43 100 41 65 118 80 96 179 151 151 209 200 187 165 145 137 111 69 79 133 55 48 188 109 78 255 181 125 240 183 140 236 179 135 239 183 131 239 181 125 236 163 110 240 169 124 198 136 120 151 107 116 82 41 68 77 46 63 84 44 71 110 70 86 97 59 76 103 63 85 98 62 74 100 59 89 120 78 90 100 61 83 93 55 68 96 61 84 92 47 75 108 74 100 107 63 83 84 43 61 121 84 111 100 70 104 134 107 147 78 48 81 118 99 135 96 65 95 119 94 129 116 67 99 167 142 183 121 90 114 120 86 100 69 21 34 117 62 66 85 35 48 99 43 54 79 34 51 74 30 53 87 44 57 127 64 60 182 98 77 206 126 89 229 141 102 204 124 92 140 79 76 129 69 69 165 102 86 223 142 97 228 146 108 220 144 107 222 144 110 225 147 107 223 142 105 225 142 102 222 142 107 221 141 103 218 137 102 222 135 90 225 140 98 223 146 105 224 144 108 221 148 106 225 149 103 225 152 110 223 159 114 222 156 124 224 167 126 224 170 131 230 176 136 227 187 147 235 191 155 229 197 169 237 203 173 238 206 185 240 213 182 241 214 194 242 219 191 255 245 228 250 200 156 218 167 122 179 106 64 154 112 97 169 117 101 180 129 105 191 143 110 197 153 123 202 156 127 201 155 130 197 150 118 181 146 120 182 139 116 187 136 107 205 140 99 205 137 85 198 117 70 203 133 76 228 179 128 255 224 172 255 239 166 246 194 118 214 142 83 187 98 70 168 89 73 166 95 73 165 94 79 158 88 72 143 81 73 153 88 80 165 102 91 160 97 86 150 90 83 142 90 81 153 102 93 186 115 112 135 85 85
65 27 48 94 28 60 109 75 88 171 144 147 216 212 197 183 164 152 116 80 90 136 66 53 179 105 73 255 177 118 245 184 139 231 177 126 238 178 121 241 181 119 245 163 98 228 152 111 195 126 117 132 88 99 80 42 68 78 38 59 95 53 66 97 52 66 77 40 59 79 46 67 104 60 80 94 55 85 111 72 86 100 67 85 106 67 81 91 44 62 84 41 63 88 44 60 91 50 81 98 67 94 116 88 126 144 118 154 113 76 104 97 62 88 90 58 77 100 63 86 107 76 106 102 66 99 172 154 192 131 101 120 121 85 103 69 20 32 100 54 66 82 38 55 93 47 64 83 39 50 85 46 65 108 52 61 159 87 71 200 114 77 220 134 89 236 142 86 165 97 83 138 73 69 122 70 71 204 120 94 227 141 95 226 139 109 218 140 108 227 147 108 223 145 111 222 141 103 222 141 101 223 139 98 222 139 91 217 138 96 219 138 96 217 138 103 221 139 101 219 144 103 222 145 110 225 158 122 218 155 119 225 153 119 222 158 119 224 169 126 226 173 131 226 176 130 226 182 145 228 186 152 231 198 166 231 200 173 236 206 186 242 211 187 242 212 189 239 210 190 255 245 221 248 203 160 205 155 112 151 78 58 124 71 67 137 81 72 144 88 70 166 104 83 175 126 99 180 133 115 186 141 121 187 147 120 189 148 122 200 152 128 210 163 126 216 160 118 204 144 102 187 110 77 200 134 91 231 183 131 255 242 179 255 231 159 236 178 106 213 129 77 164 83 66 156 84 71 157 87 77 158 91 72 150 79 66 144 80 69 161 93 83 167 106 93 149 91 84 141 98 89 148 95 92 155 109 99 171 104 101 123 68 69
63 24 44 80 24 52 105 68 83 168 141 144 220 207 196 193 167 156 118 85 90 140 67 52 174 94 62 248 171 108 240 178 122 236 180 125 238 183 126 245 182 125 250 172 107 222 152 111 193 131 115 120 77 105 95 52 72 70 27 51 84 43 61 74 37 60 90 49 65 92 54 76 117 73 88 88 59 79 114 75 90 95 60 81 112 67 77 75 36 53 77 29 52 86 44 61 93 56 77 92 58 83 106 76 119 150 125 168 166 144 177 123 93 121 90 48 80 92 54 80 127 90 111 121 80 96 118 79 98 109 58 71 110 63 72 90 43 51 88 42 52 86 43 51 81 33 54 76 34 51 86 41 51 131 70 59 175 98 79 206 123 88 234 144 98 205 121 84 135 72 70 106 55 64 150 87 80 227 142 101 233 142 94 219 142 113 218 139 108 226 148 113 222 140 101 226 148 110 224 138 104 229 143 104 229 138 94 219 134 97 219 136 90 219 137 100 223 140 99 221 144 108 223 146 106 225 151 115 226 155 114 219 154 113 224 160 115 226 162 127 222 168 129 225 172 135 224 178 139 228 188 155 230 191 163 231 198 168 235 207 179 240 211 182 239 210 189 240 213 185 255 233 206 255 221 189 194 147 126 148 86 68 110 46 45 135 75 64 130 69 55 139 79 67 140 87 78 146 89 78 147 98 89 148 101 88 162 113 101 184 133 109 206 149 106 218 162 104 206 145 91 197 127 81 216 157 108 239 207 160 255 246 175 255 213 133 222 149 82 177 91 60 139 70 62 140 70 62 149 78 66 146 78 68 154 89 76 151 92 85 163 105 101 150 95 86 148 92 89 149 105 101 160 107 107 146 102 100 156 87 92 106 52 58
69 33 49 77 12 45 103 64 82 159 126 131 230 219 198 208 191 173 131 97 98 143 72 63 167 87 64 245 167 115 236 183 124 228 174 121 235 180 120 239 183 124 255 178 101 214 149 111 173 108 97 87 57 89 83 36 58 67 28 56 87 45 58 82 39 64 101 57 77 89 52 73 102 57 78 76 42 67 99 52 73 94 53 67 106 55 72 99 49 67 85 44 58 80 36 52 86 50 74 97 64 92 95 63 110 132 99 134 152 140 175 169 151 175 135 110 131 127 83 105 120 82 103 109 72 100 100 51 61 94 43 56 94 46 53 96 51 69 87 47 63 88 46 57 74 30 47 79 33 51 111 50 60 167 91 62 201 119 83 231 145 97 221 136 89 156 86 62 104 53 53 115 61 70 191 120 93 232 140 97 222 139 98 223 135 106 216 143 102 226 146 101 221 138 100 225 141 104 223 142 103 228 145 102 220 142 96 224 133 87 218 131 89 220 135 89 219 134 92 218 141 97 221 144 101 223 150 116 221 153 121 222 151 107 220 159 111 223 157 116 226 165 123 221 168 134 228 174 135 225 182 147 228 191 155 229 196 170 234 205 177 240 208 184 238 211 185 238 210 190 246 226 204 255 245 214 201 153 138 163 113 95 112 49 47 151 89 77 137 75 72 135 73 63 125 68 60 119 61 59 112 56 57 105 54 62 108 63 65 125 75 76 173 119 98 209 161 124 222 168 110 212 157 101 224 173 110 253 223 169 255 248 155 249 189 115 197 116 63 137 62 61 126 63 64 137 74 66 139 76 66 142 83 83 157 95 84 162 102 96 153 102 88 144 85 80 147 94 88 157 99 92 152 105 101 130 85 82 149 80 83 100 46 53
105 51 61 121 49 72 113 74 77 164 130 130 218 207 189 216 197 174 138 107 102 141 75 61 163 81 64 249 165 116 236 183 138 233 178 129 239 187 128 249 191 133 245 169 107 224 157 124 175 113 107 107 74 99 81 37 59 72 41 62 95 55 82 84 47 72 90 45 67 85 52 68 99 63 77 93 57 84 107 65 80 100 63 78 109 66 80 103 60 81 91 50 68 81 42 61 83 47 56 86 41 53 83 37 58 83 41 77 142 123 165 156 151 180 172 163 194 149 118 154 167 124 142 122 79 102 99 50 54 75 35 44 103 56 63 86 50 62 81 42 58 67 32 52 85 35 55 92 47 59 141 74 62 177 100 74 222 134 90 234 144 100 184 112 80 102 46 59 100 44 55 153 87 76 229 147 93 234 146 99 226 138 104 219 137 101 222 135 97 224 140 98 226 141 94 224 147 117 224 146 105 229 142 104 227 138 91 222 140 93 217 139 100 219 139 98 219 137 102 220 137 93 219 137 103 221 146 103 223 147 109 222 151 110 221 151 115 220 158 119 222 158 125 224 168 132 223 173 135 228 182 144 230 190 152 233 196 165 233 199 176 234 201 177 239 207 188 235 210 188 245 216 195 255 255 229 205 167 148 176 126 102 120 46 34 167 111 84 168 108 92 145 94 85 135 79 79 117 63 61 110 52 67 85 37 51 66 26 49 66 15 35 140 88 79 217 167 117 250 195 118 232 181 106 236 184 118 255 247 167 255 223 140 216 149 89 139 65 43 111 43 50 124 62 64 130 65 65 142 79 70 150 90 89 163 108 97 160 102 97 139 85 75 132 80 71 156 102 94 158 103 99 153 104 101 120 69 72 141 72 81 102 48 56
133 77 74 166 87 87 141 91 89 165 135 135 212 199 185 214 206 190 138 114 118 146 83 64 162 82 66 244 165 112 241 183 129 236 176 119 238 184 124 250 197 124 223 157 93 214 157 111 158 97 100 124 83 97 72 29 60 74 36 55 89 49 63 93 50 65 92 49 63 86 48 71 90 53 80 87 49 68 100 60 76 93 51 69 107 64 80 92 54 76 87 47 73 85 46 65 76 31 54 102 59 73 77 34 50 83 43 62 94 66 93 123 98 130 141 121 140 137 114 147 144 114 142 117 80 114 91 57 68 74 27 47 93 51 61 83 35 61 84 44 63 73 33 58 92 46 62 116 56 60 173 100 76 224 134 89 240 143 87 193 106 70 110 46 47 89 38 50 140 77 72 205 129 95 230 140 97 225 141 93 218 135 100 221 136 102 216 138 93 225 138 87 226 138 95 226 143 113 221 140 105 221 147 112 223 140 95 222 141 100 220 134 96 221 137 95 222 136 90 219 134 94 215 139 100 218 138 102 225 147 97 221 148 102 228 156 109 220 154 116 223 162 128 225 166 125 226 173 137 225 178 140 229 187 155 226 191 161 234 199 175 236 205 185 232 208 190 240 209 195 239 214 196 255 249 210 228 189 164 185 139 113 139 72 70 163 101 81 172 116 100 163 104 86 156 96 81 140 82 75 130 74 67 98 47 53 63 26 42 39 0 29 125 79 87 219 169 125 255 224 129 248 202 120 255 211 121 255 234 147 225 171 104 144 82 64 100 40 46 102 44 58 123 70 70 133 74 74 149 87 81 158 101 91 157 98 88 139 85 80 128 76 64 143 84 83 158 110 102 155 111 108 146 97 97 119 72 71 146 80 86 108 51 64
154 98 84 206 132 122 153 109 104 176 146 143 209 191 169 216 204 187 145 122 117 148 85 71 165 81 63 240 165 111 241 183 128 235 181 125 238 182 127 253 206 136 217 146 92 220 143 114 151 85 92 142 92 101 76 38 64 86 46 68 89 55 73 90 48 67 86 44 62 81 40 59 89 53 67 85 51 78 106 73 85 92 56 76 108 65 83 86 49 69 95 58 75 77 36 60 91 53 70 112 68 86 110 68 88 87 44 68 81 35 57 112 83 108 135 101 129 138 110 147 132 90 111 121 80 94 104 56 66 75 34 55 78 38 53 76 29 45 69 30 48 77 34 58 128 76 75 174 103 77 236 142 94 200 118 79 166 93 72 101 46 45 95 43 47 137 70 62 190 115 83 234 139 89 224 140 89 220 136 90 220 140 105 221 139 97 217 136 97 227 138 96 223 139 95 222 145 108 223 141 99 223 145 106 224 141 93 220 140 107 222 141 105 223 137 100 224 144 100 222 137 93 220 140 100 219 139 98 220 144 105 225 147 102 217 147 110 222 152 115 224 159 126 221 159 120 223 170 128 223 171 135 228 180 150 227 189 155 230 195 168 231 198 175 233 204 184 238 210 191 238 208 186 255 231 207 252 228 198 197 153 131 153 105 91 143 79 67 170 116 98 166 110 90 159 102 91 158 96 83 144 94 87 130 70 68 90 52 69 82 21 43 151 101 86 227 179 123 255 236 151 255 216 132 255 196 119 229 176 109 153 94 75 97 45 52 90 35 53 114 58 58 127 66 61 141 81 71 160 100 95 158 103 94 143 89 87 122 76 71 129 72 72 147 97 89 165 112 112 161 113 111 140 96 92 121 72 76 148 83 90 107 58 65
143 88 85 189 119 113 162 118 111 172 140 135 199 182 165 210 204 183 152 125 121 149 93 79 165 83 61 236 160 106 243 179 119 235 180 130 236 182 123 255 200 134 218 150 93 211 141 100 135 70 77 124 80 90 75 41 67 84 47 65 94 54 69 87 41 56 89 50 63 93 49 68 89 53 73 84 48 70 96 55 74 83 49 68 107 64 81 95 54 74 100 60 81 79 36 55 97 55 80 94 51 75 116 81 99 85 45 64 107 68 78 84 37 62 121 90 118 111 85 108 115 85 109 78 41 58 80 37 57 80 35 54 81 45 56 75 36 49 86 43 55 117 59 51 142 79 69 149 78 61 140 83 73 139 75 65 125 65 57 109 45 45 133 68 62 187 114 83 229 135 88 227 136 89 214 134 95 223 138 92 215 132 96 222 144 99 217 140 104 223 143 107 220 140 99 224 141 102 223 143 99 223 143 106 223 147 104 224 144 104 225 138 99 221 139 97 223 140 98 221 141 101 218 140 98 218 137 101 222 139 88 220 143 97 220 150 98 222 152 108 224 159 124 222 162 123 224 163 130 225 168 127 225 177 139 226 185 154 224 190 166 232 198 174 232 207 181 238 210 190 237 207 190 248 216 198 255 255 223 202 165 147 169 125 106 119 48 48 168 108 95 163 107 91 156 102 89 154 103 85 144 93 79 135 85 80 118 66 67 109 47 64 163 104 89 227 178 132 255 253 153 255 213 131 217 157 96 147 81 68 105 45 52 86 29 50 104 54 58 128 69 65 140 81 81 164 101 96 162 110 96 142 90 85 123 65 68 120 60 65 141 83 77 157 108 99 163 114 110 150 103 102 129 80 78 122 67 70 149 88 89 109 63 72
129 78 76 172 110 114 157 118 120 165 137 136 196 174 164 210 198 176 162 134 122 152 97 79 176 95 62 232 153 95 239 179 126 234 184 130 239 185 131 255 196 127 240 166 108 217 146 113 121 63 78 91 53 76 59 29 55 91 56 75 101 62 77 95 50 71 97 53 70 80 39 60 94 45 67 90 47 71 101 68 92 83 48 70 109 76 99 121 84 112 139 104 121 87 48 68 111 73 91 80 42 68 133 95 114 91 57 87 121 86 123 130 106 144 139 111 145 147 114 140 111 73 81 86 41 60 85 44 61 81 40 60 86 46 59 81 36 54 70 34 49 94 42 49 120 65 62 136 72 65 142 77 64 119 61 53 121 59 61 149 80 62 201 118 82 226 134 87 216 131 84 215 128 83 217 131 91 213 133 93 218 142 95 221 139 96 222 137 102 223 140 102 220 137 103 223 139 96 223 139 98 223 143 99 223 148 109 223 148 109 224 149 106 221 138 100 223 138 92 220 139 91 221 139 91 221 136 96 220 142 104 221 142 98 220 143 102 222 152 114 224 159 118 222 162 124 224 166 119 225 164 132 227 175 133 228 184 156 228 191 165 230 192 167 233 200 176 232 206 180 239 211 190 239 214 201 255 255 223 214 176 148 175 124 103 116 51 48 146 100 88 159 103 90 161 110 89 158 104 100 148 99 97 151 100 93 151 97 94 151 85 80 183 120 87 220 164 120 246 199 129 206 148 103 152 82 63 118 56 63 109 56 62 121 65 61 130 71 64 145 78 75 157 102 87 165 110 94 153 102 96 116 69 73 113 61 69 126 73 74 158 105 98 165 116 111 167 116 115 146 93 98 123 77 80 118 71 69 138 77 82 111 58 65
107 62 68 152 89 94 131 91 99 152 124 130 185 163 166 200 193 173 164 137 135 152 95 77 175 99 70 223 144 94 240 185 127 237 180 133 240 189 134 249 191 128 255 188 119 211 147 106 132 78 83 70 36 62 63 31 60 78 45 57 109 64 81 103 63 77 104 57 72 107 75 100 105 61 81 103 62 83 106 65 84 84 53 73 113 79 112 98 63 91 137 101 130 82 45 71 115 77 107 89 46 67 120 90 106 97 59 76 85 50 75 102 63 98 127 97 134 152 128 157 145 121 139 82 43 63 82 48 71 73 37 52 85 47 60 78 34 53 97 41 52 116 57 53 128 67 61 123 63 55 115 59 68 150 81 76 198 113 83 225 131 90 219 130 88 212 128 91 212 131 86 214 127 83 212 127 86 216 139 102 218 133 91 221 139 104 222 136 93 223 138 101 224 139 98 228 140 97 222 140 100 223 144 105 223 149 112 222 147 107 224 144 102 221 145 99 223 137 96 218 140 98 224 139 93 222 143 100 224 137 92 219 141 97 220 146 102 221 150 111 224 154 118 222 158 128 224 160 123 226 170 134 222 175 134 225 182 151 226 184 153 230 193 170 227 200 169 234 203 178 233 211 189 240 213 193 255 240 212 236 210 187 184 141 119 135 78 75 127 75 63 151 105 93 158 110 96 154 106 93 153 105 96 154 110 101 162 109 93 168 104 91 177 110 88 199 135 101 196 135 91 156 95 80 129 71 64 122 68 68 138 75 69 130 64 62 137 79 74 155 99 98 162 114 113 156 105 94 132 84 85 111 57 59 124 68 73 143 88 86 173 122 114 165 120 112 160 110 99 133 86 87 117 59 67 111 54 56 135 71 83 99 55 66
93 51 60 127 70 80 110 62 74 146 117 128 188 169 165 226 217 193 185 163 145 162 112 98 173 97 77 216 146 100 245 183 130 237 186 130 247 187 124 255 197 129 236 169 116 177 119 98 106 60 78 72 34 62 72 31 57 80 39 57 100 56 71 105 69 88 104 62 81 106 70 93 94 54 70 77 33 61 112 78 103 92 59 87 125 98 121 86 45 70 167 134 170 108 78 103 128 105 127 97 67 86 120 83 118 123 86 117 111 77 106 132 102 126 109 88 105 129 102 130 123 86 102 97 57 78 66 26 42 78 39 61 86 42 57 90 37 48 106 49 48 123 62 66 157 90 75 182 104 74 210 123 79 217 125 85 221 129 94 217 133 86 217 130 84 211 127 83 216 126 80 210 126 90 211 130 89 215 130 95 217 133 95 222 138 95 218 134 86 218 135 95 225 140 96 221 140 93 223 141 98 223 142 101 221 141 108 227 144 102 223 144 104 220 144 106 221 147 107 222 142 97 220 141 94 225 143 100 220 147 108 224 147 101 217 143 106 226 152 108 222 153 112 222 158 124 224 160 123 226 169 140 229 177 142 227 180 155 224 185 149 229 187 159 227 194 168 234 203 174 234 209 183 236 210 190 243 223 203 255 241 217 192 150 136 154 108 97 107 50 51 154 103 92 162 111 95 158 107 95 160 114 101 165 115 97 175 116 93 189 115 84 183 111 80 181 103 76 146 81 72 144 81 74 151 86 75 166 102 83 156 92 75 148 78 69 148 91 91 146 93 92 145 98 92 127 70 66 115 64 58 117 59 59 136 89 87 159 114 112 180 137 137 164 124 125 150 102 107 124 78 78 108 65 73 99 53 63 135 70 76 99 47 57
95 48 59 122 62 75 98 45 62 151 118 121 202 177 169 242 230 206 209 186 164 173 129 113 182 114 84 217 137 97 242 179 126 241 181 121 247 189 126 252 193 125 248 179 124 180 119 104 115 66 83 67 34 61 72 39 58 74 34 50 90 53 68 100 59 77 109 63 82 111 78 100 107 65 92 79 40 70 118 78 101 88 54 81 131 99 127 64 19 48 138 104 129 107 76 108 123 102 140 134 102 138 104 72 96 110 66 75 72 31 44 94 54 79 123 89 105 127 91 138 162 134 161 106 75 109 78 47 67 54 11 30 88 43 55 112 48 40 155 78 59 183 102 65 211 121 74 207 118 79 210 122 82 204 124 80 206 124 86 212 127 86 212 126 86 216 127 83 215 129 81 217 130 84 218 129 87 217 133 87 220 136 87 220 134 91 217 136 99 224 136 88 223 141 98 228 141 86 222 143 101 222 137 102 226 144 109 225 145 101 221 142 105 223 146 110 224 146 108 223 145 103 222 148 105 227 151 106 223 143 105 220 147 103 221 146 103 222 151 107 226 149 117 220 156 115 225 158 118 222 165 125 225 169 131 224 176 134 222 179 147 228 188 154 226 194 171 228 197 174 234 203 183 236 210 188 240 211 191 255 255 225 195 158 137 158 114 100 91 30 34 143 103 88 154 106 97 158 113 97 163 115 99 171 120 101 181 123 96 187 119 88 179 111 88 173 104 84 166 96 83 179 109 83 191 118 88 182 109 84 162 94 84 151 92 88 148 98 98 140 90 93 126 76 88 126 66 61 117 65 65 140 79 66 159 107 95 182 129 117 176 132 133 156 110 105 133 79 81 111 60 60 95 45 49 95 46 59 148 76 84 117 65 64
116 59 65 141 68 87 112 48 69 190 144 156 255 237 220 255 255 255 255 255 236 255 202 170 252 173 136 255 185 127 255 236 161 255 242 168 255 250 175 255 255 173 255 210 163 206 135 132 111 61 96 108 48 85 102 46 74 110 53 85 123 68 86 132 75 101 153 92 114 130 75 102 135 82 105 115 68 103 153 103 131 118 72 108 154 101 118 110 49 82 170 115 147 156 111 138 147 102 129 177 142 170 139 91 124 139 100 134 137 90 107 140 94 125 155 108 131 134 83 127 156 114 157 176 127 154 125 75 97 139 70 72 164 74 73 207 105 81 237 127 90 255 151 98 255 159 106 255 163 106 255 157 106 255 167 109 255 166 111 255 175 117 255 169 117 255 173 109 255 169 113 255 172 118 255 174 124 255 173 115 255 176 116 255 181 119 255 182 125 255 183 123 255 184 127 255 185 121 255 185 134 255 191 135 255 190 142 255 191 139 255 194 144 255 198 143 255 191 141 255 196 139 255 197 137 255 199 147 255 199 136 255 197 135 255 197 142 255 204 152 255 204 153 255 207 153 255 220 160 255 218 167 255 229 177 255 226 179 255 238 192 255 241 196 255 255 215 255 255 226 255 255 235 255 255 246 255 255 252 255 255 255 255 235 208 236 179 162 162 85 86 189 121 108 196 129 108 202 138 125 216 146 130 243 162 128 255 166 121 255 166 116 255 158 115 255 158 110 255 163 119 255 171 111 255 161 110 235 140 108 204 124 110 189 118 114 185 118 121 170 108 109 170 105 103 171 93 90 182 106 95 209 137 123 236 165 157 234 171 161 207 147 146 169 107 109 143 83 95 122 59 69 125 64 80 139 79 84 235 133 118 189 106 86
82 47 50 110 52 67 88 40 57 147 110 112 203 176 164 244 225 200 221 203 175 198 156 128 198 143 102 212 133 93 239 172 116 236 177 126 237 184 129 249 190 128 229 171 129 170 117 103 103 56 79 73 33 57 72 37 56 80 44 64 91 51 70 98 56 70 119 73 86 101 59 78 111 65 90 106 69 95 120 75 96 90 52 73 108 60 83 84 46 72 110 61 82 111 73 91 109 68 87 138 111 131 97 61 75 101 64 85 76 32 54 101 60 85 115 67 83 120 81 107 130 96 125 141 116 130 109 76 88 110 54 48 132 62 59 172 91 65 180 104 72 190 106 66 199 112 71 206 120 83 202 122 86 208 125 86 206 125 87 212 125 89 207 129 90 214 126 81 215 131 87 217 129 83 220 127 86 216 129 84 222 135 91 224 136 97 223 133 93 222 137 94 220 134 87 226 137 89 219 138 100 225 144 106 223 145 110 223 148 109 223 146 103 223 145 105 224 146 101 222 144 102 227 147 106 226 150 109 227 149 105 223 148 105 223 150 102 227 154 119 225 159 121 226 157 115 227 159 119 222 161 118 222 167 127 221 166 126 225 180 145 227 180 150 228 192 160 230 194 166 229 198 175 235 205 182 237 207 184 255 236 207 222 183 167 182 143 129 134 76 68 130 83 78 144 91 74 153 102 91 158 110 91 187 126 101 198 126 93 202 132 95 196 119 90 193 120 83 210 134 90 216 135 87 198 124 86 171 100 76 153 92 86 134 84 87 131 87 84 131 82 89 133 88 85 137 81 79 144 91 85 169 113 101 184 135 123 178 128 117 147 99 95 115 65 67 92 49 58 91 37 47 88 44 56 115 61 63 186 112 96 155 90 71
